(G-CODE GENERATED BY FLATCAM v8.993 - www.flatcam.org - Version Date: 2020/06/05)

(Name: BottomLayer_0.109)
(Type: G-code from Geometry)
(Units: MM)

(Created on Monday, 22 March 2021 at 10:31)

(This preprocessor is the default preprocessor used by FlatCAM.)
(It is made to work with MACH3 compatible motion controllers.)

(TOOL DIAMETER: 0.109 mm)
(Feedrate_XY: 120.0 mm/min)
(Feedrate_Z: 60.0 mm/min)
(Feedrate rapids 1500.0 mm/min)

(Z_Cut: -0.05 mm)
(Z_Move: 2.0 mm)
(Z Start: None mm)
(Z End: 15.0 mm)
(Steps per circle: 64)
(Preprocessor Geometry: default)

(X range:   11.7832 ...  187.6551  mm)
(Y range:   11.7833 ...  106.1217  mm)

(Spindle Speed: None RPM)
G21
G90
G94



G01 F120.00
G00 Z2.0000

M03
G00 X17.1727 Y11.7833
G01 F60.00
G01 Z-0.0500
G01 F120.00
G01 X89.1569 Y11.7864
G01 X89.1621 Y11.7866
G01 X89.1673 Y11.7874
G01 X89.2077 Y11.7953
G01 X89.2130 Y11.7967
G01 X89.2181 Y11.7987
G01 X89.2252 Y11.8025
G01 X89.2589 Y11.8251
G01 X89.2631 Y11.8283
G01 X89.2670 Y11.8318
G01 X105.9225 Y28.4868
G01 X105.9451 Y28.5066
G01 X105.9984 Y28.5357
G01 X106.0407 Y28.5474
G01 X106.0755 Y28.5504
G01 X182.2641 Y28.5478
G01 X182.5853 Y28.5571
G01 X182.8974 Y28.5848
G01 X183.2073 Y28.6304
G01 X183.5142 Y28.6941
G01 X183.8164 Y28.7751
G01 X184.1156 Y28.8743
G01 X184.4051 Y28.9897
G01 X184.6874 Y29.1214
G01 X184.9645 Y29.2709
G01 X185.2313 Y29.4356
G01 X185.4892 Y29.6162
G01 X185.7333 Y29.8098
G01 X185.9661 Y30.0170
G01 X186.1890 Y30.2398
G01 X186.3978 Y30.4756
G01 X186.5908 Y30.7202
G01 X186.7695 Y30.9754
G01 X186.9351 Y31.2436
G01 X187.0835 Y31.5192
G01 X187.2158 Y31.8035
G01 X187.3319 Y32.0961
G01 X187.4293 Y32.3922
G01 X187.5100 Y32.6928
G01 X187.5736 Y33.0013
G01 X187.6189 Y33.3129
G01 X187.6459 Y33.6238
G01 X187.6551 Y33.9388
G01 X187.5226 Y51.3586
G01 X187.5216 Y51.3682
G01 X187.5124 Y51.4115
G01 X187.5100 Y51.4191
G01 X187.5057 Y51.4275
G01 X187.4791 Y51.4644
G01 X187.4750 Y51.4694
G01 X187.4712 Y51.4731
G01 X187.4672 Y51.4764
G01 X187.4628 Y51.4792
G01 X187.4256 Y51.5013
G01 X187.4195 Y51.5042
G01 X187.4131 Y51.5063
G01 X187.4039 Y51.5080
G01 X187.3470 Y51.5117
G01 X185.9498 Y51.5117
G01 X185.9415 Y51.5109
G01 X185.9010 Y51.5025
G01 X185.8910 Y51.4994
G01 X185.8818 Y51.4944
G01 X185.8483 Y51.4721
G01 X185.8429 Y51.4680
G01 X185.8372 Y51.4622
G01 X185.8331 Y51.4568
G01 X185.8105 Y51.4227
G01 X185.8059 Y51.4134
G01 X185.8033 Y51.4046
G01 X185.7957 Y51.3624
G01 X185.7951 Y51.3544
G01 X185.7956 Y51.3463
G01 X185.8050 Y51.3032
G01 X185.8068 Y51.2970
G01 X185.8758 Y51.1371
G01 X185.9346 Y50.9578
G01 X185.9751 Y50.7730
G01 X185.9978 Y50.5857
G01 X186.0023 Y50.3963
G01 X185.9890 Y50.2080
G01 X185.9568 Y50.0217
G01 X185.9074 Y49.8394
G01 X185.8402 Y49.6629
G01 X185.7567 Y49.4934
G01 X185.6568 Y49.3328
G01 X185.5422 Y49.1826
G01 X185.4132 Y49.0442
G01 X185.2718 Y48.9186
G01 X185.1192 Y48.8079
G01 X184.9561 Y48.7121
G01 X184.7845 Y48.6325
G01 X184.6066 Y48.5697
G01 X184.4228 Y48.5242
G01 X184.2360 Y48.4971
G01 X184.0472 Y48.4877
G01 X183.8584 Y48.4971
G01 X183.6716 Y48.5242
G01 X183.4878 Y48.5697
G01 X183.3098 Y48.6325
G01 X183.1383 Y48.7121
G01 X182.9752 Y48.8079
G01 X182.8225 Y48.9186
G01 X182.6812 Y49.0442
G01 X182.5522 Y49.1826
G01 X182.4375 Y49.3328
G01 X182.3377 Y49.4934
G01 X182.2542 Y49.6629
G01 X182.1870 Y49.8394
G01 X182.1375 Y50.0217
G01 X182.1054 Y50.2080
G01 X182.0921 Y50.3963
G01 X182.0965 Y50.5857
G01 X182.1193 Y50.7730
G01 X182.1598 Y50.9578
G01 X182.2186 Y51.1371
G01 X182.2876 Y51.2970
G01 X182.2894 Y51.3032
G01 X182.2980 Y51.3424
G01 X182.2992 Y51.3503
G01 X182.2993 Y51.3557
G01 X182.2987 Y51.3624
G01 X182.2911 Y51.4046
G01 X182.2890 Y51.4122
G01 X182.2870 Y51.4170
G01 X182.2839 Y51.4227
G01 X182.2605 Y51.4579
G01 X182.2545 Y51.4652
G01 X182.2504 Y51.4689
G01 X182.2461 Y51.4721
G01 X182.2103 Y51.4958
G01 X182.2034 Y51.4994
G01 X182.1947 Y51.5022
G01 X182.1529 Y51.5109
G01 X182.1432 Y51.5117
G01 X170.6893 Y51.5117
G01 X170.6802 Y51.5110
G01 X170.6398 Y51.5031
G01 X170.6347 Y51.5019
G01 X170.6297 Y51.5001
G01 X170.6238 Y51.4973
G01 X170.6194 Y51.4945
G01 X170.5858 Y51.4714
G01 X170.5806 Y51.4672
G01 X170.5769 Y51.4634
G01 X170.5735 Y51.4592
G01 X170.5504 Y51.4256
G01 X170.5459 Y51.4176
G01 X170.5439 Y51.4128
G01 X170.5424 Y51.4077
G01 X170.5340 Y51.3648
G01 X170.5332 Y51.3569
G01 X170.5332 Y46.3867
G01 X170.5257 Y46.3008
G01 X170.5053 Y46.2242
G01 X170.4718 Y46.1521
G01 X170.4259 Y46.0868
G01 X170.3702 Y46.0310
G01 X170.3048 Y45.9852
G01 X170.2328 Y45.9517
G01 X170.1561 Y45.9312
G01 X170.0702 Y45.9237
G01 X163.8313 Y45.9237
G01 X163.8222 Y45.9230
G01 X163.7792 Y45.9145
G01 X163.7705 Y45.9116
G01 X163.7625 Y45.9073
G01 X163.7278 Y45.8834
G01 X163.7207 Y45.8773
G01 X163.7155 Y45.8712
G01 X163.6910 Y45.8354
G01 X163.6869 Y45.8272
G01 X163.6845 Y45.8198
G01 X163.6760 Y45.7768
G01 X163.6752 Y45.7689
G01 X163.6752 Y43.3342
G01 X163.6728 Y43.2583
G01 X163.6664 Y43.1848
G01 X163.6553 Y43.1121
G01 X163.6397 Y43.0407
G01 X163.6198 Y42.9695
G01 X163.5959 Y42.8999
G01 X163.5677 Y42.8319
G01 X163.5356 Y42.7657
G01 X163.4997 Y42.7017
G01 X163.4593 Y42.6399
G01 X163.4160 Y42.5805
G01 X163.3690 Y42.5242
G01 X163.3168 Y42.4691
G01 X160.0178 Y39.1701
G01 X159.9642 Y39.1190
G01 X159.9065 Y39.0710
G01 X159.8486 Y39.0286
G01 X159.7853 Y38.9873
G01 X159.7228 Y38.9524
G01 X159.6549 Y38.9191
G01 X159.5889 Y38.8915
G01 X159.5175 Y38.8667
G01 X159.4485 Y38.8478
G01 X159.3744 Y38.8317
G01 X159.3041 Y38.8210
G01 X159.2285 Y38.8142
G01 X159.1548 Y38.8117
G01 X147.0352 Y38.7950
G01 X147.0256 Y38.7941
G01 X146.9851 Y38.7857
G01 X146.9788 Y38.7840
G01 X146.9727 Y38.7815
G01 X146.9669 Y38.7783
G01 X146.9333 Y38.7557
G01 X146.9291 Y38.7526
G01 X146.9252 Y38.7490
G01 X145.9412 Y37.7650
G01 X145.9353 Y37.7581
G01 X145.9107 Y37.7217
G01 X145.9065 Y37.7132
G01 X145.9042 Y37.7054
G01 X145.8960 Y37.6641
G01 X145.8952 Y37.6549
G01 X145.8953 Y35.6608
G01 X145.8987 Y35.6324
G01 X145.8999 Y35.6260
G01 X145.9014 Y35.6211
G01 X145.9104 Y35.5970
G01 X145.9133 Y35.5907
G01 X145.9458 Y35.5296
G01 X146.0035 Y35.3810
G01 X146.0441 Y35.2270
G01 X146.0665 Y35.0690
G01 X146.0714 Y34.9097
G01 X146.0578 Y34.7513
G01 X146.0260 Y34.5949
G01 X145.9766 Y34.4433
G01 X145.9106 Y34.2987
G01 X145.8280 Y34.1622
G01 X145.7307 Y34.0360
G01 X145.6197 Y33.9217
G01 X145.4965 Y33.8209
G01 X145.3625 Y33.7344
G01 X145.2194 Y33.6640
G01 X145.0693 Y33.6107
G01 X144.9143 Y33.5746
G01 X144.7559 Y33.5565
G01 X144.5965 Y33.5565
G01 X144.4381 Y33.5746
G01 X144.2831 Y33.6107
G01 X144.1330 Y33.6640
G01 X143.9898 Y33.7344
G01 X143.8559 Y33.8209
G01 X143.7327 Y33.9217
G01 X143.6217 Y34.0360
G01 X143.5244 Y34.1622
G01 X143.4417 Y34.2987
G01 X143.3758 Y34.4433
G01 X143.3264 Y34.5949
G01 X143.2946 Y34.7513
G01 X143.2809 Y34.9097
G01 X143.2858 Y35.0690
G01 X143.3083 Y35.2270
G01 X143.3489 Y35.3810
G01 X143.4065 Y35.5296
G01 X143.4411 Y35.5948
G01 X143.4439 Y35.6011
G01 X143.4530 Y35.6251
G01 X143.4545 Y35.6301
G01 X143.4557 Y35.6364
G01 X143.4590 Y35.6635
G01 X143.4591 Y38.2214
G01 X143.4616 Y38.2973
G01 X143.4679 Y38.3708
G01 X143.4791 Y38.4435
G01 X143.4946 Y38.5149
G01 X143.5146 Y38.5861
G01 X143.5385 Y38.6557
G01 X143.5666 Y38.7237
G01 X143.5988 Y38.7899
G01 X143.6347 Y38.8539
G01 X143.6751 Y38.9157
G01 X143.7184 Y38.9751
G01 X143.7654 Y39.0314
G01 X143.8176 Y39.0865
G01 X145.3081 Y40.5775
G01 X145.3132 Y40.5835
G01 X145.3373 Y40.6192
G01 X145.3416 Y40.6274
G01 X145.3444 Y40.6361
G01 X145.3531 Y40.6778
G01 X145.3540 Y40.6870
G01 X145.3533 Y40.6961
G01 X145.3444 Y40.7391
G01 X145.3416 Y40.7479
G01 X145.3373 Y40.7560
G01 X145.3132 Y40.7918
G01 X145.3072 Y40.7987
G01 X145.3011 Y40.8037
G01 X145.2659 Y40.8275
G01 X145.2575 Y40.8319
G01 X145.2484 Y40.8348
G01 X145.2071 Y40.8429
G01 X145.1979 Y40.8437
G01 X102.8255 Y40.8437
G01 X102.8189 Y40.8429
G01 X102.7790 Y40.8351
G01 X102.7737 Y40.8338
G01 X102.7686 Y40.8319
G01 X102.7637 Y40.8296
G01 X102.7590 Y40.8267
G01 X102.7249 Y40.8037
G01 X102.7180 Y40.7978
G01 X98.4899 Y36.5697
G01 X98.4847 Y36.5633
G01 X98.4605 Y36.5266
G01 X98.4572 Y36.5206
G01 X98.4550 Y36.5156
G01 X98.4534 Y36.5104
G01 X98.4522 Y36.5051
G01 X98.4455 Y36.4616
G01 X98.4450 Y36.4525
G01 X98.4457 Y36.4459
G01 X98.4471 Y36.4396
G01 X98.4592 Y36.3971
G01 X98.4627 Y36.3885
G01 X98.4653 Y36.3839
G01 X98.4684 Y36.3796
G01 X98.4961 Y36.3461
G01 X98.5007 Y36.3411
G01 X98.5059 Y36.3368
G01 X98.5128 Y36.3325
G01 X98.5533 Y36.3126
G01 X98.5609 Y36.3097
G01 X98.5675 Y36.3082
G01 X98.5729 Y36.3076
G01 X98.6183 Y36.3060
G01 X98.6282 Y36.3068
G01 X98.7974 Y36.3362
G01 X98.9562 Y36.3455
G01 X99.1150 Y36.3362
G01 X99.2725 Y36.3088
G01 X99.4251 Y36.2643
G01 X99.5722 Y36.2023
G01 X99.7105 Y36.1241
G01 X99.8396 Y36.0302
G01 X99.9569 Y35.9226
G01 X100.0615 Y35.8019
G01 X100.1004 Y35.7455
G01 X100.1327 Y35.7129
G01 X100.1390 Y35.7078
G01 X100.1460 Y35.7036
G01 X100.1858 Y35.6872
G01 X100.1907 Y35.6855
G01 X100.1959 Y35.6842
G01 X100.2011 Y35.6834
G01 X100.2064 Y35.6832
G01 X100.2473 Y35.6832
G01 X100.2526 Y35.6836
G01 X100.2591 Y35.6848
G01 X100.2666 Y35.6872
G01 X100.3039 Y35.7025
G01 X100.3099 Y35.7056
G01 X100.3155 Y35.7094
G01 X100.3206 Y35.7139
G01 X100.3519 Y35.7455
G01 X100.3908 Y35.8019
G01 X100.4954 Y35.9226
G01 X100.6128 Y36.0302
G01 X100.7419 Y36.1241
G01 X100.8802 Y36.2023
G01 X101.0273 Y36.2643
G01 X101.1798 Y36.3088
G01 X101.3374 Y36.3362
G01 X101.4962 Y36.3455
G01 X101.6550 Y36.3362
G01 X101.8125 Y36.3088
G01 X101.9651 Y36.2643
G01 X102.1122 Y36.2023
G01 X102.2505 Y36.1241
G01 X102.3796 Y36.0302
G01 X102.4969 Y35.9226
G01 X102.6015 Y35.8019
G01 X102.6404 Y35.7455
G01 X102.6727 Y35.7129
G01 X102.6790 Y35.7078
G01 X102.6860 Y35.7036
G01 X102.7258 Y35.6872
G01 X102.7307 Y35.6855
G01 X102.7359 Y35.6842
G01 X102.7411 Y35.6834
G01 X102.7464 Y35.6832
G01 X102.7873 Y35.6832
G01 X102.7939 Y35.6838
G01 X102.7991 Y35.6848
G01 X102.8066 Y35.6872
G01 X102.8439 Y35.7025
G01 X102.8499 Y35.7056
G01 X102.8555 Y35.7094
G01 X102.8606 Y35.7139
G01 X102.8919 Y35.7455
G01 X102.9308 Y35.8019
G01 X103.0354 Y35.9226
G01 X103.1528 Y36.0302
G01 X103.2819 Y36.1241
G01 X103.4202 Y36.2023
G01 X103.5673 Y36.2643
G01 X103.7198 Y36.3088
G01 X103.8774 Y36.3362
G01 X104.0362 Y36.3455
G01 X104.1950 Y36.3362
G01 X104.3525 Y36.3088
G01 X104.5051 Y36.2643
G01 X104.6522 Y36.2023
G01 X104.7905 Y36.1241
G01 X104.9196 Y36.0302
G01 X105.0369 Y35.9226
G01 X105.1415 Y35.8019
G01 X105.1804 Y35.7455
G01 X105.2127 Y35.7129
G01 X105.2190 Y35.7078
G01 X105.2260 Y35.7036
G01 X105.2658 Y35.6872
G01 X105.2707 Y35.6855
G01 X105.2759 Y35.6842
G01 X105.2811 Y35.6834
G01 X105.2864 Y35.6832
G01 X105.3273 Y35.6832
G01 X105.3339 Y35.6838
G01 X105.3391 Y35.6848
G01 X105.3466 Y35.6872
G01 X105.3839 Y35.7025
G01 X105.3899 Y35.7056
G01 X105.3955 Y35.7094
G01 X105.4006 Y35.7139
G01 X105.4319 Y35.7455
G01 X105.4708 Y35.8019
G01 X105.5754 Y35.9226
G01 X105.6928 Y36.0302
G01 X105.8219 Y36.1241
G01 X105.9602 Y36.2023
G01 X106.1073 Y36.2643
G01 X106.2598 Y36.3088
G01 X106.4174 Y36.3362
G01 X106.5762 Y36.3455
G01 X106.7350 Y36.3362
G01 X106.8925 Y36.3088
G01 X107.0451 Y36.2643
G01 X107.1922 Y36.2023
G01 X107.3305 Y36.1241
G01 X107.4596 Y36.0302
G01 X107.5769 Y35.9226
G01 X107.6815 Y35.8019
G01 X107.7204 Y35.7455
G01 X107.7527 Y35.7129
G01 X107.7590 Y35.7078
G01 X107.7660 Y35.7036
G01 X107.8058 Y35.6872
G01 X107.8107 Y35.6855
G01 X107.8159 Y35.6842
G01 X107.8211 Y35.6834
G01 X107.8264 Y35.6832
G01 X107.8673 Y35.6832
G01 X107.8726 Y35.6836
G01 X107.8791 Y35.6848
G01 X107.8866 Y35.6872
G01 X107.9239 Y35.7025
G01 X107.9299 Y35.7056
G01 X107.9366 Y35.7102
G01 X107.9406 Y35.7139
G01 X107.9719 Y35.7455
G01 X108.0108 Y35.8019
G01 X108.1154 Y35.9226
G01 X108.2328 Y36.0302
G01 X108.3619 Y36.1241
G01 X108.5002 Y36.2023
G01 X108.6473 Y36.2643
G01 X108.7998 Y36.3088
G01 X108.9574 Y36.3362
G01 X109.1162 Y36.3455
G01 X109.2750 Y36.3362
G01 X109.4325 Y36.3088
G01 X109.5851 Y36.2643
G01 X109.7322 Y36.2023
G01 X109.8705 Y36.1241
G01 X109.9996 Y36.0302
G01 X110.1169 Y35.9226
G01 X110.2215 Y35.8019
G01 X110.2604 Y35.7455
G01 X110.2918 Y35.7139
G01 X110.2968 Y35.7094
G01 X110.3024 Y35.7056
G01 X110.3084 Y35.7025
G01 X110.3458 Y35.6872
G01 X110.3533 Y35.6848
G01 X110.3585 Y35.6838
G01 X110.3650 Y35.6832
G01 X110.4060 Y35.6832
G01 X110.4113 Y35.6834
G01 X110.4165 Y35.6842
G01 X110.4216 Y35.6855
G01 X110.4266 Y35.6872
G01 X110.4664 Y35.7036
G01 X110.4733 Y35.7078
G01 X110.4796 Y35.7129
G01 X110.5119 Y35.7455
G01 X110.5508 Y35.8019
G01 X110.6554 Y35.9226
G01 X110.7728 Y36.0302
G01 X110.9019 Y36.1241
G01 X111.0402 Y36.2023
G01 X111.1873 Y36.2643
G01 X111.3398 Y36.3088
G01 X111.4974 Y36.3362
G01 X111.6562 Y36.3455
G01 X111.8150 Y36.3362
G01 X111.9725 Y36.3088
G01 X112.1251 Y36.2643
G01 X112.2722 Y36.2023
G01 X112.4105 Y36.1241
G01 X112.5396 Y36.0302
G01 X112.6569 Y35.9226
G01 X112.7615 Y35.8019
G01 X112.8004 Y35.7455
G01 X112.8318 Y35.7139
G01 X112.8358 Y35.7102
G01 X112.8424 Y35.7056
G01 X112.8484 Y35.7025
G01 X112.8858 Y35.6872
G01 X112.8933 Y35.6848
G01 X112.8998 Y35.6836
G01 X112.9050 Y35.6832
G01 X112.9460 Y35.6832
G01 X112.9513 Y35.6834
G01 X112.9565 Y35.6842
G01 X112.9616 Y35.6855
G01 X112.9666 Y35.6872
G01 X113.0064 Y35.7036
G01 X113.0133 Y35.7078
G01 X113.0196 Y35.7129
G01 X113.0519 Y35.7455
G01 X113.0908 Y35.8019
G01 X113.1954 Y35.9226
G01 X113.3128 Y36.0302
G01 X113.4419 Y36.1241
G01 X113.5802 Y36.2023
G01 X113.7273 Y36.2643
G01 X113.8798 Y36.3088
G01 X114.0374 Y36.3362
G01 X114.1962 Y36.3455
G01 X114.3550 Y36.3362
G01 X114.5125 Y36.3088
G01 X114.6651 Y36.2643
G01 X114.8122 Y36.2023
G01 X114.9505 Y36.1241
G01 X115.0796 Y36.0302
G01 X115.1969 Y35.9226
G01 X115.3015 Y35.8019
G01 X115.3404 Y35.7455
G01 X115.3718 Y35.7139
G01 X115.3758 Y35.7102
G01 X115.3813 Y35.7063
G01 X115.3884 Y35.7025
G01 X115.4258 Y35.6872
G01 X115.4333 Y35.6848
G01 X115.4385 Y35.6838
G01 X115.4450 Y35.6832
G01 X115.4860 Y35.6832
G01 X115.4913 Y35.6834
G01 X115.4965 Y35.6842
G01 X115.5016 Y35.6855
G01 X115.5066 Y35.6872
G01 X115.5464 Y35.7036
G01 X115.5533 Y35.7078
G01 X115.5596 Y35.7129
G01 X115.5919 Y35.7455
G01 X115.6308 Y35.8019
G01 X115.7354 Y35.9226
G01 X115.8528 Y36.0302
G01 X115.9819 Y36.1241
G01 X116.1202 Y36.2023
G01 X116.2673 Y36.2643
G01 X116.4198 Y36.3088
G01 X116.5774 Y36.3362
G01 X116.7362 Y36.3455
G01 X116.8950 Y36.3362
G01 X117.0525 Y36.3088
G01 X117.2051 Y36.2643
G01 X117.3522 Y36.2023
G01 X117.4905 Y36.1241
G01 X117.6196 Y36.0302
G01 X117.7369 Y35.9226
G01 X117.8415 Y35.8019
G01 X117.9315 Y35.6704
G01 X118.0058 Y35.5296
G01 X118.0635 Y35.3810
G01 X118.1041 Y35.2270
G01 X118.1266 Y35.0690
G01 X118.1314 Y34.9097
G01 X118.1178 Y34.7513
G01 X118.0860 Y34.5949
G01 X118.0366 Y34.4433
G01 X117.9706 Y34.2986
G01 X117.8880 Y34.1622
G01 X117.7907 Y34.0361
G01 X117.6797 Y33.9217
G01 X117.5565 Y33.8209
G01 X117.4225 Y33.7344
G01 X117.2794 Y33.6640
G01 X117.1292 Y33.6107
G01 X116.9743 Y33.5746
G01 X116.8159 Y33.5565
G01 X116.6565 Y33.5565
G01 X116.4981 Y33.5746
G01 X116.3431 Y33.6107
G01 X116.1930 Y33.6640
G01 X116.0498 Y33.7344
G01 X115.9159 Y33.8209
G01 X115.7927 Y33.9217
G01 X115.6816 Y34.0361
G01 X115.5878 Y34.1568
G01 X115.5831 Y34.1616
G01 X115.5546 Y34.1874
G01 X115.5481 Y34.1922
G01 X115.5409 Y34.1960
G01 X115.5039 Y34.2102
G01 X115.4989 Y34.2119
G01 X115.4937 Y34.2130
G01 X115.4845 Y34.2138
G01 X115.4466 Y34.2138
G01 X115.4413 Y34.2134
G01 X115.4361 Y34.2125
G01 X115.4285 Y34.2102
G01 X115.3927 Y34.1966
G01 X115.3866 Y34.1936
G01 X115.3809 Y34.1899
G01 X115.3493 Y34.1616
G01 X115.3446 Y34.1568
G01 X115.2507 Y34.0361
G01 X115.1397 Y33.9217
G01 X115.0165 Y33.8209
G01 X114.8825 Y33.7344
G01 X114.7394 Y33.6640
G01 X114.5892 Y33.6107
G01 X114.4343 Y33.5746
G01 X114.2759 Y33.5565
G01 X114.1165 Y33.5565
G01 X113.9581 Y33.5746
G01 X113.8031 Y33.6107
G01 X113.6530 Y33.6640
G01 X113.5098 Y33.7344
G01 X113.3759 Y33.8209
G01 X113.2527 Y33.9217
G01 X113.1416 Y34.0361
G01 X113.0478 Y34.1568
G01 X113.0431 Y34.1616
G01 X113.0125 Y34.1891
G01 X113.0070 Y34.1929
G01 X112.9997 Y34.1966
G01 X112.9639 Y34.2102
G01 X112.9576 Y34.2122
G01 X112.9524 Y34.2132
G01 X112.9458 Y34.2138
G01 X112.9079 Y34.2138
G01 X112.8987 Y34.2130
G01 X112.8935 Y34.2119
G01 X112.8885 Y34.2102
G01 X112.8514 Y34.1960
G01 X112.8442 Y34.1922
G01 X112.8377 Y34.1874
G01 X112.8093 Y34.1616
G01 X112.8046 Y34.1568
G01 X112.7107 Y34.0361
G01 X112.5997 Y33.9217
G01 X112.4765 Y33.8209
G01 X112.3425 Y33.7344
G01 X112.1994 Y33.6640
G01 X112.0492 Y33.6107
G01 X111.8943 Y33.5746
G01 X111.7359 Y33.5565
G01 X111.5765 Y33.5565
G01 X111.4181 Y33.5746
G01 X111.2631 Y33.6107
G01 X111.1130 Y33.6640
G01 X110.9698 Y33.7344
G01 X110.8359 Y33.8209
G01 X110.7127 Y33.9217
G01 X110.6016 Y34.0361
G01 X110.5078 Y34.1568
G01 X110.5031 Y34.1616
G01 X110.4725 Y34.1891
G01 X110.4658 Y34.1936
G01 X110.4597 Y34.1966
G01 X110.4239 Y34.2102
G01 X110.4176 Y34.2122
G01 X110.4124 Y34.2132
G01 X110.4058 Y34.2138
G01 X110.3679 Y34.2138
G01 X110.3587 Y34.2130
G01 X110.3535 Y34.2119
G01 X110.3485 Y34.2102
G01 X110.3114 Y34.1960
G01 X110.3042 Y34.1922
G01 X110.2977 Y34.1874
G01 X110.2693 Y34.1616
G01 X110.2646 Y34.1568
G01 X110.1707 Y34.0361
G01 X110.0597 Y33.9217
G01 X109.9365 Y33.8209
G01 X109.8025 Y33.7344
G01 X109.6594 Y33.6640
G01 X109.5092 Y33.6107
G01 X109.3543 Y33.5746
G01 X109.1959 Y33.5565
G01 X109.0365 Y33.5565
G01 X108.8781 Y33.5746
G01 X108.7231 Y33.6107
G01 X108.5730 Y33.6640
G01 X108.4298 Y33.7344
G01 X108.2959 Y33.8209
G01 X108.1727 Y33.9217
G01 X108.0616 Y34.0361
G01 X107.9678 Y34.1568
G01 X107.9631 Y34.1616
G01 X107.9325 Y34.1891
G01 X107.9258 Y34.1936
G01 X107.9197 Y34.1966
G01 X107.8839 Y34.2102
G01 X107.8776 Y34.2122
G01 X107.8724 Y34.2132
G01 X107.8658 Y34.2138
G01 X107.8279 Y34.2138
G01 X107.8187 Y34.2130
G01 X107.8135 Y34.2119
G01 X107.8085 Y34.2102
G01 X107.7714 Y34.1960
G01 X107.7642 Y34.1922
G01 X107.7577 Y34.1874
G01 X107.7293 Y34.1616
G01 X107.7246 Y34.1568
G01 X107.6307 Y34.0361
G01 X107.5197 Y33.9217
G01 X107.3965 Y33.8209
G01 X107.2625 Y33.7344
G01 X107.1194 Y33.6640
G01 X106.9692 Y33.6107
G01 X106.8143 Y33.5746
G01 X106.6559 Y33.5565
G01 X106.4965 Y33.5565
G01 X106.3381 Y33.5746
G01 X106.1831 Y33.6107
G01 X106.0330 Y33.6640
G01 X105.8898 Y33.7344
G01 X105.7559 Y33.8209
G01 X105.6327 Y33.9217
G01 X105.5216 Y34.0361
G01 X105.4278 Y34.1568
G01 X105.4231 Y34.1616
G01 X105.3925 Y34.1891
G01 X105.3870 Y34.1929
G01 X105.3797 Y34.1966
G01 X105.3439 Y34.2102
G01 X105.3376 Y34.2122
G01 X105.3324 Y34.2132
G01 X105.3258 Y34.2138
G01 X105.2879 Y34.2138
G01 X105.2787 Y34.2130
G01 X105.2735 Y34.2119
G01 X105.2685 Y34.2102
G01 X105.2314 Y34.1960
G01 X105.2242 Y34.1922
G01 X105.2177 Y34.1874
G01 X105.1893 Y34.1616
G01 X105.1846 Y34.1568
G01 X105.0907 Y34.0361
G01 X104.9797 Y33.9217
G01 X104.8565 Y33.8209
G01 X104.7225 Y33.7344
G01 X104.5794 Y33.6640
G01 X104.4292 Y33.6107
G01 X104.2743 Y33.5746
G01 X104.1159 Y33.5565
G01 X103.9565 Y33.5565
G01 X103.7981 Y33.5746
G01 X103.6431 Y33.6107
G01 X103.4930 Y33.6640
G01 X103.3498 Y33.7344
G01 X103.2159 Y33.8209
G01 X103.0927 Y33.9217
G01 X102.9816 Y34.0361
G01 X102.8878 Y34.1568
G01 X102.8831 Y34.1616
G01 X102.8525 Y34.1891
G01 X102.8458 Y34.1936
G01 X102.8397 Y34.1966
G01 X102.8039 Y34.2102
G01 X102.7976 Y34.2122
G01 X102.7911 Y34.2134
G01 X102.7858 Y34.2138
G01 X102.7479 Y34.2138
G01 X102.7426 Y34.2136
G01 X102.7374 Y34.2128
G01 X102.7285 Y34.2102
G01 X102.6914 Y34.1960
G01 X102.6842 Y34.1922
G01 X102.6777 Y34.1874
G01 X102.6493 Y34.1616
G01 X102.6446 Y34.1568
G01 X102.5507 Y34.0361
G01 X102.4397 Y33.9217
G01 X102.3165 Y33.8209
G01 X102.1825 Y33.7344
G01 X102.0394 Y33.6640
G01 X101.8892 Y33.6107
G01 X101.7343 Y33.5746
G01 X101.5759 Y33.5565
G01 X101.4165 Y33.5565
G01 X101.2581 Y33.5746
G01 X101.1031 Y33.6107
G01 X100.9530 Y33.6640
G01 X100.8098 Y33.7344
G01 X100.6759 Y33.8209
G01 X100.5527 Y33.9217
G01 X100.4416 Y34.0361
G01 X100.3478 Y34.1568
G01 X100.3431 Y34.1616
G01 X100.3125 Y34.1891
G01 X100.3058 Y34.1936
G01 X100.2997 Y34.1966
G01 X100.2639 Y34.2102
G01 X100.2576 Y34.2122
G01 X100.2524 Y34.2132
G01 X100.2458 Y34.2138
G01 X100.2079 Y34.2138
G01 X100.1987 Y34.2130
G01 X100.1935 Y34.2119
G01 X100.1885 Y34.2102
G01 X100.1514 Y34.1960
G01 X100.1442 Y34.1922
G01 X100.1377 Y34.1874
G01 X100.1093 Y34.1616
G01 X100.1046 Y34.1568
G01 X100.0107 Y34.0361
G01 X99.8997 Y33.9217
G01 X99.7765 Y33.8209
G01 X99.6425 Y33.7344
G01 X99.4994 Y33.6640
G01 X99.3492 Y33.6107
G01 X99.1943 Y33.5746
G01 X99.0359 Y33.5565
G01 X98.8765 Y33.5565
G01 X98.7181 Y33.5746
G01 X98.5631 Y33.6107
G01 X98.4130 Y33.6640
G01 X98.2698 Y33.7344
G01 X98.1359 Y33.8209
G01 X98.0127 Y33.9217
G01 X97.9017 Y34.0361
G01 X97.8044 Y34.1622
G01 X97.7218 Y34.2987
G01 X97.6558 Y34.4433
G01 X97.6064 Y34.5949
G01 X97.5746 Y34.7513
G01 X97.5609 Y34.9097
G01 X97.5658 Y35.0690
G01 X97.5883 Y35.2269
G01 X97.5991 Y35.2674
G01 X97.6005 Y35.2741
G01 X97.6010 Y35.2796
G01 X97.6025 Y35.3247
G01 X97.6020 Y35.3328
G01 X97.6006 Y35.3395
G01 X97.5984 Y35.3459
G01 X97.5811 Y35.3878
G01 X97.5787 Y35.3926
G01 X97.5758 Y35.3972
G01 X97.5725 Y35.4014
G01 X97.5688 Y35.4053
G01 X97.5332 Y35.4375
G01 X97.5253 Y35.4429
G01 X97.5178 Y35.4463
G01 X97.4735 Y35.4604
G01 X97.4685 Y35.4618
G01 X97.4633 Y35.4626
G01 X97.4580 Y35.4630
G01 X97.4528 Y35.4628
G01 X97.4052 Y35.4568
G01 X97.3986 Y35.4554
G01 X97.3935 Y35.4536
G01 X97.3851 Y35.4495
G01 X97.3468 Y35.4249
G01 X97.3426 Y35.4219
G01 X97.3378 Y35.4176
G01 X92.9619 Y31.0422
G01 X92.9067 Y30.9900
G01 X92.8504 Y30.9429
G01 X92.7911 Y30.8991
G01 X92.7294 Y30.8593
G01 X92.6653 Y30.8234
G01 X92.5991 Y30.7912
G01 X92.5310 Y30.7630
G01 X92.4614 Y30.7392
G01 X92.3903 Y30.7192
G01 X92.3189 Y30.7037
G01 X92.2461 Y30.6925
G01 X92.1727 Y30.6862
G01 X92.0968 Y30.6837
G01 X64.5884 Y30.6837
G01 X64.5792 Y30.6829
G01 X64.5321 Y30.6725
G01 X64.5258 Y30.6705
G01 X64.5210 Y30.6684
G01 X64.5131 Y30.6636
G01 X64.4770 Y30.6359
G01 X64.4729 Y30.6323
G01 X64.4682 Y30.6273
G01 X64.4649 Y30.6229
G01 X64.4615 Y30.6170
G01 X64.4411 Y30.5762
G01 X64.4378 Y30.5671
G01 X64.4366 Y30.5618
G01 X64.4360 Y30.5563
G01 X64.4345 Y30.5054
G01 X64.4356 Y30.4976
G01 X64.4378 Y30.4900
G01 X64.4560 Y30.4469
G01 X64.4590 Y30.4409
G01 X64.4619 Y30.4364
G01 X64.5221 Y30.3527
G01 X64.5407 Y30.3238
G01 X64.6001 Y30.2173
G01 X64.6155 Y30.1861
G01 X64.6619 Y30.0741
G01 X64.6730 Y30.0411
G01 X64.7063 Y29.9235
G01 X64.7137 Y29.8899
G01 X64.7335 Y29.7698
G01 X64.7368 Y29.7354
G01 X64.7422 Y29.6125
G01 X64.7422 Y27.8286
G01 X64.7430 Y27.8198
G01 X64.7530 Y27.7728
G01 X64.7558 Y27.7653
G01 X64.7604 Y27.7572
G01 X64.7942 Y27.7127
G01 X64.9223 Y27.5684
G01 X65.0330 Y27.4157
G01 X65.1289 Y27.2526
G01 X65.2085 Y27.0811
G01 X65.2713 Y26.9032
G01 X65.3167 Y26.7193
G01 X65.3439 Y26.5326
G01 X65.3528 Y26.3437
G01 X65.3439 Y26.1549
G01 X65.3167 Y25.9682
G01 X65.2713 Y25.7843
G01 X65.2085 Y25.6064
G01 X65.1289 Y25.4349
G01 X65.0330 Y25.2718
G01 X64.9223 Y25.1191
G01 X64.7968 Y24.9777
G01 X64.6584 Y24.8487
G01 X64.5082 Y24.7341
G01 X64.3476 Y24.6343
G01 X64.1780 Y24.5507
G01 X64.0016 Y24.4835
G01 X63.8192 Y24.4341
G01 X63.6329 Y24.4020
G01 X63.4447 Y24.3886
G01 X63.2553 Y24.3931
G01 X63.0681 Y24.4158
G01 X62.8832 Y24.4568
G01 X62.7038 Y24.5152
G01 X62.5303 Y24.5903
G01 X62.3653 Y24.6822
G01 X62.2096 Y24.7894
G01 X62.0653 Y24.9115
G01 X61.9333 Y25.0469
G01 X61.8147 Y25.1942
G01 X61.7114 Y25.3524
G01 X61.6235 Y25.5194
G01 X61.5523 Y25.6949
G01 X61.4979 Y25.8758
G01 X61.4619 Y26.0610
G01 X61.4436 Y26.2494
G01 X61.4436 Y26.4381
G01 X61.4619 Y26.6265
G01 X61.4979 Y26.8118
G01 X61.5523 Y26.9931
G01 X61.6234 Y27.1681
G01 X61.7114 Y27.3351
G01 X61.8147 Y27.4933
G01 X61.9333 Y27.6406
G01 X62.0077 Y27.7169
G01 X62.0113 Y27.7210
G01 X62.0372 Y27.7607
G01 X62.0408 Y27.7681
G01 X62.0429 Y27.7746
G01 X62.0513 Y27.8167
G01 X62.0521 Y27.8261
G01 X62.0521 Y28.9953
G01 X62.0514 Y29.0031
G01 X62.0435 Y29.0435
G01 X62.0423 Y29.0486
G01 X62.0405 Y29.0536
G01 X62.0377 Y29.0595
G01 X62.0349 Y29.0640
G01 X62.0118 Y29.0976
G01 X62.0072 Y29.1031
G01 X61.6865 Y29.4243
G01 X61.6110 Y29.5063
G01 X61.5760 Y29.5327
G01 X61.5680 Y29.5374
G01 X61.5593 Y29.5407
G01 X61.5220 Y29.5512
G01 X61.5156 Y29.5525
G01 X61.5104 Y29.5529
G01 X61.5039 Y29.5527
G01 X61.4637 Y29.5484
G01 X61.4558 Y29.5467
G01 X61.4483 Y29.5440
G01 X61.4087 Y29.5235
G01 X61.3774 Y29.4998
G01 X61.3382 Y29.4744
G01 X61.3092 Y29.4593
G01 X61.2665 Y29.4409
G01 X61.2351 Y29.4312
G01 X61.1891 Y29.4205
G01 X61.1530 Y29.4154
G01 X41.1338 Y27.4384
G01 X41.1269 Y27.4372
G01 X41.0874 Y27.4260
G01 X41.0778 Y27.4220
G01 X41.0712 Y27.4178
G01 X41.0407 Y27.3942
G01 X41.0366 Y27.3906
G01 X41.0329 Y27.3867
G01 X41.0288 Y27.3813
G01 X41.0082 Y27.3486
G01 X41.0035 Y27.3393
G01 X41.0007 Y27.3293
G01 X40.9939 Y27.2913
G01 X40.9932 Y27.2830
G01 X40.9932 Y15.6527
G01 X40.9857 Y15.5668
G01 X40.9653 Y15.4902
G01 X40.9318 Y15.4181
G01 X40.8859 Y15.3528
G01 X40.8302 Y15.2970
G01 X40.7648 Y15.2512
G01 X40.6928 Y15.2177
G01 X40.6161 Y15.1972
G01 X40.5302 Y15.1897
G01 X12.6041 Y15.1897
G01 X12.5181 Y15.1972
G01 X12.3946 Y15.2296
G01 X12.3878 Y15.2309
G01 X12.3810 Y15.2314
G01 X12.3727 Y15.2308
G01 X12.3308 Y15.2235
G01 X12.3244 Y15.2219
G01 X12.3182 Y15.2196
G01 X12.3112 Y15.2159
G01 X12.2734 Y15.1909
G01 X12.2665 Y15.1849
G01 X12.2608 Y15.1779
G01 X12.2370 Y15.1417
G01 X12.2339 Y15.1360
G01 X12.2315 Y15.1299
G01 X12.2296 Y15.1223
G01 X12.2221 Y15.0790
G01 X12.2217 Y15.0699
G01 X12.2229 Y15.0608
G01 X12.2331 Y15.0180
G01 X12.2358 Y15.0103
G01 X12.3568 Y14.7510
G01 X12.5072 Y14.4721
G01 X12.6711 Y14.2071
G01 X12.8517 Y13.9492
G01 X13.0452 Y13.7052
G01 X13.2524 Y13.4724
G01 X13.4752 Y13.2495
G01 X13.7098 Y13.0416
G01 X13.9543 Y12.8482
G01 X14.2109 Y12.6689
G01 X14.4790 Y12.5033
G01 X14.7560 Y12.3543
G01 X15.0389 Y12.2226
G01 X15.3284 Y12.1077
G01 X15.6276 Y12.0086
G01 X15.9299 Y11.9280
G01 X16.2383 Y11.8646
G01 X16.5483 Y11.8196
G01 X16.8592 Y11.7925
G01 X17.1727 Y11.7833
G00 Z2.0000
G00 X16.4072 Y16.7138
G01 F60.00
G01 Z-0.0500
G01 F120.00
G01 X16.5540 Y16.7231
G01 X16.6985 Y16.7494
G01 X16.8390 Y16.7931
G01 X16.9731 Y16.8534
G01 X17.0991 Y16.9297
G01 X17.2148 Y17.0202
G01 X17.3188 Y17.1242
G01 X17.4092 Y17.2399
G01 X17.4856 Y17.3659
G01 X17.5459 Y17.5000
G01 X17.5896 Y17.6405
G01 X17.6159 Y17.7850
G01 X17.6251 Y17.9318
G01 X17.6159 Y18.0786
G01 X17.5896 Y18.2230
G01 X17.5459 Y18.3635
G01 X17.4856 Y18.4977
G01 X17.4092 Y18.6236
G01 X17.3188 Y18.7394
G01 X17.2148 Y18.8434
G01 X17.0991 Y18.9338
G01 X16.9731 Y19.0102
G01 X16.8390 Y19.0705
G01 X16.6985 Y19.1142
G01 X16.5540 Y19.1405
G01 X16.4072 Y19.1497
G01 X16.2604 Y19.1405
G01 X16.1159 Y19.1142
G01 X15.9754 Y19.0705
G01 X15.8413 Y19.0102
G01 X15.7153 Y18.9338
G01 X15.5996 Y18.8434
G01 X15.4956 Y18.7394
G01 X15.4051 Y18.6236
G01 X15.3288 Y18.4977
G01 X15.2685 Y18.3635
G01 X15.2248 Y18.2230
G01 X15.1985 Y18.0786
G01 X15.1893 Y17.9318
G01 X15.1985 Y17.7850
G01 X15.2248 Y17.6405
G01 X15.2685 Y17.5000
G01 X15.3288 Y17.3659
G01 X15.4051 Y17.2399
G01 X15.4956 Y17.1242
G01 X15.5996 Y17.0202
G01 X15.7153 Y16.9297
G01 X15.8413 Y16.8534
G01 X15.9754 Y16.7931
G01 X16.1159 Y16.7494
G01 X16.2604 Y16.7231
G01 X16.4072 Y16.7138
G00 Z2.0000
G00 X15.3368 Y17.9344
G01 F60.00
G01 Z-0.0500
G01 F120.00
G01 X15.3368 Y17.9291
G01 X15.3418 Y17.8268
G01 X15.3573 Y17.7229
G01 X15.3828 Y17.6210
G01 X15.4182 Y17.5221
G01 X15.4631 Y17.4271
G01 X15.5171 Y17.3370
G01 X15.5797 Y17.2527
G01 X15.6502 Y17.1748
G01 X15.7281 Y17.1043
G01 X15.8125 Y17.0417
G01 X15.9026 Y16.9877
G01 X15.9975 Y16.9428
G01 X16.0964 Y16.9074
G01 X16.1983 Y16.8818
G01 X16.3023 Y16.8664
G01 X16.4072 Y16.8613
G01 X16.5121 Y16.8664
G01 X16.6160 Y16.8818
G01 X16.7179 Y16.9074
G01 X16.8168 Y16.9428
G01 X16.9118 Y16.9877
G01 X17.0019 Y17.0417
G01 X17.0863 Y17.1043
G01 X17.1641 Y17.1748
G01 X17.2347 Y17.2527
G01 X17.2973 Y17.3370
G01 X17.3513 Y17.4271
G01 X17.3962 Y17.5221
G01 X17.4316 Y17.6210
G01 X17.4571 Y17.7229
G01 X17.4725 Y17.8268
G01 X17.4777 Y17.9318
G01 X17.4725 Y18.0367
G01 X17.4571 Y18.1406
G01 X17.4316 Y18.2425
G01 X17.3962 Y18.3414
G01 X17.3513 Y18.4364
G01 X17.2973 Y18.5265
G01 X17.2347 Y18.6109
G01 X17.1641 Y18.6887
G01 X17.0863 Y18.7593
G01 X17.0019 Y18.8219
G01 X16.9118 Y18.8759
G01 X16.8168 Y18.9208
G01 X16.7179 Y18.9562
G01 X16.6160 Y18.9817
G01 X16.5121 Y18.9971
G01 X16.4072 Y19.0023
G01 X16.3023 Y18.9971
G01 X16.1983 Y18.9817
G01 X16.0964 Y18.9562
G01 X15.9975 Y18.9208
G01 X15.9026 Y18.8759
G01 X15.8125 Y18.8219
G01 X15.7281 Y18.7593
G01 X15.6502 Y18.6887
G01 X15.5797 Y18.6109
G01 X15.5171 Y18.5265
G01 X15.4631 Y18.4364
G01 X15.4182 Y18.3414
G01 X15.3828 Y18.2425
G01 X15.3573 Y18.1406
G01 X15.3418 Y18.0367
G01 X15.3368 Y17.9344
G00 Z2.0000
G00 X16.4689 Y22.6126
G01 F60.00
G01 Z-0.0500
G01 F120.00
G01 X16.5922 Y22.6299
G01 X16.7115 Y22.6630
G01 X16.8255 Y22.7128
G01 X16.9314 Y22.7770
G01 X17.0278 Y22.8556
G01 X17.1126 Y22.9462
G01 X17.1840 Y23.0473
G01 X17.2410 Y23.1575
G01 X17.2827 Y23.2744
G01 X17.3076 Y23.3961
G01 X17.3162 Y23.5198
G01 X17.3076 Y23.6434
G01 X17.2827 Y23.7652
G01 X17.2410 Y23.8820
G01 X17.1840 Y23.9923
G01 X17.1126 Y24.0933
G01 X17.0278 Y24.1839
G01 X16.9314 Y24.2625
G01 X16.8256 Y24.3267
G01 X16.7115 Y24.3761
G01 X16.5921 Y24.4097
G01 X16.4689 Y24.4269
G01 X16.3455 Y24.4269
G01 X16.2223 Y24.4097
G01 X16.1029 Y24.3761
G01 X15.9888 Y24.3267
G01 X15.8829 Y24.2625
G01 X15.7866 Y24.1839
G01 X15.7018 Y24.0933
G01 X15.6304 Y23.9923
G01 X15.5734 Y23.8820
G01 X15.5317 Y23.7652
G01 X15.5068 Y23.6434
G01 X15.4981 Y23.5198
G01 X15.5068 Y23.3961
G01 X15.5317 Y23.2744
G01 X15.5734 Y23.1575
G01 X15.6304 Y23.0473
G01 X15.7018 Y22.9462
G01 X15.7866 Y22.8556
G01 X15.8829 Y22.7770
G01 X15.9889 Y22.7128
G01 X16.1029 Y22.6630
G01 X16.2222 Y22.6299
G01 X16.3455 Y22.6126
G01 X16.4689 Y22.6126
G00 Z2.0000
G00 X15.6454 Y23.5224
G01 F60.00
G01 Z-0.0500
G01 F120.00
G01 X15.6490 Y23.4451
G01 X15.6599 Y23.3711
G01 X15.6781 Y23.2986
G01 X15.7033 Y23.2282
G01 X15.7353 Y23.1606
G01 X15.7737 Y23.0965
G01 X15.8182 Y23.0364
G01 X15.8685 Y22.9810
G01 X15.9239 Y22.9308
G01 X15.9839 Y22.8863
G01 X16.0480 Y22.8478
G01 X16.1156 Y22.8159
G01 X16.1860 Y22.7907
G01 X16.2586 Y22.7725
G01 X16.3325 Y22.7616
G01 X16.4072 Y22.7579
G01 X16.4819 Y22.7616
G01 X16.5558 Y22.7725
G01 X16.6284 Y22.7907
G01 X16.6987 Y22.8159
G01 X16.7663 Y22.8478
G01 X16.8305 Y22.8863
G01 X16.8905 Y22.9308
G01 X16.9459 Y22.9810
G01 X16.9961 Y23.0364
G01 X17.0407 Y23.0965
G01 X17.0791 Y23.1606
G01 X17.1111 Y23.2282
G01 X17.1363 Y23.2986
G01 X17.1544 Y23.3711
G01 X17.1654 Y23.4451
G01 X17.1691 Y23.5198
G01 X17.1654 Y23.5945
G01 X17.1544 Y23.6684
G01 X17.1363 Y23.7409
G01 X17.1111 Y23.8113
G01 X17.0791 Y23.8789
G01 X17.0407 Y23.9431
G01 X16.9961 Y24.0031
G01 X16.9459 Y24.0585
G01 X16.8905 Y24.1087
G01 X16.8305 Y24.1533
G01 X16.7663 Y24.1917
G01 X16.6987 Y24.2237
G01 X16.6284 Y24.2489
G01 X16.5558 Y24.2670
G01 X16.4819 Y24.2780
G01 X16.4072 Y24.2817
G01 X16.3325 Y24.2780
G01 X16.2586 Y24.2670
G01 X16.1860 Y24.2489
G01 X16.1156 Y24.2237
G01 X16.0480 Y24.1917
G01 X15.9839 Y24.1533
G01 X15.9239 Y24.1087
G01 X15.8685 Y24.0585
G01 X15.8182 Y24.0031
G01 X15.7737 Y23.9431
G01 X15.7353 Y23.8789
G01 X15.7033 Y23.8113
G01 X15.6781 Y23.7409
G01 X15.6599 Y23.6684
G01 X15.6490 Y23.5945
G01 X15.6454 Y23.5224
G00 Z2.0000
G00 X20.7254 Y23.5224
G01 F60.00
G01 Z-0.0500
G01 F120.00
G01 X20.7290 Y23.4451
G01 X20.7399 Y23.3711
G01 X20.7581 Y23.2986
G01 X20.7833 Y23.2282
G01 X20.8153 Y23.1606
G01 X20.8537 Y23.0965
G01 X20.8982 Y23.0364
G01 X20.9485 Y22.9810
G01 X21.0039 Y22.9308
G01 X21.0639 Y22.8863
G01 X21.1280 Y22.8478
G01 X21.1956 Y22.8159
G01 X21.2660 Y22.7907
G01 X21.3386 Y22.7725
G01 X21.4125 Y22.7616
G01 X21.4872 Y22.7579
G01 X21.5619 Y22.7616
G01 X21.6358 Y22.7725
G01 X21.7084 Y22.7907
G01 X21.7787 Y22.8159
G01 X21.8463 Y22.8478
G01 X21.9105 Y22.8863
G01 X21.9705 Y22.9308
G01 X22.0259 Y22.9810
G01 X22.0761 Y23.0364
G01 X22.1207 Y23.0965
G01 X22.1591 Y23.1606
G01 X22.1911 Y23.2282
G01 X22.2163 Y23.2986
G01 X22.2344 Y23.3711
G01 X22.2454 Y23.4451
G01 X22.2491 Y23.5198
G01 X22.2454 Y23.5945
G01 X22.2344 Y23.6684
G01 X22.2163 Y23.7409
G01 X22.1911 Y23.8113
G01 X22.1591 Y23.8789
G01 X22.1207 Y23.9431
G01 X22.0761 Y24.0031
G01 X22.0259 Y24.0585
G01 X21.9705 Y24.1087
G01 X21.9105 Y24.1533
G01 X21.8463 Y24.1917
G01 X21.7787 Y24.2237
G01 X21.7084 Y24.2489
G01 X21.6358 Y24.2670
G01 X21.5619 Y24.2780
G01 X21.4872 Y24.2817
G01 X21.4125 Y24.2780
G01 X21.3386 Y24.2670
G01 X21.2660 Y24.2489
G01 X21.1956 Y24.2237
G01 X21.1280 Y24.1917
G01 X21.0639 Y24.1533
G01 X21.0039 Y24.1087
G01 X20.9485 Y24.0585
G01 X20.8982 Y24.0031
G01 X20.8537 Y23.9431
G01 X20.8153 Y23.8789
G01 X20.7833 Y23.8113
G01 X20.7581 Y23.7409
G01 X20.7399 Y23.6684
G01 X20.7290 Y23.5945
G01 X20.7254 Y23.5224
G00 Z2.0000
G00 X21.5489 Y22.6126
G01 F60.00
G01 Z-0.0500
G01 F120.00
G01 X21.6722 Y22.6299
G01 X21.7915 Y22.6630
G01 X21.9055 Y22.7128
G01 X22.0114 Y22.7770
G01 X22.1078 Y22.8556
G01 X22.1926 Y22.9462
G01 X22.2640 Y23.0473
G01 X22.3210 Y23.1575
G01 X22.3627 Y23.2744
G01 X22.3876 Y23.3961
G01 X22.3962 Y23.5198
G01 X22.3876 Y23.6434
G01 X22.3627 Y23.7652
G01 X22.3210 Y23.8820
G01 X22.2640 Y23.9923
G01 X22.1926 Y24.0933
G01 X22.1078 Y24.1839
G01 X22.0114 Y24.2625
G01 X21.9056 Y24.3267
G01 X21.7915 Y24.3761
G01 X21.6721 Y24.4097
G01 X21.5489 Y24.4269
G01 X21.4255 Y24.4269
G01 X21.3023 Y24.4097
G01 X21.1829 Y24.3761
G01 X21.0688 Y24.3267
G01 X20.9629 Y24.2625
G01 X20.8666 Y24.1839
G01 X20.7818 Y24.0933
G01 X20.7104 Y23.9923
G01 X20.6534 Y23.8820
G01 X20.6117 Y23.7652
G01 X20.5868 Y23.6434
G01 X20.5781 Y23.5198
G01 X20.5868 Y23.3961
G01 X20.6117 Y23.2744
G01 X20.6534 Y23.1575
G01 X20.7104 Y23.0473
G01 X20.7818 Y22.9462
G01 X20.8666 Y22.8556
G01 X20.9629 Y22.7770
G01 X21.0689 Y22.7128
G01 X21.1829 Y22.6630
G01 X21.3022 Y22.6299
G01 X21.4255 Y22.6126
G01 X21.5489 Y22.6126
G00 Z2.0000
G00 X22.5577 Y18.9478
G01 F60.00
G01 Z-0.0500
G01 F120.00
G01 X22.5574 Y18.9531
G01 X22.5566 Y18.9584
G01 X22.5553 Y18.9636
G01 X22.5535 Y18.9686
G01 X22.5513 Y18.9735
G01 X22.5485 Y18.9780
G01 X22.5453 Y18.9823
G01 X22.5417 Y18.9863
G01 X22.5378 Y18.9899
G01 X22.5335 Y18.9931
G01 X22.5289 Y18.9958
G01 X22.5240 Y18.9981
G01 X22.5190 Y18.9999
G01 X22.5138 Y19.0012
G01 X22.5045 Y19.0023
G01 X20.4712 Y19.0023
G01 X20.4658 Y19.0020
G01 X20.4606 Y19.0012
G01 X20.4554 Y18.9999
G01 X20.4503 Y18.9981
G01 X20.4455 Y18.9958
G01 X20.4409 Y18.9931
G01 X20.4336 Y18.9872
G01 X20.4299 Y18.9834
G01 X20.4266 Y18.9792
G01 X20.4238 Y18.9746
G01 X20.4214 Y18.9699
G01 X20.4194 Y18.9649
G01 X20.4177 Y18.9584
G01 X20.4170 Y18.9531
G01 X20.4167 Y18.9478
G01 X20.4167 Y16.9158
G01 X20.4170 Y16.9104
G01 X20.4177 Y16.9051
G01 X20.4190 Y16.9000
G01 X20.4208 Y16.8949
G01 X20.4251 Y16.8866
G01 X20.4282 Y16.8822
G01 X20.4317 Y16.8782
G01 X20.4356 Y16.8745
G01 X20.4398 Y16.8712
G01 X20.4443 Y16.8684
G01 X20.4491 Y16.8660
G01 X20.4541 Y16.8640
G01 X20.4592 Y16.8626
G01 X20.4658 Y16.8615
G01 X20.4712 Y16.8613
G01 X22.5032 Y16.8613
G01 X22.5085 Y16.8615
G01 X22.5138 Y16.8623
G01 X22.5190 Y16.8636
G01 X22.5240 Y16.8654
G01 X22.5289 Y16.8677
G01 X22.5335 Y16.8705
G01 X22.5408 Y16.8763
G01 X22.5445 Y16.8802
G01 X22.5477 Y16.8844
G01 X22.5506 Y16.8889
G01 X22.5530 Y16.8937
G01 X22.5549 Y16.8987
G01 X22.5564 Y16.9038
G01 X22.5574 Y16.9104
G01 X22.5577 Y16.9158
G01 X22.5577 Y18.9478
G00 Z2.0000
G00 X22.4945 Y16.7137
G01 F60.00
G01 Z-0.0500
G01 F120.00
G01 X22.5480 Y16.7198
G01 X22.5907 Y16.7346
G01 X22.6285 Y16.7585
G01 X22.6605 Y16.7905
G01 X22.6844 Y16.8283
G01 X22.6991 Y16.8710
G01 X22.7052 Y16.9245
G01 X22.7052 Y18.9391
G01 X22.6991 Y18.9925
G01 X22.6844 Y19.0353
G01 X22.6605 Y19.0730
G01 X22.6285 Y19.1051
G01 X22.5907 Y19.1290
G01 X22.5480 Y19.1438
G01 X22.4945 Y19.1498
G01 X20.4799 Y19.1498
G01 X20.4264 Y19.1438
G01 X20.3837 Y19.1290
G01 X20.3459 Y19.1051
G01 X20.3139 Y19.0730
G01 X20.2900 Y19.0353
G01 X20.2752 Y18.9925
G01 X20.2691 Y18.9391
G01 X20.2691 Y16.9245
G01 X20.2752 Y16.8710
G01 X20.2900 Y16.8283
G01 X20.3139 Y16.7905
G01 X20.3459 Y16.7585
G01 X20.3837 Y16.7346
G01 X20.4264 Y16.7198
G01 X20.4799 Y16.7137
G01 X22.4945 Y16.7137
G00 Z2.0000
G00 X30.5768 Y17.9344
G01 F60.00
G01 Z-0.0500
G01 F120.00
G01 X30.5768 Y17.9291
G01 X30.5818 Y17.8268
G01 X30.5973 Y17.7229
G01 X30.6228 Y17.6210
G01 X30.6582 Y17.5221
G01 X30.7031 Y17.4271
G01 X30.7571 Y17.3370
G01 X30.8197 Y17.2527
G01 X30.8902 Y17.1748
G01 X30.9681 Y17.1043
G01 X31.0525 Y17.0417
G01 X31.1426 Y16.9877
G01 X31.2375 Y16.9428
G01 X31.3364 Y16.9074
G01 X31.4383 Y16.8818
G01 X31.5423 Y16.8664
G01 X31.6472 Y16.8613
G01 X31.7521 Y16.8664
G01 X31.8560 Y16.8818
G01 X31.9579 Y16.9074
G01 X32.0568 Y16.9428
G01 X32.1518 Y16.9877
G01 X32.2419 Y17.0417
G01 X32.3263 Y17.1043
G01 X32.4041 Y17.1748
G01 X32.4747 Y17.2527
G01 X32.5373 Y17.3370
G01 X32.5913 Y17.4271
G01 X32.6362 Y17.5221
G01 X32.6716 Y17.6210
G01 X32.6971 Y17.7229
G01 X32.7125 Y17.8268
G01 X32.7177 Y17.9318
G01 X32.7125 Y18.0367
G01 X32.6971 Y18.1406
G01 X32.6716 Y18.2425
G01 X32.6362 Y18.3414
G01 X32.5913 Y18.4364
G01 X32.5373 Y18.5265
G01 X32.4747 Y18.6109
G01 X32.4041 Y18.6887
G01 X32.3263 Y18.7593
G01 X32.2419 Y18.8219
G01 X32.1518 Y18.8759
G01 X32.0568 Y18.9208
G01 X31.9579 Y18.9562
G01 X31.8560 Y18.9817
G01 X31.7521 Y18.9971
G01 X31.6472 Y19.0023
G01 X31.5423 Y18.9971
G01 X31.4383 Y18.9817
G01 X31.3364 Y18.9562
G01 X31.2375 Y18.9208
G01 X31.1426 Y18.8759
G01 X31.0525 Y18.8219
G01 X30.9681 Y18.7593
G01 X30.8902 Y18.6887
G01 X30.8197 Y18.6109
G01 X30.7571 Y18.5265
G01 X30.7031 Y18.4364
G01 X30.6582 Y18.3414
G01 X30.6228 Y18.2425
G01 X30.5973 Y18.1406
G01 X30.5818 Y18.0367
G01 X30.5768 Y17.9344
G00 Z2.0000
G00 X31.6472 Y16.7138
G01 F60.00
G01 Z-0.0500
G01 F120.00
G01 X31.7940 Y16.7231
G01 X31.9385 Y16.7494
G01 X32.0790 Y16.7931
G01 X32.2131 Y16.8534
G01 X32.3391 Y16.9297
G01 X32.4548 Y17.0202
G01 X32.5588 Y17.1242
G01 X32.6492 Y17.2399
G01 X32.7256 Y17.3659
G01 X32.7859 Y17.5000
G01 X32.8296 Y17.6405
G01 X32.8559 Y17.7850
G01 X32.8651 Y17.9318
G01 X32.8559 Y18.0786
G01 X32.8296 Y18.2230
G01 X32.7859 Y18.3635
G01 X32.7256 Y18.4977
G01 X32.6492 Y18.6236
G01 X32.5588 Y18.7394
G01 X32.4548 Y18.8434
G01 X32.3391 Y18.9338
G01 X32.2131 Y19.0102
G01 X32.0790 Y19.0705
G01 X31.9385 Y19.1142
G01 X31.7940 Y19.1405
G01 X31.6472 Y19.1497
G01 X31.5004 Y19.1405
G01 X31.3559 Y19.1142
G01 X31.2154 Y19.0705
G01 X31.0813 Y19.0102
G01 X30.9553 Y18.9338
G01 X30.8396 Y18.8434
G01 X30.7356 Y18.7394
G01 X30.6451 Y18.6236
G01 X30.5688 Y18.4977
G01 X30.5085 Y18.3635
G01 X30.4648 Y18.2230
G01 X30.4385 Y18.0786
G01 X30.4293 Y17.9318
G01 X30.4385 Y17.7850
G01 X30.4648 Y17.6405
G01 X30.5085 Y17.5000
G01 X30.5688 Y17.3659
G01 X30.6451 Y17.2399
G01 X30.7356 Y17.1242
G01 X30.8396 Y17.0202
G01 X30.9553 Y16.9297
G01 X31.0813 Y16.8534
G01 X31.2154 Y16.7931
G01 X31.3559 Y16.7494
G01 X31.5004 Y16.7231
G01 X31.6472 Y16.7138
G00 Z2.0000
G00 X37.7345 Y16.7137
G01 F60.00
G01 Z-0.0500
G01 F120.00
G01 X37.7880 Y16.7198
G01 X37.8307 Y16.7346
G01 X37.8685 Y16.7585
G01 X37.9005 Y16.7905
G01 X37.9244 Y16.8283
G01 X37.9391 Y16.8710
G01 X37.9452 Y16.9245
G01 X37.9452 Y18.9391
G01 X37.9391 Y18.9925
G01 X37.9244 Y19.0353
G01 X37.9005 Y19.0730
G01 X37.8685 Y19.1051
G01 X37.8307 Y19.1290
G01 X37.7880 Y19.1438
G01 X37.7345 Y19.1498
G01 X35.7199 Y19.1498
G01 X35.6664 Y19.1438
G01 X35.6237 Y19.1290
G01 X35.5859 Y19.1051
G01 X35.5539 Y19.0730
G01 X35.5300 Y19.0353
G01 X35.5152 Y18.9925
G01 X35.5091 Y18.9391
G01 X35.5091 Y16.9245
G01 X35.5152 Y16.8710
G01 X35.5300 Y16.8283
G01 X35.5539 Y16.7905
G01 X35.5859 Y16.7585
G01 X35.6237 Y16.7346
G01 X35.6664 Y16.7198
G01 X35.7199 Y16.7137
G01 X37.7345 Y16.7137
G00 Z2.0000
G00 X37.7977 Y18.9478
G01 F60.00
G01 Z-0.0500
G01 F120.00
G01 X37.7974 Y18.9531
G01 X37.7966 Y18.9584
G01 X37.7953 Y18.9636
G01 X37.7935 Y18.9686
G01 X37.7913 Y18.9735
G01 X37.7885 Y18.9780
G01 X37.7853 Y18.9823
G01 X37.7817 Y18.9863
G01 X37.7778 Y18.9899
G01 X37.7735 Y18.9931
G01 X37.7689 Y18.9958
G01 X37.7640 Y18.9981
G01 X37.7590 Y18.9999
G01 X37.7538 Y19.0012
G01 X37.7445 Y19.0023
G01 X35.7112 Y19.0023
G01 X35.7058 Y19.0020
G01 X35.7006 Y19.0012
G01 X35.6954 Y18.9999
G01 X35.6903 Y18.9981
G01 X35.6820 Y18.9938
G01 X35.6777 Y18.9907
G01 X35.6736 Y18.9872
G01 X35.6699 Y18.9834
G01 X35.6666 Y18.9792
G01 X35.6638 Y18.9746
G01 X35.6614 Y18.9699
G01 X35.6594 Y18.9649
G01 X35.6580 Y18.9597
G01 X35.6571 Y18.9544
G01 X35.6567 Y18.9478
G01 X35.6567 Y16.9158
G01 X35.6570 Y16.9104
G01 X35.6577 Y16.9051
G01 X35.6590 Y16.9000
G01 X35.6608 Y16.8949
G01 X35.6631 Y16.8901
G01 X35.6659 Y16.8855
G01 X35.6717 Y16.8782
G01 X35.6756 Y16.8745
G01 X35.6798 Y16.8712
G01 X35.6843 Y16.8684
G01 X35.6891 Y16.8660
G01 X35.6941 Y16.8640
G01 X35.7006 Y16.8623
G01 X35.7058 Y16.8615
G01 X35.7112 Y16.8613
G01 X37.7432 Y16.8613
G01 X37.7525 Y16.8621
G01 X37.7577 Y16.8632
G01 X37.7628 Y16.8649
G01 X37.7677 Y16.8671
G01 X37.7723 Y16.8697
G01 X37.7767 Y16.8728
G01 X37.7808 Y16.8763
G01 X37.7845 Y16.8802
G01 X37.7877 Y16.8844
G01 X37.7906 Y16.8889
G01 X37.7930 Y16.8937
G01 X37.7949 Y16.8987
G01 X37.7964 Y16.9038
G01 X37.7974 Y16.9104
G01 X37.7977 Y16.9158
G01 X37.7977 Y18.9478
G00 Z2.0000
G00 X36.7889 Y23.1206
G01 F60.00
G01 Z-0.0500
G01 F120.00
G01 X36.9122 Y23.1379
G01 X37.0315 Y23.1710
G01 X37.1455 Y23.2208
G01 X37.2514 Y23.2850
G01 X37.3478 Y23.3636
G01 X37.4326 Y23.4542
G01 X37.5040 Y23.5553
G01 X37.5610 Y23.6655
G01 X37.6027 Y23.7824
G01 X37.6276 Y23.9041
G01 X37.6362 Y24.0278
G01 X37.6276 Y24.1514
G01 X37.6027 Y24.2732
G01 X37.5610 Y24.3900
G01 X37.5040 Y24.5003
G01 X37.4326 Y24.6013
G01 X37.3478 Y24.6919
G01 X37.2514 Y24.7705
G01 X37.1456 Y24.8347
G01 X37.0315 Y24.8841
G01 X36.9121 Y24.9177
G01 X36.7889 Y24.9349
G01 X36.6655 Y24.9349
G01 X36.5423 Y24.9177
G01 X36.4229 Y24.8841
G01 X36.3088 Y24.8347
G01 X36.2029 Y24.7705
G01 X36.1066 Y24.6919
G01 X36.0218 Y24.6013
G01 X35.9504 Y24.5003
G01 X35.8934 Y24.3900
G01 X35.8517 Y24.2732
G01 X35.8268 Y24.1514
G01 X35.8181 Y24.0278
G01 X35.8268 Y23.9041
G01 X35.8517 Y23.7824
G01 X35.8934 Y23.6655
G01 X35.9504 Y23.5553
G01 X36.0218 Y23.4542
G01 X36.1066 Y23.3636
G01 X36.2029 Y23.2850
G01 X36.3089 Y23.2208
G01 X36.4229 Y23.1710
G01 X36.5422 Y23.1379
G01 X36.6655 Y23.1206
G01 X36.7889 Y23.1206
G00 Z2.0000
G00 X35.9654 Y24.0304
G01 F60.00
G01 Z-0.0500
G01 F120.00
G01 X35.9690 Y23.9531
G01 X35.9799 Y23.8791
G01 X35.9981 Y23.8066
G01 X36.0233 Y23.7362
G01 X36.0553 Y23.6686
G01 X36.0937 Y23.6045
G01 X36.1382 Y23.5444
G01 X36.1885 Y23.4890
G01 X36.2439 Y23.4388
G01 X36.3039 Y23.3943
G01 X36.3680 Y23.3558
G01 X36.4356 Y23.3239
G01 X36.5060 Y23.2987
G01 X36.5786 Y23.2805
G01 X36.6525 Y23.2696
G01 X36.7272 Y23.2659
G01 X36.8019 Y23.2696
G01 X36.8758 Y23.2805
G01 X36.9484 Y23.2987
G01 X37.0187 Y23.3239
G01 X37.0863 Y23.3558
G01 X37.1505 Y23.3943
G01 X37.2105 Y23.4388
G01 X37.2659 Y23.4890
G01 X37.3161 Y23.5444
G01 X37.3607 Y23.6045
G01 X37.3991 Y23.6686
G01 X37.4311 Y23.7362
G01 X37.4563 Y23.8066
G01 X37.4744 Y23.8791
G01 X37.4854 Y23.9531
G01 X37.4891 Y24.0278
G01 X37.4854 Y24.1025
G01 X37.4744 Y24.1764
G01 X37.4563 Y24.2489
G01 X37.4311 Y24.3193
G01 X37.3991 Y24.3869
G01 X37.3607 Y24.4511
G01 X37.3161 Y24.5111
G01 X37.2659 Y24.5665
G01 X37.2105 Y24.6167
G01 X37.1505 Y24.6613
G01 X37.0863 Y24.6997
G01 X37.0187 Y24.7317
G01 X36.9484 Y24.7569
G01 X36.8758 Y24.7750
G01 X36.8019 Y24.7860
G01 X36.7272 Y24.7897
G01 X36.6525 Y24.7860
G01 X36.5786 Y24.7750
G01 X36.5060 Y24.7569
G01 X36.4356 Y24.7317
G01 X36.3680 Y24.6997
G01 X36.3039 Y24.6613
G01 X36.2439 Y24.6167
G01 X36.1885 Y24.5665
G01 X36.1382 Y24.5111
G01 X36.0937 Y24.4511
G01 X36.0553 Y24.3869
G01 X36.0233 Y24.3193
G01 X35.9981 Y24.2489
G01 X35.9799 Y24.1764
G01 X35.9690 Y24.1025
G01 X35.9654 Y24.0304
G00 Z2.0000
G00 X37.4347 Y26.3683
G01 F60.00
G01 Z-0.0500
G01 F120.00
G01 X12.6988 Y26.3683
G01 X12.6897 Y26.3675
G01 X12.6493 Y26.3596
G01 X12.6441 Y26.3584
G01 X12.6380 Y26.3561
G01 X12.6333 Y26.3538
G01 X12.6288 Y26.3510
G01 X12.5952 Y26.3279
G01 X12.5891 Y26.3228
G01 X12.5831 Y26.3158
G01 X12.5592 Y26.2811
G01 X12.5548 Y26.2730
G01 X12.5519 Y26.2643
G01 X12.5435 Y26.2213
G01 X12.5427 Y26.2122
G01 X12.5427 Y15.7474
G01 X12.5435 Y15.7382
G01 X12.5513 Y15.6978
G01 X12.5530 Y15.6915
G01 X12.5548 Y15.6865
G01 X12.5571 Y15.6818
G01 X12.5599 Y15.6774
G01 X12.5831 Y15.6438
G01 X12.5882 Y15.6377
G01 X12.5952 Y15.6316
G01 X12.6299 Y15.6078
G01 X12.6380 Y15.6034
G01 X12.6467 Y15.6005
G01 X12.6897 Y15.5920
G01 X12.6988 Y15.5913
G01 X40.4356 Y15.5913
G01 X40.4447 Y15.5920
G01 X40.4902 Y15.6012
G01 X40.4976 Y15.6039
G01 X40.5034 Y15.6070
G01 X40.5392 Y15.6316
G01 X40.5462 Y15.6377
G01 X40.5521 Y15.6449
G01 X40.5752 Y15.6785
G01 X40.5779 Y15.6830
G01 X40.5805 Y15.6890
G01 X40.5828 Y15.6965
G01 X40.5907 Y15.7370
G01 X40.5914 Y15.7421
G01 X40.5917 Y15.7474
G01 X40.5917 Y27.7881
G01 X61.0251 Y29.8064
G01 X61.0303 Y29.8072
G01 X61.0354 Y29.8084
G01 X61.0722 Y29.8195
G01 X61.0806 Y29.8230
G01 X61.0872 Y29.8271
G01 X61.1177 Y29.8502
G01 X61.1217 Y29.8536
G01 X61.1263 Y29.8583
G01 X61.1302 Y29.8635
G01 X61.1507 Y29.8961
G01 X61.1554 Y29.9054
G01 X61.1582 Y29.9155
G01 X61.1650 Y29.9534
G01 X61.1657 Y29.9617
G01 X61.1657 Y43.9922
G01 X61.1649 Y44.0013
G01 X61.1568 Y44.0430
G01 X61.1550 Y44.0493
G01 X61.1519 Y44.0565
G01 X61.1485 Y44.0622
G01 X61.1261 Y44.0947
G01 X61.1202 Y44.1019
G01 X61.1132 Y44.1079
G01 X61.0785 Y44.1318
G01 X61.0704 Y44.1361
G01 X61.0617 Y44.1391
G01 X61.0187 Y44.1475
G01 X61.0096 Y44.1483
G01 X47.5769 Y44.1483
G01 X47.5769 Y48.2954
G01 X47.6245 Y48.3308
G01 X47.6780 Y48.3792
G01 X47.7284 Y48.4344
G01 X47.7747 Y48.4965
G01 X47.8131 Y48.5606
G01 X47.8451 Y48.6282
G01 X47.8710 Y48.7012
G01 X47.8884 Y48.7711
G01 X47.8991 Y48.8424
G01 X47.9031 Y48.9198
G01 X47.8994 Y48.9945
G01 X47.8878 Y49.0710
G01 X47.8703 Y49.1409
G01 X47.8460 Y49.2088
G01 X47.8131 Y49.2789
G01 X47.7747 Y49.3431
G01 X47.7284 Y49.4051
G01 X47.6780 Y49.4604
G01 X47.6245 Y49.5087
G01 X47.5769 Y49.5441
G01 X47.5769 Y54.6454
G01 X47.6245 Y54.6808
G01 X47.6780 Y54.7292
G01 X47.7284 Y54.7844
G01 X47.7747 Y54.8465
G01 X47.8131 Y54.9106
G01 X47.8460 Y54.9807
G01 X47.8703 Y55.0486
G01 X47.8878 Y55.1185
G01 X47.8994 Y55.1951
G01 X47.9031 Y55.2711
G01 X47.8994 Y55.3445
G01 X47.8889 Y55.4158
G01 X47.8703 Y55.4909
G01 X47.8451 Y55.5613
G01 X47.8143 Y55.6265
G01 X47.8118 Y55.6313
G01 X47.7731 Y55.6952
G01 X47.7301 Y55.7531
G01 X47.6799 Y55.8085
G01 X47.6245 Y55.8587
G01 X47.5667 Y55.9017
G01 X47.5027 Y55.9404
G01 X47.4979 Y55.9429
G01 X47.4327 Y55.9737
G01 X47.3636 Y55.9984
G01 X47.2898 Y56.0170
G01 X47.2159 Y56.0280
G01 X47.1412 Y56.0317
G01 X47.0639 Y56.0277
G01 X46.9926 Y56.0170
G01 X46.9226 Y55.9996
G01 X46.8521 Y55.9746
G01 X46.7820 Y55.9417
G01 X46.7179 Y55.9033
G01 X46.6579 Y55.8587
G01 X46.6006 Y55.8066
G01 X46.5506 Y55.7510
G01 X46.5077 Y55.6931
G01 X46.4706 Y55.6313
G01 X46.4373 Y55.5613
G01 X46.4121 Y55.4909
G01 X46.3939 Y55.4184
G01 X46.3828 Y55.3418
G01 X46.3794 Y55.2671
G01 X46.3830 Y55.1951
G01 X46.3935 Y55.1238
G01 X46.4121 Y55.0486
G01 X46.4384 Y54.9758
G01 X46.4693 Y54.9106
G01 X46.5063 Y54.8488
G01 X46.5522 Y54.7864
G01 X46.6044 Y54.7292
G01 X46.6579 Y54.6808
G01 X46.7055 Y54.6454
G01 X46.7055 Y49.5441
G01 X46.6579 Y49.5087
G01 X46.6044 Y49.4604
G01 X46.5540 Y49.4051
G01 X46.5077 Y49.3431
G01 X46.4693 Y49.2789
G01 X46.4363 Y49.2088
G01 X46.4121 Y49.1409
G01 X46.3945 Y49.0710
G01 X46.3830 Y48.9945
G01 X46.3793 Y48.9198
G01 X46.3833 Y48.8424
G01 X46.3939 Y48.7711
G01 X46.4114 Y48.7012
G01 X46.4373 Y48.6282
G01 X46.4693 Y48.5606
G01 X46.5077 Y48.4965
G01 X46.5540 Y48.4344
G01 X46.6044 Y48.3792
G01 X46.6579 Y48.3308
G01 X46.7055 Y48.2954
G01 X46.7055 Y44.1483
G01 X37.5908 Y44.1483
G01 X37.5817 Y44.1475
G01 X37.5387 Y44.1391
G01 X37.5336 Y44.1376
G01 X37.5288 Y44.1356
G01 X37.5208 Y44.1310
G01 X37.4872 Y44.1079
G01 X37.4831 Y44.1046
G01 X37.4793 Y44.1009
G01 X37.4743 Y44.0947
G01 X37.4512 Y44.0611
G01 X37.4474 Y44.0542
G01 X37.4450 Y44.0481
G01 X37.4433 Y44.0417
G01 X37.4357 Y44.0026
G01 X37.4349 Y43.9974
G01 X37.4347 Y43.9922
G01 X37.4347 Y26.3683
G00 Z2.0000
G00 X31.7089 Y23.1206
G01 F60.00
G01 Z-0.0500
G01 F120.00
G01 X31.8322 Y23.1379
G01 X31.9515 Y23.1710
G01 X32.0655 Y23.2208
G01 X32.1714 Y23.2850
G01 X32.2678 Y23.3636
G01 X32.3526 Y23.4542
G01 X32.4240 Y23.5553
G01 X32.4810 Y23.6655
G01 X32.5227 Y23.7824
G01 X32.5476 Y23.9041
G01 X32.5562 Y24.0278
G01 X32.5476 Y24.1514
G01 X32.5227 Y24.2732
G01 X32.4810 Y24.3900
G01 X32.4240 Y24.5003
G01 X32.3526 Y24.6013
G01 X32.2678 Y24.6919
G01 X32.1714 Y24.7705
G01 X32.0656 Y24.8347
G01 X31.9515 Y24.8841
G01 X31.8321 Y24.9177
G01 X31.7089 Y24.9349
G01 X31.5855 Y24.9349
G01 X31.4623 Y24.9177
G01 X31.3429 Y24.8841
G01 X31.2288 Y24.8347
G01 X31.1229 Y24.7705
G01 X31.0266 Y24.6919
G01 X30.9418 Y24.6013
G01 X30.8704 Y24.5003
G01 X30.8134 Y24.3900
G01 X30.7717 Y24.2732
G01 X30.7468 Y24.1514
G01 X30.7381 Y24.0278
G01 X30.7468 Y23.9041
G01 X30.7717 Y23.7824
G01 X30.8134 Y23.6655
G01 X30.8704 Y23.5553
G01 X30.9418 Y23.4542
G01 X31.0266 Y23.3636
G01 X31.1229 Y23.2850
G01 X31.2289 Y23.2208
G01 X31.3429 Y23.1710
G01 X31.4622 Y23.1379
G01 X31.5855 Y23.1206
G01 X31.7089 Y23.1206
G00 Z2.0000
G00 X30.8854 Y24.0304
G01 F60.00
G01 Z-0.0500
G01 F120.00
G01 X30.8890 Y23.9531
G01 X30.8999 Y23.8791
G01 X30.9181 Y23.8066
G01 X30.9433 Y23.7362
G01 X30.9753 Y23.6686
G01 X31.0137 Y23.6045
G01 X31.0582 Y23.5444
G01 X31.1085 Y23.4890
G01 X31.1639 Y23.4388
G01 X31.2239 Y23.3943
G01 X31.2880 Y23.3558
G01 X31.3556 Y23.3239
G01 X31.4260 Y23.2987
G01 X31.4986 Y23.2805
G01 X31.5725 Y23.2696
G01 X31.6472 Y23.2659
G01 X31.7219 Y23.2696
G01 X31.7958 Y23.2805
G01 X31.8684 Y23.2987
G01 X31.9387 Y23.3239
G01 X32.0063 Y23.3558
G01 X32.0705 Y23.3943
G01 X32.1305 Y23.4388
G01 X32.1859 Y23.4890
G01 X32.2361 Y23.5444
G01 X32.2807 Y23.6045
G01 X32.3191 Y23.6686
G01 X32.3511 Y23.7362
G01 X32.3763 Y23.8066
G01 X32.3944 Y23.8791
G01 X32.4054 Y23.9531
G01 X32.4091 Y24.0278
G01 X32.4054 Y24.1025
G01 X32.3944 Y24.1764
G01 X32.3763 Y24.2489
G01 X32.3511 Y24.3193
G01 X32.3191 Y24.3869
G01 X32.2807 Y24.4511
G01 X32.2361 Y24.5111
G01 X32.1859 Y24.5665
G01 X32.1305 Y24.6167
G01 X32.0705 Y24.6613
G01 X32.0063 Y24.6997
G01 X31.9387 Y24.7317
G01 X31.8684 Y24.7569
G01 X31.7958 Y24.7750
G01 X31.7219 Y24.7860
G01 X31.6472 Y24.7897
G01 X31.5725 Y24.7860
G01 X31.4986 Y24.7750
G01 X31.4260 Y24.7569
G01 X31.3556 Y24.7317
G01 X31.2880 Y24.6997
G01 X31.2239 Y24.6613
G01 X31.1639 Y24.6167
G01 X31.1085 Y24.5665
G01 X31.0582 Y24.5111
G01 X31.0137 Y24.4511
G01 X30.9753 Y24.3869
G01 X30.9433 Y24.3193
G01 X30.9181 Y24.2489
G01 X30.8999 Y24.1764
G01 X30.8890 Y24.1025
G01 X30.8854 Y24.0304
G00 Z2.0000
G00 X31.6482 Y32.3094
G01 F60.00
G01 Z-0.0500
G01 F120.00
G01 X31.7772 Y32.3176
G01 X31.9043 Y32.3431
G01 X32.0266 Y32.3845
G01 X32.1426 Y32.4418
G01 X32.2500 Y32.5136
G01 X32.3477 Y32.5988
G01 X32.4329 Y32.6964
G01 X32.5046 Y32.8039
G01 X32.5619 Y32.9199
G01 X32.6033 Y33.0422
G01 X32.6288 Y33.1692
G01 X32.6370 Y33.2983
G01 X32.6288 Y33.4273
G01 X32.6033 Y33.5544
G01 X32.5619 Y33.6767
G01 X32.5046 Y33.7932
G01 X32.4329 Y33.9005
G01 X32.3478 Y33.9977
G01 X32.2500 Y34.0830
G01 X32.1426 Y34.1552
G01 X32.0266 Y34.2120
G01 X31.9043 Y34.2539
G01 X31.7772 Y34.2789
G01 X31.6482 Y34.2876
G01 X31.5192 Y34.2789
G01 X31.3921 Y34.2539
G01 X31.2693 Y34.2120
G01 X31.1533 Y34.1552
G01 X31.0460 Y34.0830
G01 X30.9487 Y33.9978
G01 X30.8634 Y33.9005
G01 X30.7913 Y33.7932
G01 X30.7345 Y33.6767
G01 X30.6926 Y33.5544
G01 X30.6676 Y33.4273
G01 X30.6589 Y33.2983
G01 X30.6676 Y33.1692
G01 X30.6926 Y33.0422
G01 X30.7345 Y32.9199
G01 X30.7913 Y32.8039
G01 X30.8635 Y32.6965
G01 X30.9487 Y32.5987
G01 X31.0459 Y32.5136
G01 X31.1533 Y32.4418
G01 X31.2693 Y32.3846
G01 X31.3921 Y32.3431
G01 X31.5192 Y32.3176
G01 X31.6482 Y32.3094
G00 Z2.0000
G00 X30.8061 Y33.3012
G01 F60.00
G01 Z-0.0500
G01 F120.00
G01 X30.8061 Y33.2958
G01 X30.8101 Y33.2160
G01 X30.8222 Y33.1343
G01 X30.8423 Y33.0541
G01 X30.8701 Y32.9763
G01 X30.9055 Y32.9017
G01 X30.9479 Y32.8308
G01 X30.9972 Y32.7644
G01 X31.0526 Y32.7032
G01 X31.1139 Y32.6477
G01 X31.1802 Y32.5985
G01 X31.2511 Y32.5560
G01 X31.3258 Y32.5207
G01 X31.4036 Y32.4929
G01 X31.4837 Y32.4728
G01 X31.5654 Y32.4607
G01 X31.6480 Y32.4566
G01 X31.7305 Y32.4607
G01 X31.8122 Y32.4728
G01 X31.8923 Y32.4929
G01 X31.9701 Y32.5207
G01 X32.0448 Y32.5560
G01 X32.1157 Y32.5985
G01 X32.1820 Y32.6477
G01 X32.2433 Y32.7032
G01 X32.2987 Y32.7644
G01 X32.3480 Y32.8308
G01 X32.3904 Y32.9017
G01 X32.4258 Y32.9763
G01 X32.4536 Y33.0541
G01 X32.4737 Y33.1343
G01 X32.4858 Y33.2160
G01 X32.4898 Y33.2985
G01 X32.4858 Y33.3810
G01 X32.4737 Y33.4628
G01 X32.4536 Y33.5429
G01 X32.4258 Y33.6207
G01 X32.3904 Y33.6954
G01 X32.3480 Y33.7663
G01 X32.2987 Y33.8326
G01 X32.2433 Y33.8938
G01 X32.1820 Y33.9493
G01 X32.1157 Y33.9985
G01 X32.0448 Y34.0410
G01 X31.9701 Y34.0763
G01 X31.8923 Y34.1042
G01 X31.8122 Y34.1242
G01 X31.7305 Y34.1364
G01 X31.6480 Y34.1404
G01 X31.5654 Y34.1364
G01 X31.4837 Y34.1242
G01 X31.4036 Y34.1042
G01 X31.3258 Y34.0763
G01 X31.2511 Y34.0410
G01 X31.1802 Y33.9985
G01 X31.1139 Y33.9493
G01 X31.0526 Y33.8938
G01 X30.9972 Y33.8326
G01 X30.9479 Y33.7663
G01 X30.9055 Y33.6954
G01 X30.8701 Y33.6207
G01 X30.8423 Y33.5429
G01 X30.8222 Y33.4628
G01 X30.8101 Y33.3810
G01 X30.8061 Y33.3012
G00 Z2.0000
G00 X29.1082 Y32.3094
G01 F60.00
G01 Z-0.0500
G01 F120.00
G01 X29.2372 Y32.3176
G01 X29.3643 Y32.3431
G01 X29.4866 Y32.3845
G01 X29.6026 Y32.4418
G01 X29.7100 Y32.5136
G01 X29.8077 Y32.5988
G01 X29.8929 Y32.6964
G01 X29.9646 Y32.8039
G01 X30.0219 Y32.9199
G01 X30.0633 Y33.0422
G01 X30.0888 Y33.1692
G01 X30.0970 Y33.2983
G01 X30.0888 Y33.4273
G01 X30.0633 Y33.5544
G01 X30.0219 Y33.6767
G01 X29.9646 Y33.7932
G01 X29.8929 Y33.9005
G01 X29.8078 Y33.9977
G01 X29.7100 Y34.0830
G01 X29.6026 Y34.1552
G01 X29.4866 Y34.2120
G01 X29.3643 Y34.2539
G01 X29.2372 Y34.2789
G01 X29.1082 Y34.2876
G01 X28.9792 Y34.2789
G01 X28.8521 Y34.2539
G01 X28.7293 Y34.2120
G01 X28.6133 Y34.1552
G01 X28.5060 Y34.0830
G01 X28.4087 Y33.9978
G01 X28.3234 Y33.9005
G01 X28.2513 Y33.7932
G01 X28.1945 Y33.6767
G01 X28.1526 Y33.5544
G01 X28.1276 Y33.4273
G01 X28.1189 Y33.2983
G01 X28.1276 Y33.1692
G01 X28.1526 Y33.0422
G01 X28.1945 Y32.9199
G01 X28.2513 Y32.8039
G01 X28.3235 Y32.6965
G01 X28.4087 Y32.5987
G01 X28.5059 Y32.5136
G01 X28.6133 Y32.4418
G01 X28.7293 Y32.3846
G01 X28.8521 Y32.3431
G01 X28.9792 Y32.3176
G01 X29.1082 Y32.3094
G00 Z2.0000
G00 X28.2661 Y33.3012
G01 F60.00
G01 Z-0.0500
G01 F120.00
G01 X28.2661 Y33.2958
G01 X28.2701 Y33.2160
G01 X28.2822 Y33.1343
G01 X28.3023 Y33.0541
G01 X28.3301 Y32.9763
G01 X28.3655 Y32.9017
G01 X28.4079 Y32.8308
G01 X28.4572 Y32.7644
G01 X28.5126 Y32.7032
G01 X28.5739 Y32.6477
G01 X28.6402 Y32.5985
G01 X28.7111 Y32.5560
G01 X28.7858 Y32.5207
G01 X28.8636 Y32.4929
G01 X28.9437 Y32.4728
G01 X29.0254 Y32.4607
G01 X29.1080 Y32.4566
G01 X29.1905 Y32.4607
G01 X29.2722 Y32.4728
G01 X29.3523 Y32.4929
G01 X29.4301 Y32.5207
G01 X29.5048 Y32.5560
G01 X29.5757 Y32.5985
G01 X29.6420 Y32.6477
G01 X29.7033 Y32.7032
G01 X29.7587 Y32.7644
G01 X29.8080 Y32.8308
G01 X29.8504 Y32.9017
G01 X29.8858 Y32.9763
G01 X29.9136 Y33.0541
G01 X29.9337 Y33.1343
G01 X29.9458 Y33.2160
G01 X29.9498 Y33.2985
G01 X29.9458 Y33.3810
G01 X29.9337 Y33.4628
G01 X29.9136 Y33.5429
G01 X29.8858 Y33.6207
G01 X29.8504 Y33.6954
G01 X29.8080 Y33.7663
G01 X29.7587 Y33.8326
G01 X29.7033 Y33.8938
G01 X29.6420 Y33.9493
G01 X29.5757 Y33.9985
G01 X29.5048 Y34.0410
G01 X29.4301 Y34.0763
G01 X29.3523 Y34.1042
G01 X29.2722 Y34.1242
G01 X29.1905 Y34.1364
G01 X29.1080 Y34.1404
G01 X29.0254 Y34.1364
G01 X28.9437 Y34.1242
G01 X28.8636 Y34.1042
G01 X28.7858 Y34.0763
G01 X28.7111 Y34.0410
G01 X28.6402 Y33.9985
G01 X28.5739 Y33.9493
G01 X28.5126 Y33.8938
G01 X28.4572 Y33.8326
G01 X28.4079 Y33.7663
G01 X28.3655 Y33.6954
G01 X28.3301 Y33.6207
G01 X28.3023 Y33.5429
G01 X28.2822 Y33.4628
G01 X28.2701 Y33.3810
G01 X28.2661 Y33.3012
G00 Z2.0000
G00 X26.5682 Y32.3094
G01 F60.00
G01 Z-0.0500
G01 F120.00
G01 X26.6972 Y32.3176
G01 X26.8243 Y32.3431
G01 X26.9466 Y32.3845
G01 X27.0626 Y32.4418
G01 X27.1700 Y32.5136
G01 X27.2677 Y32.5988
G01 X27.3529 Y32.6964
G01 X27.4246 Y32.8039
G01 X27.4819 Y32.9199
G01 X27.5233 Y33.0422
G01 X27.5488 Y33.1692
G01 X27.5570 Y33.2983
G01 X27.5488 Y33.4273
G01 X27.5233 Y33.5544
G01 X27.4819 Y33.6767
G01 X27.4246 Y33.7932
G01 X27.3529 Y33.9005
G01 X27.2678 Y33.9977
G01 X27.1700 Y34.0830
G01 X27.0626 Y34.1552
G01 X26.9466 Y34.2120
G01 X26.8243 Y34.2539
G01 X26.6972 Y34.2789
G01 X26.5682 Y34.2876
G01 X26.4392 Y34.2789
G01 X26.3121 Y34.2539
G01 X26.1893 Y34.2120
G01 X26.0733 Y34.1552
G01 X25.9660 Y34.0830
G01 X25.8687 Y33.9978
G01 X25.7834 Y33.9005
G01 X25.7113 Y33.7932
G01 X25.6545 Y33.6767
G01 X25.6126 Y33.5544
G01 X25.5876 Y33.4273
G01 X25.5789 Y33.2983
G01 X25.5876 Y33.1692
G01 X25.6126 Y33.0422
G01 X25.6545 Y32.9199
G01 X25.7113 Y32.8039
G01 X25.7835 Y32.6965
G01 X25.8687 Y32.5987
G01 X25.9659 Y32.5136
G01 X26.0733 Y32.4418
G01 X26.1893 Y32.3846
G01 X26.3121 Y32.3431
G01 X26.4392 Y32.3176
G01 X26.5682 Y32.3094
G00 Z2.0000
G00 X25.7261 Y33.3012
G01 F60.00
G01 Z-0.0500
G01 F120.00
G01 X25.7261 Y33.2958
G01 X25.7301 Y33.2160
G01 X25.7422 Y33.1343
G01 X25.7623 Y33.0541
G01 X25.7901 Y32.9763
G01 X25.8255 Y32.9017
G01 X25.8679 Y32.8308
G01 X25.9172 Y32.7644
G01 X25.9726 Y32.7032
G01 X26.0339 Y32.6477
G01 X26.1002 Y32.5985
G01 X26.1711 Y32.5560
G01 X26.2458 Y32.5207
G01 X26.3236 Y32.4929
G01 X26.4037 Y32.4728
G01 X26.4854 Y32.4607
G01 X26.5680 Y32.4566
G01 X26.6505 Y32.4607
G01 X26.7322 Y32.4728
G01 X26.8123 Y32.4929
G01 X26.8901 Y32.5207
G01 X26.9648 Y32.5560
G01 X27.0357 Y32.5985
G01 X27.1020 Y32.6477
G01 X27.1633 Y32.7032
G01 X27.2187 Y32.7644
G01 X27.2680 Y32.8308
G01 X27.3104 Y32.9017
G01 X27.3458 Y32.9763
G01 X27.3736 Y33.0541
G01 X27.3937 Y33.1343
G01 X27.4058 Y33.2160
G01 X27.4098 Y33.2985
G01 X27.4058 Y33.3810
G01 X27.3937 Y33.4628
G01 X27.3736 Y33.5429
G01 X27.3458 Y33.6207
G01 X27.3104 Y33.6954
G01 X27.2680 Y33.7663
G01 X27.2187 Y33.8326
G01 X27.1633 Y33.8938
G01 X27.1020 Y33.9493
G01 X27.0357 Y33.9985
G01 X26.9648 Y34.0410
G01 X26.8901 Y34.0763
G01 X26.8123 Y34.1042
G01 X26.7322 Y34.1242
G01 X26.6505 Y34.1364
G01 X26.5680 Y34.1404
G01 X26.4854 Y34.1364
G01 X26.4037 Y34.1242
G01 X26.3236 Y34.1042
G01 X26.2458 Y34.0763
G01 X26.1711 Y34.0410
G01 X26.1002 Y33.9985
G01 X26.0339 Y33.9493
G01 X25.9726 Y33.8938
G01 X25.9172 Y33.8326
G01 X25.8679 Y33.7663
G01 X25.8255 Y33.6954
G01 X25.7901 Y33.6207
G01 X25.7623 Y33.5429
G01 X25.7422 Y33.4628
G01 X25.7301 Y33.3810
G01 X25.7261 Y33.3012
G00 Z2.0000
G00 X24.0282 Y32.3094
G01 F60.00
G01 Z-0.0500
G01 F120.00
G01 X24.1572 Y32.3176
G01 X24.2843 Y32.3431
G01 X24.4066 Y32.3845
G01 X24.5226 Y32.4418
G01 X24.6300 Y32.5136
G01 X24.7277 Y32.5988
G01 X24.8129 Y32.6964
G01 X24.8846 Y32.8039
G01 X24.9419 Y32.9199
G01 X24.9833 Y33.0422
G01 X25.0088 Y33.1692
G01 X25.0170 Y33.2983
G01 X25.0088 Y33.4273
G01 X24.9833 Y33.5544
G01 X24.9419 Y33.6767
G01 X24.8846 Y33.7932
G01 X24.8129 Y33.9005
G01 X24.7278 Y33.9977
G01 X24.6300 Y34.0830
G01 X24.5226 Y34.1552
G01 X24.4066 Y34.2120
G01 X24.2843 Y34.2539
G01 X24.1572 Y34.2789
G01 X24.0282 Y34.2876
G01 X23.8992 Y34.2789
G01 X23.7721 Y34.2539
G01 X23.6493 Y34.2120
G01 X23.5333 Y34.1552
G01 X23.4260 Y34.0830
G01 X23.3287 Y33.9978
G01 X23.2434 Y33.9005
G01 X23.1713 Y33.7932
G01 X23.1145 Y33.6767
G01 X23.0726 Y33.5544
G01 X23.0476 Y33.4273
G01 X23.0389 Y33.2983
G01 X23.0476 Y33.1692
G01 X23.0726 Y33.0422
G01 X23.1145 Y32.9199
G01 X23.1713 Y32.8039
G01 X23.2435 Y32.6965
G01 X23.3287 Y32.5987
G01 X23.4259 Y32.5136
G01 X23.5333 Y32.4418
G01 X23.6493 Y32.3846
G01 X23.7721 Y32.3431
G01 X23.8992 Y32.3176
G01 X24.0282 Y32.3094
G00 Z2.0000
G00 X23.1861 Y33.3012
G01 F60.00
G01 Z-0.0500
G01 F120.00
G01 X23.1861 Y33.2958
G01 X23.1901 Y33.2160
G01 X23.2022 Y33.1343
G01 X23.2223 Y33.0541
G01 X23.2501 Y32.9763
G01 X23.2855 Y32.9017
G01 X23.3279 Y32.8308
G01 X23.3772 Y32.7644
G01 X23.4326 Y32.7032
G01 X23.4939 Y32.6477
G01 X23.5602 Y32.5985
G01 X23.6311 Y32.5560
G01 X23.7058 Y32.5207
G01 X23.7836 Y32.4929
G01 X23.8637 Y32.4728
G01 X23.9454 Y32.4607
G01 X24.0280 Y32.4566
G01 X24.1105 Y32.4607
G01 X24.1922 Y32.4728
G01 X24.2723 Y32.4929
G01 X24.3501 Y32.5207
G01 X24.4248 Y32.5560
G01 X24.4957 Y32.5985
G01 X24.5620 Y32.6477
G01 X24.6233 Y32.7032
G01 X24.6787 Y32.7644
G01 X24.7280 Y32.8308
G01 X24.7704 Y32.9017
G01 X24.8058 Y32.9763
G01 X24.8336 Y33.0541
G01 X24.8537 Y33.1343
G01 X24.8658 Y33.2160
G01 X24.8698 Y33.2985
G01 X24.8658 Y33.3810
G01 X24.8537 Y33.4628
G01 X24.8336 Y33.5429
G01 X24.8058 Y33.6207
G01 X24.7704 Y33.6954
G01 X24.7280 Y33.7663
G01 X24.6787 Y33.8326
G01 X24.6233 Y33.8938
G01 X24.5620 Y33.9493
G01 X24.4957 Y33.9985
G01 X24.4248 Y34.0410
G01 X24.3501 Y34.0763
G01 X24.2723 Y34.1042
G01 X24.1922 Y34.1242
G01 X24.1105 Y34.1364
G01 X24.0280 Y34.1404
G01 X23.9454 Y34.1364
G01 X23.8637 Y34.1242
G01 X23.7836 Y34.1042
G01 X23.7058 Y34.0763
G01 X23.6311 Y34.0410
G01 X23.5602 Y33.9985
G01 X23.4939 Y33.9493
G01 X23.4326 Y33.8938
G01 X23.3772 Y33.8326
G01 X23.3279 Y33.7663
G01 X23.2855 Y33.6954
G01 X23.2501 Y33.6207
G01 X23.2223 Y33.5429
G01 X23.2022 Y33.4628
G01 X23.1901 Y33.3810
G01 X23.1861 Y33.3012
G00 Z2.0000
G00 X21.4882 Y32.3094
G01 F60.00
G01 Z-0.0500
G01 F120.00
G01 X21.6172 Y32.3176
G01 X21.7443 Y32.3431
G01 X21.8666 Y32.3845
G01 X21.9826 Y32.4418
G01 X22.0900 Y32.5136
G01 X22.1877 Y32.5988
G01 X22.2729 Y32.6964
G01 X22.3446 Y32.8039
G01 X22.4019 Y32.9199
G01 X22.4433 Y33.0422
G01 X22.4688 Y33.1692
G01 X22.4770 Y33.2983
G01 X22.4688 Y33.4273
G01 X22.4433 Y33.5544
G01 X22.4019 Y33.6767
G01 X22.3446 Y33.7932
G01 X22.2729 Y33.9005
G01 X22.1878 Y33.9977
G01 X22.0900 Y34.0830
G01 X21.9826 Y34.1552
G01 X21.8666 Y34.2120
G01 X21.7443 Y34.2539
G01 X21.6172 Y34.2789
G01 X21.4882 Y34.2876
G01 X21.3592 Y34.2789
G01 X21.2321 Y34.2539
G01 X21.1093 Y34.2120
G01 X20.9933 Y34.1552
G01 X20.8860 Y34.0830
G01 X20.7887 Y33.9978
G01 X20.7034 Y33.9005
G01 X20.6313 Y33.7932
G01 X20.5745 Y33.6767
G01 X20.5326 Y33.5544
G01 X20.5076 Y33.4273
G01 X20.4989 Y33.2983
G01 X20.5076 Y33.1692
G01 X20.5326 Y33.0422
G01 X20.5745 Y32.9199
G01 X20.6313 Y32.8039
G01 X20.7035 Y32.6965
G01 X20.7887 Y32.5987
G01 X20.8859 Y32.5136
G01 X20.9933 Y32.4418
G01 X21.1093 Y32.3846
G01 X21.2321 Y32.3431
G01 X21.3592 Y32.3176
G01 X21.4882 Y32.3094
G00 Z2.0000
G00 X20.6461 Y33.3012
G01 F60.00
G01 Z-0.0500
G01 F120.00
G01 X20.6461 Y33.2958
G01 X20.6501 Y33.2160
G01 X20.6622 Y33.1343
G01 X20.6823 Y33.0541
G01 X20.7101 Y32.9763
G01 X20.7455 Y32.9017
G01 X20.7879 Y32.8308
G01 X20.8372 Y32.7644
G01 X20.8926 Y32.7032
G01 X20.9539 Y32.6477
G01 X21.0202 Y32.5985
G01 X21.0911 Y32.5560
G01 X21.1658 Y32.5207
G01 X21.2436 Y32.4929
G01 X21.3237 Y32.4728
G01 X21.4054 Y32.4607
G01 X21.4880 Y32.4566
G01 X21.5705 Y32.4607
G01 X21.6522 Y32.4728
G01 X21.7323 Y32.4929
G01 X21.8101 Y32.5207
G01 X21.8848 Y32.5560
G01 X21.9557 Y32.5985
G01 X22.0220 Y32.6477
G01 X22.0833 Y32.7032
G01 X22.1387 Y32.7644
G01 X22.1880 Y32.8308
G01 X22.2304 Y32.9017
G01 X22.2658 Y32.9763
G01 X22.2936 Y33.0541
G01 X22.3137 Y33.1343
G01 X22.3258 Y33.2160
G01 X22.3298 Y33.2985
G01 X22.3258 Y33.3810
G01 X22.3137 Y33.4628
G01 X22.2936 Y33.5429
G01 X22.2658 Y33.6207
G01 X22.2304 Y33.6954
G01 X22.1880 Y33.7663
G01 X22.1387 Y33.8326
G01 X22.0833 Y33.8938
G01 X22.0220 Y33.9493
G01 X21.9557 Y33.9985
G01 X21.8848 Y34.0410
G01 X21.8101 Y34.0763
G01 X21.7323 Y34.1042
G01 X21.6522 Y34.1242
G01 X21.5705 Y34.1364
G01 X21.4880 Y34.1404
G01 X21.4054 Y34.1364
G01 X21.3237 Y34.1242
G01 X21.2436 Y34.1042
G01 X21.1658 Y34.0763
G01 X21.0911 Y34.0410
G01 X21.0202 Y33.9985
G01 X20.9539 Y33.9493
G01 X20.8926 Y33.8938
G01 X20.8372 Y33.8326
G01 X20.7879 Y33.7663
G01 X20.7455 Y33.6954
G01 X20.7101 Y33.6207
G01 X20.6823 Y33.5429
G01 X20.6622 Y33.4628
G01 X20.6501 Y33.3810
G01 X20.6461 Y33.3012
G00 Z2.0000
G00 X18.9482 Y32.3094
G01 F60.00
G01 Z-0.0500
G01 F120.00
G01 X19.0772 Y32.3176
G01 X19.2043 Y32.3431
G01 X19.3266 Y32.3845
G01 X19.4426 Y32.4418
G01 X19.5500 Y32.5136
G01 X19.6477 Y32.5988
G01 X19.7329 Y32.6964
G01 X19.8046 Y32.8039
G01 X19.8619 Y32.9199
G01 X19.9033 Y33.0422
G01 X19.9288 Y33.1692
G01 X19.9370 Y33.2983
G01 X19.9288 Y33.4273
G01 X19.9033 Y33.5544
G01 X19.8619 Y33.6767
G01 X19.8046 Y33.7932
G01 X19.7329 Y33.9005
G01 X19.6478 Y33.9977
G01 X19.5500 Y34.0830
G01 X19.4426 Y34.1552
G01 X19.3266 Y34.2120
G01 X19.2043 Y34.2539
G01 X19.0772 Y34.2789
G01 X18.9482 Y34.2876
G01 X18.8192 Y34.2789
G01 X18.6921 Y34.2539
G01 X18.5693 Y34.2120
G01 X18.4533 Y34.1552
G01 X18.3460 Y34.0830
G01 X18.2487 Y33.9978
G01 X18.1634 Y33.9005
G01 X18.0913 Y33.7932
G01 X18.0345 Y33.6767
G01 X17.9926 Y33.5544
G01 X17.9676 Y33.4273
G01 X17.9589 Y33.2983
G01 X17.9676 Y33.1692
G01 X17.9926 Y33.0422
G01 X18.0345 Y32.9199
G01 X18.0913 Y32.8039
G01 X18.1635 Y32.6965
G01 X18.2487 Y32.5987
G01 X18.3459 Y32.5136
G01 X18.4533 Y32.4418
G01 X18.5693 Y32.3846
G01 X18.6921 Y32.3431
G01 X18.8192 Y32.3176
G01 X18.9482 Y32.3094
G00 Z2.0000
G00 X18.1061 Y33.3012
G01 F60.00
G01 Z-0.0500
G01 F120.00
G01 X18.1061 Y33.2958
G01 X18.1101 Y33.2160
G01 X18.1222 Y33.1343
G01 X18.1423 Y33.0541
G01 X18.1701 Y32.9763
G01 X18.2055 Y32.9017
G01 X18.2479 Y32.8308
G01 X18.2972 Y32.7644
G01 X18.3526 Y32.7032
G01 X18.4139 Y32.6477
G01 X18.4802 Y32.5985
G01 X18.5511 Y32.5560
G01 X18.6258 Y32.5207
G01 X18.7036 Y32.4929
G01 X18.7837 Y32.4728
G01 X18.8654 Y32.4607
G01 X18.9480 Y32.4566
G01 X19.0305 Y32.4607
G01 X19.1122 Y32.4728
G01 X19.1923 Y32.4929
G01 X19.2701 Y32.5207
G01 X19.3448 Y32.5560
G01 X19.4157 Y32.5985
G01 X19.4820 Y32.6477
G01 X19.5433 Y32.7032
G01 X19.5987 Y32.7644
G01 X19.6480 Y32.8308
G01 X19.6904 Y32.9017
G01 X19.7258 Y32.9763
G01 X19.7536 Y33.0541
G01 X19.7737 Y33.1343
G01 X19.7858 Y33.2160
G01 X19.7898 Y33.2985
G01 X19.7858 Y33.3810
G01 X19.7737 Y33.4628
G01 X19.7536 Y33.5429
G01 X19.7258 Y33.6207
G01 X19.6904 Y33.6954
G01 X19.6480 Y33.7663
G01 X19.5987 Y33.8326
G01 X19.5433 Y33.8938
G01 X19.4820 Y33.9493
G01 X19.4157 Y33.9985
G01 X19.3448 Y34.0410
G01 X19.2701 Y34.0763
G01 X19.1923 Y34.1042
G01 X19.1122 Y34.1242
G01 X19.0305 Y34.1364
G01 X18.9480 Y34.1404
G01 X18.8654 Y34.1364
G01 X18.7837 Y34.1242
G01 X18.7036 Y34.1042
G01 X18.6258 Y34.0763
G01 X18.5511 Y34.0410
G01 X18.4802 Y33.9985
G01 X18.4139 Y33.9493
G01 X18.3526 Y33.8938
G01 X18.2972 Y33.8326
G01 X18.2479 Y33.7663
G01 X18.2055 Y33.6954
G01 X18.1701 Y33.6207
G01 X18.1423 Y33.5429
G01 X18.1222 Y33.4628
G01 X18.1101 Y33.3810
G01 X18.1061 Y33.3012
G00 Z2.0000
G00 X16.4082 Y32.3094
G01 F60.00
G01 Z-0.0500
G01 F120.00
G01 X16.5372 Y32.3176
G01 X16.6643 Y32.3431
G01 X16.7866 Y32.3845
G01 X16.9026 Y32.4418
G01 X17.0100 Y32.5136
G01 X17.1077 Y32.5988
G01 X17.1929 Y32.6964
G01 X17.2646 Y32.8039
G01 X17.3219 Y32.9199
G01 X17.3633 Y33.0422
G01 X17.3888 Y33.1692
G01 X17.3970 Y33.2983
G01 X17.3888 Y33.4273
G01 X17.3633 Y33.5544
G01 X17.3219 Y33.6767
G01 X17.2646 Y33.7932
G01 X17.1929 Y33.9005
G01 X17.1078 Y33.9977
G01 X17.0100 Y34.0830
G01 X16.9026 Y34.1552
G01 X16.7866 Y34.2120
G01 X16.6643 Y34.2539
G01 X16.5372 Y34.2789
G01 X16.4082 Y34.2876
G01 X16.2792 Y34.2789
G01 X16.1521 Y34.2539
G01 X16.0293 Y34.2120
G01 X15.9133 Y34.1552
G01 X15.8060 Y34.0830
G01 X15.7087 Y33.9978
G01 X15.6234 Y33.9005
G01 X15.5513 Y33.7932
G01 X15.4945 Y33.6767
G01 X15.4526 Y33.5544
G01 X15.4276 Y33.4273
G01 X15.4189 Y33.2983
G01 X15.4276 Y33.1692
G01 X15.4526 Y33.0422
G01 X15.4945 Y32.9199
G01 X15.5513 Y32.8039
G01 X15.6235 Y32.6965
G01 X15.7087 Y32.5987
G01 X15.8059 Y32.5136
G01 X15.9133 Y32.4418
G01 X16.0293 Y32.3846
G01 X16.1521 Y32.3431
G01 X16.2792 Y32.3176
G01 X16.4082 Y32.3094
G00 Z2.0000
G00 X15.5661 Y33.3012
G01 F60.00
G01 Z-0.0500
G01 F120.00
G01 X15.5661 Y33.2958
G01 X15.5701 Y33.2160
G01 X15.5822 Y33.1343
G01 X15.6023 Y33.0541
G01 X15.6301 Y32.9763
G01 X15.6655 Y32.9017
G01 X15.7079 Y32.8308
G01 X15.7572 Y32.7644
G01 X15.8126 Y32.7032
G01 X15.8739 Y32.6477
G01 X15.9402 Y32.5985
G01 X16.0111 Y32.5560
G01 X16.0858 Y32.5207
G01 X16.1636 Y32.4929
G01 X16.2437 Y32.4728
G01 X16.3254 Y32.4607
G01 X16.4080 Y32.4566
G01 X16.4905 Y32.4607
G01 X16.5722 Y32.4728
G01 X16.6523 Y32.4929
G01 X16.7301 Y32.5207
G01 X16.8048 Y32.5560
G01 X16.8757 Y32.5985
G01 X16.9420 Y32.6477
G01 X17.0033 Y32.7032
G01 X17.0587 Y32.7644
G01 X17.1080 Y32.8308
G01 X17.1504 Y32.9017
G01 X17.1858 Y32.9763
G01 X17.2136 Y33.0541
G01 X17.2337 Y33.1343
G01 X17.2458 Y33.2160
G01 X17.2498 Y33.2985
G01 X17.2458 Y33.3810
G01 X17.2337 Y33.4628
G01 X17.2136 Y33.5429
G01 X17.1858 Y33.6207
G01 X17.1504 Y33.6954
G01 X17.1080 Y33.7663
G01 X17.0587 Y33.8326
G01 X17.0033 Y33.8938
G01 X16.9420 Y33.9493
G01 X16.8757 Y33.9985
G01 X16.8048 Y34.0410
G01 X16.7301 Y34.0763
G01 X16.6523 Y34.1042
G01 X16.5722 Y34.1242
G01 X16.4905 Y34.1364
G01 X16.4080 Y34.1404
G01 X16.3254 Y34.1364
G01 X16.2437 Y34.1242
G01 X16.1636 Y34.1042
G01 X16.0858 Y34.0763
G01 X16.0111 Y34.0410
G01 X15.9402 Y33.9985
G01 X15.8739 Y33.9493
G01 X15.8126 Y33.8938
G01 X15.7572 Y33.8326
G01 X15.7079 Y33.7663
G01 X15.6655 Y33.6954
G01 X15.6301 Y33.6207
G01 X15.6023 Y33.5429
G01 X15.5822 Y33.4628
G01 X15.5701 Y33.3810
G01 X15.5661 Y33.3012
G00 Z2.0000
G00 X13.8682 Y32.3094
G01 F60.00
G01 Z-0.0500
G01 F120.00
G01 X13.9972 Y32.3176
G01 X14.1243 Y32.3431
G01 X14.2466 Y32.3845
G01 X14.3626 Y32.4418
G01 X14.4700 Y32.5136
G01 X14.5677 Y32.5988
G01 X14.6529 Y32.6964
G01 X14.7246 Y32.8039
G01 X14.7819 Y32.9199
G01 X14.8233 Y33.0422
G01 X14.8488 Y33.1692
G01 X14.8570 Y33.2983
G01 X14.8488 Y33.4273
G01 X14.8233 Y33.5544
G01 X14.7819 Y33.6767
G01 X14.7246 Y33.7932
G01 X14.6529 Y33.9005
G01 X14.5678 Y33.9977
G01 X14.4700 Y34.0830
G01 X14.3626 Y34.1552
G01 X14.2466 Y34.2120
G01 X14.1243 Y34.2539
G01 X13.9972 Y34.2789
G01 X13.8682 Y34.2876
G01 X13.7392 Y34.2789
G01 X13.6121 Y34.2539
G01 X13.4893 Y34.2120
G01 X13.3733 Y34.1552
G01 X13.2660 Y34.0830
G01 X13.1687 Y33.9978
G01 X13.0834 Y33.9005
G01 X13.0113 Y33.7932
G01 X12.9545 Y33.6767
G01 X12.9126 Y33.5544
G01 X12.8876 Y33.4273
G01 X12.8789 Y33.2983
G01 X12.8876 Y33.1692
G01 X12.9126 Y33.0422
G01 X12.9545 Y32.9199
G01 X13.0113 Y32.8039
G01 X13.0835 Y32.6965
G01 X13.1687 Y32.5987
G01 X13.2659 Y32.5136
G01 X13.3733 Y32.4418
G01 X13.4893 Y32.3846
G01 X13.6121 Y32.3431
G01 X13.7392 Y32.3176
G01 X13.8682 Y32.3094
G00 Z2.0000
G00 X13.0261 Y33.3012
G01 F60.00
G01 Z-0.0500
G01 F120.00
G01 X13.0261 Y33.2958
G01 X13.0301 Y33.2160
G01 X13.0422 Y33.1343
G01 X13.0623 Y33.0541
G01 X13.0901 Y32.9763
G01 X13.1255 Y32.9017
G01 X13.1679 Y32.8308
G01 X13.2172 Y32.7644
G01 X13.2726 Y32.7032
G01 X13.3339 Y32.6477
G01 X13.4002 Y32.5985
G01 X13.4711 Y32.5560
G01 X13.5458 Y32.5207
G01 X13.6236 Y32.4929
G01 X13.7037 Y32.4728
G01 X13.7854 Y32.4607
G01 X13.8680 Y32.4566
G01 X13.9505 Y32.4607
G01 X14.0322 Y32.4728
G01 X14.1123 Y32.4929
G01 X14.1901 Y32.5207
G01 X14.2648 Y32.5560
G01 X14.3357 Y32.5985
G01 X14.4020 Y32.6477
G01 X14.4633 Y32.7032
G01 X14.5187 Y32.7644
G01 X14.5680 Y32.8308
G01 X14.6104 Y32.9017
G01 X14.6458 Y32.9763
G01 X14.6736 Y33.0541
G01 X14.6937 Y33.1343
G01 X14.7058 Y33.2160
G01 X14.7098 Y33.2985
G01 X14.7058 Y33.3810
G01 X14.6937 Y33.4628
G01 X14.6736 Y33.5429
G01 X14.6458 Y33.6207
G01 X14.6104 Y33.6954
G01 X14.5680 Y33.7663
G01 X14.5187 Y33.8326
G01 X14.4633 Y33.8938
G01 X14.4020 Y33.9493
G01 X14.3357 Y33.9985
G01 X14.2648 Y34.0410
G01 X14.1901 Y34.0763
G01 X14.1123 Y34.1042
G01 X14.0322 Y34.1242
G01 X13.9505 Y34.1364
G01 X13.8680 Y34.1404
G01 X13.7854 Y34.1364
G01 X13.7037 Y34.1242
G01 X13.6236 Y34.1042
G01 X13.5458 Y34.0763
G01 X13.4711 Y34.0410
G01 X13.4002 Y33.9985
G01 X13.3339 Y33.9493
G01 X13.2726 Y33.8938
G01 X13.2172 Y33.8326
G01 X13.1679 Y33.7663
G01 X13.1255 Y33.6954
G01 X13.0901 Y33.6207
G01 X13.0623 Y33.5429
G01 X13.0422 Y33.4628
G01 X13.0301 Y33.3810
G01 X13.0261 Y33.3012
G00 Z2.0000
G00 X25.8054 Y42.3184
G01 F60.00
G01 Z-0.0500
G01 F120.00
G01 X25.8090 Y42.2411
G01 X25.8199 Y42.1671
G01 X25.8381 Y42.0946
G01 X25.8633 Y42.0242
G01 X25.8953 Y41.9566
G01 X25.9337 Y41.8925
G01 X25.9782 Y41.8324
G01 X26.0285 Y41.7770
G01 X26.0839 Y41.7268
G01 X26.1439 Y41.6823
G01 X26.2080 Y41.6438
G01 X26.2756 Y41.6119
G01 X26.3460 Y41.5867
G01 X26.4186 Y41.5685
G01 X26.4925 Y41.5576
G01 X26.5672 Y41.5539
G01 X26.6419 Y41.5576
G01 X26.7158 Y41.5685
G01 X26.7884 Y41.5867
G01 X26.8587 Y41.6119
G01 X26.9263 Y41.6438
G01 X26.9905 Y41.6823
G01 X27.0505 Y41.7268
G01 X27.1059 Y41.7770
G01 X27.1561 Y41.8324
G01 X27.2007 Y41.8925
G01 X27.2391 Y41.9566
G01 X27.2711 Y42.0242
G01 X27.2963 Y42.0946
G01 X27.3144 Y42.1671
G01 X27.3254 Y42.2411
G01 X27.3291 Y42.3158
G01 X27.3254 Y42.3905
G01 X27.3144 Y42.4644
G01 X27.2963 Y42.5369
G01 X27.2711 Y42.6073
G01 X27.2391 Y42.6749
G01 X27.2007 Y42.7391
G01 X27.1561 Y42.7991
G01 X27.1059 Y42.8545
G01 X27.0505 Y42.9047
G01 X26.9905 Y42.9493
G01 X26.9263 Y42.9877
G01 X26.8587 Y43.0197
G01 X26.7884 Y43.0449
G01 X26.7158 Y43.0630
G01 X26.6419 Y43.0740
G01 X26.5672 Y43.0777
G01 X26.4925 Y43.0740
G01 X26.4186 Y43.0630
G01 X26.3460 Y43.0449
G01 X26.2756 Y43.0197
G01 X26.2080 Y42.9877
G01 X26.1439 Y42.9493
G01 X26.0839 Y42.9047
G01 X26.0285 Y42.8545
G01 X25.9782 Y42.7991
G01 X25.9337 Y42.7391
G01 X25.8953 Y42.6749
G01 X25.8633 Y42.6073
G01 X25.8381 Y42.5369
G01 X25.8199 Y42.4644
G01 X25.8090 Y42.3905
G01 X25.8054 Y42.3184
G00 Z2.0000
G00 X26.6289 Y41.4086
G01 F60.00
G01 Z-0.0500
G01 F120.00
G01 X26.7522 Y41.4259
G01 X26.8715 Y41.4590
G01 X26.9855 Y41.5088
G01 X27.0914 Y41.5730
G01 X27.1878 Y41.6516
G01 X27.2726 Y41.7422
G01 X27.3440 Y41.8433
G01 X27.4010 Y41.9535
G01 X27.4427 Y42.0704
G01 X27.4676 Y42.1921
G01 X27.4762 Y42.3158
G01 X27.4676 Y42.4394
G01 X27.4427 Y42.5612
G01 X27.4010 Y42.6780
G01 X27.3440 Y42.7883
G01 X27.2726 Y42.8893
G01 X27.1878 Y42.9799
G01 X27.0914 Y43.0585
G01 X26.9856 Y43.1227
G01 X26.8715 Y43.1721
G01 X26.7521 Y43.2057
G01 X26.6289 Y43.2229
G01 X26.5055 Y43.2229
G01 X26.3823 Y43.2057
G01 X26.2629 Y43.1721
G01 X26.1488 Y43.1227
G01 X26.0429 Y43.0585
G01 X25.9466 Y42.9799
G01 X25.8618 Y42.8893
G01 X25.7904 Y42.7883
G01 X25.7334 Y42.6780
G01 X25.6917 Y42.5612
G01 X25.6668 Y42.4394
G01 X25.6581 Y42.3158
G01 X25.6668 Y42.1921
G01 X25.6917 Y42.0704
G01 X25.7334 Y41.9535
G01 X25.7904 Y41.8433
G01 X25.8618 Y41.7422
G01 X25.9466 Y41.6516
G01 X26.0429 Y41.5730
G01 X26.1489 Y41.5088
G01 X26.2629 Y41.4590
G01 X26.3822 Y41.4259
G01 X26.5055 Y41.4086
G01 X26.6289 Y41.4086
G00 Z2.0000
G00 X33.9560 Y44.5498
G01 F60.00
G01 Z-0.0500
G01 F120.00
G01 X33.9652 Y44.5506
G01 X34.0056 Y44.5584
G01 X34.0107 Y44.5597
G01 X34.0156 Y44.5614
G01 X34.0204 Y44.5636
G01 X34.0260 Y44.5670
G01 X34.0596 Y44.5901
G01 X34.0657 Y44.5953
G01 X34.0694 Y44.5992
G01 X34.0726 Y44.6034
G01 X34.0957 Y44.6370
G01 X34.1000 Y44.6451
G01 X34.1023 Y44.6513
G01 X34.1035 Y44.6564
G01 X34.1114 Y44.6968
G01 X34.1121 Y44.7046
G01 X34.1121 Y48.9165
G01 X34.1176 Y49.0394
G01 X34.1209 Y49.0738
G01 X34.1406 Y49.1939
G01 X34.1481 Y49.2275
G01 X34.1814 Y49.3451
G01 X34.1925 Y49.3781
G01 X34.2389 Y49.4901
G01 X34.2543 Y49.5213
G01 X34.3137 Y49.6278
G01 X34.3323 Y49.6566
G01 X34.4037 Y49.7559
G01 X34.4256 Y49.7828
G01 X34.5085 Y49.8732
G01 X45.6798 Y61.0445
G01 X45.7701 Y61.1274
G01 X45.7971 Y61.1492
G01 X45.8963 Y61.2207
G01 X45.9252 Y61.2393
G01 X46.0316 Y61.2987
G01 X46.0629 Y61.3141
G01 X46.1748 Y61.3605
G01 X46.2079 Y61.3716
G01 X46.3249 Y61.4048
G01 X46.3590 Y61.4123
G01 X46.4792 Y61.4321
G01 X46.5135 Y61.4353
G01 X46.6364 Y61.4408
G01 X59.9789 Y61.4408
G01 X59.9845 Y61.4411
G01 X60.0261 Y61.4486
G01 X60.0350 Y61.4513
G01 X60.0434 Y61.4555
G01 X60.0761 Y61.4755
G01 X60.0816 Y61.4796
G01 X61.2378 Y62.5072
G01 X61.2425 Y62.5119
G01 X61.2458 Y62.5160
G01 X61.2715 Y62.5517
G01 X61.2760 Y62.5596
G01 X61.2780 Y62.5645
G01 X61.2794 Y62.5695
G01 X61.2889 Y62.6124
G01 X61.2899 Y62.6189
G01 X61.2901 Y62.6241
G01 X61.2901 Y78.7876
G01 X61.2894 Y78.7968
G01 X61.2815 Y78.8372
G01 X61.2803 Y78.8423
G01 X61.2785 Y78.8472
G01 X61.2763 Y78.8520
G01 X61.2737 Y78.8565
G01 X61.2506 Y78.8901
G01 X61.2465 Y78.8954
G01 X61.2418 Y78.9001
G01 X61.2366 Y78.9042
G01 X61.2029 Y78.9273
G01 X61.1949 Y78.9316
G01 X61.1887 Y78.9339
G01 X61.1836 Y78.9351
G01 X61.1432 Y78.9430
G01 X61.1340 Y78.9437
G01 X38.0041 Y78.9437
G01 X37.9183 Y78.9512
G01 X37.8416 Y78.9716
G01 X37.7695 Y79.0052
G01 X37.7042 Y79.0510
G01 X37.6484 Y79.1068
G01 X37.6026 Y79.1721
G01 X37.5691 Y79.2442
G01 X37.5487 Y79.3208
G01 X37.5411 Y79.4067
G01 X37.5411 Y88.0288
G01 X37.5487 Y88.1147
G01 X37.5691 Y88.1914
G01 X37.6026 Y88.2634
G01 X37.6484 Y88.3288
G01 X37.7042 Y88.3845
G01 X37.7695 Y88.4304
G01 X37.8416 Y88.4639
G01 X37.9183 Y88.4843
G01 X38.0041 Y88.4918
G01 X78.0250 Y88.4918
G01 X78.0316 Y88.4922
G01 X78.0759 Y88.5007
G01 X78.0809 Y88.5021
G01 X78.0859 Y88.5039
G01 X78.0939 Y88.5083
G01 X78.1276 Y88.5314
G01 X78.1318 Y88.5346
G01 X78.1357 Y88.5382
G01 X78.1408 Y88.5443
G01 X78.1639 Y88.5779
G01 X78.1673 Y88.5835
G01 X78.1695 Y88.5883
G01 X78.1713 Y88.5933
G01 X78.1725 Y88.5984
G01 X78.1804 Y88.6388
G01 X78.1811 Y88.6466
G01 X78.1811 Y94.1248
G01 X78.1887 Y94.2107
G01 X78.2091 Y94.2874
G01 X78.2426 Y94.3594
G01 X78.2884 Y94.4248
G01 X78.3442 Y94.4805
G01 X78.4095 Y94.5264
G01 X78.4816 Y94.5599
G01 X78.5583 Y94.5803
G01 X78.6441 Y94.5878
G01 X88.7903 Y94.5878
G01 X88.8761 Y94.5803
G01 X88.9528 Y94.5599
G01 X89.0248 Y94.5264
G01 X89.0902 Y94.4805
G01 X89.1460 Y94.4248
G01 X89.1918 Y94.3594
G01 X89.2253 Y94.2874
G01 X89.2457 Y94.2107
G01 X89.2532 Y94.1248
G01 X89.2532 Y89.6639
G01 X89.2540 Y89.6548
G01 X89.2619 Y89.6144
G01 X89.2631 Y89.6093
G01 X89.2648 Y89.6043
G01 X89.2671 Y89.5995
G01 X89.2704 Y89.5939
G01 X89.2936 Y89.5603
G01 X89.2978 Y89.5552
G01 X89.3016 Y89.5515
G01 X89.3068 Y89.5474
G01 X89.3404 Y89.5243
G01 X89.3485 Y89.5199
G01 X89.3547 Y89.5177
G01 X89.3598 Y89.5164
G01 X89.4002 Y89.5086
G01 X89.4094 Y89.5078
G01 X97.1745 Y89.5078
G01 X97.3260 Y89.4985
G01 X97.4705 Y89.4722
G01 X97.6110 Y89.4285
G01 X97.7451 Y89.3682
G01 X97.8711 Y89.2918
G01 X97.9868 Y89.2014
G01 X98.0909 Y89.0973
G01 X98.1692 Y88.9982
G01 X98.1735 Y88.9933
G01 X99.8093 Y87.3667
G01 X99.8608 Y87.3127
G01 X99.9085 Y87.2553
G01 X99.9519 Y87.1973
G01 X99.9927 Y87.1347
G01 X100.0286 Y87.0716
G01 X100.0612 Y87.0043
G01 X100.0894 Y86.9378
G01 X100.1137 Y86.8673
G01 X100.1337 Y86.7971
G01 X100.1497 Y86.7242
G01 X100.1609 Y86.6529
G01 X100.1677 Y86.5785
G01 X100.1702 Y86.5037
G01 X100.1752 Y85.1045
G01 X100.1752 Y82.2547
G01 X100.1760 Y82.2455
G01 X100.1842 Y82.2042
G01 X100.1865 Y82.1964
G01 X100.1901 Y82.1890
G01 X100.2153 Y82.1515
G01 X100.2212 Y82.1446
G01 X104.2420 Y78.1237
G01 X104.2489 Y78.1179
G01 X104.2841 Y78.0941
G01 X104.2901 Y78.0907
G01 X104.2964 Y78.0882
G01 X104.3030 Y78.0865
G01 X104.3416 Y78.0789
G01 X104.3469 Y78.0781
G01 X104.3521 Y78.0778
G01 X162.7088 Y78.0778
G01 X162.7847 Y78.0754
G01 X162.8581 Y78.0690
G01 X162.9309 Y78.0579
G01 X163.0023 Y78.0423
G01 X163.0734 Y78.0223
G01 X163.1430 Y77.9985
G01 X163.2111 Y77.9703
G01 X163.2773 Y77.9382
G01 X163.3413 Y77.9023
G01 X163.4031 Y77.8619
G01 X163.4625 Y77.8186
G01 X163.5187 Y77.7715
G01 X163.5739 Y77.7194
G01 X168.2500 Y73.0437
G01 X168.2569 Y73.0379
G01 X168.2921 Y73.0141
G01 X168.2969 Y73.0113
G01 X168.3018 Y73.0091
G01 X168.3110 Y73.0065
G01 X168.3509 Y72.9986
G01 X168.3588 Y72.9978
G01 X169.8162 Y72.9978
G01 X169.9021 Y72.9903
G01 X169.9788 Y72.9699
G01 X170.0508 Y72.9364
G01 X170.1162 Y72.8905
G01 X170.1719 Y72.8348
G01 X170.2178 Y72.7694
G01 X170.2513 Y72.6974
G01 X170.2717 Y72.6207
G01 X170.2792 Y72.5348
G01 X170.2793 Y67.0466
G01 X170.2800 Y67.0400
G01 X170.2879 Y67.0001
G01 X170.2892 Y66.9950
G01 X170.2909 Y66.9900
G01 X170.2932 Y66.9852
G01 X170.2959 Y66.9806
G01 X170.3185 Y66.9465
G01 X170.3244 Y66.9394
G01 X170.3314 Y66.9334
G01 X170.3645 Y66.9108
G01 X170.3690 Y66.9080
G01 X170.3738 Y66.9057
G01 X170.3788 Y66.9038
G01 X170.3840 Y66.9025
G01 X170.4239 Y66.8941
G01 X170.4330 Y66.8932
G01 X187.2473 Y66.6493
G01 X187.2530 Y66.6496
G01 X187.2586 Y66.6504
G01 X187.2989 Y66.6583
G01 X187.3077 Y66.6610
G01 X187.3158 Y66.6651
G01 X187.3515 Y66.6883
G01 X187.3567 Y66.6923
G01 X187.3613 Y66.6969
G01 X187.3661 Y66.7031
G01 X187.3884 Y66.7366
G01 X187.3934 Y66.7458
G01 X187.3962 Y66.7545
G01 X187.4046 Y66.7949
G01 X187.4055 Y66.8012
G01 X187.4057 Y66.8064
G01 X187.2742 Y84.0877
G01 X187.2806 Y84.1423
G01 X187.2964 Y84.1849
G01 X187.3252 Y84.2276
G01 X187.3428 Y84.2460
G01 X187.3468 Y84.2510
G01 X187.3713 Y84.2908
G01 X187.3739 Y84.2955
G01 X187.3768 Y84.3030
G01 X187.3786 Y84.3108
G01 X187.3844 Y84.3548
G01 X187.3849 Y84.3628
G01 X187.3642 Y84.5979
G01 X187.3188 Y84.9058
G01 X187.2545 Y85.2157
G01 X187.1738 Y85.5170
G01 X187.0747 Y85.8157
G01 X186.9593 Y86.1051
G01 X186.8276 Y86.3880
G01 X186.6772 Y86.6664
G01 X186.5133 Y86.9314
G01 X186.3347 Y87.1867
G01 X186.1392 Y87.4338
G01 X185.9308 Y87.6673
G01 X185.7103 Y87.8879
G01 X185.4746 Y88.0969
G01 X185.2288 Y88.2913
G01 X184.9735 Y88.4701
G01 X184.7053 Y88.6352
G01 X184.4283 Y88.7842
G01 X184.1455 Y88.9159
G01 X183.8560 Y89.0308
G01 X183.5553 Y89.1303
G01 X183.2546 Y89.2105
G01 X182.9493 Y89.2738
G01 X182.6377 Y89.3193
G01 X182.3251 Y89.3465
G01 X182.0101 Y89.3552
G01 X105.8215 Y89.3577
G01 X105.7916 Y89.3601
G01 X105.7326 Y89.3772
G01 X105.6942 Y89.3984
G01 X105.6685 Y89.4208
G01 X89.0130 Y106.0758
G01 X89.0065 Y106.0814
G01 X88.9728 Y106.1045
G01 X88.9684 Y106.1073
G01 X88.9637 Y106.1096
G01 X88.9588 Y106.1114
G01 X88.9537 Y106.1128
G01 X88.9094 Y106.1213
G01 X88.9029 Y106.1217
G01 X17.1743 Y106.1217
G01 X16.8531 Y106.1125
G01 X16.5395 Y106.0846
G01 X16.2295 Y106.0388
G01 X15.9242 Y105.9755
G01 X15.6219 Y105.8944
G01 X15.3227 Y105.7953
G01 X15.0333 Y105.6799
G01 X14.7510 Y105.5482
G01 X14.4739 Y105.3986
G01 X14.2071 Y105.2339
G01 X13.9492 Y105.0533
G01 X13.7051 Y104.8598
G01 X13.4723 Y104.6525
G01 X13.2494 Y104.4297
G01 X13.0406 Y104.1940
G01 X12.8476 Y103.9494
G01 X12.6689 Y103.6941
G01 X12.5032 Y103.4259
G01 X12.3549 Y103.1503
G01 X12.2232 Y102.8675
G01 X12.1076 Y102.5765
G01 X12.0090 Y102.2774
G01 X11.9276 Y101.9736
G01 X11.8648 Y101.6682
G01 X11.8199 Y101.3598
G01 X11.7925 Y101.0458
G01 X11.7832 Y100.7307
G01 X11.7832 Y44.7059
G01 X11.7840 Y44.6968
G01 X11.7919 Y44.6564
G01 X11.7931 Y44.6513
G01 X11.7948 Y44.6463
G01 X11.7971 Y44.6415
G01 X11.8004 Y44.6359
G01 X11.8236 Y44.6023
G01 X11.8287 Y44.5962
G01 X11.8326 Y44.5926
G01 X11.8368 Y44.5894
G01 X11.8704 Y44.5663
G01 X11.8785 Y44.5619
G01 X11.8834 Y44.5601
G01 X11.8885 Y44.5587
G01 X11.9328 Y44.5502
G01 X11.9393 Y44.5498
G01 X20.4940 Y44.5498
G01 X20.5032 Y44.5506
G01 X20.5462 Y44.5590
G01 X20.5536 Y44.5614
G01 X20.5618 Y44.5656
G01 X20.5976 Y44.5901
G01 X20.6037 Y44.5953
G01 X20.6098 Y44.6023
G01 X20.6337 Y44.6370
G01 X20.6380 Y44.6451
G01 X20.6410 Y44.6538
G01 X20.6494 Y44.6968
G01 X20.6501 Y44.7059
G01 X20.6500 Y48.0569
G01 X20.6433 Y48.0987
G01 X20.6410 Y48.1066
G01 X20.6374 Y48.1141
G01 X20.6207 Y48.1436
G01 X20.6173 Y48.1488
G01 X20.5376 Y48.2477
G01 X20.4624 Y48.3695
G01 X20.4027 Y48.4996
G01 X20.3590 Y48.6360
G01 X20.3328 Y48.7766
G01 X20.3241 Y48.9198
G01 X20.3328 Y49.0630
G01 X20.3590 Y49.2036
G01 X20.4027 Y49.3400
G01 X20.4624 Y49.4701
G01 X20.5376 Y49.5918
G01 X20.6173 Y49.6907
G01 X20.6207 Y49.6960
G01 X20.6374 Y49.7254
G01 X20.6410 Y49.7329
G01 X20.6433 Y49.7408
G01 X20.6500 Y49.7826
G01 X20.6501 Y54.4044
G01 X20.6494 Y54.4120
G01 X20.6433 Y54.4487
G01 X20.6410 Y54.4566
G01 X20.6374 Y54.4641
G01 X20.6207 Y54.4936
G01 X20.6173 Y54.4988
G01 X20.5376 Y54.5977
G01 X20.4624 Y54.7195
G01 X20.4027 Y54.8496
G01 X20.3590 Y54.9859
G01 X20.3328 Y55.1266
G01 X20.3241 Y55.2698
G01 X20.3328 Y55.4130
G01 X20.3590 Y55.5536
G01 X20.4027 Y55.6900
G01 X20.4624 Y55.8201
G01 X20.5376 Y55.9418
G01 X20.6173 Y56.0407
G01 X20.6207 Y56.0460
G01 X20.6374 Y56.0754
G01 X20.6410 Y56.0829
G01 X20.6433 Y56.0908
G01 X20.6494 Y56.1276
G01 X20.6501 Y56.1339
G01 X20.6501 Y63.6487
G01 X20.6526 Y63.7114
G01 X20.6588 Y63.7711
G01 X20.6693 Y63.8297
G01 X20.6840 Y63.8873
G01 X20.7031 Y63.9441
G01 X20.7260 Y63.9995
G01 X20.7527 Y64.0529
G01 X20.7833 Y64.1045
G01 X20.8171 Y64.1535
G01 X20.8547 Y64.1996
G01 X20.8975 Y64.2453
G01 X32.0271 Y75.3755
G01 X32.0331 Y75.3825
G01 X32.0557 Y75.4161
G01 X32.0585 Y75.4208
G01 X32.0608 Y75.4257
G01 X32.0626 Y75.4308
G01 X32.0639 Y75.4361
G01 X32.0718 Y75.4765
G01 X32.0725 Y75.4844
G01 X32.0723 Y75.4909
G01 X32.0715 Y75.4961
G01 X32.0636 Y75.5365
G01 X32.0608 Y75.5456
G01 X32.0585 Y75.5505
G01 X32.0557 Y75.5551
G01 X32.0331 Y75.5887
G01 X32.0272 Y75.5957
G01 X32.0202 Y75.6016
G01 X31.9861 Y75.6247
G01 X31.9814 Y75.6276
G01 X31.9765 Y75.6299
G01 X31.9713 Y75.6318
G01 X31.9660 Y75.6331
G01 X31.9256 Y75.6410
G01 X31.9164 Y75.6417
G01 X12.6041 Y75.6417
G01 X12.5183 Y75.6492
G01 X12.4416 Y75.6697
G01 X12.3695 Y75.7032
G01 X12.3042 Y75.7490
G01 X12.2484 Y75.8048
G01 X12.2026 Y75.8701
G01 X12.1691 Y75.9422
G01 X12.1487 Y76.0188
G01 X12.1411 Y76.1047
G01 X12.1411 Y88.0288
G01 X12.1487 Y88.1147
G01 X12.1691 Y88.1914
G01 X12.2026 Y88.2634
G01 X12.2484 Y88.3288
G01 X12.3042 Y88.3845
G01 X12.3695 Y88.4304
G01 X12.4416 Y88.4639
G01 X12.5183 Y88.4843
G01 X12.6041 Y88.4918
G01 X23.1624 Y88.4918
G01 X23.1702 Y88.4926
G01 X23.2106 Y88.5004
G01 X23.2157 Y88.5017
G01 X23.2206 Y88.5034
G01 X23.2254 Y88.5056
G01 X23.2310 Y88.5090
G01 X23.2646 Y88.5321
G01 X23.2707 Y88.5373
G01 X23.2744 Y88.5412
G01 X23.2776 Y88.5454
G01 X23.3007 Y88.5790
G01 X23.3050 Y88.5871
G01 X23.3069 Y88.5920
G01 X23.3085 Y88.5984
G01 X23.3161 Y88.6375
G01 X23.3171 Y88.6453
G01 X23.3171 Y91.7429
G01 X23.3164 Y91.7508
G01 X23.3080 Y91.7937
G01 X23.3065 Y91.7988
G01 X23.3045 Y91.8036
G01 X23.2999 Y91.8116
G01 X23.2768 Y91.8452
G01 X23.2735 Y91.8494
G01 X23.2698 Y91.8532
G01 X23.2636 Y91.8582
G01 X23.2299 Y91.8813
G01 X23.2242 Y91.8845
G01 X23.2182 Y91.8870
G01 X23.2106 Y91.8891
G01 X23.1715 Y91.8967
G01 X23.1663 Y91.8975
G01 X23.1610 Y91.8977
G01 X14.1281 Y91.8977
G01 X14.0423 Y91.9052
G01 X13.9656 Y91.9257
G01 X13.8935 Y91.9592
G01 X13.8282 Y92.0050
G01 X13.7724 Y92.0608
G01 X13.7266 Y92.1261
G01 X13.6931 Y92.1982
G01 X13.6727 Y92.2748
G01 X13.6651 Y92.3607
G01 X13.6651 Y103.0148
G01 X13.6727 Y103.1007
G01 X13.6931 Y103.1774
G01 X13.7266 Y103.2494
G01 X13.7724 Y103.3148
G01 X13.8282 Y103.3705
G01 X13.8935 Y103.4164
G01 X13.9656 Y103.4499
G01 X14.0423 Y103.4703
G01 X14.1281 Y103.4778
G01 X38.7522 Y103.4778
G01 X38.8381 Y103.4703
G01 X38.9148 Y103.4499
G01 X38.9868 Y103.4164
G01 X39.0522 Y103.3705
G01 X39.1079 Y103.3148
G01 X39.1538 Y103.2494
G01 X39.1873 Y103.1774
G01 X39.2077 Y103.1007
G01 X39.2152 Y103.0148
G01 X39.2147 Y91.5717
G01 X39.2037 Y91.4921
G01 X39.1796 Y91.4162
G01 X39.1426 Y91.3454
G01 X39.1068 Y91.2969
G01 X35.9547 Y87.9017
G01 X35.9490 Y87.8944
G01 X35.9278 Y87.8601
G01 X35.9243 Y87.8530
G01 X35.9216 Y87.8441
G01 X35.9140 Y87.8045
G01 X35.9132 Y87.7955
G01 X35.9132 Y76.1047
G01 X35.9057 Y76.0188
G01 X35.8853 Y75.9422
G01 X35.8518 Y75.8701
G01 X35.8060 Y75.8048
G01 X35.7502 Y75.7490
G01 X35.6848 Y75.7032
G01 X35.6128 Y75.6697
G01 X35.5361 Y75.6492
G01 X35.4502 Y75.6417
G01 X34.7217 Y75.6416
G01 X34.7152 Y75.6407
G01 X34.6761 Y75.6331
G01 X34.6708 Y75.6318
G01 X34.6656 Y75.6299
G01 X34.6607 Y75.6276
G01 X34.6560 Y75.6247
G01 X34.6219 Y75.6017
G01 X34.6159 Y75.5967
G01 X22.3702 Y63.3510
G01 X22.3636 Y63.3430
G01 X22.3405 Y63.3089
G01 X22.3366 Y63.3016
G01 X22.3346 Y63.2965
G01 X22.3331 Y63.2912
G01 X22.3245 Y63.2455
G01 X22.3242 Y63.2403
G01 X22.3243 Y56.1328
G01 X22.3252 Y56.1250
G01 X22.3326 Y56.0871
G01 X22.3350 Y56.0793
G01 X22.3385 Y56.0719
G01 X22.3608 Y56.0352
G01 X22.3651 Y56.0298
G01 X22.3937 Y55.9989
G01 X22.4761 Y55.8821
G01 X22.5440 Y55.7560
G01 X22.5954 Y55.6226
G01 X22.6304 Y55.4832
G01 X22.6483 Y55.3415
G01 X22.6483 Y55.1980
G01 X22.6304 Y55.0563
G01 X22.5954 Y54.9169
G01 X22.5440 Y54.7836
G01 X22.4761 Y54.6574
G01 X22.3937 Y54.5406
G01 X22.3651 Y54.5097
G01 X22.3608 Y54.5043
G01 X22.3385 Y54.4677
G01 X22.3350 Y54.4603
G01 X22.3326 Y54.4525
G01 X22.3250 Y54.4133
G01 X22.3242 Y54.4054
G01 X22.3243 Y49.7828
G01 X22.3252 Y49.7750
G01 X22.3326 Y49.7371
G01 X22.3350 Y49.7293
G01 X22.3385 Y49.7219
G01 X22.3608 Y49.6852
G01 X22.3651 Y49.6798
G01 X22.3937 Y49.6489
G01 X22.4761 Y49.5321
G01 X22.5440 Y49.4060
G01 X22.5954 Y49.2726
G01 X22.6304 Y49.1332
G01 X22.6483 Y48.9915
G01 X22.6483 Y48.8480
G01 X22.6304 Y48.7063
G01 X22.5954 Y48.5669
G01 X22.5440 Y48.4336
G01 X22.4761 Y48.3074
G01 X22.3937 Y48.1906
G01 X22.3651 Y48.1597
G01 X22.3608 Y48.1543
G01 X22.3385 Y48.1177
G01 X22.3355 Y48.1116
G01 X22.3329 Y48.1038
G01 X22.3252 Y48.0646
G01 X22.3244 Y48.0581
G01 X22.3242 Y44.7059
G01 X22.3250 Y44.6968
G01 X22.3334 Y44.6538
G01 X22.3364 Y44.6451
G01 X22.3400 Y44.6381
G01 X22.3646 Y44.6023
G01 X22.3697 Y44.5962
G01 X22.3767 Y44.5901
G01 X22.4125 Y44.5656
G01 X22.4195 Y44.5619
G01 X22.4282 Y44.5590
G01 X22.4712 Y44.5506
G01 X22.4803 Y44.5498
G01 X33.9560 Y44.5498
G00 Z2.0000
G00 X36.4011 Y44.1435
G01 F60.00
G01 Z-0.0500
G01 F120.00
G01 X36.4011 Y48.5288
G01 X47.0242 Y59.1518
G01 X60.5527 Y59.1519
G01 X60.6449 Y59.1567
G01 X60.6505 Y59.1573
G01 X60.7445 Y59.1721
G01 X60.8364 Y59.1965
G01 X60.8418 Y59.1982
G01 X60.9307 Y59.2321
G01 X61.0194 Y59.2769
G01 X61.1006 Y59.3292
G01 X61.1760 Y59.3894
G01 X61.6912 Y59.8475
G01 X61.6913 Y30.3764
G01 X61.6958 Y30.2852
G01 X61.7089 Y30.1963
G01 X61.7100 Y30.1910
G01 X61.7319 Y30.1038
G01 X61.7631 Y30.0165
G01 X61.8015 Y29.9352
G01 X61.8040 Y29.9305
G01 X61.8503 Y29.8533
G01 X61.9055 Y29.7789
G01 X61.9668 Y29.7113
G01 X62.4532 Y29.2248
G01 X62.4532 Y27.5766
G01 X62.4101 Y27.5444
G01 X62.2990 Y27.4438
G01 X62.1948 Y27.3288
G01 X62.1063 Y27.2095
G01 X62.1033 Y27.2050
G01 X62.0264 Y27.0765
G01 X61.9617 Y26.9398
G01 X61.9098 Y26.7950
G01 X61.8733 Y26.6496
G01 X61.8722 Y26.6444
G01 X61.8503 Y26.4961
G01 X61.8429 Y26.3464
G01 X61.8429 Y26.3411
G01 X61.8502 Y26.1927
G01 X61.8722 Y26.0431
G01 X61.8733 Y26.0379
G01 X61.9098 Y25.8925
G01 X61.9602 Y25.7514
G01 X61.9622 Y25.7465
G01 X62.0264 Y25.6110
G01 X62.1033 Y25.4824
G01 X62.1063 Y25.4780
G01 X62.1956 Y25.3577
G01 X62.2962 Y25.2466
G01 X62.3000 Y25.2428
G01 X62.4111 Y25.1422
G01 X62.5336 Y25.0513
G01 X62.6621 Y24.9742
G01 X62.6669 Y24.9717
G01 X62.8024 Y24.9077
G01 X62.9434 Y24.8571
G01 X62.9486 Y24.8556
G01 X63.0939 Y24.8192
G01 X63.2448 Y24.7969
G01 X63.3945 Y24.7894
G01 X63.3999 Y24.7894
G01 X63.5495 Y24.7969
G01 X63.6978 Y24.8188
G01 X63.7030 Y24.8198
G01 X63.8484 Y24.8563
G01 X63.9895 Y24.9067
G01 X63.9945 Y24.9088
G01 X64.1299 Y24.9729
G01 X64.2585 Y25.0499
G01 X64.2629 Y25.0529
G01 X64.3833 Y25.1422
G01 X64.4963 Y25.2446
G01 X64.5970 Y25.3556
G01 X64.6004 Y25.3598
G01 X64.6896 Y25.4802
G01 X64.7667 Y25.6087
G01 X64.7692 Y25.6134
G01 X64.8332 Y25.7489
G01 X64.8838 Y25.8900
G01 X64.8853 Y25.8951
G01 X64.9217 Y26.0405
G01 X64.9437 Y26.1887
G01 X64.9443 Y26.1941
G01 X64.9516 Y26.3437
G01 X64.9443 Y26.4934
G01 X64.9437 Y26.4988
G01 X64.9217 Y26.6470
G01 X64.8846 Y26.7950
G01 X64.8332 Y26.9386
G01 X64.7674 Y27.0776
G01 X64.6896 Y27.2073
G01 X64.5979 Y27.3308
G01 X64.4953 Y27.4438
G01 X64.3843 Y27.5444
G01 X64.3411 Y27.5766
G01 X64.3411 Y29.6171
G01 X64.3366 Y29.7083
G01 X64.3234 Y29.7973
G01 X64.3224 Y29.8025
G01 X64.3001 Y29.8911
G01 X64.2693 Y29.9770
G01 X64.2297 Y30.0607
G01 X64.1820 Y30.1402
G01 X64.1269 Y30.2146
G01 X64.0647 Y30.2832
G01 X63.5791 Y30.7688
G01 X63.5791 Y79.3453
G01 X88.6956 Y79.3453
G01 X88.7008 Y79.3455
G01 X88.7060 Y79.3463
G01 X88.7451 Y79.3539
G01 X88.7515 Y79.3555
G01 X88.7576 Y79.3579
G01 X88.7634 Y79.3610
G01 X88.7992 Y79.3856
G01 X88.8062 Y79.3917
G01 X88.8121 Y79.3988
G01 X88.8352 Y79.4325
G01 X88.8385 Y79.4382
G01 X88.8406 Y79.4430
G01 X88.8431 Y79.4519
G01 X88.8509 Y79.4923
G01 X88.8517 Y79.5001
G01 X88.8517 Y87.4729
G01 X96.8168 Y87.4729
G01 X98.1365 Y86.1607
G01 X98.1403 Y85.1031
G01 X98.1403 Y81.6844
G01 X98.1446 Y81.6030
G01 X98.1560 Y81.5264
G01 X98.1748 Y81.4512
G01 X98.2025 Y81.3732
G01 X98.2381 Y81.2984
G01 X98.2780 Y81.2319
G01 X98.3241 Y81.1697
G01 X98.3796 Y81.1082
G01 X103.2065 Y76.2812
G01 X103.2650 Y76.2283
G01 X103.3272 Y76.1821
G01 X103.3981 Y76.1393
G01 X103.4706 Y76.1051
G01 X103.5435 Y76.0789
G01 X103.6212 Y76.0592
G01 X103.6265 Y76.0581
G01 X103.7031 Y76.0468
G01 X103.7832 Y76.0429
G01 X162.3728 Y76.0429
G01 X165.8194 Y72.5963
G01 X161.7955 Y72.5963
G01 X161.7877 Y72.5955
G01 X161.7473 Y72.5876
G01 X161.7421 Y72.5864
G01 X161.7372 Y72.5847
G01 X161.7324 Y72.5824
G01 X161.7268 Y72.5791
G01 X161.6932 Y72.5559
G01 X161.6871 Y72.5508
G01 X161.6835 Y72.5469
G01 X161.6803 Y72.5427
G01 X161.6572 Y72.5091
G01 X161.6528 Y72.5010
G01 X161.6510 Y72.4961
G01 X161.6496 Y72.4910
G01 X161.6413 Y72.4480
G01 X161.6407 Y72.4402
G01 X161.6407 Y46.4814
G01 X161.6409 Y46.4761
G01 X161.6417 Y46.4710
G01 X161.6496 Y46.4305
G01 X161.6518 Y46.4230
G01 X161.6545 Y46.4170
G01 X161.6572 Y46.4125
G01 X161.6808 Y46.3780
G01 X161.6751 Y46.3616
G01 X161.6558 Y46.2838
G01 X161.6442 Y46.2058
G01 X161.6403 Y46.1271
G01 X161.6403 Y43.6701
G01 X158.8164 Y40.8462
G01 X146.4642 Y40.8289
G01 X146.3879 Y40.8251
G01 X146.3815 Y40.8245
G01 X146.3059 Y40.8132
G01 X146.2308 Y40.7944
G01 X146.2246 Y40.7925
G01 X146.1527 Y40.7667
G01 X146.0781 Y40.7312
G01 X146.0138 Y40.6926
G01 X146.0084 Y40.6890
G01 X145.9463 Y40.6427
G01 X145.8887 Y40.5905
G01 X144.0986 Y38.8005
G01 X144.0457 Y38.7421
G01 X143.9995 Y38.6799
G01 X143.9568 Y38.6089
G01 X143.9215 Y38.5339
G01 X143.8955 Y38.4610
G01 X143.8763 Y38.3845
G01 X143.8642 Y38.3039
G01 X143.8603 Y38.2238
G01 X143.8603 Y35.5169
G01 X143.8487 Y35.5011
G01 X143.7981 Y35.4161
G01 X143.7576 Y35.3303
G01 X143.7256 Y35.2409
G01 X143.7240 Y35.2358
G01 X143.7010 Y35.1438
G01 X143.6867 Y35.0472
G01 X143.6819 Y34.9498
G01 X143.6865 Y34.8550
G01 X143.6870 Y34.8497
G01 X143.7010 Y34.7558
G01 X143.7247 Y34.6611
G01 X143.7576 Y34.5693
G01 X143.7981 Y34.4835
G01 X143.8480 Y34.3996
G01 X143.8510 Y34.3952
G01 X143.9076 Y34.3190
G01 X143.9713 Y34.2486
G01 X143.9751 Y34.2449
G01 X144.0475 Y34.1795
G01 X144.1238 Y34.1230
G01 X144.2075 Y34.0729
G01 X144.2933 Y34.0322
G01 X144.2982 Y34.0302
G01 X144.3876 Y33.9983
G01 X144.4809 Y33.9749
G01 X144.5787 Y33.9603
G01 X144.6735 Y33.9555
G01 X144.7710 Y33.9601
G01 X144.7763 Y33.9606
G01 X144.8702 Y33.9746
G01 X144.9648 Y33.9983
G01 X145.0567 Y34.0312
G01 X145.1449 Y34.0729
G01 X145.2286 Y34.1230
G01 X145.3049 Y34.1795
G01 X145.3773 Y34.2449
G01 X145.3811 Y34.2486
G01 X145.4448 Y34.3190
G01 X145.5029 Y34.3974
G01 X145.5531 Y34.4811
G01 X145.5943 Y34.5680
G01 X145.6277 Y34.6611
G01 X145.6514 Y34.7558
G01 X145.6657 Y34.8523
G01 X145.6705 Y34.9511
G01 X145.6657 Y35.0472
G01 X145.6518 Y35.1411
G01 X145.6508 Y35.1464
G01 X145.6277 Y35.2384
G01 X145.5948 Y35.3303
G01 X145.5543 Y35.4161
G01 X145.5044 Y35.4999
G01 X145.4941 Y35.5142
G01 X145.4941 Y37.8855
G01 X146.8042 Y39.1956
G01 X159.1563 Y39.2129
G01 X159.2389 Y39.2173
G01 X159.3154 Y39.2288
G01 X159.3930 Y39.2483
G01 X159.4708 Y39.2764
G01 X159.5406 Y39.3096
G01 X159.6070 Y39.3493
G01 X159.6735 Y39.3984
G01 X159.7328 Y39.4522
G01 X163.0348 Y42.7542
G01 X163.0903 Y42.8157
G01 X163.1364 Y42.8779
G01 X163.1776 Y42.9467
G01 X163.2119 Y43.0192
G01 X163.2396 Y43.0972
G01 X163.2584 Y43.1724
G01 X163.2698 Y43.2490
G01 X163.2741 Y43.3304
G01 X163.2741 Y46.1258
G01 X163.2700 Y46.2072
G01 X163.2586 Y46.2838
G01 X163.2484 Y46.3253
G01 X169.9756 Y46.3253
G01 X169.9808 Y46.3255
G01 X169.9860 Y46.3263
G01 X170.0264 Y46.3342
G01 X170.0340 Y46.3364
G01 X170.0400 Y46.3391
G01 X170.0445 Y46.3418
G01 X170.0781 Y46.3648
G01 X170.0843 Y46.3698
G01 X170.0906 Y46.3767
G01 X170.1152 Y46.4125
G01 X170.1190 Y46.4194
G01 X170.1214 Y46.4255
G01 X170.1231 Y46.4318
G01 X170.1309 Y46.4722
G01 X170.1317 Y46.4814
G01 X170.1317 Y51.9133
G01 X183.1534 Y51.9133
G01 X183.1595 Y51.9138
G01 X183.1907 Y51.9183
G01 X183.1972 Y51.9203
G01 X183.2223 Y51.9305
G01 X183.2288 Y51.9336
G01 X183.2862 Y51.9662
G01 X183.4466 Y52.0361
G01 X183.6135 Y52.0892
G01 X183.7854 Y52.1252
G01 X183.9596 Y52.1434
G01 X184.1348 Y52.1434
G01 X184.3090 Y52.1252
G01 X184.4809 Y52.0892
G01 X184.6478 Y52.0361
G01 X184.8082 Y51.9662
G01 X184.8656 Y51.9336
G01 X184.8707 Y51.9310
G01 X184.8960 Y51.9208
G01 X184.9024 Y51.9187
G01 X184.9090 Y51.9173
G01 X184.9398 Y51.9133
G01 X187.2489 Y51.9133
G01 X187.2567 Y51.9140
G01 X187.2971 Y51.9219
G01 X187.3022 Y51.9232
G01 X187.3072 Y51.9249
G01 X187.3119 Y51.9271
G01 X187.3164 Y51.9297
G01 X187.3522 Y51.9544
G01 X187.3582 Y51.9597
G01 X187.3634 Y51.9658
G01 X187.3872 Y52.0005
G01 X187.3916 Y52.0086
G01 X187.3938 Y52.0147
G01 X187.3951 Y52.0198
G01 X187.4029 Y52.0602
G01 X187.4037 Y52.0694
G01 X187.4037 Y66.0917
G01 X187.4031 Y66.0996
G01 X187.3948 Y66.1422
G01 X187.3933 Y66.1474
G01 X187.3914 Y66.1524
G01 X187.3875 Y66.1596
G01 X187.3650 Y66.1932
G01 X187.3618 Y66.1975
G01 X187.3572 Y66.2024
G01 X187.3520 Y66.2067
G01 X187.3189 Y66.2298
G01 X187.3143 Y66.2328
G01 X187.3094 Y66.2352
G01 X187.3042 Y66.2371
G01 X187.2989 Y66.2385
G01 X187.2590 Y66.2469
G01 X187.2499 Y66.2478
G01 X169.8777 Y66.4996
G01 X169.8777 Y72.4402
G01 X169.8769 Y72.4493
G01 X169.8685 Y72.4923
G01 X169.8661 Y72.4998
G01 X169.8619 Y72.5080
G01 X169.8374 Y72.5438
G01 X169.8322 Y72.5499
G01 X169.8252 Y72.5559
G01 X169.7905 Y72.5798
G01 X169.7824 Y72.5841
G01 X169.7737 Y72.5871
G01 X169.7320 Y72.5953
G01 X169.7242 Y72.5962
G01 X168.1299 Y72.5963
G01 X163.2879 Y77.4383
G01 X163.2294 Y77.4912
G01 X163.1672 Y77.5374
G01 X163.1628 Y77.5404
G01 X163.0939 Y77.5814
G01 X163.0238 Y77.6145
G01 X162.9483 Y77.6415
G01 X162.8706 Y77.6610
G01 X162.7939 Y77.6724
G01 X162.7112 Y77.6767
G01 X104.1216 Y77.6767
G01 X99.7741 Y82.0241
G01 X99.7741 Y85.1046
G01 X99.7690 Y86.5046
G01 X99.7644 Y86.5872
G01 X99.7527 Y86.6637
G01 X99.7330 Y86.7413
G01 X99.7058 Y86.8167
G01 X99.6700 Y86.8913
G01 X99.6299 Y86.9575
G01 X99.5837 Y87.0196
G01 X99.5290 Y87.0799
G01 X97.8623 Y88.7373
G01 X97.8569 Y88.7458
G01 X97.8106 Y88.8080
G01 X97.7568 Y88.8674
G01 X97.6974 Y88.9212
G01 X97.6319 Y88.9697
G01 X97.5643 Y89.0102
G01 X97.4942 Y89.0434
G01 X97.4163 Y89.0715
G01 X97.3359 Y89.0914
G01 X97.2593 Y89.1027
G01 X97.1805 Y89.1066
G01 X88.8517 Y89.1067
G01 X88.8517 Y94.0315
G01 X88.8509 Y94.0393
G01 X88.8431 Y94.0797
G01 X88.8418 Y94.0848
G01 X88.8401 Y94.0898
G01 X88.8379 Y94.0945
G01 X88.8352 Y94.0991
G01 X88.8113 Y94.1338
G01 X88.8053 Y94.1408
G01 X88.7981 Y94.1467
G01 X88.7634 Y94.1705
G01 X88.7564 Y94.1741
G01 X88.7490 Y94.1768
G01 X88.7047 Y94.1855
G01 X88.6956 Y94.1863
G01 X78.7388 Y94.1863
G01 X78.7310 Y94.1857
G01 X78.6880 Y94.1774
G01 X78.6829 Y94.1760
G01 X78.6780 Y94.1741
G01 X78.6699 Y94.1698
G01 X78.6363 Y94.1467
G01 X78.6321 Y94.1435
G01 X78.6282 Y94.1399
G01 X78.6230 Y94.1338
G01 X78.5999 Y94.1002
G01 X78.5971 Y94.0957
G01 X78.5943 Y94.0898
G01 X78.5926 Y94.0848
G01 X78.5913 Y94.0797
G01 X78.5835 Y94.0393
G01 X78.5827 Y94.0315
G01 X78.5827 Y88.1374
G01 X78.5835 Y88.1282
G01 X78.5908 Y88.0903
G01 X38.0988 Y88.0903
G01 X38.0897 Y88.0895
G01 X38.0493 Y88.0816
G01 X38.0441 Y88.0804
G01 X38.0392 Y88.0787
G01 X38.0333 Y88.0758
G01 X38.0288 Y88.0730
G01 X37.9952 Y88.0499
G01 X37.9901 Y88.0457
G01 X37.9864 Y88.0419
G01 X37.9823 Y88.0367
G01 X37.9592 Y88.0031
G01 X37.9548 Y87.9950
G01 X37.9526 Y87.9888
G01 X37.9513 Y87.9837
G01 X37.9435 Y87.9433
G01 X37.9427 Y87.9342
G01 X37.9427 Y79.5014
G01 X37.9435 Y79.4922
G01 X37.9519 Y79.4493
G01 X37.9534 Y79.4442
G01 X37.9554 Y79.4393
G01 X37.9599 Y79.4314
G01 X37.9831 Y79.3978
G01 X37.9864 Y79.3936
G01 X37.9901 Y79.3898
G01 X37.9963 Y79.3848
G01 X38.0299 Y79.3618
G01 X38.0344 Y79.3591
G01 X38.0404 Y79.3564
G01 X38.0480 Y79.3542
G01 X38.0884 Y79.3463
G01 X38.0936 Y79.3455
G01 X38.0988 Y79.3453
G01 X61.6912 Y79.3453
G01 X61.6912 Y62.3738
G01 X60.1909 Y61.0397
G01 X46.6332 Y61.0397
G01 X46.5433 Y61.0354
G01 X46.5380 Y61.0348
G01 X46.4490 Y61.0216
G01 X46.3592 Y60.9991
G01 X46.2745 Y60.9688
G01 X46.2695 Y60.9668
G01 X46.1882 Y60.9283
G01 X46.1088 Y60.8806
G01 X46.0344 Y60.8254
G01 X45.9657 Y60.7632
G01 X34.7897 Y49.5872
G01 X34.7275 Y49.5186
G01 X34.6731 Y49.4453
G01 X34.6260 Y49.3671
G01 X34.6235 Y49.3624
G01 X34.5851 Y49.2810
G01 X34.5539 Y49.1938
G01 X34.5320 Y49.1065
G01 X34.5309 Y49.1013
G01 X34.5178 Y49.0123
G01 X34.5133 Y48.9211
G01 X34.5132 Y44.1483
G01 X22.2263 Y44.1483
G01 X22.2172 Y44.1475
G01 X22.1755 Y44.1394
G01 X22.1704 Y44.1380
G01 X22.1655 Y44.1361
G01 X22.1608 Y44.1338
G01 X22.1563 Y44.1311
G01 X22.1217 Y44.1071
G01 X22.1157 Y44.1019
G01 X22.1106 Y44.0958
G01 X22.0867 Y44.0611
G01 X22.0841 Y44.0565
G01 X22.0818 Y44.0518
G01 X22.0791 Y44.0430
G01 X22.0705 Y43.9974
G01 X22.0702 Y43.9922
G01 X22.0705 Y43.0767
G01 X22.0783 Y43.0345
G01 X22.0809 Y43.0255
G01 X22.0849 Y43.0170
G01 X22.1067 Y42.9822
G01 X22.1124 Y42.9750
G01 X22.1926 Y42.8893
G01 X22.2640 Y42.7883
G01 X22.3210 Y42.6780
G01 X22.3627 Y42.5612
G01 X22.3876 Y42.4394
G01 X22.3962 Y42.3158
G01 X22.3876 Y42.1921
G01 X22.3627 Y42.0704
G01 X22.3210 Y41.9535
G01 X22.2640 Y41.8433
G01 X22.1926 Y41.7422
G01 X22.1078 Y41.6516
