(G-CODE GENERATED BY FLATCAM v8.993 - www.flatcam.org - Version Date: 2020/06/05)
(Name: TopLayer_0.1)
(Type: G-code from Geometry)
(Units: MM)
(Created on Monday, 22 March 2021 at 10:30)
(This preprocessor is the default preprocessor used by FlatCAM.)
(It is made to work with MACH3 compatible motion controllers.)
(TOOL DIAMETER: 0.1 mm)
(Feedrate_XY: 120.0 mm/min)
(Feedrate_Z: 60.0 mm/min)
(Feedrate rapids 1500.0 mm/min)
(Z_Cut: -0.05 mm)
(Z_Move: 2.0 mm)
(Z Start: None mm)
(Z End: 15.0 mm)
(Steps per circle: 64)
(Preprocessor Geometry: default)
(X range:   11.7832 ...  187.6551  mm)
(Y range:   11.7832 ...  106.1217  mm)
(Spindle Speed: None RPM)
G21
G90
G94
G01 F120.00
G00 Z2.0000
M03
G00X17.877Y17.928Z1.987
G01F60.00X17.877Y17.928Z1.987
G01X17.877Y17.928Z-0.063
G01F120.00X17.877Y17.928Z-0.063
G01X17.882Y17.826Z-0.064
G01X17.897Y17.722Z-0.065
G01X17.923Y17.620Z-0.066
G01X17.958Y17.521Z-0.066
G01X18.003Y17.427Z-0.067
G01X18.057Y17.337Z-0.068
G01X18.120Y17.252Z-0.069
G01X18.190Y17.174Z-0.070
G01X18.268Y17.104Z-0.071
G01X18.353Y17.041Z-0.072
G01X18.443Y16.987Z-0.073
G01X18.538Y16.942Z-0.074
G01X18.636Y16.907Z-0.075
G01X18.738Y16.881Z-0.076
G01X18.842Y16.866Z-0.077
G01X18.947Y16.861Z-0.078
G01X19.052Y16.866Z-0.079
G01X19.156Y16.881Z-0.080
G01X19.258Y16.907Z-0.081
G01X19.357Y16.942Z-0.082
G01X19.452Y16.987Z-0.082
G01X19.542Y17.041Z-0.083
G01X19.626Y17.104Z-0.083
G01X19.704Y17.174Z-0.084
G01X19.775Y17.252Z-0.084
G01X19.837Y17.337Z-0.084
G01X19.891Y17.427Z-0.083
G01X19.936Y17.521Z-0.083
G01X19.972Y17.620Z-0.082
G01X19.997Y17.722Z-0.081
G01X20.013Y17.826Z-0.080
G01X20.018Y17.931Z-0.079
G01X20.013Y18.036Z-0.077
G01X19.997Y18.140Z-0.075
G01X19.972Y18.242Z-0.074
G01X19.936Y18.341Z-0.072
G01X19.891Y18.436Z-0.070
G01X19.837Y18.526Z-0.068
G01X19.775Y18.610Z-0.066
G01X19.704Y18.688Z-0.065
G01X19.626Y18.759Z-0.063
G01X19.542Y18.821Z-0.062
G01X19.452Y18.875Z-0.060
G01X19.357Y18.920Z-0.059
G01X19.258Y18.956Z-0.058
G01X19.156Y18.981Z-0.057
G01X19.052Y18.997Z-0.057
G01X18.947Y19.002Z-0.056
G01X18.842Y18.997Z-0.056
G01X18.738Y18.981Z-0.056
G01X18.636Y18.956Z-0.056
G01X18.538Y18.920Z-0.056
G01X18.443Y18.875Z-0.056
G01X18.353Y18.821Z-0.057
G01X18.268Y18.759Z-0.057
G01X18.190Y18.688Z-0.058
G01X18.120Y18.610Z-0.058
G01X18.057Y18.526Z-0.059
G01X18.003Y18.436Z-0.060
G01X17.958Y18.341Z-0.060
G01X17.923Y18.242Z-0.061
G01X17.897Y18.140Z-0.062
G01X17.882Y18.036Z-0.062
G01X17.877Y17.934Z-0.063
G01X17.877Y17.928Z-0.063
G00X17.877Y17.928Z1.987
G00X18.293Y18.711Z1.992
X18.710Y19.493Z2.003
X19.126Y20.275Z2.021
X19.543Y21.057Z2.048
X19.959Y21.839Z2.089
X20.376Y22.621Z2.146
X20.792Y23.403Z2.224
X21.052Y23.890Z2.285
G01F60.00X21.052Y23.890Z2.285
G01X21.052Y23.890Z0.235
G01F120.00X21.052Y23.890Z0.235
G01X21.004Y23.854Z0.228
G01X20.950Y23.806Z0.220
G01X20.900Y23.750Z0.212
G01X20.854Y23.688Z0.203
G01X20.815Y23.624Z0.195
G01X20.783Y23.557Z0.187
G01X20.757Y23.484Z0.179
G01X20.740Y23.414Z0.172
G01X20.729Y23.343Z0.165
G01X20.725Y23.265Z0.159
G01X20.729Y23.191Z0.153
G01X20.740Y23.114Z0.147
G01X20.758Y23.044Z0.142
G01X20.782Y22.976Z0.138
G01X20.815Y22.906Z0.134
G01X20.854Y22.842Z0.131
G01X20.900Y22.780Z0.128
G01X20.950Y22.725Z0.126
G01X21.004Y22.676Z0.124
G01X21.052Y22.641Z0.123
G01X21.052Y21.859Z0.067
X21.052Y21.077Z0.020
X21.052Y20.294Z-0.018
X21.052Y19.512Z-0.048
X21.052Y19.002Z-0.064
G01X20.564Y19.002Z-0.062
X20.469Y19.002Z-0.062
G01X20.461Y19.001Z-0.062
G01X20.452Y18.998Z-0.062
G01X20.444Y18.995Z-0.062
G01X20.438Y18.990Z-0.062
G01X20.432Y18.985Z-0.062
G01X20.427Y18.979Z-0.062
G01X20.422Y18.971Z-0.062
G01X20.419Y18.963Z-0.062
G01X20.417Y18.955Z-0.063
G01X20.417Y18.947Z-0.063
G01X20.417Y18.165Z-0.078
X20.417Y17.383Z-0.089
X20.417Y16.915Z-0.093
G01X20.417Y16.910Z-0.094
G01X20.418Y16.905Z-0.094
G01X20.420Y16.896Z-0.094
G01X20.424Y16.887Z-0.094
G01X20.430Y16.880Z-0.094
G01X20.436Y16.874Z-0.094
G01X20.443Y16.868Z-0.094
G01X20.452Y16.864Z-0.094
G01X20.461Y16.862Z-0.094
G01X20.470Y16.861Z-0.095
G01X20.958Y16.861Z-0.101
X21.446Y16.861Z-0.107
X21.934Y16.861Z-0.115
X22.421Y16.861Z-0.122
X22.503Y16.861Z-0.124
G01X22.511Y16.861Z-0.124
G01X22.520Y16.863Z-0.124
G01X22.529Y16.867Z-0.124
G01X22.537Y16.872Z-0.124
G01X22.544Y16.879Z-0.124
G01X22.549Y16.886Z-0.124
G01X22.553Y16.894Z-0.124
G01X22.555Y16.899Z-0.124
G01X22.557Y16.905Z-0.124
G01X22.558Y16.914Z-0.124
G01X22.558Y17.696Z-0.111
X22.558Y18.478Z-0.090
X22.558Y18.947Z-0.074
G01X22.557Y18.954Z-0.073
G01X22.556Y18.962Z-0.073
G01X22.553Y18.969Z-0.073
G01X22.549Y18.976Z-0.072
G01X22.545Y18.983Z-0.072
G01X22.538Y18.989Z-0.072
G01X22.531Y18.994Z-0.072
G01X22.524Y18.997Z-0.072
G01X22.515Y19.000Z-0.071
G01X22.507Y19.001Z-0.071
G01X22.019Y19.002Z-0.069
X21.923Y19.002Z-0.068
G01X21.923Y19.784Z-0.037
X21.923Y20.566Z0.003
X21.923Y21.348Z0.053
X21.923Y22.130Z0.114
X21.923Y22.641Z0.160
G01X21.971Y22.676Z0.166
G01X22.024Y22.725Z0.173
G01X22.074Y22.780Z0.181
G01X22.121Y22.842Z0.190
G01X22.159Y22.906Z0.199
G01X22.192Y22.976Z0.208
G01X22.216Y23.044Z0.217
G01X22.234Y23.114Z0.226
G01X22.245Y23.191Z0.236
G01X22.249Y23.265Z0.244
G01X22.245Y23.340Z0.253
G01X22.234Y23.416Z0.261
G01X22.216Y23.486Z0.269
G01X22.192Y23.554Z0.275
G01X22.159Y23.624Z0.282
G01X22.121Y23.688Z0.287
G01X22.074Y23.750Z0.291
G01X22.024Y23.806Z0.294
G01X21.971Y23.854Z0.296
G01X21.923Y23.890Z0.297
G01X21.923Y24.672Z0.401
X21.923Y25.454Z0.519
X21.923Y25.625Z0.547
G01X22.411Y26.113Z0.708
X22.430Y26.132Z0.714
G01X22.918Y26.132Z0.796
X23.405Y26.132Z0.883
X23.893Y26.132Z0.976
X24.381Y26.132Z1.075
X24.869Y26.132Z1.180
X25.357Y26.132Z1.291
X25.845Y26.132Z1.409
X26.333Y26.132Z1.533
X26.821Y26.132Z1.663
X27.309Y26.132Z1.801
X27.797Y26.132Z1.946
X28.284Y26.132Z2.098
X28.772Y26.132Z2.258
X29.260Y26.132Z2.425
X29.748Y26.132Z2.600
X30.236Y26.132Z2.783
X30.724Y26.132Z2.974
X31.212Y26.132Z3.174
X31.700Y26.132Z3.382
X32.188Y26.132Z3.599
X32.675Y26.132Z3.825
X33.163Y26.132Z4.060
X33.651Y26.132Z4.304
X34.139Y26.132Z4.557
X34.627Y26.132Z4.820
X35.115Y26.132Z5.093
X35.457Y26.132Z5.290
G01X35.500Y26.134Z5.318
G01X35.540Y26.139Z5.350
G01X35.545Y26.140Z5.355
G01X35.586Y26.151Z5.394
G01X35.624Y26.165Z5.436
G01X35.663Y26.183Z5.486
G01X35.699Y26.205Z5.540
G01X35.734Y26.230Z5.598
G01X35.765Y26.259Z5.660
G01X36.253Y26.747Z6.760
X36.741Y27.235Z8.017
X36.781Y27.275Z8.128
G01X36.808Y27.305Z8.208
G01X36.812Y27.309Z8.219
G01X36.837Y27.343Z8.308
G01X36.857Y27.378Z8.393
G01X36.876Y27.417Z8.486
G01X36.891Y27.459Z8.584
G01X36.901Y27.498Z8.671
G01X36.907Y27.539Z8.759
G01X36.909Y27.583Z8.851
G01X36.909Y28.365Z10.528
X36.909Y29.147Z12.386
X36.909Y29.930Z14.432
X36.909Y30.712Z16.676
X36.909Y31.494Z19.126
X36.909Y32.276Z21.792
X36.909Y33.058Z24.681
X36.909Y33.840Z27.803
X36.909Y34.622Z31.167
X36.909Y35.404Z34.782
X36.909Y36.186Z38.656
X36.909Y36.293Z39.203
G01X37.397Y36.781Z43.932
X37.885Y37.268Z49.121
X38.373Y37.756Z54.805
X38.860Y38.244Z61.021
X38.940Y38.324Z62.083
G01X39.428Y38.324Z65.067
X39.915Y38.324Z68.145
X40.403Y38.324Z71.318
X40.891Y38.324Z74.588
X41.379Y38.324Z77.956
X41.867Y38.324Z81.423
X42.355Y38.324Z84.991
X42.843Y38.324Z88.661
X43.331Y38.324Z92.435
X43.819Y38.324Z96.314
X44.307Y38.324Z100.300
X44.794Y38.324Z104.394
X45.282Y38.324Z108.597
X45.770Y38.324Z112.911
X46.258Y38.324Z117.338
X46.746Y38.324Z121.879
X47.234Y38.324Z126.535
X47.722Y38.324Z131.307
X48.210Y38.324Z136.198
X48.698Y38.324Z141.208
X49.186Y38.324Z146.339
X49.673Y38.324Z151.593
X50.161Y38.324Z156.971
X50.649Y38.324Z162.474
X51.137Y38.324Z168.104
X51.625Y38.324Z173.862
X52.113Y38.324Z179.750
X52.601Y38.324Z185.769
X53.089Y38.324Z191.920
X53.577Y38.324Z198.206
X54.064Y38.324Z204.627
X54.552Y38.324Z211.185
X55.040Y38.324Z217.881
X55.528Y38.324Z224.717
X56.016Y38.324Z231.694
X56.504Y38.324Z238.814
X56.992Y38.324Z246.078
X57.480Y38.324Z253.488
X57.968Y38.324Z261.044
X58.456Y38.324Z268.749
X58.943Y38.324Z276.604
X59.431Y38.324Z284.610
X59.919Y38.324Z292.769
X60.407Y38.324Z301.082
X60.895Y38.324Z309.551
X61.383Y38.324Z318.177
X61.871Y38.324Z326.961
X62.359Y38.324Z335.906
X62.847Y38.324Z345.011
X63.334Y38.324Z354.280
X63.822Y38.324Z363.713
X64.310Y38.324Z373.311
X64.798Y38.324Z383.077
X65.286Y38.324Z393.011
X65.774Y38.324Z403.116
X66.262Y38.324Z413.391
X66.750Y38.324Z423.840
X67.238Y38.324Z434.463
X67.726Y38.324Z445.262
X68.213Y38.324Z456.238
X68.701Y38.324Z467.393
X69.189Y38.324Z478.728
X69.677Y38.324Z490.245
X70.165Y38.324Z501.945
X70.653Y38.324Z513.829
X71.141Y38.324Z525.899
X71.629Y38.324Z538.156
X72.117Y38.324Z550.602
X72.604Y38.324Z563.239
X73.092Y38.324Z576.067
X73.580Y38.324Z589.088
X74.068Y38.324Z602.303
X74.556Y38.324Z615.715
X75.044Y38.324Z629.324
X75.532Y38.324Z643.132
X76.020Y38.324Z657.141
X76.508Y38.324Z671.351
X76.995Y38.324Z685.764
X77.483Y38.324Z700.382
X77.971Y38.324Z715.206
X78.459Y38.324Z730.238
X78.947Y38.324Z745.478
X79.435Y38.324Z760.929
X79.923Y38.324Z776.592
X80.411Y38.324Z792.468
X80.899Y38.324Z808.559
X81.387Y38.324Z824.866
X81.874Y38.324Z841.391
X82.362Y38.324Z858.134
X82.850Y38.324Z875.099
X83.338Y38.324Z892.285
X83.826Y38.324Z909.694
X84.314Y38.324Z927.329
X84.802Y38.324Z945.189
X85.290Y38.324Z963.278
X85.778Y38.324Z981.595
X86.265Y38.324Z1000.143
X86.753Y38.324Z1018.923
X87.241Y38.324Z1037.937
X87.273Y38.324Z1039.192
G01X87.316Y38.326Z1041.131
G01X87.358Y38.332Z1043.585
G01X87.400Y38.342Z1046.528
G01X87.440Y38.357Z1049.932
G01X87.479Y38.375Z1053.766
G01X87.515Y38.397Z1058.011
G01X87.550Y38.422Z1062.627
G01X87.580Y38.450Z1067.405
G01X88.068Y38.938Z1151.845
X88.345Y39.215Z1202.033
G01X88.372Y39.245Z1207.404
G01X88.397Y39.279Z1213.357
G01X88.419Y39.316Z1219.517
G01X88.437Y39.352Z1225.410
G01X88.451Y39.392Z1231.777
G01X88.453Y39.397Z1232.570
G01X88.463Y39.436Z1238.548
G01X88.469Y39.477Z1244.680
G01X88.471Y39.521Z1251.086
G01X88.471Y40.303Z1366.556
X88.471Y41.085Z1488.772
X88.471Y41.868Z1617.925
X88.471Y42.650Z1754.204
X88.471Y43.432Z1897.797
X88.471Y44.214Z2048.895
X88.471Y44.996Z2207.686
X88.471Y45.778Z2374.359
X88.471Y46.560Z2549.105
X88.471Y47.215Z2701.696
G01X88.959Y47.703Z2870.742
X89.447Y48.190Z3048.175
X89.935Y48.678Z3234.311
X90.422Y49.166Z3429.476
X90.910Y49.654Z3634.003
X91.398Y50.142Z3848.237
X91.886Y50.630Z4072.527
X92.374Y51.118Z4307.237
X92.862Y51.606Z4552.735
X92.882Y51.626Z4563.008
G01X92.882Y51.534Z4530.611
G01X92.883Y51.525Z4527.490
G01X92.885Y51.517Z4525.091
G01X92.888Y51.510Z4523.028
G01X92.893Y51.503Z4521.317
G01X92.898Y51.497Z4520.048
G01X92.904Y51.492Z4519.137
G01X92.911Y51.487Z4518.706
G01X92.918Y51.484Z4518.741
G01X92.924Y51.482Z4519.107
G01X92.932Y51.481Z4519.942
G01X93.420Y51.481Z4598.108
X93.908Y51.481Z4677.169
X94.396Y51.481Z4757.131
X94.816Y51.481Z4826.680
G01X94.821Y51.481Z4827.674
G01X94.827Y51.482Z4828.820
G01X94.832Y51.483Z4830.176
G01X94.837Y51.485Z4831.703
G01X94.845Y51.489Z4834.707
G01X94.850Y51.492Z4836.593
G01X94.854Y51.496Z4838.596
G01X94.857Y51.500Z4840.685
G01X94.861Y51.504Z4842.821
G01X94.863Y51.508Z4844.987
G01X94.866Y51.513Z4847.201
G01X94.868Y51.518Z4849.406
G01X94.869Y51.525Z4852.146
G01X94.870Y51.530Z4854.246
G01X94.870Y51.535Z4856.338
G01X94.870Y52.318Z5158.113
X94.870Y53.100Z5472.028
X94.870Y53.415Z5602.106
G01X94.870Y53.420Z5604.251
G01X94.869Y53.426Z5606.299
G01X94.868Y53.431Z5608.212
G01X94.866Y53.436Z5609.943
G01X94.863Y53.443Z5612.243
G01X94.858Y53.450Z5614.100
G01X94.853Y53.455Z5615.448
G01X94.846Y53.460Z5616.269
G01X94.839Y53.464Z5616.578
G01X94.832Y53.467Z5616.291
G01X94.824Y53.469Z5615.529
G01X94.816Y53.470Z5614.231
G01X94.328Y53.470Z5520.305
X93.840Y53.470Z5427.432
X93.352Y53.470Z5335.605
X92.936Y53.470Z5258.146
G01X92.927Y53.469Z5256.111
G01X92.918Y53.466Z5253.491
G01X92.910Y53.462Z5250.398
G01X92.902Y53.457Z5246.913
G01X92.898Y53.453Z5244.791
G01X92.893Y53.449Z5242.017
G01X92.890Y53.443Z5239.196
G01X92.887Y53.438Z5236.890
G01X92.885Y53.433Z5234.579
G01X92.883Y53.427Z5231.744
G01X92.882Y53.422Z5229.561
G01X92.882Y53.416Z5227.392
G01X92.882Y52.843Z5008.087
G01X92.872Y52.837Z5004.041
G01X92.840Y52.813Z4989.371
G01X92.807Y52.783Z4972.548
G01X92.319Y52.295Z4709.804
X91.831Y51.808Z4458.397
X91.343Y51.320Z4217.947
X90.856Y50.832Z3988.078
X90.368Y50.344Z3768.427
X89.880Y49.856Z3558.637
X89.392Y49.368Z3358.365
X88.904Y48.880Z3167.271
X88.416Y48.392Z2985.028
X87.928Y47.904Z2811.315
X87.727Y47.703Z2742.141
G01X87.697Y47.669Z2731.006
G01X87.673Y47.637Z2720.916
G01X87.651Y47.601Z2710.036
G01X87.632Y47.559Z2698.392
G01X87.618Y47.522Z2688.193
G01X87.608Y47.483Z2678.103
G01X87.602Y47.438Z2666.935
G01X87.600Y47.395Z2656.789
G01X87.600Y46.613Z2479.102
X87.600Y45.831Z2309.424
X87.600Y45.049Z2147.572
X87.600Y44.267Z1993.362
X87.600Y43.485Z1846.611
X87.600Y42.703Z1707.136
X87.600Y41.920Z1574.754
X87.600Y41.138Z1449.281
X87.600Y40.356Z1330.535
X87.600Y39.702Z1236.191
G01X87.112Y39.214Z1147.472
X87.093Y39.195Z1144.136
G01X86.605Y39.195Z1123.138
X86.117Y39.195Z1102.399
X85.629Y39.195Z1081.916
X85.141Y39.195Z1061.688
X84.653Y39.195Z1041.714
X84.165Y39.195Z1021.991
X83.677Y39.195Z1002.519
X83.190Y39.195Z983.296
X82.702Y39.195Z964.320
X82.214Y39.195Z945.589
X81.726Y39.195Z927.103
X81.238Y39.195Z908.859
X80.750Y39.195Z890.855
X80.262Y39.195Z873.091
X79.774Y39.195Z855.564
X79.286Y39.195Z838.273
X78.799Y39.195Z821.216
X78.311Y39.195Z804.393
X77.823Y39.195Z787.800
X77.335Y39.195Z771.437
X76.847Y39.195Z755.302
X76.359Y39.195Z739.393
X75.871Y39.195Z723.709
X75.383Y39.195Z708.248
X74.895Y39.195Z693.009
X74.408Y39.195Z677.990
X73.920Y39.195Z663.189
X73.432Y39.195Z648.605
X72.944Y39.195Z634.236
X72.456Y39.195Z620.081
X71.968Y39.195Z606.138
X71.480Y39.195Z592.405
X70.992Y39.195Z578.881
X70.504Y39.195Z565.564
X70.016Y39.195Z552.452
X69.529Y39.195Z539.545
X69.041Y39.195Z526.840
X68.553Y39.195Z514.336
X68.065Y39.195Z502.031
X67.577Y39.195Z489.924
X67.089Y39.195Z478.012
X66.601Y39.195Z466.295
X66.113Y39.195Z454.771
X65.625Y39.195Z443.438
X65.138Y39.195Z432.295
X64.650Y39.195Z421.340
X64.162Y39.195Z410.571
X63.674Y39.195Z399.987
X63.186Y39.195Z389.586
X62.698Y39.195Z379.367
X62.210Y39.195Z369.327
X61.722Y39.195Z359.467
X61.234Y39.195Z349.783
X60.746Y39.195Z340.274
X60.259Y39.195Z330.939
X59.771Y39.195Z321.776
X59.283Y39.195Z312.783
X58.795Y39.195Z303.959
X58.307Y39.195Z295.303
X57.819Y39.195Z286.812
X57.331Y39.195Z278.485
X56.843Y39.195Z270.321
X56.355Y39.195Z262.317
X55.868Y39.195Z254.473
X55.380Y39.195Z246.786
X54.892Y39.195Z239.256
X54.404Y39.195Z231.880
X53.916Y39.195Z224.656
X53.428Y39.195Z217.584
X52.940Y39.195Z210.662
X52.452Y39.195Z203.888
X51.964Y39.195Z197.260
X51.476Y39.195Z190.777
X50.989Y39.195Z184.438
X50.501Y39.195Z178.240
X50.013Y39.195Z172.182
X49.525Y39.195Z166.263
X49.037Y39.195Z160.480
X48.549Y39.195Z154.833
X48.061Y39.195Z149.320
X47.573Y39.195Z143.938
X47.085Y39.195Z138.687
X46.598Y39.195Z133.565
X46.110Y39.195Z128.571
X45.622Y39.195Z123.702
X45.134Y39.195Z118.957
X44.646Y39.195Z114.334
X44.158Y39.195Z109.833
X43.670Y39.195Z105.450
X43.182Y39.195Z101.186
X42.694Y39.195Z97.038
X42.206Y39.195Z93.004
X41.719Y39.195Z89.083
X41.231Y39.195Z85.273
X40.743Y39.195Z81.573
X40.255Y39.195Z77.981
X39.767Y39.195Z74.496
X39.279Y39.195Z71.116
X38.791Y39.195Z67.839
X38.759Y39.195Z67.628
G01X38.716Y39.193Z67.330
G01X38.673Y39.186Z66.992
G01X38.633Y39.176Z66.650
G01X38.595Y39.163Z66.301
G01X38.554Y39.143Z65.885
G01X38.517Y39.121Z65.480
G01X38.485Y39.098Z65.092
G01X38.451Y39.067Z64.646
G01X37.963Y38.579Z58.141
X37.475Y38.091Z52.186
X36.987Y37.604Z46.744
X36.500Y37.116Z41.779
X36.164Y36.780Z38.625
G01X36.135Y36.748Z38.342
G01X36.111Y36.715Z38.085
G01X36.090Y36.681Z37.832
G01X36.071Y36.640Z37.553
G01X36.056Y36.598Z37.292
G01X36.046Y36.558Z37.058
G01X36.040Y36.519Z36.843
G01X36.037Y36.473Z36.616
G01X36.037Y35.691Z32.993
X36.037Y34.909Z29.610
X36.037Y34.127Z26.458
X36.037Y33.345Z23.530
X36.037Y32.563Z20.817
X36.037Y31.781Z18.312
X36.037Y30.998Z16.006
X36.037Y30.216Z13.891
X36.037Y29.434Z11.959
X36.037Y28.652Z10.202
X36.037Y27.870Z8.612
X36.037Y27.764Z8.409
G01X35.550Y27.276Z7.123
X35.277Y27.003Z6.474
G01X34.789Y27.003Z6.130
X34.301Y27.003Z5.798
X33.813Y27.003Z5.478
X33.325Y27.003Z5.170
X32.837Y27.003Z4.874
X32.349Y27.003Z4.589
X31.861Y27.003Z4.315
X31.374Y27.003Z4.052
X30.886Y27.003Z3.800
X30.398Y27.003Z3.558
X29.910Y27.003Z3.326
X29.422Y27.003Z3.105
X28.934Y27.003Z2.893
X28.446Y27.003Z2.691
X27.958Y27.003Z2.498
X27.470Y27.003Z2.315
X26.982Y27.003Z2.140
X26.495Y27.003Z1.974
X26.007Y27.003Z1.817
X25.519Y27.003Z1.668
X25.031Y27.003Z1.527
X24.543Y27.003Z1.394
X24.055Y27.003Z1.268
X23.567Y27.003Z1.150
X23.079Y27.003Z1.039
X22.591Y27.003Z0.935
X22.249Y27.003Z0.866
G01X22.206Y27.001Z0.857
G01X22.163Y26.994Z0.847
G01X22.123Y26.984Z0.837
G01X22.085Y26.971Z0.827
G01X22.044Y26.951Z0.815
G01X22.005Y26.928Z0.803
G01X21.973Y26.904Z0.792
G01X21.942Y26.876Z0.781
G01X21.454Y26.388Z0.609
X21.178Y26.112Z0.526
G01X21.150Y26.082Z0.518
G01X21.125Y26.047Z0.509
G01X21.103Y26.011Z0.501
G01X21.084Y25.969Z0.492
G01X21.070Y25.932Z0.485
G01X21.060Y25.890Z0.478
G01X21.054Y25.848Z0.471
G01X21.052Y25.806Z0.465
G01X21.052Y25.024Z0.362
X21.052Y24.242Z0.272
X21.052Y23.890Z0.235
G00X21.052Y23.890Z2.285
G00X21.021Y24.672Z2.367
X20.990Y25.454Z2.460
X20.959Y26.236Z2.565
X20.928Y27.018Z2.682
X20.898Y27.800Z2.811
X20.867Y28.582Z2.953
X20.836Y29.364Z3.108
X20.805Y30.146Z3.277
X20.774Y30.929Z3.461
X20.744Y31.711Z3.659
X20.713Y32.493Z3.871
X20.682Y33.275Z4.099
X20.651Y34.057Z4.343
X20.646Y34.185Z4.384
G01F60.00X20.646Y34.185Z4.384
G01X20.646Y34.185Z2.334
G01F120.00X20.646Y34.185Z2.334
G01X20.650Y34.105Z2.309
G01X20.662Y34.023Z2.288
G01X20.682Y33.943Z2.272
G01X20.710Y33.865Z2.261
G01X20.746Y33.791Z2.255
G01X20.788Y33.720Z2.254
G01X20.837Y33.653Z2.259
G01X20.893Y33.592Z2.269
G01X20.954Y33.537Z2.283
G01X21.020Y33.487Z2.303
G01X21.091Y33.445Z2.327
G01X21.166Y33.410Z2.357
G01X21.244Y33.382Z2.391
G01X21.324Y33.362Z2.429
G01X21.405Y33.350Z2.471
G01X21.488Y33.346Z2.518
G01X21.570Y33.350Z2.568
G01X21.652Y33.362Z2.622
G01X21.732Y33.382Z2.679
G01X21.810Y33.410Z2.739
G01X21.885Y33.445Z2.801
G01X21.956Y33.487Z2.865
G01X22.022Y33.537Z2.930
G01X22.083Y33.592Z2.995
G01X22.139Y33.653Z3.061
G01X22.188Y33.720Z3.126
G01X22.230Y33.791Z3.189
G01X22.266Y33.865Z3.250
G01X22.294Y33.943Z3.309
G01X22.314Y34.023Z3.363
G01X22.326Y34.105Z3.413
G01X22.330Y34.187Z3.458
G01X22.326Y34.270Z3.498
G01X22.314Y34.352Z3.531
G01X22.294Y34.432Z3.557
G01X22.266Y34.510Z3.576
G01X22.230Y34.584Z3.587
G01X22.188Y34.655Z3.590
G01X22.139Y34.722Z3.586
G01X22.083Y34.783Z3.573
G01X22.022Y34.838Z3.553
G01X21.956Y34.888Z3.526
G01X21.885Y34.930Z3.491
G01X21.810Y34.965Z3.450
G01X21.732Y34.993Z3.403
G01X21.652Y35.013Z3.351
G01X21.570Y35.025Z3.295
G01X21.488Y35.029Z3.234
G01X21.405Y35.025Z3.171
G01X21.324Y35.013Z3.105
G01X21.244Y34.993Z3.038
G01X21.166Y34.965Z2.970
G01X21.091Y34.930Z2.903
G01X21.020Y34.888Z2.837
G01X20.954Y34.838Z2.772
G01X20.893Y34.783Z2.709
G01X20.837Y34.722Z2.649
G01X20.788Y34.655Z2.592
G01X20.746Y34.584Z2.538
G01X20.710Y34.510Z2.489
G01X20.682Y34.432Z2.443
G01X20.662Y34.352Z2.403
G01X20.650Y34.270Z2.367
G01X20.646Y34.190Z2.336
G01X20.646Y34.185Z2.334
G00X20.646Y34.185Z4.384
G00X20.158Y34.185Z4.110
X19.670Y34.185Z3.856
X19.182Y34.185Z3.623
X18.695Y34.185Z3.410
X18.207Y34.185Z3.215
X18.106Y34.185Z3.177
G01F60.00X18.106Y34.185Z3.177
G01X18.106Y34.185Z1.127
G01F120.00X18.106Y34.185Z1.127
G01X18.110Y34.105Z1.115
G01X18.122Y34.023Z1.105
G01X18.142Y33.943Z1.099
G01X18.170Y33.865Z1.096
G01X18.205Y33.791Z1.096
G01X18.248Y33.720Z1.099
G01X18.297Y33.653Z1.105
G01X18.353Y33.592Z1.114
G01X18.414Y33.537Z1.127
G01X18.480Y33.487Z1.142
G01X18.551Y33.445Z1.160
G01X18.626Y33.410Z1.181
G01X18.704Y33.382Z1.204
G01X18.784Y33.362Z1.230
G01X18.865Y33.350Z1.259
G01X18.948Y33.346Z1.290
G01X19.031Y33.350Z1.323
G01X19.112Y33.362Z1.357
G01X19.192Y33.382Z1.394
G01X19.270Y33.410Z1.432
G01X19.345Y33.445Z1.471
G01X19.416Y33.487Z1.512
G01X19.482Y33.537Z1.552
G01X19.543Y33.592Z1.593
G01X19.599Y33.653Z1.633
G01X19.648Y33.720Z1.673
G01X19.690Y33.791Z1.711
G01X19.726Y33.865Z1.747
G01X19.754Y33.943Z1.782
G01X19.774Y34.023Z1.813
G01X19.786Y34.105Z1.842
G01X19.790Y34.187Z1.867
G01X19.786Y34.270Z1.888
G01X19.774Y34.352Z1.905
G01X19.754Y34.432Z1.917
G01X19.726Y34.510Z1.925
G01X19.690Y34.584Z1.927
G01X19.648Y34.655Z1.924
G01X19.599Y34.722Z1.917
G01X19.543Y34.783Z1.904
G01X19.482Y34.838Z1.887
G01X19.416Y34.888Z1.865
G01X19.345Y34.930Z1.840
G01X19.270Y34.965Z1.810
G01X19.192Y34.993Z1.777
G01X19.112Y35.013Z1.741
G01X19.031Y35.025Z1.703
G01X18.948Y35.029Z1.662
G01X18.865Y35.025Z1.621
G01X18.784Y35.013Z1.579
G01X18.704Y34.993Z1.536
G01X18.626Y34.965Z1.494
G01X18.551Y34.930Z1.452
G01X18.480Y34.888Z1.412
G01X18.414Y34.838Z1.372
G01X18.353Y34.783Z1.335
G01X18.297Y34.722Z1.300
G01X18.248Y34.655Z1.267
G01X18.205Y34.584Z1.236
G01X18.170Y34.510Z1.209
G01X18.142Y34.432Z1.184
G01X18.122Y34.352Z1.162
G01X18.110Y34.270Z1.143
G01X18.106Y34.190Z1.128
G01X18.106Y34.185Z1.127
G00X18.106Y34.185Z3.177
G00X17.618Y34.185Z3.003
X17.130Y34.185Z2.847
X16.642Y34.185Z2.707
X16.155Y34.185Z2.581
X15.667Y34.185Z2.471
X15.566Y34.185Z2.450
G01F60.00X15.566Y34.185Z2.450
G01X15.566Y34.185Z0.400
G01F120.00X15.566Y34.185Z0.400
G01X15.570Y34.105Z0.395
G01X15.582Y34.023Z0.392
G01X15.602Y33.943Z0.391
G01X15.630Y33.865Z0.392
G01X15.665Y33.791Z0.394
G01X15.708Y33.720Z0.398
G01X15.757Y33.653Z0.403
G01X15.813Y33.592Z0.410
G01X15.874Y33.537Z0.419
G01X15.940Y33.487Z0.429
G01X16.011Y33.445Z0.441
G01X16.086Y33.410Z0.454
G01X16.164Y33.382Z0.468
G01X16.244Y33.362Z0.484
G01X16.325Y33.350Z0.501
G01X16.408Y33.346Z0.519
G01X16.490Y33.350Z0.538
G01X16.572Y33.362Z0.559
G01X16.652Y33.382Z0.580
G01X16.730Y33.410Z0.601
G01X16.805Y33.445Z0.624
G01X16.876Y33.487Z0.646
G01X16.942Y33.537Z0.669
G01X17.003Y33.592Z0.691
G01X17.059Y33.653Z0.713
G01X17.108Y33.720Z0.735
G01X17.150Y33.791Z0.755
G01X17.186Y33.865Z0.774
G01X17.214Y33.943Z0.792
G01X17.234Y34.023Z0.808
G01X17.246Y34.105Z0.822
G01X17.250Y34.187Z0.834
G01X17.246Y34.270Z0.844
G01X17.234Y34.352Z0.850
G01X17.214Y34.432Z0.854
G01X17.186Y34.510Z0.855
G01X17.150Y34.584Z0.854
G01X17.108Y34.655Z0.849
G01X17.059Y34.722Z0.842
G01X17.003Y34.783Z0.831
G01X16.942Y34.838Z0.818
G01X16.876Y34.888Z0.803
G01X16.805Y34.930Z0.786
G01X16.730Y34.965Z0.767
G01X16.652Y34.993Z0.746
G01X16.572Y35.013Z0.724
G01X16.490Y35.025Z0.701
G01X16.408Y35.029Z0.677
G01X16.325Y35.025Z0.653
G01X16.244Y35.013Z0.629
G01X16.164Y34.993Z0.605
G01X16.086Y34.965Z0.581
G01X16.011Y34.930Z0.559
G01X15.940Y34.888Z0.537
G01X15.874Y34.838Z0.516
G01X15.813Y34.783Z0.497
G01X15.757Y34.722Z0.479
G01X15.708Y34.655Z0.463
G01X15.665Y34.584Z0.448
G01X15.630Y34.510Z0.435
G01X15.602Y34.432Z0.424
G01X15.582Y34.352Z0.414
G01X15.570Y34.270Z0.406
G01X15.566Y34.190Z0.400
G01X15.566Y34.185Z0.400
G00X15.566Y34.185Z2.450
G00X16.054Y34.185Z2.557
X16.542Y34.185Z2.680
X17.030Y34.185Z2.817
X17.518Y34.185Z2.970
X18.006Y34.185Z3.140
X18.493Y34.185Z3.327
X18.981Y34.185Z3.533
X19.469Y34.185Z3.758
X19.957Y34.185Z4.003
X20.445Y34.185Z4.269
X20.933Y34.185Z4.556
X21.421Y34.185Z4.866
X21.909Y34.185Z5.200
X22.397Y34.185Z5.558
X22.885Y34.185Z5.940
X23.186Y34.185Z6.190
G01F60.00X23.186Y34.185Z6.190
G01X23.186Y34.185Z4.140
G01F120.00X23.186Y34.185Z4.140
G01X23.190Y34.105Z4.095
G01X23.202Y34.023Z4.055
G01X23.222Y33.943Z4.023
G01X23.250Y33.865Z3.999
G01X23.285Y33.791Z3.983
G01X23.328Y33.720Z3.974
G01X23.377Y33.653Z3.974
G01X23.433Y33.592Z3.981
G01X23.494Y33.537Z3.996
G01X23.560Y33.487Z4.019
G01X23.631Y33.445Z4.049
G01X23.706Y33.410Z4.087
G01X23.784Y33.382Z4.132
G01X23.864Y33.362Z4.184
G01X23.945Y33.350Z4.243
G01X24.028Y33.346Z4.308
G01X24.111Y33.350Z4.380
G01X24.192Y33.362Z4.457
G01X24.272Y33.382Z4.539
G01X24.350Y33.410Z4.626
G01X24.425Y33.445Z4.717
G01X24.496Y33.487Z4.811
G01X24.562Y33.537Z4.908
G01X24.623Y33.592Z5.006
G01X24.679Y33.653Z5.105
G01X24.728Y33.720Z5.203
G01X24.770Y33.791Z5.300
G01X24.806Y33.865Z5.395
G01X24.834Y33.943Z5.486
G01X24.854Y34.023Z5.572
G01X24.866Y34.105Z5.653
G01X24.870Y34.187Z5.726
G01X24.866Y34.270Z5.792
G01X24.854Y34.352Z5.848
G01X24.834Y34.432Z5.896
G01X24.806Y34.510Z5.932
G01X24.770Y34.584Z5.958
G01X24.728Y34.655Z5.973
G01X24.679Y34.722Z5.975
G01X24.623Y34.783Z5.967
G01X24.562Y34.838Z5.946
G01X24.496Y34.888Z5.915
G01X24.425Y34.930Z5.872
G01X24.350Y34.965Z5.820
G01X24.272Y34.993Z5.758
G01X24.192Y35.013Z5.687
G01X24.111Y35.025Z5.609
G01X24.028Y35.029Z5.524
G01X23.945Y35.025Z5.434
G01X23.864Y35.013Z5.340
G01X23.784Y34.993Z5.242
G01X23.706Y34.965Z5.143
G01X23.631Y34.930Z5.042
G01X23.560Y34.888Z4.942
G01X23.494Y34.838Z4.843
G01X23.433Y34.783Z4.747
G01X23.377Y34.722Z4.653
G01X23.328Y34.655Z4.563
G01X23.285Y34.584Z4.478
G01X23.250Y34.510Z4.399
G01X23.222Y34.432Z4.325
G01X23.202Y34.352Z4.257
G01X23.190Y34.270Z4.196
G01X23.186Y34.190Z4.143
G01X23.186Y34.185Z4.140
G00X23.186Y34.185Z6.190
G00X23.674Y34.185Z6.615
X24.162Y34.185Z7.067
X24.650Y34.185Z7.548
X25.138Y34.185Z8.057
X25.626Y34.185Z8.596
X25.726Y34.185Z8.711
G01F60.00X25.726Y34.185Z8.711
G01X25.726Y34.185Z6.661
G01F120.00X25.726Y34.185Z6.661
G01X25.730Y34.105Z6.587
G01X25.742Y34.023Z6.522
G01X25.762Y33.943Z6.467
G01X25.790Y33.865Z6.423
G01X25.826Y33.791Z6.390
G01X25.868Y33.720Z6.368
G01X25.917Y33.653Z6.358
G01X25.973Y33.592Z6.359
G01X26.034Y33.537Z6.371
G01X26.100Y33.487Z6.395
G01X26.171Y33.445Z6.430
G01X26.246Y33.410Z6.476
G01X26.324Y33.382Z6.533
G01X26.404Y33.362Z6.600
G01X26.485Y33.350Z6.677
G01X26.568Y33.346Z6.764
G01X26.650Y33.350Z6.861
G01X26.732Y33.362Z6.966
G01X26.812Y33.382Z7.079
G01X26.890Y33.410Z7.199
G01X26.965Y33.445Z7.326
G01X27.036Y33.487Z7.458
G01X27.102Y33.537Z7.594
G01X27.163Y33.592Z7.733
G01X27.219Y33.653Z7.874
G01X27.268Y33.720Z8.016
G01X27.310Y33.791Z8.156
G01X27.346Y33.865Z8.294
G01X27.374Y33.943Z8.428
G01X27.394Y34.023Z8.555
G01X27.406Y34.105Z8.676
G01X27.410Y34.187Z8.787
G01X27.406Y34.270Z8.889
G01X27.394Y34.352Z8.978
G01X27.374Y34.432Z9.055
G01X27.346Y34.510Z9.118
G01X27.310Y34.584Z9.165
G01X27.268Y34.655Z9.197
G01X27.219Y34.722Z9.213
G01X27.163Y34.783Z9.212
G01X27.102Y34.838Z9.195
G01X27.036Y34.888Z9.162
G01X26.965Y34.930Z9.113
G01X26.890Y34.965Z9.050
G01X26.812Y34.993Z8.972
G01X26.732Y35.013Z8.881
G01X26.650Y35.025Z8.779
G01X26.568Y35.029Z8.666
G01X26.485Y35.025Z8.544
G01X26.404Y35.013Z8.415
G01X26.324Y34.993Z8.280
G01X26.246Y34.965Z8.142
G01X26.171Y34.930Z8.000
G01X26.100Y34.888Z7.858
G01X26.034Y34.838Z7.716
G01X25.973Y34.783Z7.577
G01X25.917Y34.722Z7.440
G01X25.868Y34.655Z7.308
G01X25.826Y34.584Z7.182
G01X25.790Y34.510Z7.062
G01X25.762Y34.432Z6.949
G01X25.742Y34.352Z6.845
G01X25.730Y34.270Z6.749
G01X25.726Y34.190Z6.666
G01X25.726Y34.185Z6.661
G00X25.726Y34.185Z8.711
G00X26.214Y34.185Z9.287
X26.702Y34.185Z9.895
X27.190Y34.185Z10.535
X27.678Y34.185Z11.208
X28.166Y34.185Z11.915
X28.266Y34.185Z12.065
G01F60.00X28.266Y34.185Z12.065
G01X28.266Y34.185Z10.015
G01F120.00X28.266Y34.185Z10.015
G01X28.270Y34.105Z9.904
G01X28.282Y34.023Z9.803
G01X28.302Y33.943Z9.716
G01X28.330Y33.865Z9.644
G01X28.365Y33.791Z9.588
G01X28.408Y33.720Z9.546
G01X28.457Y33.653Z9.520
G01X28.513Y33.592Z9.510
G01X28.574Y33.537Z9.516
G01X28.640Y33.487Z9.538
G01X28.711Y33.445Z9.576
G01X28.786Y33.410Z9.628
G01X28.864Y33.382Z9.697
G01X28.944Y33.362Z9.780
G01X29.025Y33.350Z9.878
G01X29.108Y33.346Z9.990
G01X29.191Y33.350Z10.115
G01X29.272Y33.362Z10.253
G01X29.352Y33.382Z10.402
G01X29.430Y33.410Z10.562
G01X29.505Y33.445Z10.732
G01X29.576Y33.487Z10.910
G01X29.642Y33.537Z11.094
G01X29.703Y33.592Z11.284
G01X29.759Y33.653Z11.478
G01X29.808Y33.720Z11.673
G01X29.850Y33.791Z11.867
G01X29.886Y33.865Z12.059
G01X29.914Y33.943Z12.247
G01X29.934Y34.023Z12.428
G01X29.946Y34.105Z12.599
G01X29.950Y34.187Z12.760
G01X29.946Y34.270Z12.908
G01X29.934Y34.352Z13.041
G01X29.914Y34.432Z13.157
G01X29.886Y34.510Z13.255
G01X29.850Y34.584Z13.333
G01X29.808Y34.655Z13.390
G01X29.759Y34.722Z13.425
G01X29.703Y34.783Z13.439
G01X29.642Y34.838Z13.429
G01X29.576Y34.888Z13.398
G01X29.505Y34.930Z13.345
G01X29.430Y34.965Z13.272
G01X29.352Y34.993Z13.178
G01X29.272Y35.013Z13.066
G01X29.191Y35.025Z12.936
G01X29.108Y35.029Z12.791
G01X29.025Y35.025Z12.633
G01X28.944Y35.013Z12.464
G01X28.864Y34.993Z12.285
G01X28.786Y34.965Z12.100
G01X28.711Y34.930Z11.909
G01X28.640Y34.888Z11.715
G01X28.574Y34.838Z11.521
G01X28.513Y34.783Z11.327
G01X28.457Y34.722Z11.137
G01X28.408Y34.655Z10.951
G01X28.365Y34.584Z10.772
G01X28.330Y34.510Z10.601
G01X28.302Y34.432Z10.439
G01X28.282Y34.352Z10.287
G01X28.270Y34.270Z10.147
G01X28.266Y34.190Z10.023
G01X28.266Y34.185Z10.015
G00X28.266Y34.185Z12.065
G00X28.754Y34.185Z12.815
X29.242Y34.185Z13.600
X29.730Y34.185Z14.422
X30.218Y34.185Z15.282
X30.706Y34.185Z16.180
X30.806Y34.185Z16.370
G01F60.00X30.806Y34.185Z16.370
G01X30.806Y34.185Z14.320
G01F120.00X30.806Y34.185Z14.320
G01X30.810Y34.105Z14.161
G01X30.822Y34.023Z14.013
G01X30.842Y33.943Z13.885
G01X30.870Y33.865Z13.776
G01X30.906Y33.791Z13.686
G01X30.948Y33.720Z13.618
G01X30.997Y33.653Z13.570
G01X31.053Y33.592Z13.543
G01X31.114Y33.537Z13.538
G01X31.180Y33.487Z13.554
G01X31.251Y33.445Z13.591
G01X31.326Y33.410Z13.650
G01X31.404Y33.382Z13.729
G01X31.484Y33.362Z13.829
G01X31.565Y33.350Z13.949
G01X31.648Y33.346Z14.088
G01X31.730Y33.350Z14.246
G01X31.812Y33.362Z14.421
G01X31.892Y33.382Z14.613
G01X31.970Y33.410Z14.820
G01X32.045Y33.445Z15.041
G01X32.116Y33.487Z15.274
G01X32.182Y33.537Z15.516
G01X32.243Y33.592Z15.767
G01X32.299Y33.653Z16.024
G01X32.348Y33.720Z16.284
G01X32.390Y33.791Z16.544
G01X32.426Y33.865Z16.803
G01X32.454Y33.943Z17.057
G01X32.474Y34.023Z17.304
G01X32.486Y34.105Z17.540
G01X32.490Y34.187Z17.762
G01X32.486Y34.270Z17.969
G01X32.474Y34.352Z18.157
G01X32.454Y34.432Z18.324
G01X32.426Y34.510Z18.467
G01X32.390Y34.584Z18.585
G01X32.348Y34.655Z18.676
G01X32.299Y34.722Z18.739
G01X32.243Y34.783Z18.774
G01X32.182Y34.838Z18.778
G01X32.116Y34.888Z18.753
G01X32.045Y34.930Z18.699
G01X31.970Y34.965Z18.617
G01X31.892Y34.993Z18.508
G01X31.812Y35.013Z18.373
G01X31.730Y35.025Z18.214
G01X31.648Y35.029Z18.034
G01X31.565Y35.025Z17.835
G01X31.484Y35.013Z17.619
G01X31.404Y34.993Z17.389
G01X31.326Y34.965Z17.148
G01X31.251Y34.930Z16.898
G01X31.180Y34.888Z16.643
G01X31.114Y34.838Z16.385
G01X31.053Y34.783Z16.127
G01X30.997Y34.722Z15.871
G01X30.948Y34.655Z15.620
G01X30.906Y34.584Z15.375
G01X30.870Y34.510Z15.140
G01X30.842Y34.432Z14.916
G01X30.822Y34.352Z14.705
G01X30.810Y34.270Z14.507
G01X30.806Y34.190Z14.331
G01X30.806Y34.185Z14.320
G00X30.806Y34.185Z16.370
G00X31.294Y34.094Z17.114
X31.782Y34.004Z17.874
X32.270Y33.913Z18.649
X32.758Y33.822Z19.440
X33.246Y33.732Z20.245
X33.733Y33.641Z21.064
X34.221Y33.550Z21.897
X34.709Y33.460Z22.743
X35.030Y33.400Z23.306
G01F60.00X35.030Y33.400Z23.306
G01X35.030Y33.400Z21.256
G01F120.00X35.030Y33.400Z21.256
G01X35.030Y34.182Z23.894
X35.030Y34.964Z26.732
X35.030Y34.975Z26.772
G01X35.030Y34.980Z26.791
G01X35.029Y34.986Z26.809
G01X35.027Y34.992Z26.828
G01X35.025Y34.997Z26.841
G01X35.023Y35.002Z26.851
G01X35.020Y35.006Z26.860
G01X35.017Y35.011Z26.866
G01X35.013Y35.014Z26.870
G01X35.009Y35.018Z26.871
G01X35.005Y35.021Z26.869
G01X35.000Y35.024Z26.865
G01X34.995Y35.026Z26.859
G01X34.990Y35.028Z26.850
G01X34.985Y35.029Z26.839
G01X34.975Y35.029Z26.814
G01X34.488Y35.029Z25.381
X34.000Y35.029Z24.000
X33.512Y35.029Z22.669
X33.401Y35.029Z22.373
G01X33.395Y35.029Z22.358
G01X33.390Y35.028Z22.341
G01X33.384Y35.027Z22.319
G01X33.379Y35.025Z22.299
G01X33.374Y35.022Z22.279
G01X33.369Y35.020Z22.258
G01X33.365Y35.016Z22.237
G01X33.361Y35.013Z22.215
G01X33.358Y35.008Z22.193
G01X33.355Y35.004Z22.172
G01X33.352Y35.000Z22.150
G01X33.350Y34.995Z22.129
G01X33.348Y34.989Z22.109
G01X33.347Y34.984Z22.090
G01X33.346Y34.975Z22.059
G01X33.346Y34.193Z19.717
X33.346Y33.411Z17.541
X33.346Y33.400Z17.513
G01X33.347Y33.395Z17.499
G01X33.347Y33.388Z17.483
G01X33.349Y33.383Z17.473
G01X33.351Y33.378Z17.463
G01X33.353Y33.373Z17.455
G01X33.356Y33.369Z17.449
G01X33.359Y33.365Z17.445
G01X33.363Y33.361Z17.442
G01X33.367Y33.357Z17.441
G01X33.371Y33.354Z17.442
G01X33.376Y33.352Z17.445
G01X33.381Y33.349Z17.449
G01X33.390Y33.347Z17.461
G01X33.395Y33.346Z17.469
G01X33.401Y33.346Z17.480
G01X33.889Y33.346Z18.511
X34.376Y33.346Z19.582
X34.864Y33.346Z20.693
X34.977Y33.346Z20.955
G01X34.982Y33.346Z20.969
G01X34.987Y33.347Z20.984
G01X34.993Y33.348Z21.001
G01X34.998Y33.350Z21.019
G01X35.002Y33.353Z21.038
G01X35.007Y33.356Z21.057
G01X35.014Y33.362Z21.093
G01X35.018Y33.366Z21.115
G01X35.021Y33.370Z21.136
G01X35.024Y33.375Z21.158
G01X35.026Y33.379Z21.179
G01X35.028Y33.384Z21.199
G01X35.029Y33.389Z21.219
G01X35.030Y33.395Z21.238
G01X35.030Y33.400Z21.256
G00X35.030Y33.400Z23.306
G00X35.518Y33.563Z25.042
X36.006Y33.725Z26.891
X36.494Y33.887Z28.857
X36.982Y34.049Z30.947
X37.469Y34.212Z33.167
X37.957Y34.374Z35.522
X38.445Y34.536Z38.018
X38.933Y34.699Z40.664
X39.421Y34.861Z43.464
X39.909Y35.023Z46.426
X40.310Y35.157Z48.985
G01F60.00X40.310Y35.157Z48.985
G01X40.310Y35.157Z46.935
G01F120.00X40.310Y35.157Z46.935
G01X39.822Y35.157Z44.840
X39.334Y35.157Z42.808
X38.846Y35.157Z40.838
X38.735Y35.157Z40.398
G01X38.729Y35.156Z40.375
G01X38.724Y35.155Z40.350
G01X38.718Y35.154Z40.315
G01X38.713Y35.152Z40.285
G01X38.708Y35.150Z40.252
G01X38.703Y35.147Z40.218
G01X38.699Y35.143Z40.183
G01X38.695Y35.140Z40.147
G01X38.692Y35.136Z40.111
G01X38.689Y35.131Z40.075
G01X38.686Y35.127Z40.038
G01X38.684Y35.122Z40.003
G01X38.682Y35.117Z39.968
G01X38.681Y35.111Z39.934
G01X38.680Y35.102Z39.879
G01X38.680Y34.320Z35.676
X38.680Y33.538Z31.767
X38.680Y33.527Z31.717
G01X38.681Y33.522Z31.692
G01X38.681Y33.517Z31.669
G01X38.683Y33.510Z31.643
G01X38.685Y33.505Z31.625
G01X38.687Y33.500Z31.609
G01X38.690Y33.496Z31.596
G01X38.694Y33.492Z31.586
G01X38.697Y33.488Z31.579
G01X38.701Y33.484Z31.575
G01X38.706Y33.481Z31.573
G01X38.710Y33.479Z31.576
G01X38.715Y33.476Z31.580
G01X38.720Y33.475Z31.588
G01X38.725Y33.474Z31.598
G01X38.735Y33.473Z31.623
G01X39.223Y33.473Z33.155
X39.711Y33.473Z34.735
X40.198Y33.473Z36.364
X40.310Y33.473Z36.742
G01X40.315Y33.473Z36.762
G01X40.320Y33.474Z36.784
G01X40.325Y33.475Z36.809
G01X40.331Y33.477Z36.837
G01X40.335Y33.479Z36.866
G01X40.340Y33.482Z36.898
G01X40.344Y33.485Z36.930
G01X40.349Y33.490Z36.972
G01X40.353Y33.494Z37.007
G01X40.356Y33.498Z37.042
G01X40.360Y33.506Z37.104
G01X40.362Y33.512Z37.139
G01X40.363Y33.517Z37.172
G01X40.364Y33.522Z37.204
G01X40.364Y33.527Z37.236
G01X40.364Y34.309Z41.818
X40.364Y35.092Z46.747
X40.364Y35.103Z46.825
G01X40.364Y35.109Z46.858
G01X40.363Y35.114Z46.889
G01X40.361Y35.119Z46.916
G01X40.359Y35.124Z46.940
G01X40.357Y35.129Z46.961
G01X40.354Y35.133Z46.978
G01X40.348Y35.141Z46.999
G01X40.344Y35.144Z47.005
G01X40.340Y35.147Z47.007
G01X40.335Y35.150Z47.005
G01X40.331Y35.152Z46.999
G01X40.325Y35.154Z46.989
G01X40.320Y35.155Z46.974
G01X40.315Y35.156Z46.957
G01X40.310Y35.157Z46.935
G00X40.310Y35.157Z48.985
G00X40.797Y34.704Z48.114
X41.220Y34.312Z47.294
G01F60.00X41.220Y34.312Z47.294
G01X41.220Y34.312Z45.244
G01F120.00X41.220Y34.312Z45.244
G01X41.224Y34.232Z44.737
G01X41.236Y34.150Z44.254
G01X41.257Y34.070Z43.816
G01X41.284Y33.993Z43.425
G01X41.320Y33.918Z43.084
G01X41.362Y33.847Z42.795
G01X41.411Y33.781Z42.562
G01X41.467Y33.719Z42.384
G01X41.528Y33.664Z42.264
G01X41.595Y33.615Z42.201
G01X41.665Y33.572Z42.197
G01X41.740Y33.537Z42.252
G01X41.818Y33.509Z42.366
G01X41.898Y33.489Z42.539
G01X41.980Y33.477Z42.768
G01X42.062Y33.473Z43.054
G01X42.145Y33.477Z43.394
G01X42.227Y33.489Z43.787
G01X42.307Y33.509Z44.230
G01X42.384Y33.537Z44.720
G01X42.459Y33.572Z45.253
G01X42.530Y33.615Z45.826
G01X42.596Y33.664Z46.433
G01X42.658Y33.719Z47.071
G01X42.713Y33.781Z47.732
G01X42.762Y33.847Z48.412
G01X42.805Y33.918Z49.104
G01X42.840Y33.993Z49.802
G01X42.868Y34.070Z50.497
G01X42.888Y34.150Z51.183
G01X42.900Y34.232Z51.853
G01X42.904Y34.315Z52.498
G01X42.900Y34.397Z53.110
G01X42.888Y34.479Z53.685
G01X42.868Y34.559Z54.213
G01X42.840Y34.637Z54.690
G01X42.805Y34.711Z55.107
G01X42.762Y34.782Z55.461
G01X42.713Y34.849Z55.748
G01X42.658Y34.910Z55.962
G01X42.596Y34.965Z56.103
G01X42.530Y35.015Z56.167
G01X42.459Y35.057Z56.155
G01X42.384Y35.092Z56.067
G01X42.307Y35.120Z55.904
G01X42.227Y35.140Z55.669
G01X42.145Y35.153Z55.364
G01X42.062Y35.157Z54.995
G01X41.980Y35.153Z54.566
G01X41.898Y35.140Z54.082
G01X41.818Y35.120Z53.549
G01X41.740Y35.092Z52.974
G01X41.665Y35.057Z52.364
G01X41.595Y35.015Z51.726
G01X41.528Y34.965Z51.066
G01X41.467Y34.910Z50.391
G01X41.411Y34.849Z49.710
G01X41.362Y34.782Z49.027
G01X41.320Y34.711Z48.351
G01X41.284Y34.637Z47.687
G01X41.257Y34.559Z47.041
G01X41.236Y34.479Z46.417
G01X41.224Y34.397Z45.823
G01X41.220Y34.317Z45.279
G01X41.220Y34.312Z45.244
G00X41.220Y34.312Z47.294
G00X41.708Y34.312Z49.317
X42.196Y34.312Z51.399
X42.684Y34.312Z53.541
X43.172Y34.312Z55.744
X43.660Y34.312Z58.009
X43.760Y34.312Z58.483
G01F60.00X43.760Y34.312Z58.483
G01X43.760Y34.312Z56.433
G01F120.00X43.760Y34.312Z56.433
G01X43.764Y34.232Z55.800
G01X43.777Y34.150Z55.192
G01X43.797Y34.070Z54.639
G01X43.824Y33.993Z54.142
G01X43.860Y33.918Z53.705
G01X43.902Y33.847Z53.331
G01X43.951Y33.781Z53.023
G01X44.007Y33.719Z52.784
G01X44.068Y33.664Z52.613
G01X44.134Y33.615Z52.513
G01X44.205Y33.572Z52.485
G01X44.280Y33.537Z52.529
G01X44.358Y33.509Z52.644
G01X44.438Y33.489Z52.833
G01X44.520Y33.477Z53.090
G01X44.602Y33.473Z53.418
G01X44.685Y33.477Z53.812
G01X44.766Y33.489Z54.273
G01X44.847Y33.509Z54.795
G01X44.924Y33.537Z55.376
G01X44.999Y33.572Z56.011
G01X45.070Y33.615Z56.695
G01X45.136Y33.664Z57.424
G01X45.197Y33.719Z58.191
G01X45.253Y33.781Z58.990
G01X45.302Y33.847Z59.812
G01X45.345Y33.918Z60.652
G01X45.380Y33.993Z61.500
G01X45.408Y34.070Z62.349
G01X45.428Y34.150Z63.188
G01X45.440Y34.232Z64.010
G01X45.444Y34.315Z64.805
G01X45.440Y34.397Z65.563
G01X45.428Y34.479Z66.276
G01X45.408Y34.559Z66.936
G01X45.380Y34.637Z67.535
G01X45.345Y34.711Z68.064
G01X45.302Y34.782Z68.519
G01X45.253Y34.849Z68.893
G01X45.197Y34.910Z69.181
G01X45.136Y34.965Z69.380
G01X45.070Y35.015Z69.487
G01X44.999Y35.057Z69.502
G01X44.924Y35.092Z69.424
G01X44.847Y35.120Z69.255
G01X44.766Y35.140Z68.997
G01X44.685Y35.153Z68.654
G01X44.602Y35.157Z68.231
G01X44.520Y35.153Z67.732
G01X44.438Y35.140Z67.166
G01X44.358Y35.120Z66.537
G01X44.280Y35.092Z65.855
G01X44.205Y35.057Z65.127
G01X44.134Y35.015Z64.362
G01X44.068Y34.965Z63.568
G01X44.007Y34.910Z62.753
G01X43.951Y34.849Z61.926
G01X43.902Y34.782Z61.095
G01X43.860Y34.711Z60.269
G01X43.824Y34.637Z59.455
G01X43.797Y34.559Z58.660
G01X43.777Y34.479Z57.890
G01X43.764Y34.397Z57.154
G01X43.760Y34.317Z56.476
G01X43.760Y34.312Z56.433
G00X43.760Y34.312Z58.483
G00X44.248Y34.312Z60.823
X44.736Y34.312Z63.227
X45.224Y34.312Z65.695
X45.712Y34.312Z68.228
X46.200Y34.312Z70.828
X46.300Y34.312Z71.371
G01F60.00X46.300Y34.312Z71.371
G01X46.300Y34.312Z69.321
G01F120.00X46.300Y34.312Z69.321
G01X46.304Y34.232Z68.542
G01X46.317Y34.150Z67.792
G01X46.337Y34.070Z67.105
G01X46.364Y33.993Z66.484
G01X46.400Y33.918Z65.934
G01X46.442Y33.847Z65.460
G01X46.491Y33.781Z65.065
G01X46.547Y33.719Z64.751
G01X46.608Y33.664Z64.519
G01X46.674Y33.615Z64.374
G01X46.745Y33.572Z64.314
G01X46.820Y33.537Z64.342
G01X46.898Y33.509Z64.456
G01X46.978Y33.489Z64.659
G01X47.060Y33.477Z64.945
G01X47.142Y33.473Z65.318
G01X47.225Y33.477Z65.771
G01X47.306Y33.489Z66.306
G01X47.387Y33.509Z66.914
G01X47.464Y33.537Z67.596
G01X47.539Y33.572Z68.344
G01X47.610Y33.615Z69.154
G01X47.676Y33.664Z70.018
G01X47.737Y33.719Z70.931
G01X47.793Y33.781Z71.883
G01X47.842Y33.847Z72.867
G01X47.885Y33.918Z73.874
G01X47.920Y33.993Z74.894
G01X47.948Y34.070Z75.916
G01X47.968Y34.150Z76.930
G01X47.980Y34.232Z77.926
G01X47.984Y34.315Z78.891
G01X47.980Y34.397Z79.815
G01X47.968Y34.479Z80.689
G01X47.948Y34.559Z81.501
G01X47.920Y34.637Z82.242
G01X47.885Y34.711Z82.901
G01X47.842Y34.782Z83.473
G01X47.793Y34.849Z83.950
G01X47.737Y34.910Z84.325
G01X47.676Y34.965Z84.594
G01X47.610Y35.015Z84.754
G01X47.539Y35.057Z84.804
G01X47.464Y35.092Z84.741
G01X47.387Y35.120Z84.569
G01X47.306Y35.140Z84.291
G01X47.225Y35.153Z83.907
G01X47.142Y35.157Z83.427
G01X47.060Y35.153Z82.854
G01X46.978Y35.140Z82.197
G01X46.898Y35.120Z81.463
G01X46.820Y35.092Z80.662
G01X46.745Y35.057Z79.804
G01X46.674Y35.015Z78.897
G01X46.608Y34.965Z77.951
G01X46.547Y34.910Z76.978
G01X46.491Y34.849Z75.988
G01X46.442Y34.782Z74.989
G01X46.400Y34.711Z73.992
G01X46.364Y34.637Z73.007
G01X46.337Y34.559Z72.042
G01X46.317Y34.479Z71.105
G01X46.304Y34.397Z70.205
G01X46.300Y34.317Z69.375
G01X46.300Y34.312Z69.321
G00X46.300Y34.312Z71.371
G00X46.788Y34.312Z74.052
X47.276Y34.312Z76.800
X47.764Y34.312Z79.617
X48.252Y34.312Z82.504
X48.740Y34.312Z85.461
X48.840Y34.312Z86.079
G01F60.00X48.840Y34.312Z86.079
G01X48.840Y34.312Z84.029
G01F120.00X48.840Y34.312Z84.029
G01X48.844Y34.232Z83.083
G01X48.856Y34.150Z82.169
G01X48.877Y34.070Z81.328
G01X48.904Y33.993Z80.565
G01X48.940Y33.918Z79.885
G01X48.982Y33.847Z79.294
G01X49.031Y33.781Z78.797
G01X49.087Y33.719Z78.395
G01X49.148Y33.664Z78.093
G01X49.215Y33.615Z77.892
G01X49.285Y33.572Z77.793
G01X49.360Y33.537Z77.799
G01X49.438Y33.509Z77.908
G01X49.518Y33.489Z78.123
G01X49.600Y33.477Z78.440
G01X49.682Y33.473Z78.859
G01X49.765Y33.477Z79.375
G01X49.847Y33.489Z79.990
G01X49.927Y33.509Z80.694
G01X50.004Y33.537Z81.487
G01X50.079Y33.572Z82.360
G01X50.150Y33.615Z83.309
G01X50.216Y33.664Z84.325
G01X50.278Y33.719Z85.400
G01X50.333Y33.781Z86.525
G01X50.382Y33.847Z87.689
G01X50.425Y33.918Z88.884
G01X50.460Y33.993Z90.096
G01X50.488Y34.070Z91.314
G01X50.508Y34.150Z92.525
G01X50.520Y34.232Z93.718
G01X50.524Y34.315Z94.877
G01X50.520Y34.397Z95.990
G01X50.508Y34.479Z97.046
G01X50.488Y34.559Z98.032
G01X50.460Y34.637Z98.935
G01X50.425Y34.711Z99.744
G01X50.382Y34.782Z100.451
G01X50.333Y34.849Z101.047
G01X50.278Y34.910Z101.524
G01X50.216Y34.965Z101.877
G01X50.150Y35.015Z102.100
G01X50.079Y35.057Z102.193
G01X50.004Y35.092Z102.153
G01X49.927Y35.120Z101.982
G01X49.847Y35.140Z101.684
G01X49.765Y35.153Z101.260
G01X49.682Y35.157Z100.719
G01X49.600Y35.153Z100.066
G01X49.518Y35.140Z99.311
G01X49.438Y35.120Z98.462
G01X49.360Y35.092Z97.530
G01X49.285Y35.057Z96.526
G01X49.215Y35.015Z95.461
G01X49.148Y34.965Z94.348
G01X49.087Y34.910Z93.198
G01X49.031Y34.849Z92.023
G01X48.982Y34.782Z90.835
G01X48.940Y34.711Z89.646
G01X48.904Y34.637Z88.469
G01X48.877Y34.559Z87.311
G01X48.856Y34.479Z86.184
G01X48.844Y34.397Z85.098
G01X48.840Y34.317Z84.094
G01X48.840Y34.312Z84.029
G00X48.840Y34.312Z86.079
G00X49.328Y34.312Z89.123
X49.816Y34.312Z92.238
X50.304Y34.312Z95.428
X50.792Y34.312Z98.691
X51.280Y34.312Z102.029
X51.380Y34.312Z102.726
G01F60.00X51.380Y34.312Z102.726
G01X51.380Y34.312Z100.676
G01F120.00X51.380Y34.312Z100.676
G01X51.384Y34.232Z99.541
G01X51.396Y34.150Z98.440
G01X51.417Y34.070Z97.425
G01X51.444Y33.993Z96.499
G01X51.480Y33.918Z95.671
G01X51.522Y33.847Z94.946
G01X51.571Y33.781Z94.330
G01X51.627Y33.719Z93.828
G01X51.688Y33.664Z93.441
G01X51.755Y33.615Z93.175
G01X51.825Y33.572Z93.028
G01X51.900Y33.537Z93.006
G01X51.978Y33.509Z93.107
G01X52.058Y33.489Z93.333
G01X52.140Y33.477Z93.678
G01X52.222Y33.473Z94.147
G01X52.305Y33.477Z94.731
G01X52.387Y33.489Z95.433
G01X52.467Y33.509Z96.241
G01X52.544Y33.537Z97.156
G01X52.619Y33.572Z98.167
G01X52.690Y33.615Z99.269
G01X52.756Y33.664Z100.452
G01X52.818Y33.719Z101.708
G01X52.873Y33.781Z103.025
G01X52.922Y33.847Z104.390
G01X52.965Y33.918Z105.794
G01X53.000Y33.993Z107.222
G01X53.028Y34.070Z108.659
G01X53.048Y34.150Z110.091
G01X53.060Y34.232Z111.505
G01X53.064Y34.315Z112.882
G01X53.060Y34.397Z114.208
G01X53.048Y34.479Z115.470
G01X53.028Y34.559Z116.652
G01X53.000Y34.637Z117.740
G01X52.965Y34.711Z118.719
G01X52.922Y34.782Z119.581
G01X52.873Y34.849Z120.315
G01X52.818Y34.910Z120.909
G01X52.756Y34.965Z121.359
G01X52.690Y35.015Z121.657
G01X52.619Y35.057Z121.803
G01X52.544Y35.092Z121.793
G01X52.467Y35.120Z121.627
G01X52.387Y35.140Z121.312
G01X52.305Y35.153Z120.847
G01X52.222Y35.157Z120.243
G01X52.140Y35.153Z119.504
G01X52.058Y35.140Z118.643
G01X51.978Y35.120Z117.667
G01X51.900Y35.092Z116.592
G01X51.825Y35.057Z115.428
G01X51.755Y35.015Z114.189
G01X51.688Y34.965Z112.889
G01X51.627Y34.910Z111.542
G01X51.571Y34.849Z110.162
G01X51.522Y34.782Z108.763
G01X51.480Y34.711Z107.359
G01X51.444Y34.637Z105.965
G01X51.417Y34.559Z104.591
G01X51.396Y34.479Z103.250
G01X51.384Y34.397Z101.955
G01X51.380Y34.317Z100.753
G01X51.380Y34.312Z100.676
G00X51.380Y34.312Z102.726
G00X51.868Y34.312Z106.156
X52.356Y34.312Z109.662
X52.844Y34.312Z113.246
X53.332Y34.312Z116.909
X53.820Y34.312Z120.651
X53.920Y34.312Z121.431
G01F60.00X53.920Y34.312Z121.431
G01X53.920Y34.312Z119.382
G01F120.00X53.920Y34.312Z119.382
G01X53.924Y34.232Z118.034
G01X53.937Y34.150Z116.724
G01X53.957Y34.070Z115.511
G01X53.984Y33.993Z114.401
G01X54.020Y33.918Z113.404
G01X54.062Y33.847Z112.526
G01X54.111Y33.781Z111.776
G01X54.167Y33.719Z111.157
G01X54.228Y33.664Z110.674
G01X54.294Y33.615Z110.330
G01X54.365Y33.572Z110.128
G01X54.440Y33.537Z110.071
G01X54.518Y33.509Z110.158
G01X54.598Y33.489Z110.392
G01X54.680Y33.477Z110.768
G01X54.762Y33.473Z111.287
G01X54.845Y33.477Z111.944
G01X54.926Y33.489Z112.739
G01X55.007Y33.509Z113.661
G01X55.084Y33.537Z114.709
G01X55.159Y33.572Z115.871
G01X55.230Y33.615Z117.142
G01X55.296Y33.664Z118.510
G01X55.357Y33.719Z119.965
G01X55.413Y33.781Z121.493
G01X55.462Y33.847Z123.082
G01X55.505Y33.918Z124.719
G01X55.540Y33.993Z126.386
G01X55.568Y34.070Z128.067
G01X55.588Y34.150Z129.745
G01X55.600Y34.232Z131.405
G01X55.604Y34.315Z133.026
G01X55.600Y34.397Z134.591
G01X55.588Y34.479Z136.083
G01X55.568Y34.559Z137.486
G01X55.540Y34.637Z138.782
G01X55.505Y34.711Z139.954
G01X55.462Y34.782Z140.992
G01X55.413Y34.849Z141.881
G01X55.357Y34.910Z142.610
G01X55.296Y34.965Z143.173
G01X55.230Y35.015Z143.559
G01X55.159Y35.057Z143.768
G01X55.084Y35.092Z143.794
G01X55.007Y35.120Z143.640
G01X54.926Y35.140Z143.309
G01X54.845Y35.153Z142.803
G01X54.762Y35.157Z142.132
G01X54.680Y35.153Z141.302
G01X54.598Y35.140Z140.326
G01X54.518Y35.120Z139.214
G01X54.440Y35.092Z137.982
G01X54.365Y35.057Z136.643
G01X54.294Y35.015Z135.212
G01X54.228Y34.965Z133.706
G01X54.167Y34.910Z132.141
G01X54.111Y34.849Z130.535
G01X54.062Y34.782Z128.901
G01X54.020Y34.711Z127.257
G01X53.984Y34.637Z125.623
G01X53.957Y34.559Z124.007
G01X53.937Y34.479Z122.426
G01X53.924Y34.397Z120.896
G01X53.920Y34.317Z119.473
G01X53.920Y34.312Z119.382
G00X53.920Y34.312Z121.431
G00X54.408Y34.312Z125.270
X54.896Y34.312Z129.190
X55.384Y34.312Z133.192
X55.872Y34.312Z137.278
X56.360Y34.312Z141.446
X56.460Y34.312Z142.316
G01F60.00X56.460Y34.312Z142.316
G01X56.460Y34.312Z140.266
G01F120.00X56.460Y34.312Z140.266
G01X56.464Y34.232Z138.681
G01X56.477Y34.150Z137.135
G01X56.497Y34.070Z135.701
G01X56.524Y33.993Z134.385
G01X56.560Y33.918Z133.198
G01X56.602Y33.847Z132.148
G01X56.651Y33.781Z131.245
G01X56.707Y33.719Z130.494
G01X56.768Y33.664Z129.899
G01X56.834Y33.615Z129.467
G01X56.905Y33.572Z129.199
G01X56.980Y33.537Z129.100
G01X57.058Y33.509Z129.168
G01X57.138Y33.489Z129.409
G01X57.220Y33.477Z129.813
G01X57.302Y33.473Z130.387
G01X57.385Y33.477Z131.121
G01X57.466Y33.489Z132.016
G01X57.547Y33.509Z133.060
G01X57.624Y33.537Z134.253
G01X57.699Y33.572Z135.581
G01X57.770Y33.615Z137.036
G01X57.836Y33.664Z138.606
G01X57.897Y33.719Z140.280
G01X57.953Y33.781Z142.042
G01X58.002Y33.847Z143.876
G01X58.045Y33.918Z145.770
G01X58.080Y33.993Z147.701
G01X58.108Y34.070Z149.653
G01X58.128Y34.150Z151.604
G01X58.140Y34.232Z153.538
G01X58.144Y34.315Z155.430
G01X58.140Y34.397Z157.260
G01X58.128Y34.479Z159.009
G01X58.108Y34.559Z160.659
G01X58.080Y34.637Z162.188
G01X58.045Y34.711Z163.575
G01X58.002Y34.782Z164.811
G01X57.953Y34.849Z165.877
G01X57.897Y34.910Z166.759
G01X57.836Y34.965Z167.449
G01X57.770Y35.015Z167.937
G01X57.699Y35.057Z168.220
G01X57.624Y35.092Z168.292
G01X57.547Y35.120Z168.154
G01X57.466Y35.140Z167.811
G01X57.385Y35.153Z167.263
G01X57.302Y35.157Z166.522
G01X57.220Y35.153Z165.595
G01X57.138Y35.140Z164.496
G01X57.058Y35.120Z163.236
G01X56.980Y35.092Z161.833
G01X56.905Y35.057Z160.303
G01X56.834Y35.015Z158.663
G01X56.768Y34.965Z156.931
G01X56.707Y34.910Z155.127
G01X56.651Y34.849Z153.269
G01X56.602Y34.782Z151.376
G01X56.560Y34.711Z149.468
G01X56.524Y34.637Z147.566
G01X56.497Y34.559Z145.682
G01X56.477Y34.479Z143.835
G01X56.464Y34.397Z142.043
G01X56.460Y34.317Z140.374
G01X56.460Y34.312Z140.266
G00X56.460Y34.312Z142.316
G00X56.948Y34.355Z147.499
X57.436Y34.399Z152.826
X57.924Y34.442Z158.300
X58.412Y34.485Z163.925
X58.900Y34.529Z169.703
X59.388Y34.572Z175.636
X59.876Y34.616Z181.729
X60.364Y34.659Z187.983
X60.851Y34.702Z194.403
X61.339Y34.746Z200.990
X61.827Y34.789Z207.749
X62.315Y34.832Z214.682
X62.803Y34.876Z221.793
X63.291Y34.919Z229.084
X63.779Y34.962Z236.560
X64.267Y35.006Z244.223
X64.755Y35.049Z252.077
X65.243Y35.093Z260.125
X65.730Y35.136Z268.370
X65.964Y35.157Z272.382
G01F60.00X65.964Y35.157Z272.382
G01X65.964Y35.157Z270.332
G01F120.00X65.964Y35.157Z270.332
G01X65.476Y35.157Z263.577
X64.988Y35.157Z256.936
X64.500Y35.157Z250.407
X64.389Y35.157Z248.936
G01X64.383Y35.156Z248.855
G01X64.378Y35.155Z248.758
G01X64.372Y35.154Z248.613
G01X64.367Y35.152Z248.481
G01X64.362Y35.150Z248.335
G01X64.357Y35.147Z248.176
G01X64.353Y35.143Z248.006
G01X64.349Y35.140Z247.827
G01X64.346Y35.136Z247.643
G01X64.343Y35.131Z247.452
G01X64.340Y35.127Z247.258
G01X64.338Y35.122Z247.062
G01X64.336Y35.117Z246.864
G01X64.335Y35.111Z246.669
G01X64.334Y35.102Z246.339
G01X64.334Y34.320Z220.401
X64.334Y33.538Z196.286
X64.334Y33.527Z195.972
G01X64.335Y33.522Z195.814
G01X64.335Y33.517Z195.666
G01X64.337Y33.510Z195.494
G01X64.339Y33.505Z195.365
G01X64.341Y33.500Z195.248
G01X64.344Y33.496Z195.144
G01X64.348Y33.492Z195.054
G01X64.351Y33.488Z194.977
G01X64.355Y33.484Z194.916
G01X64.360Y33.481Z194.869
G01X64.364Y33.479Z194.840
G01X64.369Y33.476Z194.826
G01X64.374Y33.475Z194.829
G01X64.380Y33.474Z194.850
G01X64.389Y33.473Z194.922
G01X64.877Y33.473Z200.015
X65.365Y33.473Z205.196
X65.852Y33.473Z210.465
X65.964Y33.473Z211.677
G01X65.969Y33.473Z211.741
G01X65.974Y33.474Z211.825
G01X65.979Y33.475Z211.924
G01X65.984Y33.477Z212.037
G01X65.989Y33.479Z212.164
G01X65.994Y33.482Z212.305
G01X65.998Y33.485Z212.452
G01X66.003Y33.490Z212.654
G01X66.007Y33.494Z212.821
G01X66.010Y33.498Z212.996
G01X66.014Y33.506Z213.313
G01X66.016Y33.512Z213.498
G01X66.017Y33.517Z213.677
G01X66.018Y33.522Z213.856
G01X66.018Y33.527Z214.035
G01X66.018Y34.309Z240.346
X66.018Y35.092Z268.646
X66.018Y35.103Z269.092
G01X66.018Y35.109Z269.286
G01X66.017Y35.114Z269.472
G01X66.015Y35.119Z269.648
G01X66.013Y35.124Z269.808
G01X66.011Y35.129Z269.951
G01X66.008Y35.133Z270.082
G01X66.002Y35.141Z270.267
G01X65.998Y35.144Z270.348
G01X65.994Y35.147Z270.409
G01X65.989Y35.150Z270.446
G01X65.984Y35.152Z270.466
G01X65.979Y35.154Z270.462
G01X65.974Y35.155Z270.438
G01X65.969Y35.156Z270.395
G01X65.964Y35.157Z270.332
G00X65.964Y35.157Z272.382
G00X65.957Y35.558Z287.650
G01F60.00X65.957Y35.558Z287.650
G01X65.957Y35.558Z285.600
G01F120.00X65.957Y35.558Z285.600
G01X65.469Y35.558Z278.463
X64.981Y35.558Z271.446
X64.493Y35.558Z264.548
X64.395Y35.558Z263.179
G01X64.310Y35.551Z261.716
G01X64.233Y35.530Z259.912
G01X64.161Y35.496Z257.734
G01X64.096Y35.451Z255.245
G01X64.040Y35.395Z252.525
G01X63.994Y35.330Z249.676
G01X63.961Y35.258Z246.758
G01X63.940Y35.181Z243.881
G01X63.933Y35.095Z240.886
G01X63.933Y34.313Z215.513
X63.933Y33.534Z192.006
G01X63.940Y33.448Z189.599
G01X63.961Y33.371Z187.604
G01X63.994Y33.300Z185.890
G01X64.040Y33.234Z184.479
G01X64.096Y33.178Z183.440
G01X64.161Y33.133Z182.795
G01X64.233Y33.099Z182.545
G01X64.309Y33.079Z182.711
G01X64.395Y33.071Z183.332
G01X64.883Y33.071Z188.122
X65.371Y33.071Z192.993
X65.859Y33.071Z197.949
X65.957Y33.071Z198.952
G01X66.043Y33.079Z200.068
G01X66.119Y33.099Z201.497
G01X66.191Y33.133Z203.298
G01X66.256Y33.178Z205.413
G01X66.312Y33.234Z207.795
G01X66.358Y33.300Z210.382
G01X66.391Y33.371Z213.072
G01X66.412Y33.448Z215.800
G01X66.418Y33.523Z218.329
G01X66.420Y33.530Z218.601
G01X66.433Y33.575Z220.236
G01X66.436Y33.582Z220.510
G01X66.439Y33.588Z220.737
G01X66.443Y33.593Z220.955
G01X66.472Y33.627Z222.396
G01X66.479Y33.633Z222.677
G01X66.488Y33.638Z222.959
G01X66.526Y33.657Z224.032
G01X66.531Y33.659Z224.156
G01X66.536Y33.660Z224.263
G01X66.545Y33.662Z224.414
G01X66.591Y33.664Z225.022
G01X66.599Y33.663Z225.086
G01X66.607Y33.661Z225.110
G01X66.648Y33.646Z225.055
G01X66.657Y33.642Z225.012
G01X66.661Y33.639Z224.959
G01X66.665Y33.635Z224.889
G01X66.700Y33.601Z224.148
G01X66.704Y33.596Z224.020
G01X66.728Y33.560Z223.083
G01X66.824Y33.449Z220.410
G01X66.933Y33.349Z218.300
G01X67.052Y33.264Z216.769
G01X67.181Y33.192Z215.798
G01X67.318Y33.137Z215.459
G01X67.460Y33.098Z215.702
G01X67.606Y33.076Z216.549
G01X67.753Y33.072Z218.002
G01X67.900Y33.085Z220.062
G01X68.044Y33.115Z222.686
G01X68.183Y33.162Z225.882
G01X68.316Y33.226Z229.626
G01X68.441Y33.305Z233.848
G01X68.555Y33.397Z238.537
G01X68.658Y33.503Z243.630
G01X68.747Y33.620Z249.085
G01X68.822Y33.747Z254.788
G01X68.842Y33.793Z256.816
G01X68.845Y33.799Z257.071
G01X68.869Y33.834Z258.735
G01X68.874Y33.840Z259.033
G01X68.879Y33.845Z259.268
G01X68.883Y33.848Z259.445
G01X68.916Y33.870Z260.714
G01X68.925Y33.874Z260.997
G01X68.933Y33.877Z261.200
G01X68.971Y33.885Z262.019
G01X68.976Y33.886Z262.124
G01X68.983Y33.887Z262.228
G01X68.990Y33.886Z262.296
G01X69.029Y33.880Z262.547
G01X69.035Y33.878Z262.572
G01X69.040Y33.877Z262.570
G01X69.047Y33.873Z262.521
G01X69.082Y33.852Z262.171
G01X69.089Y33.848Z262.068
G01X69.094Y33.842Z261.920
G01X69.119Y33.811Z261.007
G01X69.123Y33.804Z260.816
G01X69.186Y33.683Z256.897
G01X69.268Y33.560Z253.230
G01X69.364Y33.449Z250.145
G01X69.473Y33.349Z247.693
G01X69.592Y33.264Z245.895
G01X69.721Y33.192Z244.727
G01X69.858Y33.137Z244.273
G01X70.000Y33.098Z244.477
G01X70.146Y33.076Z245.364
G01X70.293Y33.072Z246.936
G01X70.440Y33.085Z249.194
G01X70.584Y33.115Z252.092
G01X70.723Y33.162Z255.638
G01X70.856Y33.226Z259.806
G01X70.981Y33.305Z264.517
G01X71.095Y33.397Z269.759
G01X71.198Y33.503Z275.462
G01X71.287Y33.620Z281.579
G01X71.362Y33.747Z287.985
G01X71.382Y33.793Z290.265
G01X71.385Y33.799Z290.552
G01X71.410Y33.834Z292.418
G01X71.414Y33.840Z292.752
G01X71.418Y33.844Z292.966
G01X71.424Y33.848Z293.213
G01X71.456Y33.870Z294.628
G01X71.465Y33.874Z294.943
G01X71.473Y33.877Z295.167
G01X71.511Y33.885Z296.071
G01X71.516Y33.886Z296.186
G01X71.523Y33.887Z296.300
G01X71.530Y33.886Z296.372
G01X71.569Y33.880Z296.633
G01X71.574Y33.879Z296.657
G01X71.579Y33.877Z296.652
G01X71.586Y33.874Z296.608
G01X71.621Y33.853Z296.193
G01X71.627Y33.849Z296.100
G01X71.632Y33.845Z295.977
G01X71.636Y33.840Z295.821
G01X71.659Y33.811Z294.842
G01X71.663Y33.804Z294.623
G01X71.726Y33.683Z290.161
G01X71.808Y33.560Z285.973
G01X71.904Y33.449Z282.436
G01X72.013Y33.349Z279.610
G01X72.132Y33.264Z277.515
G01X72.261Y33.192Z276.129
G01X72.398Y33.137Z275.546
G01X72.540Y33.098Z275.701
G01X72.686Y33.076Z276.625
G01X72.833Y33.072Z278.319
G01X72.980Y33.085Z280.787
G01X73.124Y33.115Z283.976
G01X73.263Y33.162Z287.896
G01X73.396Y33.226Z292.518
G01X73.521Y33.305Z297.752
G01X73.635Y33.397Z303.590
G01X73.738Y33.503Z309.950
G01X73.827Y33.620Z316.781
G01X73.902Y33.747Z323.942
G01X73.922Y33.793Z326.495
G01X73.925Y33.799Z326.816
G01X73.950Y33.834Z328.900
G01X73.954Y33.840Z329.274
G01X73.959Y33.845Z329.566
G01X73.964Y33.848Z329.786
G01X73.996Y33.870Z331.358
G01X74.005Y33.874Z331.707
G01X74.013Y33.877Z331.954
G01X74.051Y33.885Z332.948
G01X74.056Y33.886Z333.074
G01X74.063Y33.887Z333.198
G01X74.070Y33.886Z333.276
G01X74.109Y33.880Z333.545
G01X74.114Y33.879Z333.569
G01X74.119Y33.877Z333.560
G01X74.126Y33.874Z333.507
G01X74.161Y33.853Z333.019
G01X74.167Y33.849Z332.911
G01X74.172Y33.845Z332.770
G01X74.176Y33.840Z332.592
G01X74.199Y33.811Z331.477
G01X74.203Y33.804Z331.229
G01X74.266Y33.683Z326.176
G01X74.348Y33.560Z321.421
G01X74.444Y33.449Z317.391
G01X74.553Y33.349Z314.154
G01X74.673Y33.264Z311.734
G01X74.801Y33.192Z310.106
G01X74.938Y33.137Z309.376
G01X75.080Y33.098Z309.473
G01X75.226Y33.076Z310.431
G01X75.373Y33.072Z312.252
G01X75.520Y33.085Z314.941
G01X75.664Y33.115Z318.438
G01X75.803Y33.162Z322.756
G01X75.936Y33.226Z327.863
G01X76.061Y33.305Z333.659
G01X76.175Y33.397Z340.134
G01X76.278Y33.503Z347.199
G01X76.367Y33.620Z354.797
G01X76.442Y33.747Z362.772
G01X76.462Y33.793Z365.618
G01X76.465Y33.799Z365.976
G01X76.490Y33.834Z368.295
G01X76.494Y33.840Z368.710
G01X76.498Y33.844Z368.974
G01X76.504Y33.848Z369.278
G01X76.536Y33.870Z371.017
G01X76.545Y33.874Z371.403
G01X76.553Y33.877Z371.675
G01X76.591Y33.885Z372.763
G01X76.596Y33.886Z372.901
G01X76.603Y33.887Z373.035
G01X76.610Y33.886Z373.118
G01X76.649Y33.880Z373.396
G01X76.654Y33.879Z373.420
G01X76.659Y33.877Z373.407
G01X76.666Y33.874Z373.342
G01X76.701Y33.853Z372.774
G01X76.707Y33.849Z372.650
G01X76.712Y33.845Z372.489
G01X76.716Y33.840Z372.287
G01X76.739Y33.811Z371.025
G01X76.743Y33.804Z370.744
G01X76.806Y33.683Z365.051
G01X76.888Y33.560Z359.679
G01X76.984Y33.449Z355.113
G01X77.093Y33.349Z351.428
G01X77.213Y33.264Z348.653
G01X77.341Y33.192Z346.759
G01X77.478Y33.137Z345.865
G01X77.620Y33.098Z345.893
G01X77.766Y33.076Z346.881
G01X77.913Y33.072Z348.834
G01X78.060Y33.085Z351.754
G01X78.204Y33.115Z355.578
G01X78.343Y33.162Z360.319
G01X78.476Y33.226Z365.943
G01X78.601Y33.305Z372.339
G01X78.715Y33.397Z379.496
G01X78.818Y33.503Z387.315
G01X78.907Y33.620Z395.735
G01X78.982Y33.747Z404.583
G01X79.002Y33.793Z407.745
G01X79.005Y33.799Z408.142
G01X79.030Y33.834Z410.712
G01X79.035Y33.840Z411.172
G01X79.038Y33.844Z411.464
G01X79.044Y33.848Z411.799
G01X79.076Y33.870Z413.718
G01X79.085Y33.874Z414.143
G01X79.093Y33.877Z414.441
G01X79.131Y33.885Z415.629
G01X79.136Y33.886Z415.779
G01X79.143Y33.887Z415.925
G01X79.150Y33.886Z416.013
G01X79.189Y33.880Z416.297
G01X79.194Y33.879Z416.321
G01X79.199Y33.877Z416.303
G01X79.206Y33.874Z416.227
G01X79.241Y33.853Z415.570
G01X79.247Y33.849Z415.428
G01X79.252Y33.845Z415.246
G01X79.256Y33.840Z415.018
G01X79.279Y33.811Z413.597
G01X79.283Y33.804Z413.281
G01X79.346Y33.683Z406.895
G01X79.428Y33.560Z400.857
G01X79.524Y33.449Z395.709
G01X79.633Y33.349Z391.538
G01X79.753Y33.264Z388.374
G01X79.881Y33.192Z386.188
G01X80.018Y33.137Z385.112
G01X80.160Y33.098Z385.061
G01X80.306Y33.076Z386.077
G01X80.453Y33.072Z388.164
G01X80.600Y33.085Z391.328
G01X80.744Y33.115Z395.496
G01X80.883Y33.162Z400.687
G01X81.016Y33.226Z406.860
G01X81.141Y33.305Z413.895
G01X81.255Y33.397Z421.780
G01X81.358Y33.503Z430.408
G01X81.447Y33.620Z439.705
G01X81.522Y33.747Z449.487
G01X81.542Y33.793Z452.986
G01X81.545Y33.799Z453.425
G01X81.570Y33.834Z456.273
G01X81.575Y33.840Z456.772
G01X81.579Y33.845Z457.167
G01X81.584Y33.848Z457.456
G01X81.616Y33.870Z459.571
G01X81.625Y33.874Z460.039
G01X81.633Y33.877Z460.364
G01X81.671Y33.885Z461.659
G01X81.678Y33.886Z461.862
G01X81.683Y33.887Z461.979
G01X81.690Y33.886Z462.072
G01X81.729Y33.880Z462.363
G01X81.734Y33.879Z462.385
G01X81.739Y33.877Z462.364
G01X81.746Y33.874Z462.272
G01X81.781Y33.853Z461.520
G01X81.787Y33.849Z461.358
G01X81.791Y33.845Z461.153
G01X81.796Y33.840Z460.897
G01X81.819Y33.811Z459.303
G01X81.823Y33.804Z458.950
G01X81.886Y33.683Z451.817
G01X81.968Y33.560Z445.060
G01X82.064Y33.449Z439.284
G01X82.173Y33.349Z434.586
G01X82.293Y33.264Z431.001
G01X82.421Y33.192Z428.497
G01X82.558Y33.137Z427.220
G01X82.700Y33.098Z427.077
G01X82.846Y33.076Z428.116
G01X82.993Y33.072Z430.342
G01X83.140Y33.085Z433.760
G01X83.284Y33.115Z438.293
G01X83.423Y33.162Z443.959
G01X83.556Y33.226Z450.717
G01X83.681Y33.305Z458.431
G01X83.795Y33.397Z467.092
G01X83.898Y33.503Z476.579
G01X83.987Y33.620Z486.814
G01X84.062Y33.747Z497.610
G01X84.122Y33.882Z508.887
G01X84.164Y34.023Z520.496
G01X84.190Y34.168Z532.243
G01X84.199Y34.315Z543.951
G01X84.190Y34.462Z555.446
G01X84.164Y34.607Z566.550
G01X84.122Y34.747Z577.041
G01X84.062Y34.882Z586.778
G01X83.987Y35.009Z595.586
G01X83.898Y35.126Z603.251
G01X83.795Y35.232Z609.730
G01X83.681Y35.324Z614.785
G01X83.556Y35.403Z618.441
G01X83.423Y35.466Z620.549
G01X83.284Y35.514Z621.113
G01X83.140Y35.544Z620.116
G01X82.993Y35.557Z617.602
G01X82.846Y35.553Z613.617
G01X82.700Y35.531Z608.274
G01X82.558Y35.492Z601.603
G01X82.421Y35.437Z593.782
G01X82.293Y35.366Z584.965
G01X82.173Y35.280Z575.273
G01X82.064Y35.180Z564.930
G01X81.968Y35.069Z554.059
G01X81.886Y34.947Z542.851
G01X81.823Y34.825Z532.239
G01X81.819Y34.819Z531.726
G01X81.796Y34.789Z528.983
G01X81.792Y34.784Z528.514
G01X81.787Y34.780Z528.080
G01X81.781Y34.776Z527.672
G01X81.746Y34.755Z525.380
G01X81.739Y34.752Z524.973
G01X81.734Y34.750Z524.745
G01X81.729Y34.749Z524.552
G01X81.690Y34.743Z523.267
G01X81.682Y34.742Z523.060
G01X81.677Y34.743Z522.969
G01X81.670Y34.744Z522.911
G01X81.632Y34.753Z522.763
G01X81.624Y34.755Z522.795
G01X81.617Y34.759Z522.922
G01X81.584Y34.781Z523.829
G01X81.580Y34.784Z523.980
G01X81.575Y34.789Z524.220
G01X81.569Y34.795Z524.584
G01X81.545Y34.830Z526.667
G01X81.542Y34.836Z527.047
G01X81.522Y34.882Z530.056
G01X81.447Y35.009Z537.953
G01X81.358Y35.126Z544.810
G01X81.255Y35.232Z550.583
G01X81.141Y35.324Z555.061
G01X81.016Y35.403Z558.266
G01X80.883Y35.466Z560.067
G01X80.744Y35.514Z560.468
G01X80.600Y35.544Z559.456
G01X80.453Y35.557Z557.074
G01X80.306Y35.553Z553.365
G01X80.160Y35.531Z548.434
G01X80.018Y35.492Z542.311
G01X79.881Y35.437Z535.157
G01X79.753Y35.366Z527.114
G01X79.633Y35.280Z518.291
G01X79.524Y35.180Z508.894
G01X79.428Y35.069Z499.032
G01X79.346Y34.947Z488.879
G01X79.283Y34.825Z479.278
G01X79.279Y34.819Z478.814
G01X79.256Y34.789Z476.328
G01X79.252Y34.784Z475.903
G01X79.247Y34.780Z475.509
G01X79.241Y34.776Z475.138
G01X79.206Y34.755Z473.049
G01X79.199Y34.752Z472.676
G01X79.194Y34.750Z472.469
G01X79.189Y34.749Z472.292
G01X79.150Y34.743Z471.109
G01X79.142Y34.742Z470.916
G01X79.137Y34.743Z470.832
G01X79.130Y34.744Z470.774
G01X79.092Y34.753Z470.615
G01X79.084Y34.755Z470.639
G01X79.077Y34.759Z470.748
G01X79.044Y34.781Z471.542
G01X79.040Y34.784Z471.675
G01X79.035Y34.789Z471.888
G01X79.029Y34.795Z472.212
G01X79.005Y34.830Z474.070
G01X79.002Y34.836Z474.410
G01X78.982Y34.882Z477.105
G01X78.907Y35.009Z484.160
G01X78.818Y35.126Z490.265
G01X78.715Y35.232Z495.388
G01X78.601Y35.324Z499.333
G01X78.476Y35.403Z502.124
G01X78.343Y35.466Z503.645
G01X78.204Y35.514Z503.901
G01X78.060Y35.544Z502.883
G01X77.913Y35.557Z500.632
G01X77.766Y35.553Z497.189
G01X77.620Y35.531Z492.651
G01X77.478Y35.492Z487.046
G01X77.341Y35.437Z480.520
G01X77.213Y35.366Z473.205
G01X77.093Y35.280Z465.199
G01X76.984Y35.180Z456.688
G01X76.888Y35.069Z447.771
G01X76.806Y34.947Z438.606
G01X76.743Y34.825Z429.950
G01X76.739Y34.819Z429.530
G01X76.714Y34.786Z427.058
G01X76.708Y34.780Z426.611
G01X76.701Y34.776Z426.208
G01X76.667Y34.756Z424.368
G01X76.660Y34.752Z424.026
G01X76.655Y34.751Z423.831
G01X76.650Y34.749Z423.657
G01X76.612Y34.743Z422.570
G01X76.604Y34.742Z422.380
G01X76.598Y34.743Z422.295
G01X76.592Y34.743Z422.227
G01X76.552Y34.753Z422.053
G01X76.544Y34.755Z422.069
G01X76.537Y34.759Z422.162
G01X76.503Y34.782Z422.880
G01X76.497Y34.786Z423.038
G01X76.493Y34.791Z423.243
G01X76.489Y34.795Z423.444
G01X76.465Y34.830Z425.094
G01X76.462Y34.836Z425.397
G01X76.442Y34.882Z427.800
G01X76.367Y35.009Z434.075
G01X76.278Y35.126Z439.487
G01X76.175Y35.232Z444.008
G01X76.061Y35.324Z447.463
G01X75.936Y35.403Z449.876
G01X75.803Y35.466Z451.143
G01X75.664Y35.514Z451.271
G01X75.520Y35.544Z450.256
G01X75.373Y35.557Z448.134
G01X75.226Y35.553Z444.946
G01X75.080Y35.531Z440.781
G01X74.938Y35.492Z435.665
G01X74.801Y35.437Z429.731
G01X74.673Y35.366Z423.100
G01X74.553Y35.280Z415.859
G01X74.444Y35.180Z408.177
G01X74.348Y35.069Z400.144
G01X74.266Y34.947Z391.899
G01X74.203Y34.825Z384.125
G01X74.199Y34.819Z383.748
G01X74.173Y34.785Z381.453
G01X74.168Y34.780Z381.120
G01X74.161Y34.776Z380.756
G01X74.126Y34.755Z379.039
G01X74.119Y34.752Z378.731
G01X74.114Y34.750Z378.559
G01X74.109Y34.749Z378.411
G01X74.070Y34.743Z377.416
G01X74.062Y34.742Z377.252
G01X74.057Y34.743Z377.177
G01X74.050Y34.744Z377.123
G01X74.012Y34.753Z376.949
G01X74.004Y34.755Z376.958
G01X73.997Y34.759Z377.037
G01X73.963Y34.782Z377.657
G01X73.957Y34.786Z377.794
G01X73.953Y34.791Z377.974
G01X73.949Y34.795Z378.151
G01X73.925Y34.830Z379.610
G01X73.922Y34.836Z379.878
G01X73.902Y34.882Z382.011
G01X73.827Y35.009Z387.566
G01X73.738Y35.126Z392.339
G01X73.635Y35.232Z396.306
G01X73.521Y35.324Z399.312
G01X73.396Y35.403Z401.380
G01X73.263Y35.466Z402.419
G01X73.124Y35.514Z402.437
G01X72.980Y35.544Z401.431
G01X72.833Y35.557Z399.437
G01X72.686Y35.553Z396.495
G01X72.540Y35.531Z392.682
G01X72.398Y35.492Z388.028
G01X72.261Y35.437Z382.650
G01X72.132Y35.366Z376.659
G01X72.013Y35.280Z370.134
G01X71.904Y35.180Z363.227
G01X71.808Y35.069Z356.016
G01X71.726Y34.947Z348.629
G01X71.663Y34.825Z341.674
G01X71.659Y34.819Z341.336
G01X71.636Y34.789Z339.526
G01X71.632Y34.784Z339.215
G01X71.627Y34.780Z338.925
G01X71.621Y34.776Z338.652
G01X71.586Y34.755Z337.103
G01X71.579Y34.752Z336.825
G01X71.574Y34.750Z336.669
G01X71.569Y34.749Z336.534
G01X71.530Y34.743Z335.626
G01X71.522Y34.742Z335.475
G01X71.517Y34.743Z335.406
G01X71.510Y34.744Z335.354
G01X71.472Y34.753Z335.175
G01X71.464Y34.755Z335.179
G01X71.457Y34.759Z335.244
G01X71.423Y34.782Z335.775
G01X71.418Y34.786Z335.894
G01X71.413Y34.791Z336.051
G01X71.409Y34.795Z336.207
G01X71.385Y34.830Z337.488
G01X71.382Y34.836Z337.725
G01X71.362Y34.882Z339.609
G01X71.287Y35.009Z344.501
G01X71.198Y35.126Z348.686
G01X71.095Y35.232Z352.145
G01X70.981Y35.324Z354.742
G01X70.856Y35.403Z356.497
G01X70.723Y35.466Z357.332
G01X70.584Y35.514Z357.255
G01X70.440Y35.544Z356.266
G01X70.293Y35.557Z354.399
G01X70.146Y35.553Z351.691
G01X70.000Y35.531Z348.213
G01X69.858Y35.492Z343.993
G01X69.721Y35.437Z339.137
G01X69.592Y35.366Z333.744
G01X69.473Y35.280Z327.887
G01X69.364Y35.180Z321.700
G01X69.268Y35.069Z315.254
G01X69.186Y34.947Z308.664
G01X69.123Y34.825Z302.469
G01X69.119Y34.819Z302.167
G01X69.096Y34.789Z300.551
G01X69.092Y34.784Z300.273
G01X69.087Y34.780Z300.014
G01X69.081Y34.776Z299.769
G01X69.046Y34.755Z298.378
G01X69.039Y34.752Z298.127
G01X69.034Y34.750Z297.986
G01X69.029Y34.749Z297.864
G01X68.990Y34.743Z297.037
G01X68.982Y34.742Z296.900
G01X68.977Y34.743Z296.835
G01X68.970Y34.744Z296.785
G01X68.932Y34.753Z296.605
G01X68.924Y34.755Z296.603
G01X68.917Y34.759Z296.657
G01X68.883Y34.782Z297.107
G01X68.878Y34.786Z297.209
G01X68.873Y34.791Z297.345
G01X68.869Y34.795Z297.481
G01X68.845Y34.830Z298.601
G01X68.842Y34.836Z298.808
G01X68.822Y34.882Z300.463
G01X68.747Y35.009Z304.746
G01X68.658Y35.126Z308.394
G01X68.555Y35.232Z311.390
G01X68.441Y35.324Z313.615
G01X68.316Y35.403Z315.088
G01X68.183Y35.466Z315.742
G01X68.044Y35.514Z315.585
G01X67.900Y35.544Z314.619
G01X67.753Y35.557Z312.877
G01X67.606Y35.553Z310.392
G01X67.460Y35.531Z307.231
G01X67.318Y35.492Z303.418
G01X67.181Y35.437Z299.050
G01X67.052Y35.366Z294.215
G01X66.933Y35.280Z288.979
G01X66.824Y35.180Z283.462
G01X66.728Y35.069Z277.736
G01X66.704Y35.033Z275.996
G01X66.700Y35.028Z275.735
G01X66.665Y34.994Z273.954
G01X66.658Y34.988Z273.620
G01X66.650Y34.984Z273.368
G01X66.609Y34.968Z272.195
G01X66.604Y34.967Z272.059
G01X66.599Y34.966Z271.946
G01X66.594Y34.965Z271.846
G01X66.589Y34.965Z271.768
G01X66.545Y34.967Z271.244
G01X66.540Y34.968Z271.195
G01X66.535Y34.969Z271.166
G01X66.526Y34.972Z271.169
G01X66.487Y34.991Z271.360
G01X66.479Y34.996Z271.441
G01X66.472Y35.002Z271.582
G01X66.443Y35.036Z272.478
G01X66.440Y35.041Z272.599
G01X66.436Y35.047Z272.772
G01X66.433Y35.054Z273.017
G01X66.420Y35.099Z274.535
G01X66.418Y35.107Z274.813
G01X66.412Y35.181Z277.582
G01X66.391Y35.258Z280.247
G01X66.358Y35.330Z282.569
G01X66.312Y35.395Z284.438
G01X66.256Y35.451Z285.815
G01X66.191Y35.496Z286.641
G01X66.119Y35.530Z286.892
G01X66.042Y35.551Z286.573
G01X65.957Y35.558Z285.600
G00X65.957Y35.558Z287.650
G00X66.445Y34.896Z269.211
X66.874Y34.312Z253.266
G01F60.00X66.874Y34.312Z253.266
G01X66.874Y34.312Z251.216
G01F120.00X66.874Y34.312Z251.216
G01X66.878Y34.232Z248.367
G01X66.891Y34.150Z245.568
G01X66.911Y34.070Z242.947
G01X66.938Y33.993Z240.517
G01X66.974Y33.918Z238.301
G01X67.016Y33.847Z236.314
G01X67.065Y33.781Z234.575
G01X67.121Y33.719Z233.092
G01X67.182Y33.664Z231.876
G01X67.248Y33.615Z230.940
G01X67.319Y33.572Z230.286
G01X67.394Y33.537Z229.925
G01X67.472Y33.509Z229.855
G01X67.552Y33.489Z230.086
G01X67.634Y33.477Z230.605
G01X67.716Y33.473Z231.420
G01X67.799Y33.477Z232.520
G01X67.881Y33.489Z233.906
G01X67.961Y33.509Z235.557
G01X68.038Y33.537Z237.474
G01X68.113Y33.572Z239.635
G01X68.184Y33.615Z242.027
G01X68.250Y33.664Z244.632
G01X68.312Y33.719Z247.428
G01X68.367Y33.781Z250.392
G01X68.416Y33.847Z253.496
G01X68.459Y33.918Z256.719
G01X68.494Y33.993Z260.025
G01X68.522Y34.070Z263.385
G01X68.542Y34.150Z266.763
G01X68.554Y34.232Z270.132
G01X68.558Y34.315Z273.449
G01X68.554Y34.397Z276.680
G01X68.542Y34.479Z279.792
G01X68.522Y34.559Z282.752
G01X68.494Y34.637Z285.524
G01X68.459Y34.711Z288.072
G01X68.416Y34.782Z290.374
G01X68.367Y34.849Z292.401
G01X68.312Y34.910Z294.124
G01X68.250Y34.965Z295.529
G01X68.184Y35.015Z296.595
G01X68.113Y35.057Z297.314
G01X68.038Y35.092Z297.674
G01X67.961Y35.120Z297.672
G01X67.881Y35.140Z297.314
G01X67.799Y35.153Z296.599
G01X67.716Y35.157Z295.545
G01X67.634Y35.153Z294.156
G01X67.552Y35.140Z292.459
G01X67.472Y35.120Z290.467
G01X67.394Y35.092Z288.212
G01X67.319Y35.057Z285.716
G01X67.248Y35.015Z283.008
G01X67.182Y34.965Z280.120
G01X67.121Y34.910Z277.083
G01X67.065Y34.849Z273.931
G01X67.016Y34.782Z270.693
G01X66.974Y34.711Z267.405
G01X66.938Y34.637Z264.104
G01X66.911Y34.559Z260.812
G01X66.891Y34.479Z257.562
G01X66.878Y34.397Z254.388
G01X66.874Y34.317Z251.410
G01X66.874Y34.312Z251.216
G00X66.874Y34.312Z253.266
G00X67.362Y34.312Z259.550
X67.850Y34.312Z265.937
X68.338Y34.312Z272.429
X68.826Y34.312Z279.027
X69.314Y34.312Z285.731
X69.414Y34.312Z287.125
G01F60.00X69.414Y34.312Z287.125
G01X69.414Y34.312Z285.075
G01F120.00X69.414Y34.312Z285.075
G01X69.418Y34.232Z281.840
G01X69.430Y34.150Z278.656
G01X69.451Y34.070Z275.671
G01X69.478Y33.993Z272.898
G01X69.514Y33.918Z270.363
G01X69.556Y33.847Z268.086
G01X69.605Y33.781Z266.085
G01X69.661Y33.719Z264.372
G01X69.722Y33.664Z262.960
G01X69.788Y33.615Z261.862
G01X69.859Y33.572Z261.083
G01X69.934Y33.537Z260.633
G01X70.012Y33.509Z260.512
G01X70.092Y33.489Z260.730
G01X70.174Y33.477Z261.274
G01X70.256Y33.473Z262.154
G01X70.339Y33.477Z263.355
G01X70.421Y33.489Z264.881
G01X70.501Y33.509Z266.707
G01X70.578Y33.537Z268.836
G01X70.653Y33.572Z271.241
G01X70.724Y33.615Z273.909
G01X70.790Y33.664Z276.820
G01X70.852Y33.719Z279.950
G01X70.907Y33.781Z283.271
G01X70.956Y33.847Z286.754
G01X70.999Y33.918Z290.376
G01X71.034Y33.993Z294.095
G01X71.062Y34.070Z297.878
G01X71.082Y34.150Z301.687
G01X71.094Y34.232Z305.489
G01X71.098Y34.315Z309.237
G01X71.094Y34.397Z312.894
G01X71.082Y34.479Z316.421
G01X71.062Y34.559Z319.781
G01X71.034Y34.637Z322.934
G01X70.999Y34.711Z325.838
G01X70.956Y34.782Z328.470
G01X70.907Y34.849Z330.795
G01X70.852Y34.910Z332.782
G01X70.790Y34.965Z334.412
G01X70.724Y35.015Z335.663
G01X70.653Y35.057Z336.526
G01X70.578Y35.092Z336.983
G01X70.501Y35.120Z337.034
G01X70.421Y35.140Z336.684
G01X70.339Y35.153Z335.930
G01X70.256Y35.157Z334.792
G01X70.174Y35.153Z333.276
G01X70.092Y35.140Z331.408
G01X70.012Y35.120Z329.206
G01X69.934Y35.092Z326.702
G01X69.859Y35.057Z323.923
G01X69.788Y35.015Z320.901
G01X69.722Y34.965Z317.670
G01X69.661Y34.910Z314.266
G01X69.605Y34.849Z310.726
G01X69.556Y34.782Z307.086
G01X69.514Y34.711Z303.382
G01X69.478Y34.637Z299.659
G01X69.451Y34.559Z295.942
G01X69.430Y34.479Z292.266
G01X69.418Y34.397Z288.672
G01X69.414Y34.317Z285.295
G01X69.414Y34.312Z285.075
G00X69.414Y34.312Z287.125
G00X69.902Y34.312Z293.959
X70.390Y34.312Z300.900
X70.878Y34.312Z307.950
X71.366Y34.312Z315.111
X71.854Y34.312Z322.382
X71.954Y34.312Z323.894
G01F60.00X71.954Y34.312Z323.894
G01X71.954Y34.312Z321.844
G01F120.00X71.954Y34.312Z321.844
G01X71.958Y34.232Z318.189
G01X71.970Y34.150Z314.587
G01X71.991Y34.070Z311.205
G01X72.018Y33.993Z308.058
G01X72.054Y33.918Z305.176
G01X72.096Y33.847Z302.581
G01X72.145Y33.781Z300.294
G01X72.201Y33.719Z298.330
G01X72.262Y33.664Z296.701
G01X72.328Y33.615Z295.425
G01X72.399Y33.572Z294.506
G01X72.474Y33.537Z293.957
G01X72.552Y33.509Z293.776
G01X72.632Y33.489Z293.978
G01X72.714Y33.477Z294.546
G01X72.796Y33.473Z295.492
G01X72.879Y33.477Z296.800
G01X72.961Y33.489Z298.473
G01X73.041Y33.509Z300.486
G01X73.118Y33.537Z302.840
G01X73.193Y33.572Z305.507
G01X73.264Y33.615Z308.472
G01X73.330Y33.664Z311.711
G01X73.392Y33.719Z315.199
G01X73.447Y33.781Z318.906
G01X73.496Y33.847Z322.798
G01X73.539Y33.918Z326.849
G01X73.574Y33.993Z331.014
G01X73.602Y34.070Z335.254
G01X73.622Y34.150Z339.529
G01X73.634Y34.232Z343.800
G01X73.638Y34.315Z348.016
G01X73.634Y34.397Z352.133
G01X73.622Y34.479Z356.111
G01X73.602Y34.559Z359.906
G01X73.574Y34.637Z363.472
G01X73.539Y34.711Z366.765
G01X73.496Y34.782Z369.756
G01X73.447Y34.849Z372.407
G01X73.392Y34.910Z374.683
G01X73.330Y34.965Z376.561
G01X73.264Y35.015Z378.016
G01X73.193Y35.057Z379.037
G01X73.118Y35.092Z379.605
G01X73.041Y35.120Z379.718
G01X72.961Y35.140Z379.380
G01X72.879Y35.153Z378.589
G01X72.796Y35.157Z377.365
G01X72.714Y35.153Z375.714
G01X72.632Y35.140Z373.667
G01X72.552Y35.120Z371.240
G01X72.474Y35.092Z368.471
G01X72.399Y35.057Z365.389
G01X72.328Y35.015Z362.028
G01X72.262Y34.965Z358.429
G01X72.201Y34.910Z354.630
G01X72.145Y34.849Z350.674
G01X72.096Y34.782Z346.598
G01X72.054Y34.711Z342.446
G01X72.018Y34.637Z338.267
G01X71.991Y34.559Z334.088
G01X71.970Y34.479Z329.951
G01X71.958Y34.397Z325.902
G01X71.954Y34.317Z322.092
G01X71.954Y34.312Z321.844
G00X71.954Y34.312Z323.894
G00X72.442Y34.312Z331.300
X72.930Y34.312Z338.818
X73.418Y34.312Z346.450
X73.906Y34.312Z354.196
X74.394Y34.312Z362.058
X74.494Y34.312Z363.692
G01F60.00X74.494Y34.312Z363.692
G01X74.494Y34.312Z361.642
G01F120.00X74.494Y34.312Z361.642
G01X74.498Y34.232Z357.533
G01X74.510Y34.150Z353.478
G01X74.531Y34.070Z349.665
G01X74.558Y33.993Z346.113
G01X74.594Y33.918Z342.853
G01X74.636Y33.847Z339.911
G01X74.685Y33.781Z337.313
G01X74.741Y33.719Z335.073
G01X74.802Y33.664Z333.208
G01X74.868Y33.615Z331.736
G01X74.939Y33.572Z330.662
G01X75.014Y33.537Z330.003
G01X75.092Y33.509Z329.755
G01X75.172Y33.489Z329.935
G01X75.254Y33.477Z330.525
G01X75.336Y33.473Z331.539
G01X75.419Y33.477Z332.959
G01X75.501Y33.489Z334.789
G01X75.581Y33.509Z336.999
G01X75.658Y33.537Z339.594
G01X75.733Y33.572Z342.540
G01X75.804Y33.615Z345.822
G01X75.870Y33.664Z349.414
G01X75.932Y33.719Z353.287
G01X75.987Y33.781Z357.408
G01X76.036Y33.847Z361.740
G01X76.079Y33.918Z366.252
G01X76.114Y33.993Z370.896
G01X76.142Y34.070Z375.630
G01X76.162Y34.150Z380.406
G01X76.174Y34.232Z385.184
G01X76.178Y34.315Z389.904
G01X76.174Y34.397Z394.520
G01X76.162Y34.479Z398.984
G01X76.142Y34.559Z403.250
G01X76.114Y34.637Z407.265
G01X76.079Y34.711Z410.979
G01X76.036Y34.782Z414.361
G01X75.987Y34.849Z417.367
G01X75.932Y34.910Z419.957
G01X75.870Y34.965Z422.106
G01X75.804Y35.015Z423.785
G01X75.733Y35.057Z424.982
G01X75.658Y35.092Z425.673
G01X75.581Y35.120Z425.857
G01X75.501Y35.140Z425.538
G01X75.419Y35.153Z424.710
G01X75.336Y35.157Z423.398
G01X75.254Y35.153Z421.607
G01X75.172Y35.140Z419.368
G01X75.092Y35.120Z416.703
G01X75.014Y35.092Z413.652
G01X74.939Y35.057Z410.246
G01X74.868Y35.015Z406.524
G01X74.802Y34.965Z402.530
G01X74.741Y34.910Z398.307
G01X74.685Y34.849Z393.902
G01X74.636Y34.782Z389.358
G01X74.594Y34.711Z384.723
G01X74.558Y34.637Z380.052
G01X74.531Y34.559Z375.376
G01X74.510Y34.479Z370.741
G01X74.498Y34.397Z366.199
G01X74.494Y34.317Z361.920
G01X74.494Y34.312Z361.642
G00X74.494Y34.312Z363.692
G00X74.982Y34.312Z371.694
X75.470Y34.312Z379.812
X75.958Y34.312Z388.048
X76.446Y34.312Z396.403
X76.934Y34.312Z404.878
X77.034Y34.312Z406.639
G01F60.00X77.034Y34.312Z406.639
G01X77.034Y34.312Z404.589
G01F120.00X77.034Y34.312Z404.589
G01X77.038Y34.232Z399.989
G01X77.050Y34.150Z395.445
G01X77.071Y34.070Z391.166
G01X77.098Y33.993Z387.175
G01X77.134Y33.918Z383.506
G01X77.176Y33.847Z380.189
G01X77.225Y33.781Z377.253
G01X77.281Y33.719Z374.714
G01X77.342Y33.664Z372.590
G01X77.409Y33.615Z370.904
G01X77.479Y33.572Z369.661
G01X77.554Y33.537Z368.878
G01X77.632Y33.509Z368.555
G01X77.712Y33.489Z368.707
G01X77.794Y33.477Z369.318
G01X77.876Y33.473Z370.402
G01X77.959Y33.477Z371.938
G01X78.040Y33.489Z373.933
G01X78.121Y33.509Z376.354
G01X78.198Y33.537Z379.204
G01X78.273Y33.572Z382.448
G01X78.344Y33.615Z386.069
G01X78.410Y33.664Z390.038
G01X78.471Y33.719Z394.323
G01X78.527Y33.781Z398.887
G01X78.576Y33.847Z403.690
G01X78.619Y33.918Z408.698
G01X78.654Y33.993Z413.857
G01X78.682Y34.070Z419.121
G01X78.702Y34.150Z424.436
G01X78.714Y34.232Z429.759
G01X78.718Y34.315Z435.023
G01X78.714Y34.397Z440.175
G01X78.702Y34.479Z445.164
G01X78.682Y34.559Z449.938
G01X78.654Y34.637Z454.438
G01X78.619Y34.711Z458.608
G01X78.576Y34.782Z462.413
G01X78.527Y34.849Z465.804
G01X78.471Y34.910Z468.735
G01X78.410Y34.965Z471.180
G01X78.344Y35.015Z473.104
G01X78.273Y35.057Z474.493
G01X78.198Y35.092Z475.322
G01X78.121Y35.120Z475.587
G01X78.040Y35.140Z475.291
G01X77.959Y35.153Z474.429
G01X77.876Y35.157Z473.026
G01X77.794Y35.153Z471.088
G01X77.712Y35.140Z468.649
G01X77.632Y35.120Z465.732
G01X77.554Y35.092Z462.380
G01X77.479Y35.057Z458.629
G01X77.409Y35.015Z454.520
G01X77.342Y34.965Z450.104
G01X77.281Y34.910Z445.426
G01X77.225Y34.849Z440.540
G01X77.176Y34.782Z435.494
G01X77.134Y34.711Z430.340
G01X77.098Y34.637Z425.139
G01X77.071Y34.559Z419.928
G01X77.050Y34.479Z414.758
G01X77.038Y34.397Z409.684
G01X77.034Y34.317Z404.901
G01X77.034Y34.312Z404.589
G00X77.034Y34.312Z406.639
G00X77.522Y34.312Z415.259
X78.010Y34.312Z424.001
X78.498Y34.312Z432.865
X78.986Y34.312Z441.852
X79.474Y34.312Z450.962
X79.574Y34.312Z452.855
G01F60.00X79.574Y34.312Z452.855
G01X79.574Y34.312Z450.805
G01F120.00X79.574Y34.312Z450.805
G01X79.578Y34.232Z445.677
G01X79.590Y34.150Z440.606
G01X79.611Y34.070Z435.825
G01X79.638Y33.993Z431.359
G01X79.674Y33.918Z427.249
G01X79.716Y33.847Z423.526
G01X79.765Y33.781Z420.224
G01X79.821Y33.719Z417.360
G01X79.882Y33.664Z414.956
G01X79.949Y33.615Z413.036
G01X80.019Y33.572Z411.608
G01X80.094Y33.537Z410.690
G01X80.172Y33.509Z410.282
G01X80.252Y33.489Z410.402
G01X80.334Y33.477Z411.031
G01X80.416Y33.473Z412.186
G01X80.499Y33.477Z413.844
G01X80.580Y33.489Z416.013
G01X80.661Y33.509Z418.656
G01X80.738Y33.537Z421.778
G01X80.813Y33.572Z425.339
G01X80.884Y33.615Z429.321
G01X80.950Y33.664Z433.691
G01X81.011Y33.719Z438.416
G01X81.067Y33.781Z443.454
G01X81.116Y33.847Z448.761
G01X81.159Y33.918Z454.300
G01X81.194Y33.993Z460.011
G01X81.222Y34.070Z465.843
G01X81.242Y34.150Z471.736
G01X81.254Y34.232Z477.643
G01X81.258Y34.315Z483.491
G01X81.254Y34.397Z489.220
G01X81.242Y34.479Z494.774
G01X81.222Y34.559Z500.095
G01X81.194Y34.637Z505.117
G01X81.159Y34.711Z509.777
G01X81.116Y34.782Z514.039
G01X81.067Y34.849Z517.846
G01X81.011Y34.910Z521.147
G01X80.950Y34.965Z523.913
G01X80.884Y35.015Z526.105
G01X80.813Y35.057Z527.705
G01X80.738Y35.092Z528.685
G01X80.661Y35.120Z529.041
G01X80.580Y35.140Z528.775
G01X80.499Y35.153Z527.881
G01X80.416Y35.157Z526.385
G01X80.334Y35.153Z524.293
G01X80.252Y35.140Z521.643
G01X80.172Y35.120Z518.458
G01X80.094Y35.092Z514.788
G01X80.019Y35.057Z510.670
G01X79.949Y35.015Z506.150
G01X79.882Y34.965Z501.282
G01X79.821Y34.910Z496.119
G01X79.765Y34.849Z490.719
G01X79.716Y34.782Z485.134
G01X79.674Y34.711Z479.424
G01X79.638Y34.637Z473.656
G01X79.611Y34.559Z467.870
G01X79.590Y34.479Z462.124
G01X79.578Y34.397Z456.480
G01X79.574Y34.317Z451.152
G01X79.574Y34.312Z450.805
G00X79.574Y34.312Z452.855
G00X80.062Y34.312Z462.117
X80.550Y34.312Z471.505
X81.038Y34.312Z481.019
X81.526Y34.312Z490.661
X82.014Y34.312Z500.431
X82.114Y34.312Z502.460
G01F60.00X82.114Y34.312Z502.460
G01X82.114Y34.312Z500.410
G01F120.00X82.114Y34.312Z500.410
G01X82.118Y34.232Z494.715
G01X82.131Y34.150Z489.078
G01X82.151Y34.070Z483.757
G01X82.178Y33.993Z478.781
G01X82.214Y33.918Z474.195
G01X82.256Y33.847Z470.034
G01X82.305Y33.781Z466.337
G01X82.361Y33.719Z463.122
G01X82.422Y33.664Z460.415
G01X82.489Y33.615Z458.242
G01X82.559Y33.572Z456.611
G01X82.634Y33.537Z455.545
G01X82.712Y33.509Z455.042
G01X82.792Y33.489Z455.124
G01X82.874Y33.477Z455.769
G01X82.956Y33.473Z456.997
G01X83.039Y33.477Z458.783
G01X83.120Y33.489Z461.134
G01X83.201Y33.509Z464.012
G01X83.278Y33.537Z467.421
G01X83.353Y33.572Z471.319
G01X83.424Y33.615Z475.685
G01X83.490Y33.664Z480.483
G01X83.551Y33.719Z485.676
G01X83.607Y33.781Z491.221
G01X83.656Y33.847Z497.065
G01X83.699Y33.918Z503.171
G01X83.734Y33.993Z509.471
G01X83.762Y34.070Z515.911
G01X83.782Y34.150Z522.423
G01X83.794Y34.232Z528.956
G01X83.798Y34.315Z535.428
G01X83.794Y34.397Z541.776
G01X83.782Y34.479Z547.936
G01X83.762Y34.559Z553.843
G01X83.734Y34.637Z559.426
G01X83.699Y34.711Z564.615
G01X83.656Y34.782Z569.368
G01X83.607Y34.849Z573.624
G01X83.551Y34.910Z577.325
G01X83.490Y34.965Z580.438
G01X83.424Y35.015Z582.919
G01X83.353Y35.057Z584.749
G01X83.278Y35.092Z585.896
G01X83.201Y35.120Z586.354
G01X83.120Y35.140Z586.125
G01X83.039Y35.153Z585.200
G01X82.956Y35.157Z583.609
G01X82.874Y35.153Z581.357
G01X82.792Y35.140Z578.485
G01X82.712Y35.120Z575.018
G01X82.634Y35.092Z571.010
G01X82.559Y35.057Z566.502
G01X82.489Y35.015Z561.544
G01X82.422Y34.965Z556.196
G01X82.361Y34.910Z550.515
G01X82.305Y34.849Z544.566
G01X82.256Y34.782Z538.406
G01X82.214Y34.711Z532.102
G01X82.178Y34.637Z525.727
G01X82.151Y34.559Z519.326
G01X82.131Y34.479Z512.962
G01X82.118Y34.397Z506.706
G01X82.114Y34.317Z500.795
G01X82.114Y34.312Z500.410
G00X82.114Y34.312Z502.460
G00X81.986Y33.530Z445.392
X81.858Y32.748Z392.849
X81.730Y31.966Z344.619
X81.602Y31.184Z300.497
X81.474Y30.401Z260.279
X81.346Y29.619Z223.765
X81.218Y28.837Z190.760
X81.130Y28.298Z169.957
G01F60.00X81.130Y28.298Z169.957
G01X81.130Y28.298Z167.907
G01F120.00X81.130Y28.298Z167.907
G01X80.941Y28.285Z166.136
G01X80.755Y28.253Z163.734
G01X80.573Y28.203Z160.784
G01X80.396Y28.136Z157.304
G01X80.227Y28.053Z153.377
G01X80.066Y27.953Z149.047
G01X79.916Y27.838Z144.393
G01X79.778Y27.709Z139.461
G01X79.652Y27.568Z134.342
G01X79.541Y27.415Z129.097
G01X79.446Y27.252Z123.767
G01X79.366Y27.080Z118.428
G01X79.303Y26.903Z113.145
G01X79.258Y26.719Z107.932
G01X79.230Y26.532Z102.878
G01X79.222Y26.343Z97.992
G01X79.230Y26.154Z93.313
G01X79.258Y25.968Z88.886
G01X79.303Y25.784Z84.709
G01X79.366Y25.606Z80.835
G01X79.446Y25.434Z77.252
G01X79.541Y25.271Z73.982
G01X79.652Y25.118Z71.043
G01X79.778Y24.977Z68.439
G01X79.916Y24.848Z66.162
G01X80.066Y24.733Z64.234
G01X80.227Y24.634Z62.650
G01X80.396Y24.550Z61.422
G01X80.573Y24.483Z60.536
G01X80.755Y24.434Z60.012
G01X80.941Y24.401Z59.837
G01X81.130Y24.388Z60.036
G01X81.319Y24.392Z60.591
G01X81.506Y24.415Z61.516
G01X81.691Y24.456Z62.823
G01X81.871Y24.515Z64.498
G01X82.044Y24.590Z66.549
G01X82.209Y24.682Z68.988
G01X82.365Y24.789Z71.807
G01X82.509Y24.911Z75.006
G01X82.641Y25.046Z78.578
G01X82.760Y25.194Z82.500
G01X82.863Y25.352Z86.769
G01X82.951Y25.519Z91.347
G01X83.022Y25.694Z96.236
G01X83.076Y25.875Z101.364
G01X83.113Y26.060Z106.699
G01X83.131Y26.249Z112.215
G01X83.131Y26.438Z117.820
G01X83.113Y26.626Z123.486
G01X83.076Y26.811Z129.117
G01X83.022Y26.993Z134.660
G01X82.951Y27.167Z140.028
G01X82.863Y27.334Z145.138
G01X82.760Y27.493Z149.947
G01X82.641Y27.640Z154.353
G01X82.509Y27.775Z158.311
G01X82.365Y27.897Z161.744
G01X82.209Y28.005Z164.589
G01X82.044Y28.097Z166.824
G01X81.871Y28.172Z168.391
G01X81.691Y28.231Z169.310
G01X81.506Y28.271Z169.516
G01X81.319Y28.294Z169.049
G01X81.130Y28.298Z167.907
G00X81.130Y28.298Z169.957
G00X80.642Y27.664Z145.140
X80.154Y27.030Z122.975
X79.666Y26.397Z103.265
X79.623Y26.340Z101.635
G01F60.00X79.623Y26.340Z101.635
G01X79.623Y26.340Z99.585
G01F120.00X79.623Y26.340Z99.585
G01X79.630Y26.191Z95.806
G01X79.653Y26.040Z92.139
G01X79.690Y25.892Z88.679
G01X79.741Y25.748Z85.440
G01X79.806Y25.610Z82.445
G01X79.885Y25.480Z79.710
G01X79.976Y25.357Z77.243
G01X80.078Y25.244Z75.058
G01X80.191Y25.142Z73.159
G01X80.314Y25.051Z71.559
G01X80.445Y24.972Z70.257
G01X80.582Y24.907Z69.263
G01X80.726Y24.856Z68.579
G01X80.874Y24.819Z68.210
G01X81.025Y24.796Z68.157
G01X81.177Y24.789Z68.423
G01X81.329Y24.796Z69.012
G01X81.480Y24.819Z69.925
G01X81.628Y24.856Z71.160
G01X81.772Y24.907Z72.720
G01X81.910Y24.972Z74.601
G01X82.041Y25.051Z76.802
G01X82.163Y25.142Z79.311
G01X82.276Y25.244Z82.126
G01X82.379Y25.357Z85.229
G01X82.470Y25.480Z88.607
G01X82.548Y25.610Z92.238
G01X82.613Y25.748Z96.100
G01X82.665Y25.892Z100.163
G01X82.702Y26.040Z104.388
G01X82.724Y26.191Z108.742
G01X82.732Y26.343Z113.179
G01X82.724Y26.496Z117.647
G01X82.702Y26.646Z122.100
G01X82.665Y26.794Z126.483
G01X82.613Y26.938Z130.736
G01X82.548Y27.076Z134.807
G01X82.470Y27.207Z138.635
G01X82.379Y27.329Z142.169
G01X82.276Y27.442Z145.360
G01X82.163Y27.545Z148.154
G01X82.041Y27.636Z150.514
G01X81.910Y27.714Z152.404
G01X81.772Y27.779Z153.796
G01X81.628Y27.831Z154.672
G01X81.480Y27.868Z155.021
G01X81.329Y27.890Z154.836
G01X81.177Y27.897Z154.132
G01X81.025Y27.890Z152.918
G01X80.874Y27.868Z151.221
G01X80.726Y27.831Z149.065
G01X80.582Y27.779Z146.488
G01X80.445Y27.714Z143.533
G01X80.314Y27.636Z140.243
G01X80.191Y27.545Z136.666
G01X80.078Y27.442Z132.854
G01X79.976Y27.329Z128.852
G01X79.885Y27.207Z124.718
G01X79.806Y27.076Z120.498
G01X79.741Y26.938Z116.236
G01X79.690Y26.794Z111.982
G01X79.653Y26.646Z107.774
G01X79.630Y26.496Z103.653
G01X79.623Y26.346Z99.722
G01X79.623Y26.340Z99.585
G00X79.623Y26.340Z101.635
G00X79.763Y25.558Z83.150
X79.903Y24.776Z66.713
X80.044Y23.994Z52.227
X80.184Y23.212Z39.591
X80.324Y22.430Z28.702
X80.464Y21.648Z19.455
X80.605Y20.866Z11.740
X80.745Y20.084Z5.445
X80.885Y19.302Z0.455
X81.025Y18.519Z-3.348
X81.166Y17.737Z-6.085
X81.244Y17.299Z-7.200
G01F60.00X81.244Y17.299Z-7.200
G01X81.244Y17.299Z-9.250
G01F120.00X81.244Y17.299Z-9.250
G01X81.056Y17.294Z-9.189
G01X80.868Y17.271Z-9.167
G01X80.684Y17.230Z-9.182
G01X80.504Y17.172Z-9.228
G01X80.330Y17.096Z-9.303
G01X80.165Y17.004Z-9.398
G01X80.010Y16.897Z-9.508
G01X79.865Y16.775Z-9.626
G01X79.733Y16.640Z-9.744
G01X79.615Y16.493Z-9.857
G01X79.511Y16.335Z-9.959
G01X79.423Y16.167Z-10.046
G01X79.352Y15.992Z-10.114
G01X79.298Y15.811Z-10.160
G01X79.262Y15.626Z-10.184
G01X79.244Y15.438Z-10.184
G01X79.244Y15.248Z-10.163
G01X79.262Y15.061Z-10.122
G01X79.298Y14.875Z-10.065
G01X79.352Y14.694Z-9.993
G01X79.423Y14.519Z-9.913
G01X79.511Y14.352Z-9.826
G01X79.615Y14.193Z-9.738
G01X79.733Y14.046Z-9.652
G01X79.865Y13.911Z-9.573
G01X80.010Y13.789Z-9.504
G01X80.165Y13.682Z-9.449
G01X80.330Y13.590Z-9.409
G01X80.504Y13.514Z-9.388
G01X80.684Y13.456Z-9.388
G01X80.868Y13.415Z-9.408
G01X81.056Y13.392Z-9.453
G01X81.244Y13.388Z-9.520
G01X81.433Y13.402Z-9.610
G01X81.619Y13.433Z-9.723
G01X81.801Y13.483Z-9.858
G01X81.978Y13.550Z-10.011
G01X82.148Y13.634Z-10.183
G01X82.309Y13.734Z-10.370
G01X82.458Y13.848Z-10.566
G01X82.597Y13.977Z-10.769
G01X82.722Y14.118Z-10.973
G01X82.833Y14.271Z-11.173
G01X82.929Y14.434Z-11.361
G01X83.009Y14.606Z-11.533
G01X83.072Y14.784Z-11.681
G01X83.117Y14.967Z-11.800
G01X83.144Y15.155Z-11.885
G01X83.153Y15.343Z-11.930
G01X83.144Y15.532Z-11.933
G01X83.117Y15.719Z-11.893
G01X83.072Y15.902Z-11.809
G01X83.009Y16.081Z-11.682
G01X82.929Y16.252Z-11.517
G01X82.833Y16.415Z-11.320
G01X82.722Y16.568Z-11.094
G01X82.597Y16.709Z-10.851
G01X82.458Y16.838Z-10.598
G01X82.309Y16.953Z-10.345
G01X82.148Y17.052Z-10.098
G01X81.978Y17.136Z-9.869
G01X81.801Y17.203Z-9.664
G01X81.619Y17.253Z-9.490
G01X81.433Y17.285Z-9.351
G01X81.244Y17.299Z-9.250
G00X81.244Y17.299Z-7.200
G00X80.757Y16.702Z-8.034
X80.269Y16.105Z-8.394
X79.781Y15.509Z-8.365
X79.643Y15.340Z-8.298
G01F60.00X79.643Y15.340Z-8.298
G01X79.643Y15.340Z-10.348
G01F120.00X79.643Y15.340Z-10.348
G01X79.650Y15.191Z-10.325
G01X79.673Y15.040Z-10.290
G01X79.710Y14.892Z-10.246
G01X79.761Y14.748Z-10.196
G01X79.826Y14.611Z-10.141
G01X79.905Y14.480Z-10.084
G01X79.996Y14.357Z-10.029
G01X80.098Y14.244Z-9.978
G01X80.211Y14.142Z-9.934
G01X80.334Y14.051Z-9.899
G01X80.465Y13.972Z-9.875
G01X80.602Y13.907Z-9.864
G01X80.746Y13.856Z-9.868
G01X80.894Y13.819Z-9.888
G01X81.045Y13.796Z-9.924
G01X81.197Y13.789Z-9.977
G01X81.350Y13.796Z-10.048
G01X81.501Y13.819Z-10.134
G01X81.648Y13.856Z-10.236
G01X81.792Y13.907Z-10.352
G01X81.930Y13.972Z-10.481
G01X82.061Y14.051Z-10.618
G01X82.183Y14.142Z-10.763
G01X82.296Y14.244Z-10.911
G01X82.399Y14.357Z-11.058
G01X82.490Y14.480Z-11.201
G01X82.568Y14.611Z-11.336
G01X82.633Y14.748Z-11.458
G01X82.685Y14.892Z-11.563
G01X82.722Y15.040Z-11.648
G01X82.744Y15.191Z-11.708
G01X82.752Y15.343Z-11.742
G01X82.744Y15.496Z-11.747
G01X82.722Y15.646Z-11.723
G01X82.685Y15.794Z-11.670
G01X82.633Y15.938Z-11.589
G01X82.568Y16.076Z-11.482
G01X82.490Y16.207Z-11.354
G01X82.399Y16.329Z-11.209
G01X82.296Y16.442Z-11.051
G01X82.183Y16.545Z-10.886
G01X82.061Y16.636Z-10.720
G01X81.930Y16.714Z-10.559
G01X81.792Y16.779Z-10.407
G01X81.648Y16.831Z-10.271
G01X81.501Y16.868Z-10.152
G01X81.350Y16.890Z-10.055
G01X81.197Y16.898Z-9.981
G01X81.045Y16.890Z-9.931
G01X80.894Y16.868Z-9.905
G01X80.746Y16.831Z-9.901
G01X80.602Y16.779Z-9.916
G01X80.465Y16.714Z-9.949
G01X80.334Y16.636Z-9.994
G01X80.211Y16.545Z-10.048
G01X80.098Y16.442Z-10.107
G01X79.996Y16.329Z-10.166
G01X79.905Y16.207Z-10.222
G01X79.826Y16.076Z-10.272
G01X79.761Y15.938Z-10.312
G01X79.710Y15.794Z-10.341
G01X79.673Y15.646Z-10.356
G01X79.650Y15.496Z-10.359
G01X79.643Y15.346Z-10.348
G01X79.643Y15.340Z-10.348
G00X79.643Y15.340Z-8.298
G00X80.131Y15.340Z-8.509
X80.619Y15.340Z-8.722
X81.107Y15.340Z-8.939
X81.595Y15.340Z-9.159
X82.082Y15.340Z-9.381
X82.570Y15.340Z-9.607
X83.058Y15.340Z-9.835
X83.546Y15.340Z-10.067
X84.034Y15.340Z-10.301
X84.522Y15.340Z-10.538
X84.723Y15.340Z-10.637
G01F60.00X84.723Y15.340Z-10.637
G01X84.723Y15.340Z-12.687
G01F120.00X84.723Y15.340Z-12.687
G01X84.730Y15.191Z-12.658
G01X84.753Y15.040Z-12.615
G01X84.790Y14.892Z-12.560
G01X84.841Y14.748Z-12.497
G01X84.906Y14.611Z-12.427
G01X84.985Y14.480Z-12.355
G01X85.076Y14.357Z-12.284
G01X85.178Y14.244Z-12.218
G01X85.291Y14.142Z-12.160
G01X85.414Y14.051Z-12.113
G01X85.545Y13.972Z-12.080
G01X85.682Y13.907Z-12.062
G01X85.826Y13.856Z-12.062
G01X85.974Y13.819Z-12.081
G01X86.125Y13.796Z-12.121
G01X86.277Y13.789Z-12.181
G01X86.430Y13.796Z-12.262
G01X86.580Y13.819Z-12.363
G01X86.729Y13.856Z-12.483
G01X86.872Y13.907Z-12.620
G01X87.010Y13.972Z-12.772
G01X87.141Y14.051Z-12.935
G01X87.263Y14.142Z-13.107
G01X87.376Y14.244Z-13.284
G01X87.479Y14.357Z-13.460
G01X87.570Y14.480Z-13.631
G01X87.648Y14.611Z-13.793
G01X87.713Y14.748Z-13.939
G01X87.765Y14.892Z-14.065
G01X87.802Y15.040Z-14.167
G01X87.824Y15.191Z-14.239
G01X87.832Y15.343Z-14.280
G01X87.824Y15.496Z-14.287
G01X87.802Y15.646Z-14.258
G01X87.765Y15.794Z-14.195
G01X87.713Y15.938Z-14.098
G01X87.648Y16.076Z-13.971
G01X87.570Y16.207Z-13.818
G01X87.479Y16.329Z-13.644
G01X87.376Y16.442Z-13.455
G01X87.263Y16.545Z-13.258
G01X87.141Y16.636Z-13.060
G01X87.010Y16.714Z-12.867
G01X86.872Y16.779Z-12.687
G01X86.729Y16.831Z-12.525
G01X86.580Y16.868Z-12.385
G01X86.430Y16.890Z-12.271
G01X86.277Y16.898Z-12.185
G01X86.125Y16.890Z-12.129
G01X85.974Y16.868Z-12.102
G01X85.826Y16.831Z-12.102
G01X85.682Y16.779Z-12.126
G01X85.545Y16.714Z-12.170
G01X85.414Y16.636Z-12.230
G01X85.291Y16.545Z-12.300
G01X85.178Y16.442Z-12.376
G01X85.076Y16.329Z-12.452
G01X84.985Y16.207Z-12.524
G01X84.906Y16.076Z-12.587
G01X84.841Y15.938Z-12.639
G01X84.790Y15.794Z-12.676
G01X84.753Y15.646Z-12.697
G01X84.730Y15.496Z-12.700
G01X84.723Y15.346Z-12.688
G01X84.723Y15.340Z-12.687
G00X84.723Y15.340Z-10.637
G00X85.211Y15.937Z-10.771
X85.699Y16.534Z-10.459
X86.187Y17.130Z-9.598
X86.324Y17.299Z-9.241
G01F60.00X86.324Y17.299Z-9.241
G01X86.324Y17.299Z-11.291
G01F120.00X86.324Y17.299Z-11.291
G01X86.136Y17.294Z-11.222
G01X85.948Y17.271Z-11.200
G01X85.763Y17.230Z-11.224
G01X85.584Y17.172Z-11.286
G01X85.410Y17.096Z-11.383
G01X85.245Y17.004Z-11.505
G01X85.090Y16.897Z-11.644
G01X84.945Y16.775Z-11.794
G01X84.813Y16.640Z-11.943
G01X84.695Y16.493Z-12.086
G01X84.591Y16.335Z-12.215
G01X84.503Y16.167Z-12.325
G01X84.432Y15.992Z-12.410
G01X84.378Y15.811Z-12.469
G01X84.342Y15.626Z-12.499
G01X84.324Y15.438Z-12.501
G01X84.324Y15.248Z-12.475
G01X84.342Y15.061Z-12.424
G01X84.378Y14.875Z-12.352
G01X84.432Y14.694Z-12.262
G01X84.503Y14.519Z-12.160
G01X84.591Y14.352Z-12.051
G01X84.695Y14.193Z-11.939
G01X84.813Y14.046Z-11.830
G01X84.945Y13.911Z-11.729
G01X85.090Y13.789Z-11.640
G01X85.245Y13.682Z-11.567
G01X85.410Y13.590Z-11.513
G01X85.584Y13.514Z-11.482
G01X85.763Y13.456Z-11.476
G01X85.948Y13.415Z-11.496
G01X86.136Y13.392Z-11.544
G01X86.324Y13.388Z-11.620
G01X86.513Y13.402Z-11.725
G01X86.699Y13.433Z-11.857
G01X86.881Y13.483Z-12.016
G01X87.058Y13.550Z-12.198
G01X87.228Y13.634Z-12.402
G01X87.388Y13.734Z-12.624
G01X87.538Y13.848Z-12.859
G01X87.677Y13.977Z-13.101
G01X87.802Y14.118Z-13.345
G01X87.913Y14.271Z-13.585
G01X88.009Y14.434Z-13.811
G01X88.089Y14.606Z-14.017
G01X88.151Y14.784Z-14.195
G01X88.197Y14.967Z-14.338
G01X88.224Y15.155Z-14.440
G01X88.233Y15.343Z-14.495
G01X88.224Y15.532Z-14.499
G01X88.197Y15.719Z-14.451
G01X88.151Y15.902Z-14.350
G01X88.089Y16.081Z-14.199
G01X88.009Y16.252Z-14.001
G01X87.913Y16.415Z-13.763
G01X87.802Y16.568Z-13.493
G01X87.677Y16.709Z-13.201
G01X87.538Y16.838Z-12.898
G01X87.388Y16.953Z-12.593
G01X87.228Y17.052Z-12.299
G01X87.058Y17.136Z-12.024
G01X86.881Y17.203Z-11.780
G01X86.699Y17.253Z-11.572
G01X86.513Y17.285Z-11.408
G01X86.324Y17.299Z-11.291
G00X86.324Y17.299Z-9.241
G00X86.689Y18.081Z-6.730
X87.053Y18.863Z-2.847
X87.418Y19.645Z2.644
X87.783Y20.427Z9.990
X88.147Y21.209Z19.452
X88.512Y21.991Z31.300
X88.876Y22.773Z45.817
X89.241Y23.555Z63.297
X89.605Y24.337Z84.047
X89.970Y25.120Z108.387
X90.334Y25.902Z136.648
X90.699Y26.684Z169.177
X91.063Y27.466Z206.330
X91.428Y28.248Z248.481
X91.793Y29.030Z296.014
X92.157Y29.812Z349.330
X92.522Y30.594Z408.843
X92.886Y31.376Z474.980
X93.251Y32.158Z548.186
X93.615Y32.941Z628.918
X93.980Y33.723Z717.652
X94.344Y34.505Z814.875
X94.695Y35.258Z916.989
G01F60.00X94.695Y35.258Z916.989
G01X94.695Y35.258Z914.939
G01F120.00X94.695Y35.258Z914.939
G01X94.645Y35.326Z921.977
G01X94.579Y35.398Z929.094
G01X94.507Y35.464Z935.140
G01X94.429Y35.522Z940.047
G01X94.345Y35.572Z943.766
G01X94.257Y35.614Z946.239
G01X94.165Y35.647Z947.451
G01X94.070Y35.670Z947.381
G01X93.974Y35.685Z946.037
G01X93.876Y35.689Z943.442
G01X93.779Y35.685Z939.628
G01X93.682Y35.670Z934.653
G01X93.588Y35.647Z928.576
G01X93.496Y35.614Z921.465
G01X93.408Y35.572Z913.422
G01X93.324Y35.522Z904.528
G01X93.245Y35.464Z894.901
G01X93.173Y35.398Z884.644
G01X93.108Y35.326Z873.867
G01X93.049Y35.248Z862.686
G01X92.999Y35.164Z851.220
G01X92.958Y35.076Z839.590
G01X92.925Y34.984Z827.900
G01X92.901Y34.889Z816.279
G01X92.887Y34.793Z804.808
G01X92.882Y34.695Z793.621
G01X92.887Y34.598Z782.790
G01X92.901Y34.501Z772.423
G01X92.925Y34.407Z762.602
G01X92.958Y34.315Z753.395
G01X92.999Y34.227Z744.884
G01X93.049Y34.143Z737.131
G01X93.108Y34.064Z730.191
G01X93.173Y33.992Z724.120
G01X93.245Y33.927Z718.965
G01X93.322Y33.870Z714.863
G01X93.326Y33.867Z714.657
G01X93.410Y33.817Z711.458
G01X93.496Y33.777Z709.302
G01X93.585Y33.744Z708.117
G01X93.590Y33.743Z708.085
G01X93.682Y33.720Z707.927
G01X93.777Y33.706Z708.775
G01X93.873Y33.701Z710.644
G01X93.879Y33.701Z710.778
G01X93.974Y33.706Z713.632
G01X94.067Y33.720Z717.448
G01X94.073Y33.721Z717.698
G01X94.165Y33.744Z722.491
G01X94.254Y33.776Z728.201
G01X94.259Y33.778Z728.553
G01X94.345Y33.818Z735.163
G01X94.426Y33.867Z742.602
G01X94.431Y33.870Z743.048
G01X94.507Y33.927Z751.294
G01X94.577Y33.990Z760.250
G01X94.581Y33.994Z760.777
G01X94.645Y34.064Z770.391
G01X94.695Y34.132Z779.478
G01X95.183Y34.132Z792.685
X95.597Y34.132Z804.006
G01X95.648Y34.064Z797.395
G01X95.711Y33.994Z790.898
G01X95.715Y33.990Z790.557
G01X95.785Y33.927Z785.026
G01X95.862Y33.870Z780.487
G01X95.866Y33.867Z780.259
G01X95.948Y33.818Z776.776
G01X96.033Y33.778Z774.344
G01X96.038Y33.776Z774.231
G01X96.128Y33.744Z772.893
G01X96.220Y33.721Z772.635
G01X96.225Y33.720Z772.647
G01X96.319Y33.706Z773.508
G01X96.413Y33.701Z775.450
G01X96.419Y33.701Z775.592
G01X96.515Y33.706Z778.678
G01X96.610Y33.720Z782.853
G01X96.705Y33.744Z788.148
G01X96.797Y33.777Z794.492
G01X96.882Y33.817Z801.621
G01X96.887Y33.820Z802.046
G01X96.969Y33.868Z810.120
G01X97.045Y33.925Z819.026
G01X97.049Y33.928Z819.552
G01X97.121Y33.994Z829.572
G01X97.185Y34.064Z840.003
G01X97.235Y34.132Z849.868
G01X97.723Y34.132Z863.857
X98.211Y34.132Z877.997
X98.699Y34.132Z892.291
X99.187Y34.132Z906.740
X99.211Y34.132Z907.464
G01X99.266Y34.135Z909.466
G01X99.318Y34.143Z912.046
G01X99.372Y34.156Z915.420
G01X99.377Y34.158Z915.775
G01X99.426Y34.175Z919.649
G01X99.474Y34.198Z924.102
G01X99.522Y34.226Z929.342
G01X99.568Y34.260Z935.436
G01X99.608Y34.296Z941.589
G01X100.096Y34.784Z1026.058
X100.119Y34.807Z1030.160
G01X100.154Y34.846Z1037.040
G01X100.187Y34.890Z1044.658
G01X100.215Y34.938Z1052.622
G01X100.240Y34.990Z1061.241
G01X100.258Y35.040Z1069.235
G01X100.271Y35.093Z1077.739
G01X100.279Y35.148Z1086.254
G01X100.282Y35.203Z1094.713
G01X100.282Y35.841Z1194.327
G01X100.279Y35.893Z1202.684
G01X100.278Y35.903Z1204.219
G01X100.279Y35.913Z1205.834
G01X100.282Y35.965Z1214.438
G01X100.282Y36.747Z1345.800
X100.282Y37.529Z1486.031
X100.282Y38.312Z1635.417
X100.282Y39.094Z1794.244
X100.282Y39.876Z1962.795
X100.282Y40.658Z2141.358
X100.282Y41.440Z2330.216
X100.282Y42.222Z2529.655
X100.282Y43.004Z2739.960
X100.282Y43.786Z2961.417
X100.282Y44.568Z3194.310
X100.282Y45.350Z3438.925
X100.282Y46.133Z3695.547
X100.282Y46.915Z3964.461
X100.282Y47.697Z4245.952
X100.282Y48.479Z4540.307
X100.282Y49.261Z4847.808
X100.282Y50.043Z5168.743
X100.282Y50.825Z5503.396
X100.282Y51.607Z5852.053
X100.282Y52.389Z6214.998
X100.282Y53.171Z6592.517
X100.282Y53.954Z6984.895
X100.282Y54.736Z7392.417
X100.282Y55.518Z7815.368
X100.282Y56.300Z8254.034
X100.282Y57.082Z8708.700
X100.282Y57.864Z9179.650
X100.282Y58.646Z9667.172
X100.282Y59.428Z10171.549
X100.282Y60.210Z10693.065
X100.282Y60.993Z11232.009
X100.282Y61.775Z11788.662
X100.282Y62.557Z12363.312
X100.282Y62.656Z12437.612
G01X100.770Y63.144Z13010.577
X101.258Y63.632Z13604.931
X101.746Y64.120Z14221.293
X102.233Y64.608Z14860.297
X102.721Y65.096Z15522.592
X103.209Y65.583Z16208.839
X103.697Y66.071Z16919.715
X104.185Y66.559Z17655.906
X104.673Y67.047Z18418.119
X105.161Y67.535Z19207.068
X105.649Y68.023Z20023.486
X106.137Y68.511Z20868.119
X106.624Y68.999Z21741.729
X107.039Y69.413Z22507.445
G01X107.527Y69.413Z22841.062
X107.874Y69.413Z23080.270
G01X107.879Y69.414Z23084.494
G01X107.886Y69.415Z23090.467
G01X107.891Y69.416Z23095.947
G01X107.896Y69.419Z23101.861
G01X107.901Y69.421Z23108.172
G01X107.905Y69.424Z23114.971
G01X107.909Y69.427Z23121.973
G01X107.913Y69.431Z23129.262
G01X107.916Y69.435Z23136.645
G01X107.919Y69.440Z23144.162
G01X107.923Y69.448Z23157.311
G01X107.926Y69.457Z23170.160
G01X107.927Y69.462Z23177.100
G01X107.927Y69.468Z23183.928
G01X107.927Y70.250Z24157.158
X107.927Y71.032Z25157.148
X107.927Y71.044Z25172.564
G01X107.926Y71.052Z25182.338
G01X107.924Y71.060Z25190.941
G01X107.921Y71.067Z25198.275
G01X107.917Y71.074Z25204.049
G01X107.912Y71.080Z25208.320
G01X107.906Y71.086Z25210.793
G01X107.898Y71.091Z25211.514
G01X107.891Y71.094Z25210.078
G01X107.882Y71.096Z25206.383
G01X107.873Y71.097Z25200.395
G01X107.385Y71.097Z24833.582
X106.897Y71.097Z24470.346
X106.409Y71.097Z24110.668
X106.298Y71.097Z24029.244
G01X106.292Y71.097Z24024.922
G01X106.287Y71.096Z24020.131
G01X106.278Y71.093Z24010.328
G01X106.270Y71.089Z23999.125
G01X106.265Y71.086Z23992.254
G01X106.261Y71.083Z23985.059
G01X106.257Y71.078Z23975.701
G01X106.253Y71.074Z23968.102
G01X106.250Y71.069Z23960.381
G01X106.248Y71.065Z23952.836
G01X106.246Y71.060Z23945.217
G01X106.245Y71.054Z23937.777
G01X106.244Y71.049Z23930.719
G01X106.243Y71.044Z23923.773
G01X106.243Y70.262Z22973.000
X106.243Y70.209Z22909.859
G01X105.755Y69.721Z22000.320
X105.268Y69.233Z21120.625
X104.780Y68.745Z20270.000
X104.292Y68.258Z19447.680
X103.804Y67.770Z18652.920
X103.316Y67.282Z17884.988
X102.828Y66.794Z17143.164
X102.340Y66.306Z16426.748
X101.852Y65.818Z15735.047
X101.364Y65.330Z15067.388
X100.876Y64.842Z14423.108
X100.389Y64.354Z13801.560
X99.901Y63.866Z13202.104
X99.413Y63.379Z12624.123
X99.321Y63.287Z12518.064
G01X99.284Y63.246Z12472.451
G01X99.251Y63.202Z12426.092
G01X99.223Y63.154Z12379.558
G01X99.198Y63.102Z12330.875
G01X99.181Y63.053Z12287.364
G01X99.167Y62.999Z12242.685
G01X99.159Y62.944Z12199.418
G01X99.156Y62.889Z12158.118
G01X99.156Y62.107Z11596.739
X99.156Y61.325Z11052.825
X99.156Y60.543Z10526.100
X99.156Y59.761Z10016.288
X99.156Y58.979Z9523.116
X99.156Y58.197Z9046.309
X99.156Y57.414Z8585.590
X99.156Y56.632Z8140.686
X99.156Y55.850Z7711.321
X99.156Y55.068Z7297.221
X99.156Y54.286Z6898.111
X99.156Y53.504Z6513.715
X99.156Y52.722Z6143.759
X99.156Y51.940Z5787.969
X99.156Y51.158Z5446.068
X99.156Y50.376Z5117.782
X99.156Y49.593Z4802.837
X99.156Y48.811Z4500.957
X99.156Y48.029Z4211.867
X99.156Y47.247Z3935.293
X99.156Y46.465Z3670.959
X99.156Y45.683Z3418.591
X99.156Y44.901Z3177.914
X99.156Y44.119Z2948.652
X99.156Y43.337Z2730.531
X99.156Y42.554Z2523.277
X99.156Y41.772Z2326.613
X99.156Y40.990Z2140.266
X99.156Y40.208Z1963.959
X99.156Y39.426Z1797.420
X99.156Y38.644Z1640.371
X99.156Y37.862Z1492.539
X99.156Y37.080Z1353.649
X99.156Y36.298Z1223.425
X99.156Y35.965Z1170.629
G01X99.159Y35.913Z1162.524
G01X99.160Y35.903Z1161.059
G01X99.159Y35.893Z1159.487
G01X99.156Y35.841Z1151.243
G01X99.156Y35.436Z1089.707
G01X98.978Y35.258Z1057.036
G01X98.490Y35.258Z1040.154
X98.002Y35.258Z1023.453
X97.514Y35.258Z1006.932
X97.235Y35.258Z997.561
G01X97.185Y35.326Z1005.285
G01X97.121Y35.396Z1012.893
G01X97.049Y35.462Z1019.592
G01X97.045Y35.465Z1019.926
G01X96.969Y35.522Z1025.205
G01X96.885Y35.572Z1029.346
