(G-CODE GENERATED BY FLATCAM v8.993 - www.flatcam.org - Version Date: 2020/06/05)

(Name: Drill_0.8)
(Type: G-code from Geometry)
(Units: MM)

(Created on Thursday, 27 May 2021 at 14:20)

(This preprocessor is the default preprocessor used by FlatCAM.)
(It is made to work with MACH3 compatible motion controllers.)

(TOOL DIAMETER: 0.8 mm)
(Feedrate_XY: 120.0 mm/min)
(Feedrate_Z: 60.0 mm/min)
(Feedrate rapids 1500.0 mm/min)

(Z_Cut: -1.8 mm)
(Z_Move: 2.0 mm)
(Z Start: None mm)
(Z End: 15.0 mm)
(Steps per circle: 64)
(Preprocessor Geometry: default)

(X range:    2.3800 ...   54.5010  mm)
(Y range:    5.4600 ...   47.7800  mm)

(Spindle Speed: None RPM)
G21
G90
G94



G01 F120.00
G00 Z2.0000

M03
G00 X2.3800 Y12.2200
G01 F60.00
G01 Z-1.8000
G01 F120.00
G01 X2.3800 Y12.2200
G01 X2.3800 Y12.2200
G01 X2.3800 Y12.2200
G01 X2.3800 Y12.2200
G00 Z2.0000
G00 X2.3800 Y14.7600
G01 F60.00
G01 Z-1.8000
G01 F120.00
G01 X2.3800 Y14.7600
G01 X2.3800 Y14.7600
G01 X2.3800 Y14.7600
G01 X2.3800 Y14.7600
G00 Z2.0000
G00 X2.3800 Y17.3000
G01 F60.00
G01 Z-1.8000
G01 F120.00
G01 X2.3800 Y17.3000
G01 X2.3800 Y17.3000
G01 X2.3800 Y17.3000
G01 X2.3800 Y17.3000
G00 Z2.0000
G00 X2.3800 Y19.8400
G01 F60.00
G01 Z-1.8000
G01 F120.00
G01 X2.3800 Y19.8400
G01 X2.3800 Y19.8400
G01 X2.3800 Y19.8400
G01 X2.3800 Y19.8400
G00 Z2.0000
G00 X2.3800 Y22.3800
G01 F60.00
G01 Z-1.8000
G01 F120.00
G01 X2.3800 Y22.3800
G01 X2.3800 Y22.3800
G01 X2.3800 Y22.3800
G01 X2.3800 Y22.3800
G00 Z2.0000
G00 X2.3800 Y24.9200
G01 F60.00
G01 Z-1.8000
G01 F120.00
G01 X2.3800 Y24.9200
G01 X2.3800 Y24.9200
G01 X2.3800 Y24.9200
G01 X2.3800 Y24.9200
G00 Z2.0000
G00 X2.3800 Y27.4600
G01 F60.00
G01 Z-1.8000
G01 F120.00
G01 X2.3800 Y27.4600
G01 X2.3800 Y27.4600
G01 X2.3800 Y27.4600
G01 X2.3800 Y27.4600
G00 Z2.0000
G00 X2.3800 Y30.0000
G01 F60.00
G01 Z-1.8000
G01 F120.00
G01 X2.3800 Y30.0000
G01 X2.3800 Y30.0000
G01 X2.3800 Y30.0000
G01 X2.3800 Y30.0000
G00 Z2.0000
G00 X2.3800 Y32.5400
G01 F60.00
G01 Z-1.8000
G01 F120.00
G01 X2.3800 Y32.5400
G01 X2.3800 Y32.5400
G01 X2.3800 Y32.5400
G01 X2.3800 Y32.5400
G00 Z2.0000
G00 X2.3800 Y35.0800
G01 F60.00
G01 Z-1.8000
G01 F120.00
G01 X2.3800 Y35.0800
G01 X2.3800 Y35.0800
G01 X2.3800 Y35.0800
G01 X2.3800 Y35.0800
G00 Z2.0000
G00 X2.3800 Y37.6200
G01 F60.00
G01 Z-1.8000
G01 F120.00
G01 X2.3800 Y37.6200
G01 X2.3800 Y37.6200
G01 X2.3800 Y37.6200
G01 X2.3800 Y37.6200
G00 Z2.0000
G00 X2.3800 Y40.1600
G01 F60.00
G01 Z-1.8000
G01 F120.00
G01 X2.3800 Y40.1600
G01 X2.3800 Y40.1600
G01 X2.3800 Y40.1600
G01 X2.3800 Y40.1600
G00 Z2.0000
G00 X2.3800 Y42.7000
G01 F60.00
G01 Z-1.8000
G01 F120.00
G01 X2.3800 Y42.7000
G01 X2.3800 Y42.7000
G01 X2.3800 Y42.7000
G01 X2.3800 Y42.7000
G00 Z2.0000
G00 X2.3800 Y45.2400
G01 F60.00
G01 Z-1.8000
G01 F120.00
G01 X2.3800 Y45.2400
G01 X2.3800 Y45.2400
G01 X2.3800 Y45.2400
G01 X2.3800 Y45.2400
G00 Z2.0000
G00 X2.3800 Y47.7800
G01 F60.00
G01 Z-1.8000
G01 F120.00
G01 X2.3800 Y47.7800
G01 X2.3800 Y47.7800
G01 X2.3800 Y47.7800
G01 X2.3800 Y47.7800
G00 Z2.0000
G00 X17.6200 Y47.7800
G01 F60.00
G01 Z-1.8000
G01 F120.00
G01 X17.6200 Y47.7800
G01 X17.6200 Y47.7800
G01 X17.6200 Y47.7800
G01 X17.6200 Y47.7800
G00 Z2.0000
G00 X17.6200 Y45.2400
G01 F60.00
G01 Z-1.8000
G01 F120.00
G01 X17.6200 Y45.2400
G01 X17.6200 Y45.2400
G01 X17.6200 Y45.2400
G01 X17.6200 Y45.2400
G00 Z2.0000
G00 X17.6200 Y42.7000
G01 F60.00
G01 Z-1.8000
G01 F120.00
G01 X17.6200 Y42.7000
G01 X17.6200 Y42.7000
G01 X17.6200 Y42.7000
G01 X17.6200 Y42.7000
G00 Z2.0000
G00 X17.6200 Y40.1600
G01 F60.00
G01 Z-1.8000
G01 F120.00
G01 X17.6200 Y40.1600
G01 X17.6200 Y40.1600
G01 X17.6200 Y40.1600
G01 X17.6200 Y40.1600
G00 Z2.0000
G00 X17.6200 Y37.6200
G01 F60.00
G01 Z-1.8000
G01 F120.00
G01 X17.6200 Y37.6200
G01 X17.6200 Y37.6200
G01 X17.6200 Y37.6200
G01 X17.6200 Y37.6200
G00 Z2.0000
G00 X17.6200 Y35.0800
G01 F60.00
G01 Z-1.8000
G01 F120.00
G01 X17.6200 Y35.0800
G01 X17.6200 Y35.0800
G01 X17.6200 Y35.0800
G01 X17.6200 Y35.0800
G00 Z2.0000
G00 X17.6200 Y32.5400
G01 F60.00
G01 Z-1.8000
G01 F120.00
G01 X17.6200 Y32.5400
G01 X17.6200 Y32.5400
G01 X17.6200 Y32.5400
G01 X17.6200 Y32.5400
G00 Z2.0000
G00 X17.6200 Y30.0000
G01 F60.00
G01 Z-1.8000
G01 F120.00
G01 X17.6200 Y30.0000
G01 X17.6200 Y30.0000
G01 X17.6200 Y30.0000
G01 X17.6200 Y30.0000
G00 Z2.0000
G00 X17.6200 Y27.4600
G01 F60.00
G01 Z-1.8000
G01 F120.00
G01 X17.6200 Y27.4600
G01 X17.6200 Y27.4600
G01 X17.6200 Y27.4600
G01 X17.6200 Y27.4600
G00 Z2.0000
G00 X17.6200 Y24.9200
G01 F60.00
G01 Z-1.8000
G01 F120.00
G01 X17.6200 Y24.9200
G01 X17.6200 Y24.9200
G01 X17.6200 Y24.9200
G01 X17.6200 Y24.9200
G00 Z2.0000
G00 X17.6200 Y22.3800
G01 F60.00
G01 Z-1.8000
G01 F120.00
G01 X17.6200 Y22.3800
G01 X17.6200 Y22.3800
G01 X17.6200 Y22.3800
G01 X17.6200 Y22.3800
G00 Z2.0000
G00 X17.6200 Y19.8400
G01 F60.00
G01 Z-1.8000
G01 F120.00
G01 X17.6200 Y19.8400
G01 X17.6200 Y19.8400
G01 X17.6200 Y19.8400
G01 X17.6200 Y19.8400
G00 Z2.0000
G00 X17.6200 Y17.3000
G01 F60.00
G01 Z-1.8000
G01 F120.00
G01 X17.6200 Y17.3000
G01 X17.6200 Y17.3000
G01 X17.6200 Y17.3000
G01 X17.6200 Y17.3000
G00 Z2.0000
G00 X17.6200 Y14.7600
G01 F60.00
G01 Z-1.8000
G01 F120.00
G01 X17.6200 Y14.7600
G01 X17.6200 Y14.7600
G01 X17.6200 Y14.7600
G01 X17.6200 Y14.7600
G00 Z2.0000
G00 X17.6200 Y12.2200
G01 F60.00
G01 Z-1.8000
G01 F120.00
G01 X17.6200 Y12.2200
G01 X17.6200 Y12.2200
G01 X17.6200 Y12.2200
G01 X17.6200 Y12.2200
G00 Z2.0000
G00 X25.4500 Y25.5500
G01 F60.00
G01 Z-1.8000
G01 F120.00
G01 X25.4500 Y25.5500
G01 X25.4500 Y25.5500
G01 X25.4500 Y25.5500
G01 X25.4500 Y25.5500
G00 Z2.0000
G00 X25.4500 Y28.1500
G01 F60.00
G01 Z-1.8000
G01 F120.00
G01 X25.4500 Y28.1500
G01 X25.4500 Y28.1500
G01 X25.4500 Y28.1500
G01 X25.4500 Y28.1500
G00 Z2.0000
G00 X25.4500 Y30.7500
G01 F60.00
G01 Z-1.8000
G01 F120.00
G01 X25.4500 Y30.7500
G01 X25.4500 Y30.7500
G01 X25.4500 Y30.7500
G01 X25.4500 Y30.7500
G00 Z2.0000
G00 X38.9000 Y30.0600
G01 F60.00
G01 Z-1.8000
G01 F120.00
G01 X38.9000 Y30.0600
G01 X38.9000 Y30.0600
G01 X38.9000 Y30.0600
G01 X38.9000 Y30.0600
G00 Z2.0000
G00 X38.9000 Y32.6600
G01 F60.00
G01 Z-1.8000
G01 F120.00
G01 X38.9000 Y32.6600
G01 X38.9000 Y32.6600
G01 X38.9000 Y32.6600
G01 X38.9000 Y32.6600
G00 Z2.0000
G00 X38.9000 Y27.4600
G01 F60.00
G01 Z-1.8000
G01 F120.00
G01 X38.9000 Y27.4600
G01 X38.9000 Y27.4600
G01 X38.9000 Y27.4600
G01 X38.9000 Y27.4600
G00 Z2.0000
G00 X38.9000 Y24.8600
G01 F60.00
G01 Z-1.8000
G01 F120.00
G01 X38.9000 Y24.8600
G01 X38.9000 Y24.8600
G01 X38.9000 Y24.8600
G01 X38.9000 Y24.8600
G00 Z2.0000
G00 X48.5000 Y21.1300
G01 F60.00
G01 Z-1.8000
G01 F120.00
G01 X48.5000 Y21.1300
G01 X48.5000 Y21.1300
G01 X48.5000 Y21.1300
G01 X48.5000 Y21.1300
G00 Z2.0000
G00 X48.4990 Y18.5400
G01 F60.00
G01 Z-1.8000
G01 F120.00
G01 X48.4990 Y18.5400
G01 X48.4990 Y18.5400
G01 X48.4990 Y18.5400
G01 X48.4990 Y18.5400
G00 Z2.0000
G00 X48.4990 Y13.4600
G01 F60.00
G01 Z-1.8000
G01 F120.00
G01 X48.4990 Y13.4600
G01 X48.4990 Y13.4600
G01 X48.4990 Y13.4600
G01 X48.4990 Y13.4600
G00 Z2.0000
G00 X48.5000 Y10.5400
G01 F60.00
G01 Z-1.8000
G01 F120.00
G01 X48.5000 Y10.5400
G01 X48.5000 Y10.5400
G01 X48.5000 Y10.5400
G01 X48.5000 Y10.5400
G00 Z2.0000
G00 X48.5000 Y8.0000
G01 F60.00
G01 Z-1.8000
G01 F120.00
G01 X48.5000 Y8.0000
G01 X48.5000 Y8.0000
G01 X48.5000 Y8.0000
G01 X48.5000 Y8.0000
G00 Z2.0000
G00 X48.5000 Y5.4600
G01 F60.00
G01 Z-1.8000
G01 F120.00
G01 X48.5000 Y5.4600
G01 X48.5000 Y5.4600
G01 X48.5000 Y5.4600
G01 X48.5000 Y5.4600
G00 Z2.0000
G00 X54.5010 Y14.9990
G01 F60.00
G01 Z-1.8000
G01 F120.00
G01 X54.5010 Y14.9990
G01 X54.5010 Y14.9990
G01 X54.5010 Y14.9990
G01 X54.5010 Y14.9990
G00 Z2.0000
G00 X54.5010 Y17.5390
G01 F60.00
G01 Z-1.8000
G01 F120.00
G01 X54.5010 Y17.5390
G01 X54.5010 Y17.5390
G01 X54.5010 Y17.5390
G01 X54.5010 Y17.5390
G00 Z2.0000
G00 X48.5000 Y28.7500
G01 F60.00
G01 Z-1.8000
G01 F120.00
G01 X48.5000 Y28.7500
G01 X48.5000 Y28.7500
G01 X48.5000 Y28.7500
G01 X48.5000 Y28.7500
G00 Z2.0000
G00 X54.5010 Y32.1720
G01 F60.00
G01 Z-1.8000
G01 F120.00
G01 X54.5010 Y32.1720
G01 X54.5010 Y32.1720
G01 X54.5010 Y32.1720
G01 X54.5010 Y32.1720
G00 Z2.0000
G00 X54.5010 Y34.7120
G01 F60.00
G01 Z-1.8000
G01 F120.00
G01 X54.5010 Y34.7120
G01 X54.5010 Y34.7120
G01 X54.5010 Y34.7120
G01 X54.5010 Y34.7120
G00 Z2.0000
G00 X54.5010 Y37.2520
G01 F60.00
G01 Z-1.8000
G01 F120.00
G01 X54.5010 Y37.2520
G01 X54.5010 Y37.2520
G01 X54.5010 Y37.2520
G01 X54.5010 Y37.2520
G00 Z2.0000
G00 X54.5010 Y39.7920
G01 F60.00
G01 Z-1.8000
G01 F120.00
G01 X54.5010 Y39.7920
G01 X54.5010 Y39.7920
G01 X54.5010 Y39.7920
G01 X54.5010 Y39.7920
G00 Z2.0000
G00 X54.5010 Y42.3320
G01 F60.00
G01 Z-1.8000
G01 F120.00
G01 X54.5010 Y42.3320
G01 X54.5010 Y42.3320
G01 X54.5010 Y42.3320
G01 X54.5010 Y42.3320
G00 Z2.0000
G00 X54.5010 Y44.8720
G01 F60.00
G01 Z-1.8000
G01 F120.00
G01 X54.5010 Y44.8720
G01 X54.5010 Y44.8720
G01 X54.5010 Y44.8720
G01 X54.5010 Y44.8720
G00 Z2.0000
G00 X48.5000 Y46.0400
G01 F60.00
G01 Z-1.8000
G01 F120.00
G01 X48.5000 Y46.0400
G01 X48.5000 Y46.0400
G01 X48.5000 Y46.0400
G01 X48.5000 Y46.0400
G00 Z2.0000
G00 X48.5000 Y43.5000
G01 F60.00
G01 Z-1.8000
G01 F120.00
G01 X48.5000 Y43.5000
G01 X48.5000 Y43.5000
G01 X48.5000 Y43.5000
G01 X48.5000 Y43.5000
G00 Z2.0000
M05
G00 Z2.0000
G00 Z15.00

