(G-CODE GENERATED BY FLATCAM v8.993 - www.flatcam.org - Version Date: 2020/06/05)

(Name: Outline_2.4)
(Type: G-code from Geometry)
(Units: MM)

(Created on Thursday, 27 May 2021 at 14:20)

(This preprocessor is the default preprocessor used by FlatCAM.)
(It is made to work with MACH3 compatible motion controllers.)

(TOOL DIAMETER: 2.4 mm)
(Feedrate_XY: 120.0 mm/min)
(Feedrate_Z: 60.0 mm/min)
(Feedrate rapids 1500.0 mm/min)

(Z_Cut: -1.8 mm)
(DepthPerCut: 0.6 mm <=>3 passes)
(Z_Move: 2.0 mm)
(Z Start: None mm)
(Z End: 15.0 mm)
(Steps per circle: 64)
(Preprocessor Geometry: default)

(X range:   -1.4271 ...   61.4271  mm)
(Y range:   -1.4271 ...   61.4271  mm)

(Spindle Speed: None RPM)
G21
G90
G94



G01 F120.00
G00 Z2.0000

M03
G00 X27.0000 Y-1.4271
G01 F60.00
G01 Z-0.6000
G01 F120.00
G01 X4.9802 Y-1.4271
G01 X4.9677 Y-1.4271
G01 X4.9039 Y-1.4252
G01 X4.4141 Y-1.3992
G01 X4.3505 Y-1.3942
G01 X4.3381 Y-1.3930
G01 X4.2748 Y-1.3849
G01 X3.7899 Y-1.3110
G01 X3.7271 Y-1.2998
G01 X3.7149 Y-1.2973
G01 X3.6527 Y-1.2831
G01 X3.1774 Y-1.1620
G01 X3.1160 Y-1.1447
G01 X3.1040 Y-1.1411
G01 X3.0436 Y-1.1208
G01 X2.5824 Y-0.9537
G01 X2.5229 Y-0.9306
G01 X2.5114 Y-0.9257
G01 X2.4532 Y-0.8997
G01 X2.0106 Y-0.6882
G01 X1.9538 Y-0.6593
G01 X1.9428 Y-0.6534
G01 X1.8874 Y-0.6217
G01 X1.4677 Y-0.3679
G01 X1.4139 Y-0.3336
G01 X1.4036 Y-0.3266
G01 X1.3516 Y-0.2897
G01 X0.9587 Y0.0041
G01 X0.9086 Y0.0435
G01 X0.8990 Y0.0514
G01 X0.8508 Y0.0933
G01 X0.4886 Y0.4241
G01 X0.4426 Y0.4683
G01 X0.4338 Y0.4771
G01 X0.3900 Y0.5235
G01 X0.0620 Y0.8882
G01 X0.0205 Y0.9366
G01 X0.0127 Y0.9463
G01 X-0.0264 Y0.9967
G01 X-0.3171 Y1.3918
G01 X-0.3537 Y1.4441
G01 X-0.3605 Y1.4545
G01 X-0.3945 Y1.5085
G01 X-0.6451 Y1.9302
G01 X-0.6763 Y1.9858
G01 X-0.6821 Y1.9968
G01 X-0.7106 Y2.0539
G01 X-0.9187 Y2.4981
G01 X-0.9443 Y2.5565
G01 X-0.9491 Y2.5680
G01 X-0.9718 Y2.6276
G01 X-1.1354 Y3.0901
G01 X-1.1552 Y3.1507
G01 X-1.1587 Y3.1627
G01 X-1.1755 Y3.2242
G01 X-1.2930 Y3.7004
G01 X-1.3067 Y3.7627
G01 X-1.3091 Y3.7750
G01 X-1.3198 Y3.8379
G01 X-1.3900 Y4.3233
G01 X-1.3976 Y4.3867
G01 X-1.3988 Y4.3991
G01 X-1.4033 Y4.4627
G01 X-1.4237 Y4.9120
G01 X-1.4249 Y4.9238
G01 X-1.4255 Y4.9362
G01 X-1.4271 Y5.0000
G01 X-1.4271 Y27.0000
G00 X-1.4271 Y27.0000
G01 F60.00
G01 Z-1.2000
G01 F120.00
G01 X-1.4271 Y5.0000
G01 X-1.4255 Y4.9362
G01 X-1.4249 Y4.9238
G01 X-1.4237 Y4.9120
G01 X-1.4033 Y4.4627
G01 X-1.3988 Y4.3991
G01 X-1.3976 Y4.3867
G01 X-1.3900 Y4.3233
G01 X-1.3198 Y3.8379
G01 X-1.3091 Y3.7750
G01 X-1.3067 Y3.7627
G01 X-1.2930 Y3.7004
G01 X-1.1755 Y3.2242
G01 X-1.1587 Y3.1627
G01 X-1.1552 Y3.1507
G01 X-1.1354 Y3.0901
G01 X-0.9718 Y2.6276
G01 X-0.9491 Y2.5680
G01 X-0.9443 Y2.5565
G01 X-0.9187 Y2.4981
G01 X-0.7106 Y2.0539
G01 X-0.6821 Y1.9968
G01 X-0.6763 Y1.9858
G01 X-0.6451 Y1.9302
G01 X-0.3945 Y1.5085
G01 X-0.3605 Y1.4545
G01 X-0.3537 Y1.4441
G01 X-0.3171 Y1.3918
G01 X-0.0264 Y0.9967
G01 X0.0127 Y0.9463
G01 X0.0205 Y0.9366
G01 X0.0620 Y0.8882
G01 X0.3900 Y0.5235
G01 X0.4338 Y0.4771
G01 X0.4426 Y0.4683
G01 X0.4886 Y0.4241
G01 X0.8508 Y0.0933
G01 X0.8990 Y0.0514
G01 X0.9086 Y0.0435
G01 X0.9587 Y0.0041
G01 X1.3516 Y-0.2897
G01 X1.4036 Y-0.3266
G01 X1.4139 Y-0.3336
G01 X1.4677 Y-0.3679
G01 X1.8874 Y-0.6217
G01 X1.9428 Y-0.6534
G01 X1.9538 Y-0.6593
G01 X2.0106 Y-0.6882
G01 X2.4532 Y-0.8997
G01 X2.5114 Y-0.9257
G01 X2.5229 Y-0.9306
G01 X2.5824 Y-0.9537
G01 X3.0436 Y-1.1208
G01 X3.1040 Y-1.1411
G01 X3.1160 Y-1.1447
G01 X3.1774 Y-1.1620
G01 X3.6527 Y-1.2831
G01 X3.7149 Y-1.2973
G01 X3.7271 Y-1.2998
G01 X3.7899 Y-1.3110
G01 X4.2748 Y-1.3849
G01 X4.3381 Y-1.3930
G01 X4.3505 Y-1.3942
G01 X4.4141 Y-1.3992
G01 X4.9039 Y-1.4252
G01 X4.9677 Y-1.4271
G01 X4.9802 Y-1.4271
G01 X27.0000 Y-1.4271
G00 X27.0000 Y-1.4271
G01 F60.00
G01 Z-1.8000
G01 F120.00
G01 X4.9802 Y-1.4271
G01 X4.9677 Y-1.4271
G01 X4.9039 Y-1.4252
G01 X4.4141 Y-1.3992
G01 X4.3505 Y-1.3942
G01 X4.3381 Y-1.3930
G01 X4.2748 Y-1.3849
G01 X3.7899 Y-1.3110
G01 X3.7271 Y-1.2998
G01 X3.7149 Y-1.2973
G01 X3.6527 Y-1.2831
G01 X3.1774 Y-1.1620
G01 X3.1160 Y-1.1447
G01 X3.1040 Y-1.1411
G01 X3.0436 Y-1.1208
G01 X2.5824 Y-0.9537
G01 X2.5229 Y-0.9306
G01 X2.5114 Y-0.9257
G01 X2.4532 Y-0.8997
G01 X2.0106 Y-0.6882
G01 X1.9538 Y-0.6593
G01 X1.9428 Y-0.6534
G01 X1.8874 Y-0.6217
G01 X1.4677 Y-0.3679
G01 X1.4139 Y-0.3336
G01 X1.4036 Y-0.3266
G01 X1.3516 Y-0.2897
G01 X0.9587 Y0.0041
G01 X0.9086 Y0.0435
G01 X0.8990 Y0.0514
G01 X0.8508 Y0.0933
G01 X0.4886 Y0.4241
G01 X0.4426 Y0.4683
G01 X0.4338 Y0.4771
G01 X0.3900 Y0.5235
G01 X0.0620 Y0.8882
G01 X0.0205 Y0.9366
G01 X0.0127 Y0.9463
G01 X-0.0264 Y0.9967
G01 X-0.3171 Y1.3918
G01 X-0.3537 Y1.4441
G01 X-0.3605 Y1.4545
G01 X-0.3945 Y1.5085
G01 X-0.6451 Y1.9302
G01 X-0.6763 Y1.9858
G01 X-0.6821 Y1.9968
G01 X-0.7106 Y2.0539
G01 X-0.9187 Y2.4981
G01 X-0.9443 Y2.5565
G01 X-0.9491 Y2.5680
G01 X-0.9718 Y2.6276
G01 X-1.1354 Y3.0901
G01 X-1.1552 Y3.1507
G01 X-1.1587 Y3.1627
G01 X-1.1755 Y3.2242
G01 X-1.2930 Y3.7004
G01 X-1.3067 Y3.7627
G01 X-1.3091 Y3.7750
G01 X-1.3198 Y3.8379
G01 X-1.3900 Y4.3233
G01 X-1.3976 Y4.3867
G01 X-1.3988 Y4.3991
G01 X-1.4033 Y4.4627
G01 X-1.4237 Y4.9120
G01 X-1.4249 Y4.9238
G01 X-1.4255 Y4.9362
G01 X-1.4271 Y5.0000
G01 X-1.4271 Y27.0000
G00 Z2.0000
G00 X-1.4271 Y33.0000
G01 F60.00
G01 Z-0.6000
G01 F120.00
G01 X-1.4271 Y55.0001
G01 X-1.4266 Y55.0175
G01 X-1.4268 Y55.0352
G01 X-1.4250 Y55.0990
G01 X-1.3988 Y55.5876
G01 X-1.3939 Y55.6510
G01 X-1.3926 Y55.6634
G01 X-1.3845 Y55.7265
G01 X-1.3108 Y56.2101
G01 X-1.2996 Y56.2728
G01 X-1.2972 Y56.2850
G01 X-1.2830 Y56.3470
G01 X-1.1623 Y56.8211
G01 X-1.1451 Y56.8824
G01 X-1.1414 Y56.8943
G01 X-1.1212 Y56.9546
G01 X-0.9548 Y57.4147
G01 X-0.9317 Y57.4740
G01 X-0.9269 Y57.4854
G01 X-0.9009 Y57.5435
G01 X-0.6903 Y57.9851
G01 X-0.6615 Y58.0418
G01 X-0.6556 Y58.0528
G01 X-0.6241 Y58.1081
G01 X-0.3713 Y58.5270
G01 X-0.3371 Y58.5806
G01 X-0.3302 Y58.5909
G01 X-0.2934 Y58.6428
G01 X-0.0009 Y59.0350
G01 X0.0384 Y59.0851
G01 X0.0463 Y59.0947
G01 X0.0880 Y59.1427
G01 X0.4174 Y59.5045
G01 X0.4614 Y59.5504
G01 X0.4702 Y59.5592
G01 X0.5164 Y59.6030
G01 X0.8796 Y59.9308
G01 X0.9279 Y59.9722
G01 X0.9375 Y59.9801
G01 X0.9877 Y60.0192
G01 X1.3812 Y60.3099
G01 X1.4333 Y60.3464
G01 X1.4437 Y60.3533
G01 X1.4975 Y60.3873
G01 X1.9175 Y60.6381
G01 X1.9729 Y60.6694
G01 X1.9839 Y60.6753
G01 X2.0408 Y60.7038
G01 X2.4833 Y60.9124
G01 X2.5415 Y60.9381
G01 X2.5530 Y60.9429
G01 X2.6124 Y60.9657
G01 X3.0732 Y61.1301
G01 X3.1336 Y61.1500
G01 X3.1455 Y61.1536
G01 X3.2069 Y61.1705
G01 X3.6816 Y61.2890
G01 X3.7436 Y61.3029
G01 X3.7558 Y61.3054
G01 X3.8185 Y61.3162
G01 X4.3025 Y61.3878
G01 X4.3657 Y61.3955
G01 X4.3780 Y61.3968
G01 X4.4415 Y61.4014
G01 X4.9302 Y61.4254
G01 X4.9638 Y61.4266
G01 X4.9999 Y61.4271
G01 X27.0000 Y61.4271
G00 X27.0000 Y61.4271
G01 F60.00
G01 Z-1.2000
G01 F120.00
G01 X4.9999 Y61.4271
G01 X4.9638 Y61.4266
G01 X4.9302 Y61.4254
G01 X4.4415 Y61.4014
G01 X4.3780 Y61.3968
G01 X4.3657 Y61.3955
G01 X4.3025 Y61.3878
G01 X3.8185 Y61.3162
G01 X3.7558 Y61.3054
G01 X3.7436 Y61.3029
G01 X3.6816 Y61.2890
G01 X3.2069 Y61.1705
G01 X3.1455 Y61.1536
G01 X3.1336 Y61.1500
G01 X3.0732 Y61.1301
G01 X2.6124 Y60.9657
G01 X2.5530 Y60.9429
G01 X2.5415 Y60.9381
G01 X2.4833 Y60.9124
G01 X2.0408 Y60.7038
G01 X1.9839 Y60.6753
G01 X1.9729 Y60.6694
G01 X1.9175 Y60.6381
G01 X1.4975 Y60.3873
G01 X1.4437 Y60.3533
G01 X1.4333 Y60.3464
G01 X1.3812 Y60.3099
G01 X0.9877 Y60.0192
G01 X0.9375 Y59.9801
G01 X0.9279 Y59.9722
G01 X0.8796 Y59.9308
G01 X0.5164 Y59.6030
G01 X0.4702 Y59.5592
G01 X0.4614 Y59.5504
G01 X0.4174 Y59.5045
G01 X0.0880 Y59.1427
G01 X0.0463 Y59.0947
G01 X0.0384 Y59.0851
G01 X-0.0009 Y59.0350
G01 X-0.2934 Y58.6428
G01 X-0.3302 Y58.5909
G01 X-0.3371 Y58.5806
G01 X-0.3713 Y58.5270
G01 X-0.6241 Y58.1081
G01 X-0.6556 Y58.0528
G01 X-0.6615 Y58.0418
G01 X-0.6903 Y57.9851
G01 X-0.9009 Y57.5435
G01 X-0.9269 Y57.4854
G01 X-0.9317 Y57.4740
G01 X-0.9548 Y57.4147
G01 X-1.1212 Y56.9546
G01 X-1.1414 Y56.8943
G01 X-1.1451 Y56.8824
G01 X-1.1623 Y56.8211
G01 X-1.2830 Y56.3470
G01 X-1.2972 Y56.2850
G01 X-1.2996 Y56.2728
G01 X-1.3108 Y56.2101
G01 X-1.3845 Y55.7265
G01 X-1.3926 Y55.6634
G01 X-1.3939 Y55.6510
G01 X-1.3988 Y55.5876
G01 X-1.4250 Y55.0990
G01 X-1.4268 Y55.0352
G01 X-1.4266 Y55.0175
G01 X-1.4271 Y55.0001
G01 X-1.4271 Y33.0000
G00 X-1.4271 Y33.0000
G01 F60.00
G01 Z-1.8000
G01 F120.00
G01 X-1.4271 Y55.0001
G01 X-1.4266 Y55.0175
G01 X-1.4268 Y55.0352
G01 X-1.4250 Y55.0990
G01 X-1.3988 Y55.5876
G01 X-1.3939 Y55.6510
G01 X-1.3926 Y55.6634
G01 X-1.3845 Y55.7265
G01 X-1.3108 Y56.2101
G01 X-1.2996 Y56.2728
G01 X-1.2972 Y56.2850
G01 X-1.2830 Y56.3470
G01 X-1.1623 Y56.8211
G01 X-1.1451 Y56.8824
G01 X-1.1414 Y56.8943
G01 X-1.1212 Y56.9546
G01 X-0.9548 Y57.4147
G01 X-0.9317 Y57.4740
G01 X-0.9269 Y57.4854
G01 X-0.9009 Y57.5435
G01 X-0.6903 Y57.9851
G01 X-0.6615 Y58.0418
G01 X-0.6556 Y58.0528
G01 X-0.6241 Y58.1081
G01 X-0.3713 Y58.5270
G01 X-0.3371 Y58.5806
G01 X-0.3302 Y58.5909
G01 X-0.2934 Y58.6428
G01 X-0.0009 Y59.0350
G01 X0.0384 Y59.0851
G01 X0.0463 Y59.0947
G01 X0.0880 Y59.1427
G01 X0.4174 Y59.5045
G01 X0.4614 Y59.5504
G01 X0.4702 Y59.5592
G01 X0.5164 Y59.6030
G01 X0.8796 Y59.9308
G01 X0.9279 Y59.9722
G01 X0.9375 Y59.9801
G01 X0.9877 Y60.0192
G01 X1.3812 Y60.3099
G01 X1.4333 Y60.3464
G01 X1.4437 Y60.3533
G01 X1.4975 Y60.3873
G01 X1.9175 Y60.6381
G01 X1.9729 Y60.6694
G01 X1.9839 Y60.6753
G01 X2.0408 Y60.7038
G01 X2.4833 Y60.9124
G01 X2.5415 Y60.9381
G01 X2.5530 Y60.9429
G01 X2.6124 Y60.9657
G01 X3.0732 Y61.1301
G01 X3.1336 Y61.1500
G01 X3.1455 Y61.1536
G01 X3.2069 Y61.1705
G01 X3.6816 Y61.2890
G01 X3.7436 Y61.3029
G01 X3.7558 Y61.3054
G01 X3.8185 Y61.3162
G01 X4.3025 Y61.3878
G01 X4.3657 Y61.3955
G01 X4.3780 Y61.3968
G01 X4.4415 Y61.4014
G01 X4.9302 Y61.4254
G01 X4.9638 Y61.4266
G01 X4.9999 Y61.4271
G01 X27.0000 Y61.4271
G00 Z2.0000
G00 X33.0000 Y61.4271
G01 F60.00
G01 Z-0.6000
G01 F120.00
G01 X54.9999 Y61.4271
G01 X55.0327 Y61.4269
G01 X55.0919 Y61.4251
G01 X55.5808 Y61.3995
G01 X55.6443 Y61.3946
G01 X55.6567 Y61.3933
G01 X55.7198 Y61.3853
G01 X56.2039 Y61.3120
G01 X56.2666 Y61.3009
G01 X56.2788 Y61.2984
G01 X56.3409 Y61.2843
G01 X56.8155 Y61.1640
G01 X56.8768 Y61.1468
G01 X56.8887 Y61.1432
G01 X56.9491 Y61.1230
G01 X57.4096 Y60.9569
G01 X57.4690 Y60.9338
G01 X57.4805 Y60.9290
G01 X57.5386 Y60.9031
G01 X57.9807 Y60.6926
G01 X58.0375 Y60.6639
G01 X58.0484 Y60.6580
G01 X58.1038 Y60.6265
G01 X58.5231 Y60.3738
G01 X58.5769 Y60.3396
G01 X58.5872 Y60.3327
G01 X58.6392 Y60.2959
G01 X59.0318 Y60.0035
G01 X59.0820 Y59.9642
G01 X59.0916 Y59.9563
G01 X59.1397 Y59.9146
G01 X59.5019 Y59.5851
G01 X59.5479 Y59.5412
G01 X59.5567 Y59.5324
G01 X59.6005 Y59.4862
G01 X59.9287 Y59.1229
G01 X59.9702 Y59.0746
G01 X59.9781 Y59.0650
G01 X60.0172 Y59.0147
G01 X60.3083 Y58.6210
G01 X60.3449 Y58.5689
G01 X60.3518 Y58.5586
G01 X60.3858 Y58.5048
G01 X60.6370 Y58.0845
G01 X60.6683 Y58.0291
G01 X60.6742 Y58.0181
G01 X60.7028 Y57.9612
G01 X60.9117 Y57.5184
G01 X60.9374 Y57.4602
G01 X60.9422 Y57.4487
G01 X60.9650 Y57.3892
G01 X61.1296 Y56.9281
G01 X61.1496 Y56.8677
G01 X61.1532 Y56.8558
G01 X61.1701 Y56.7944
G01 X61.2888 Y56.3194
G01 X61.3028 Y56.2573
G01 X61.3052 Y56.2451
G01 X61.3160 Y56.1823
G01 X61.3877 Y55.6980
G01 X61.3955 Y55.6348
G01 X61.3967 Y55.6224
G01 X61.4014 Y55.5589
G01 X61.4254 Y55.0699
G01 X61.4269 Y55.0188
G01 X61.4270 Y54.9988
G01 X61.4270 Y33.0000
G00 X61.4270 Y33.0000
G01 F60.00
G01 Z-1.2000
G01 F120.00
G01 X61.4270 Y54.9988
G01 X61.4269 Y55.0188
G01 X61.4254 Y55.0699
G01 X61.4014 Y55.5589
G01 X61.3967 Y55.6224
G01 X61.3955 Y55.6348
G01 X61.3877 Y55.6980
G01 X61.3160 Y56.1823
G01 X61.3052 Y56.2451
G01 X61.3028 Y56.2573
G01 X61.2888 Y56.3194
G01 X61.1701 Y56.7944
G01 X61.1532 Y56.8558
G01 X61.1496 Y56.8677
G01 X61.1296 Y56.9281
G01 X60.9650 Y57.3892
G01 X60.9422 Y57.4487
G01 X60.9374 Y57.4602
G01 X60.9117 Y57.5184
G01 X60.7028 Y57.9612
G01 X60.6742 Y58.0181
G01 X60.6683 Y58.0291
G01 X60.6370 Y58.0845
G01 X60.3858 Y58.5048
G01 X60.3518 Y58.5586
G01 X60.3449 Y58.5689
G01 X60.3083 Y58.6210
G01 X60.0172 Y59.0147
G01 X59.9781 Y59.0650
G01 X59.9702 Y59.0746
G01 X59.9287 Y59.1229
G01 X59.6005 Y59.4862
G01 X59.5567 Y59.5324
G01 X59.5479 Y59.5412
G01 X59.5019 Y59.5851
G01 X59.1397 Y59.9146
G01 X59.0916 Y59.9563
G01 X59.0820 Y59.9642
G01 X59.0318 Y60.0035
G01 X58.6392 Y60.2959
G01 X58.5872 Y60.3327
G01 X58.5769 Y60.3396
G01 X58.5231 Y60.3738
G01 X58.1038 Y60.6265
G01 X58.0484 Y60.6580
G01 X58.0375 Y60.6639
G01 X57.9807 Y60.6926
G01 X57.5386 Y60.9031
G01 X57.4805 Y60.9290
G01 X57.4690 Y60.9338
G01 X57.4096 Y60.9569
G01 X56.9491 Y61.1230
G01 X56.8887 Y61.1432
G01 X56.8768 Y61.1468
G01 X56.8155 Y61.1640
G01 X56.3409 Y61.2843
G01 X56.2788 Y61.2984
G01 X56.2666 Y61.3009
G01 X56.2039 Y61.3120
G01 X55.7198 Y61.3853
G01 X55.6567 Y61.3933
G01 X55.6443 Y61.3946
G01 X55.5808 Y61.3995
G01 X55.0919 Y61.4251
G01 X55.0327 Y61.4269
G01 X54.9999 Y61.4271
G01 X33.0000 Y61.4271
G00 X33.0000 Y61.4271
G01 F60.00
G01 Z-1.8000
G01 F120.00
G01 X54.9999 Y61.4271
G01 X55.0327 Y61.4269
G01 X55.0919 Y61.4251
G01 X55.5808 Y61.3995
G01 X55.6443 Y61.3946
G01 X55.6567 Y61.3933
G01 X55.7198 Y61.3853
G01 X56.2039 Y61.3120
G01 X56.2666 Y61.3009
G01 X56.2788 Y61.2984
G01 X56.3409 Y61.2843
G01 X56.8155 Y61.1640
G01 X56.8768 Y61.1468
G01 X56.8887 Y61.1432
G01 X56.9491 Y61.1230
G01 X57.4096 Y60.9569
G01 X57.4690 Y60.9338
G01 X57.4805 Y60.9290
G01 X57.5386 Y60.9031
G01 X57.9807 Y60.6926
G01 X58.0375 Y60.6639
G01 X58.0484 Y60.6580
G01 X58.1038 Y60.6265
G01 X58.5231 Y60.3738
G01 X58.5769 Y60.3396
G01 X58.5872 Y60.3327
G01 X58.6392 Y60.2959
G01 X59.0318 Y60.0035
G01 X59.0820 Y59.9642
G01 X59.0916 Y59.9563
G01 X59.1397 Y59.9146
G01 X59.5019 Y59.5851
G01 X59.5479 Y59.5412
G01 X59.5567 Y59.5324
G01 X59.6005 Y59.4862
G01 X59.9287 Y59.1229
G01 X59.9702 Y59.0746
G01 X59.9781 Y59.0650
G01 X60.0172 Y59.0147
G01 X60.3083 Y58.6210
G01 X60.3449 Y58.5689
G01 X60.3518 Y58.5586
G01 X60.3858 Y58.5048
G01 X60.6370 Y58.0845
G01 X60.6683 Y58.0291
G01 X60.6742 Y58.0181
G01 X60.7028 Y57.9612
G01 X60.9117 Y57.5184
G01 X60.9374 Y57.4602
G01 X60.9422 Y57.4487
G01 X60.9650 Y57.3892
G01 X61.1296 Y56.9281
G01 X61.1496 Y56.8677
G01 X61.1532 Y56.8558
G01 X61.1701 Y56.7944
G01 X61.2888 Y56.3194
G01 X61.3028 Y56.2573
G01 X61.3052 Y56.2451
G01 X61.3160 Y56.1823
G01 X61.3877 Y55.6980
G01 X61.3955 Y55.6348
G01 X61.3967 Y55.6224
G01 X61.4014 Y55.5589
G01 X61.4254 Y55.0699
G01 X61.4269 Y55.0188
G01 X61.4270 Y54.9988
G01 X61.4270 Y33.0000
G00 Z2.0000
G00 X61.4271 Y27.0000
G01 F60.00
G01 Z-0.6000
G01 F120.00
G01 X61.4271 Y4.9988
G01 X61.4263 Y4.9526
G01 X61.4132 Y4.5849
G01 X61.4097 Y4.5243
G01 X61.4039 Y4.4642
G01 X61.3485 Y4.0030
G01 X61.3399 Y3.9432
G01 X61.3265 Y3.8723
G01 X61.2286 Y3.4183
G01 X61.2145 Y3.3596
G01 X61.1946 Y3.2902
G01 X61.0549 Y2.8472
G01 X61.0354 Y2.7900
G01 X61.0092 Y2.7228
G01 X60.8291 Y2.2947
G01 X60.8044 Y2.2396
G01 X60.7720 Y2.1750
G01 X60.5529 Y1.7655
G01 X60.5232 Y1.7129
G01 X60.4850 Y1.6517
G01 X60.2288 Y1.2642
G01 X60.1944 Y1.2146
G01 X60.1507 Y1.1572
G01 X59.8597 Y0.7952
G01 X59.8207 Y0.7490
G01 X59.7719 Y0.6959
G01 X59.4486 Y0.3624
G01 X59.3969 Y0.3120
G01 X59.3520 Y0.2717
G01 X58.9991 Y-0.0303
G01 X58.9523 Y-0.0685
G01 X58.8945 Y-0.1117
G01 X58.5151 Y-0.3797
G01 X58.4650 Y-0.4134
G01 X58.4034 Y-0.4510
G01 X58.0008 Y-0.6826
G01 X57.9477 Y-0.7115
G01 X57.8829 Y-0.7433
G01 X57.4606 Y-0.9365
G01 X57.3941 Y-0.9648
G01 X57.3376 Y-0.9860
G01 X56.8991 Y-1.1392
G01 X56.8417 Y-1.1578
G01 X56.7721 Y-1.1771
G01 X56.3213 Y-1.2890
G01 X56.2508 Y-1.3044
G01 X56.1913 Y-1.3149
G01 X55.7321 Y-1.3844
G01 X55.6605 Y-1.3933
G01 X55.6003 Y-1.3982
G01 X55.1366 Y-1.4248
G01 X55.0920 Y-1.4266
G01 X55.0395 Y-1.4261
G01 X54.9999 Y-1.4271
G01 X33.0000 Y-1.4271
G00 X33.0000 Y-1.4271
G01 F60.00
G01 Z-1.2000
G01 F120.00
G01 X54.9999 Y-1.4271
G01 X55.0395 Y-1.4261
G01 X55.0920 Y-1.4266
G01 X55.1366 Y-1.4248
G01 X55.6003 Y-1.3982
G01 X55.6605 Y-1.3933
G01 X55.7321 Y-1.3844
G01 X56.1913 Y-1.3149
G01 X56.2508 Y-1.3044
G01 X56.3213 Y-1.2890
G01 X56.7721 Y-1.1771
G01 X56.8417 Y-1.1578
G01 X56.8991 Y-1.1392
G01 X57.3376 Y-0.9860
G01 X57.3941 Y-0.9648
G01 X57.4606 Y-0.9365
G01 X57.8829 Y-0.7433
G01 X57.9477 Y-0.7115
G01 X58.0008 Y-0.6826
G01 X58.4034 Y-0.4510
G01 X58.4650 Y-0.4134
G01 X58.5151 Y-0.3797
G01 X58.8945 Y-0.1117
G01 X58.9523 Y-0.0685
G01 X58.9991 Y-0.0303
G01 X59.3520 Y0.2717
G01 X59.3969 Y0.3120
G01 X59.4486 Y0.3624
G01 X59.7719 Y0.6959
G01 X59.8207 Y0.7490
G01 X59.8597 Y0.7952
G01 X60.1507 Y1.1572
G01 X60.1944 Y1.2146
G01 X60.2288 Y1.2642
G01 X60.4850 Y1.6517
G01 X60.5232 Y1.7129
G01 X60.5529 Y1.7655
G01 X60.7720 Y2.1750
G01 X60.8044 Y2.2396
G01 X60.8291 Y2.2947
G01 X61.0092 Y2.7228
G01 X61.0354 Y2.7900
G01 X61.0549 Y2.8472
G01 X61.1946 Y3.2902
G01 X61.2145 Y3.3596
G01 X61.2286 Y3.4183
G01 X61.3265 Y3.8723
G01 X61.3399 Y3.9432
G01 X61.3485 Y4.0030
G01 X61.4039 Y4.4642
G01 X61.4097 Y4.5243
G01 X61.4132 Y4.5849
G01 X61.4263 Y4.9526
G01 X61.4271 Y4.9988
G01 X61.4271 Y27.0000
G00 X61.4271 Y27.0000
G01 F60.00
G01 Z-1.8000
G01 F120.00
G01 X61.4271 Y4.9988
G01 X61.4263 Y4.9526
G01 X61.4132 Y4.5849
G01 X61.4097 Y4.5243
G01 X61.4039 Y4.4642
G01 X61.3485 Y4.0030
G01 X61.3399 Y3.9432
G01 X61.3265 Y3.8723
G01 X61.2286 Y3.4183
G01 X61.2145 Y3.3596
G01 X61.1946 Y3.2902
G01 X61.0549 Y2.8472
G01 X61.0354 Y2.7900
G01 X61.0092 Y2.7228
G01 X60.8291 Y2.2947
G01 X60.8044 Y2.2396
G01 X60.7720 Y2.1750
G01 X60.5529 Y1.7655
G01 X60.5232 Y1.7129
G01 X60.4850 Y1.6517
G01 X60.2288 Y1.2642
G01 X60.1944 Y1.2146
G01 X60.1507 Y1.1572
G01 X59.8597 Y0.7952
G01 X59.8207 Y0.7490
G01 X59.7719 Y0.6959
G01 X59.4486 Y0.3624
G01 X59.3969 Y0.3120
G01 X59.3520 Y0.2717
G01 X58.9991 Y-0.0303
G01 X58.9523 Y-0.0685
G01 X58.8945 Y-0.1117
G01 X58.5151 Y-0.3797
G01 X58.4650 Y-0.4134
G01 X58.4034 Y-0.4510
G01 X58.0008 Y-0.6826
G01 X57.9477 Y-0.7115
G01 X57.8829 Y-0.7433
G01 X57.4606 Y-0.9365
G01 X57.3941 Y-0.9648
G01 X57.3376 Y-0.9860
G01 X56.8991 Y-1.1392
G01 X56.8417 Y-1.1578
G01 X56.7721 Y-1.1771
G01 X56.3213 Y-1.2890
G01 X56.2508 Y-1.3044
G01 X56.1913 Y-1.3149
G01 X55.7321 Y-1.3844
G01 X55.6605 Y-1.3933
G01 X55.6003 Y-1.3982
G01 X55.1366 Y-1.4248
G01 X55.0920 Y-1.4266
G01 X55.0395 Y-1.4261
G01 X54.9999 Y-1.4271
G01 X33.0000 Y-1.4271
G00 Z2.0000
M05
G00 Z2.0000
G00 Z15.00

