(G-CODE GENERATED BY FLATCAM v8.993 - www.flatcam.org - Version Date: 2020/06/05)

(Name: Alignment_2.4)
(Type: G-code from Geometry)
(Units: MM)

(Created on Wednesday, 24 March 2021 at 22:34)

(This preprocessor is the default preprocessor used by FlatCAM.)
(It is made to work with MACH3 compatible motion controllers.)

(TOOL DIAMETER: 2.4 mm)
(Feedrate_XY: 120.0 mm/min)
(Feedrate_Z: 60.0 mm/min)
(Feedrate rapids 1500.0 mm/min)

(Z_Cut: -8.0 mm)
(Z_Move: 2.0 mm)
(Z Start: None mm)
(Z End: 15.0 mm)
(Steps per circle: 64)
(Preprocessor Geometry: default)

(X range:   18.0000 ...  168.0000  mm)
(Y range:   -2.0000 ...  103.5050  mm)

(Spindle Speed: None RPM)
G21
G90
G94



G01 F120.00
G00 Z2.0000

M03
G00 X18.0000 Y-2.0000
G01 F60.00
G01 Z-8.0000
G01 F120.00
G01 X18.0000 Y-2.0000
G01 X18.0000 Y-2.0000
G01 X18.0000 Y-2.0000
G01 X18.0000 Y-2.0000
G00 Z2.0000
G00 X68.0000 Y-2.0000
G01 F60.00
G01 Z-8.0000
G01 F120.00
G01 X68.0000 Y-2.0000
G01 X68.0000 Y-2.0000
G01 X68.0000 Y-2.0000
G01 X68.0000 Y-2.0000
G00 Z2.0000
G00 X118.0000 Y-2.0000
G01 F60.00
G01 Z-8.0000
G01 F120.00
G01 X118.0000 Y-2.0000
G01 X118.0000 Y-2.0000
G01 X118.0000 Y-2.0000
G01 X118.0000 Y-2.0000
G00 Z2.0000
G00 X168.0000 Y-2.0000
G01 F60.00
G01 Z-8.0000
G01 F120.00
G01 X168.0000 Y-2.0000
G01 X168.0000 Y-2.0000
G01 X168.0000 Y-2.0000
G01 X168.0000 Y-2.0000
G00 Z2.0000
G00 X168.0000 Y103.5050
G01 F60.00
G01 Z-8.0000
G01 F120.00
G01 X168.0000 Y103.5050
G01 X168.0000 Y103.5050
G01 X168.0000 Y103.5050
G01 X168.0000 Y103.5050
G00 Z2.0000
G00 X118.0000 Y103.5050
G01 F60.00
G01 Z-8.0000
G01 F120.00
G01 X118.0000 Y103.5050
G01 X118.0000 Y103.5050
G01 X118.0000 Y103.5050
G01 X118.0000 Y103.5050
G00 Z2.0000
G00 X68.0000 Y103.5050
G01 F60.00
G01 Z-8.0000
G01 F120.00
G01 X68.0000 Y103.5050
G01 X68.0000 Y103.5050
G01 X68.0000 Y103.5050
G01 X68.0000 Y103.5050
G00 Z2.0000
G00 X18.0000 Y103.5050
G01 F60.00
G01 Z-8.0000
G01 F120.00
G01 X18.0000 Y103.5050
G01 X18.0000 Y103.5050
G01 X18.0000 Y103.5050
G01 X18.0000 Y103.5050
G00 Z2.0000
M05
G00 Z2.0000
G00 Z15.00

