(G-CODE GENERATED BY FLATCAM v8.993 - www.flatcam.org - Version Date: 2020/06/05)

(Name: 4_BottomLayer_0.1)
(Type: G-code from Geometry)
(Units: MM)

(Created on Thursday, 25 March 2021 at 17:27)

(This preprocessor is the default preprocessor used by FlatCAM.)
(It is made to work with MACH3 compatible motion controllers.)

(TOOL DIAMETER: 0.1 mm)
(Feedrate_XY: 120.0 mm/min)
(Feedrate_Z: 60.0 mm/min)
(Feedrate rapids 1500.0 mm/min)

(Z_Cut: -0.05 mm)
(Z_Move: 2.0 mm)
(Z Start: None mm)
(Z End: 15.0 mm)
(Steps per circle: 64)
(Preprocessor Geometry: default)

(X range:    3.5877 ...  179.4506  mm)
(Y range:    3.5877 ...   97.9172  mm)

(Spindle Speed: None RPM)
G21
G90
G94



G01 F120.00
G00 Z2.0000

M03
G00 X7.1573 Y9.7287
G01 F60.00
G01 Z-0.0500
G01 F120.00
G01 X7.1622 Y9.6283
G01 X7.1774 Y9.5263
G01 X7.2024 Y9.4264
G01 X7.2371 Y9.3294
G01 X7.2812 Y9.2362
G01 X7.3341 Y9.1478
G01 X7.3955 Y9.0651
G01 X7.4647 Y8.9887
G01 X7.5411 Y8.9195
G01 X7.6238 Y8.8581
G01 X7.7122 Y8.8052
G01 X7.8054 Y8.7611
G01 X7.9024 Y8.7264
G01 X8.0023 Y8.7014
G01 X8.1043 Y8.6862
G01 X8.2072 Y8.6812
G01 X8.3101 Y8.6862
G01 X8.4120 Y8.7014
G01 X8.5120 Y8.7264
G01 X8.6090 Y8.7611
G01 X8.7022 Y8.8052
G01 X8.7905 Y8.8581
G01 X8.8733 Y8.9195
G01 X8.9497 Y8.9887
G01 X9.0189 Y9.0651
G01 X9.0802 Y9.1478
G01 X9.1332 Y9.2362
G01 X9.1773 Y9.3294
G01 X9.2120 Y9.4264
G01 X9.2370 Y9.5263
G01 X9.2521 Y9.6283
G01 X9.2572 Y9.7312
G01 X9.2521 Y9.8341
G01 X9.2370 Y9.9360
G01 X9.2120 Y10.0360
G01 X9.1773 Y10.1330
G01 X9.1332 Y10.2262
G01 X9.0802 Y10.3145
G01 X9.0189 Y10.3973
G01 X8.9497 Y10.4737
G01 X8.8733 Y10.5429
G01 X8.7905 Y10.6042
G01 X8.7022 Y10.6572
G01 X8.6090 Y10.7013
G01 X8.5120 Y10.7360
G01 X8.4120 Y10.7610
G01 X8.3101 Y10.7761
G01 X8.2072 Y10.7812
G01 X8.1043 Y10.7761
G01 X8.0023 Y10.7610
G01 X7.9024 Y10.7360
G01 X7.8054 Y10.7013
G01 X7.7122 Y10.6572
G01 X7.6238 Y10.6042
G01 X7.5411 Y10.5429
G01 X7.4647 Y10.4737
G01 X7.3955 Y10.3973
G01 X7.3341 Y10.3145
G01 X7.2812 Y10.2262
G01 X7.2371 Y10.1330
G01 X7.2024 Y10.0360
G01 X7.1774 Y9.9360
G01 X7.1622 Y9.8341
G01 X7.1573 Y9.7287
G00 Z2.0000
G00 X8.1727 Y10.7987
G01 F60.00
G01 Z-0.0500
G01 F120.00
G01 X8.0368 Y10.7856
G01 X7.9034 Y10.7555
G01 X7.7749 Y10.7080
G01 X7.6535 Y10.6449
G01 X7.5409 Y10.5663
G01 X7.4395 Y10.4746
G01 X7.3513 Y10.3703
G01 X7.2765 Y10.2552
G01 X7.2168 Y10.1319
G01 X7.1736 Y10.0019
G01 X7.1474 Y9.8680
G01 X7.1387 Y9.7312
G01 X7.1474 Y9.5944
G01 X7.1736 Y9.4605
G01 X7.2168 Y9.3304
G01 X7.2765 Y9.2072
G01 X7.3513 Y9.0921
G01 X7.4395 Y8.9878
G01 X7.5409 Y8.8961
G01 X7.6535 Y8.8175
G01 X7.7749 Y8.7544
G01 X7.9034 Y8.7069
G01 X8.0368 Y8.6768
G01 X8.1727 Y8.6637
G01 X8.3096 Y8.6680
G01 X8.4450 Y8.6899
G01 X8.5760 Y8.7287
G01 X8.7012 Y8.7840
G01 X8.8186 Y8.8549
G01 X8.9253 Y8.9402
G01 X9.0204 Y9.0387
G01 X9.1025 Y9.1485
G01 X9.1699 Y9.2678
G01 X9.2209 Y9.3944
G01 X9.2558 Y9.5269
G01 X9.2733 Y9.6628
G01 X9.2733 Y9.7996
G01 X9.2558 Y9.9355
G01 X9.2209 Y10.0680
G01 X9.1699 Y10.1946
G01 X9.1025 Y10.3139
G01 X9.0204 Y10.4236
G01 X8.9253 Y10.5222
G01 X8.8186 Y10.6075
G01 X8.7012 Y10.6784
G01 X8.5760 Y10.7337
G01 X8.4450 Y10.7725
G01 X8.3096 Y10.7943
G01 X8.1727 Y10.7987
G00 Z2.0000
G00 X7.1573 Y15.0627
G01 F60.00
G01 Z-0.0500
G01 F120.00
G01 X7.1622 Y14.9623
G01 X7.1774 Y14.8603
G01 X7.2024 Y14.7604
G01 X7.2371 Y14.6634
G01 X7.2812 Y14.5702
G01 X7.3341 Y14.4818
G01 X7.3955 Y14.3991
G01 X7.4647 Y14.3227
G01 X7.5411 Y14.2535
G01 X7.6238 Y14.1921
G01 X7.7122 Y14.1392
G01 X7.8054 Y14.0951
G01 X7.9024 Y14.0604
G01 X8.0023 Y14.0354
G01 X8.1043 Y14.0202
G01 X8.2072 Y14.0152
G01 X8.3101 Y14.0202
G01 X8.4120 Y14.0354
G01 X8.5120 Y14.0604
G01 X8.6090 Y14.0951
G01 X8.7022 Y14.1392
G01 X8.7905 Y14.1921
G01 X8.8733 Y14.2535
G01 X8.9497 Y14.3227
G01 X9.0189 Y14.3991
G01 X9.0802 Y14.4818
G01 X9.1332 Y14.5702
G01 X9.1773 Y14.6634
G01 X9.2120 Y14.7604
G01 X9.2370 Y14.8603
G01 X9.2521 Y14.9623
G01 X9.2572 Y15.0652
G01 X9.2521 Y15.1681
G01 X9.2370 Y15.2700
G01 X9.2120 Y15.3700
G01 X9.1773 Y15.4670
G01 X9.1332 Y15.5602
G01 X9.0802 Y15.6485
G01 X9.0189 Y15.7313
G01 X8.9497 Y15.8077
G01 X8.8733 Y15.8769
G01 X8.7905 Y15.9382
G01 X8.7022 Y15.9912
G01 X8.6090 Y16.0353
G01 X8.5120 Y16.0700
G01 X8.4120 Y16.0950
G01 X8.3101 Y16.1101
G01 X8.2072 Y16.1152
G01 X8.1043 Y16.1101
G01 X8.0023 Y16.0950
G01 X7.9024 Y16.0700
G01 X7.8054 Y16.0353
G01 X7.7122 Y15.9912
G01 X7.6238 Y15.9382
G01 X7.5411 Y15.8769
G01 X7.4647 Y15.8077
G01 X7.3955 Y15.7313
G01 X7.3341 Y15.6485
G01 X7.2812 Y15.5602
G01 X7.2371 Y15.4670
G01 X7.2024 Y15.3700
G01 X7.1774 Y15.2700
G01 X7.1622 Y15.1681
G01 X7.1573 Y15.0627
G00 Z2.0000
G00 X8.2411 Y16.1170
G01 F60.00
G01 Z-0.0500
G01 F120.00
G01 X8.1063 Y16.1126
G01 X7.9729 Y16.0913
G01 X7.8440 Y16.0530
G01 X7.7203 Y15.9982
G01 X7.6050 Y15.9284
G01 X7.4997 Y15.8440
G01 X7.4061 Y15.7474
G01 X7.3251 Y15.6393
G01 X7.2592 Y15.5220
G01 X7.2083 Y15.3969
G01 X7.1743 Y15.2664
G01 X7.1569 Y15.1326
G01 X7.1569 Y14.9978
G01 X7.1743 Y14.8639
G01 X7.2083 Y14.7335
G01 X7.2592 Y14.6084
G01 X7.3251 Y14.4911
G01 X7.4061 Y14.3830
G01 X7.4997 Y14.2864
G01 X7.6050 Y14.2020
G01 X7.7203 Y14.1322
G01 X7.8440 Y14.0774
G01 X7.9729 Y14.0391
G01 X8.1063 Y14.0178
G01 X8.2411 Y14.0134
G01 X8.3749 Y14.0265
G01 X8.5064 Y14.0566
G01 X8.6330 Y14.1032
G01 X8.7528 Y14.1652
G01 X8.8633 Y14.2423
G01 X8.9632 Y14.3329
G01 X9.0505 Y14.4358
G01 X9.1241 Y14.5487
G01 X9.1823 Y14.6704
G01 X9.2250 Y14.7985
G01 X9.2507 Y14.9304
G01 X9.2594 Y15.0652
G01 X9.2507 Y15.2000
G01 X9.2250 Y15.3319
G01 X9.1823 Y15.4599
G01 X9.1241 Y15.5817
G01 X9.0505 Y15.6946
G01 X8.9632 Y15.7974
G01 X8.8633 Y15.8881
G01 X8.7528 Y15.9652
G01 X8.6330 Y16.0272
G01 X8.5064 Y16.0738
G01 X8.3749 Y16.1039
G01 X8.2411 Y16.1170
G00 Z2.0000
G00 X12.2373 Y15.0627
G01 F60.00
G01 Z-0.0500
G01 F120.00
G01 X12.2422 Y14.9623
G01 X12.2574 Y14.8603
G01 X12.2824 Y14.7604
G01 X12.3171 Y14.6634
G01 X12.3612 Y14.5702
G01 X12.4141 Y14.4818
G01 X12.4755 Y14.3991
G01 X12.5447 Y14.3227
G01 X12.6211 Y14.2535
G01 X12.7038 Y14.1921
G01 X12.7922 Y14.1392
G01 X12.8854 Y14.0951
G01 X12.9824 Y14.0604
G01 X13.0823 Y14.0354
G01 X13.1843 Y14.0202
G01 X13.2872 Y14.0152
G01 X13.3901 Y14.0202
G01 X13.4920 Y14.0354
G01 X13.5920 Y14.0604
G01 X13.6890 Y14.0951
G01 X13.7822 Y14.1392
G01 X13.8705 Y14.1921
G01 X13.9533 Y14.2535
G01 X14.0297 Y14.3227
G01 X14.0989 Y14.3991
G01 X14.1602 Y14.4818
G01 X14.2132 Y14.5702
G01 X14.2573 Y14.6634
G01 X14.2920 Y14.7604
G01 X14.3170 Y14.8603
G01 X14.3321 Y14.9623
G01 X14.3372 Y15.0652
G01 X14.3321 Y15.1681
G01 X14.3170 Y15.2700
G01 X14.2920 Y15.3700
G01 X14.2573 Y15.4670
G01 X14.2132 Y15.5602
G01 X14.1602 Y15.6485
G01 X14.0989 Y15.7313
G01 X14.0297 Y15.8077
G01 X13.9533 Y15.8769
G01 X13.8705 Y15.9382
G01 X13.7822 Y15.9912
G01 X13.6890 Y16.0353
G01 X13.5920 Y16.0700
G01 X13.4920 Y16.0950
G01 X13.3901 Y16.1101
G01 X13.2872 Y16.1152
G01 X13.1843 Y16.1101
G01 X13.0823 Y16.0950
G01 X12.9824 Y16.0700
G01 X12.8854 Y16.0353
G01 X12.7922 Y15.9912
G01 X12.7038 Y15.9382
G01 X12.6211 Y15.8769
G01 X12.5447 Y15.8077
G01 X12.4755 Y15.7313
G01 X12.4141 Y15.6485
G01 X12.3612 Y15.5602
G01 X12.3171 Y15.4670
G01 X12.2824 Y15.3700
G01 X12.2574 Y15.2700
G01 X12.2422 Y15.1681
G01 X12.2373 Y15.0627
G00 Z2.0000
G00 X13.3211 Y16.1170
G01 F60.00
G01 Z-0.0500
G01 F120.00
G01 X13.1863 Y16.1126
G01 X13.0529 Y16.0913
G01 X12.9240 Y16.0530
G01 X12.8003 Y15.9982
G01 X12.6850 Y15.9284
G01 X12.5797 Y15.8440
G01 X12.4861 Y15.7474
G01 X12.4051 Y15.6393
G01 X12.3392 Y15.5220
G01 X12.2883 Y15.3969
G01 X12.2543 Y15.2664
G01 X12.2369 Y15.1326
G01 X12.2369 Y14.9978
G01 X12.2543 Y14.8639
G01 X12.2883 Y14.7335
G01 X12.3392 Y14.6084
G01 X12.4051 Y14.4911
G01 X12.4861 Y14.3830
G01 X12.5797 Y14.2864
G01 X12.6850 Y14.2020
G01 X12.8003 Y14.1322
G01 X12.9240 Y14.0774
G01 X13.0529 Y14.0391
G01 X13.1863 Y14.0178
G01 X13.3211 Y14.0134
G01 X13.4549 Y14.0265
G01 X13.5864 Y14.0566
G01 X13.7130 Y14.1032
G01 X13.8328 Y14.1652
G01 X13.9433 Y14.2423
G01 X14.0432 Y14.3329
G01 X14.1305 Y14.4358
G01 X14.2041 Y14.5487
G01 X14.2623 Y14.6704
G01 X14.3050 Y14.7985
G01 X14.3307 Y14.9304
G01 X14.3395 Y15.0652
G01 X14.3307 Y15.2000
G01 X14.3050 Y15.3319
G01 X14.2623 Y15.4599
G01 X14.2041 Y15.5817
G01 X14.1305 Y15.6946
G01 X14.0432 Y15.7974
G01 X13.9433 Y15.8881
G01 X13.8328 Y15.9652
G01 X13.7130 Y16.0272
G01 X13.5864 Y16.0738
G01 X13.4549 Y16.1039
G01 X13.3211 Y16.1170
G00 Z2.0000
G00 X15.5232 Y18.1632
G01 F60.00
G01 Z-0.0500
G01 F120.00
G01 X6.0228 Y18.1632
G01 X6.0144 Y18.1625
G01 X5.9741 Y18.1546
G01 X5.9694 Y18.1535
G01 X5.9638 Y18.1514
G01 X5.9564 Y18.1474
G01 X5.9218 Y18.1237
G01 X5.9171 Y18.1198
G01 X5.9129 Y18.1154
G01 X5.8869 Y18.0780
G01 X5.8825 Y18.0695
G01 X5.8797 Y18.0603
G01 X5.8719 Y18.0200
G01 X5.8712 Y18.0116
G01 X5.8712 Y6.7848
G01 X5.8719 Y6.7764
G01 X5.8797 Y6.7361
G01 X5.8812 Y6.7303
G01 X5.8829 Y6.7258
G01 X5.8869 Y6.7183
G01 X5.9107 Y6.6838
G01 X5.9145 Y6.6791
G01 X5.9190 Y6.6749
G01 X5.9563 Y6.6489
G01 X5.9649 Y6.6445
G01 X5.9741 Y6.6417
G01 X6.0144 Y6.6339
G01 X6.0228 Y6.6332
G01 X30.4576 Y6.6332
G01 X30.4660 Y6.6339
G01 X30.5063 Y6.6417
G01 X30.5110 Y6.6429
G01 X30.5166 Y6.6449
G01 X30.5240 Y6.6489
G01 X30.5586 Y6.6727
G01 X30.5641 Y6.6774
G01 X30.5690 Y6.6829
G01 X30.5934 Y6.7184
G01 X30.5979 Y6.7269
G01 X30.6006 Y6.7361
G01 X30.6085 Y6.7764
G01 X30.6092 Y6.7848
G01 X30.6092 Y18.0116
G01 X30.6085 Y18.0200
G01 X30.5995 Y18.0650
G01 X30.5974 Y18.0706
G01 X30.5941 Y18.0770
G01 X30.5704 Y18.1115
G01 X30.5650 Y18.1181
G01 X30.5575 Y18.1244
G01 X30.5240 Y18.1474
G01 X30.5155 Y18.1519
G01 X30.5063 Y18.1546
G01 X30.4660 Y18.1625
G01 X30.4588 Y18.1632
G01 X27.3072 Y18.1632
G01 X27.3072 Y33.5056
G01 X27.3065 Y33.5140
G01 X27.2986 Y33.5543
G01 X27.2959 Y33.5635
G01 X27.2914 Y33.5720
G01 X27.2677 Y33.6065
G01 X27.2621 Y33.6130
G01 X27.2555 Y33.6184
G01 X27.2220 Y33.6414
G01 X27.2135 Y33.6459
G01 X27.2055 Y33.6484
G01 X27.1628 Y33.6567
G01 X27.1556 Y33.6572
G01 X26.6007 Y33.6572
G01 X26.5910 Y33.6773
G01 X26.5563 Y33.7349
G01 X26.5169 Y33.7880
G01 X26.4718 Y33.8378
G01 X13.9725 Y46.3371
G01 X13.9725 Y53.6409
G01 X14.0297 Y53.6927
G01 X14.0972 Y53.7672
G01 X14.1588 Y53.8498
G01 X14.2132 Y53.9402
G01 X14.2563 Y54.0311
G01 X14.2920 Y54.1304
G01 X14.3170 Y54.2303
G01 X14.3321 Y54.3323
G01 X14.3372 Y54.4352
G01 X14.3321 Y54.5381
G01 X14.3170 Y54.6400
G01 X14.2920 Y54.7400
G01 X14.2563 Y54.8393
G01 X14.2132 Y54.9302
G01 X14.1588 Y55.0205
G01 X14.0972 Y55.1032
G01 X14.0297 Y55.1777
G01 X13.9725 Y55.2295
G01 X13.9725 Y59.9909
G01 X14.0297 Y60.0427
G01 X14.0972 Y60.1172
G01 X14.1588 Y60.1998
G01 X14.2132 Y60.2902
G01 X14.2563 Y60.3811
G01 X14.2920 Y60.4804
G01 X14.3170 Y60.5803
G01 X14.3321 Y60.6823
G01 X14.3372 Y60.7852
G01 X14.3321 Y60.8881
G01 X14.3170 Y60.9900
G01 X14.2920 Y61.0900
G01 X14.2563 Y61.1893
G01 X14.2132 Y61.2802
G01 X14.1588 Y61.3705
G01 X14.0972 Y61.4532
G01 X14.0297 Y61.5277
G01 X13.9725 Y61.5795
G01 X13.9725 Y66.5949
G01 X14.0297 Y66.6467
G01 X14.0972 Y66.7212
G01 X14.1588 Y66.8038
G01 X14.2132 Y66.8942
G01 X14.2563 Y66.9851
G01 X14.2920 Y67.0844
G01 X14.3170 Y67.1843
G01 X14.3321 Y67.2863
G01 X14.3372 Y67.3904
G01 X14.3321 Y67.4921
G01 X14.3170 Y67.5940
G01 X14.2920 Y67.6940
G01 X14.2573 Y67.7910
G01 X14.2132 Y67.8842
G01 X14.1602 Y67.9725
G01 X14.0989 Y68.0553
G01 X14.0297 Y68.1317
G01 X13.9533 Y68.2009
G01 X13.8705 Y68.2622
G01 X13.7822 Y68.3152
G01 X13.6890 Y68.3593
G01 X13.5920 Y68.3940
G01 X13.4920 Y68.4190
G01 X13.3901 Y68.4341
G01 X13.2847 Y68.4391
G01 X13.1843 Y68.4341
G01 X13.0823 Y68.4190
G01 X12.9824 Y68.3940
G01 X12.8854 Y68.3593
G01 X12.7922 Y68.3152
G01 X12.7038 Y68.2622
G01 X12.6211 Y68.2009
G01 X12.5447 Y68.1317
G01 X12.4755 Y68.0553
G01 X12.4141 Y67.9725
G01 X12.3612 Y67.8842
G01 X12.3171 Y67.7910
G01 X12.2824 Y67.6940
G01 X12.2574 Y67.5940
G01 X12.2422 Y67.4921
G01 X12.2372 Y67.3904
G01 X12.2422 Y67.2863
G01 X12.2574 Y67.1843
G01 X12.2824 Y67.0844
G01 X12.3181 Y66.9851
G01 X12.3612 Y66.8942
G01 X12.4156 Y66.8038
G01 X12.4771 Y66.7212
G01 X12.5447 Y66.6467
G01 X12.6019 Y66.5949
G01 X12.6019 Y61.5795
G01 X12.5447 Y61.5277
G01 X12.4771 Y61.4532
G01 X12.4156 Y61.3705
G01 X12.3612 Y61.2802
G01 X12.3181 Y61.1893
G01 X12.2824 Y61.0900
G01 X12.2574 Y60.9900
G01 X12.2422 Y60.8881
G01 X12.2372 Y60.7852
G01 X12.2422 Y60.6823
G01 X12.2574 Y60.5803
G01 X12.2824 Y60.4804
G01 X12.3181 Y60.3811
G01 X12.3612 Y60.2902
G01 X12.4156 Y60.1998
G01 X12.4771 Y60.1172
G01 X12.5447 Y60.0427
G01 X12.6019 Y59.9909
G01 X12.6019 Y55.2295
G01 X12.5447 Y55.1777
G01 X12.4771 Y55.1032
G01 X12.4156 Y55.0205
G01 X12.3612 Y54.9302
G01 X12.3181 Y54.8393
G01 X12.2824 Y54.7400
G01 X12.2574 Y54.6400
G01 X12.2422 Y54.5381
G01 X12.2372 Y54.4352
G01 X12.2422 Y54.3323
G01 X12.2574 Y54.2303
G01 X12.2824 Y54.1304
G01 X12.3181 Y54.0311
G01 X12.3612 Y53.9402
G01 X12.4156 Y53.8498
G01 X12.4771 Y53.7672
G01 X12.5447 Y53.6927
G01 X12.6019 Y53.6409
G01 X12.6019 Y46.0532
G01 X12.6052 Y45.9860
G01 X12.6146 Y45.9219
G01 X12.6318 Y45.8531
G01 X12.6550 Y45.7887
G01 X12.6828 Y45.7301
G01 X12.7161 Y45.6745
G01 X12.7574 Y45.6184
G01 X12.8026 Y45.5686
G01 X24.7140 Y33.6572
G01 X4.4988 Y33.6572
G01 X4.4904 Y33.6565
G01 X4.4489 Y33.6484
G01 X4.4409 Y33.6459
G01 X4.4344 Y33.6427
G01 X4.3988 Y33.6184
G01 X4.3923 Y33.6130
G01 X4.3867 Y33.6065
G01 X4.3629 Y33.5720
G01 X4.3589 Y33.5646
G01 X4.3563 Y33.5566
G01 X4.3479 Y33.5140
G01 X4.3472 Y33.5056
G01 X4.3472 Y25.6346
G01 X4.3480 Y25.6257
G01 X4.3577 Y25.5793
G01 X4.3607 Y25.5714
G01 X4.3644 Y25.5651
G01 X4.3919 Y25.5281
G01 X4.3969 Y25.5226
G01 X4.4016 Y25.5187
G01 X4.4067 Y25.5153
G01 X4.4449 Y25.4939
G01 X4.4539 Y25.4902
G01 X4.4623 Y25.4885
G01 X4.5057 Y25.4843
G01 X4.5118 Y25.4841
G01 X4.5178 Y25.4846
G01 X4.5250 Y25.4862
G01 X4.5686 Y25.5006
G01 X4.5765 Y25.5045
G01 X4.5835 Y25.5096
G01 X4.6177 Y25.5411
G01 X4.6231 Y25.5475
G01 X4.6268 Y25.5537
G01 X4.6459 Y25.5997
G01 X4.6502 Y25.6184
G01 X4.6926 Y25.7469
G01 X4.7512 Y25.8686
G01 X4.8250 Y25.9816
G01 X4.9123 Y26.0844
G01 X5.0121 Y26.1751
G01 X5.1227 Y26.2522
G01 X5.2419 Y26.3142
G01 X5.3685 Y26.3608
G01 X5.5000 Y26.3909
G01 X5.6343 Y26.4040
G01 X5.7691 Y26.3996
G01 X5.9025 Y26.3783
G01 X6.0313 Y26.3400
G01 X6.1545 Y26.2852
G01 X6.2700 Y26.2153
G01 X6.3757 Y26.1309
G01 X6.4693 Y26.0345
G01 X6.5498 Y25.9263
G01 X6.6162 Y25.8090
G01 X6.6666 Y25.6839
G01 X6.7011 Y25.5534
G01 X6.7180 Y25.4196
G01 X6.7180 Y25.2847
G01 X6.7011 Y25.1509
G01 X6.6666 Y25.0205
G01 X6.6162 Y24.8954
G01 X6.5498 Y24.7781
G01 X6.4693 Y24.6699
G01 X6.3757 Y24.5734
G01 X6.2700 Y24.4891
G01 X6.1545 Y24.4192
G01 X6.0313 Y24.3644
G01 X5.9025 Y24.3261
G01 X5.7691 Y24.3048
G01 X5.6343 Y24.3004
G01 X5.5000 Y24.3135
G01 X5.3685 Y24.3436
G01 X5.2419 Y24.3901
G01 X5.1227 Y24.4522
G01 X5.0121 Y24.5293
G01 X4.9123 Y24.6199
G01 X4.8250 Y24.7228
G01 X4.7512 Y24.8358
G01 X4.6926 Y24.9574
G01 X4.6502 Y25.0860
G01 X4.6459 Y25.1047
G01 X4.6268 Y25.1506
G01 X4.6231 Y25.1568
G01 X4.6177 Y25.1633
G01 X4.5844 Y25.1939
G01 X4.5775 Y25.1993
G01 X4.5732 Y25.2017
G01 X4.5686 Y25.2038
G01 X4.5261 Y25.2178
G01 X4.5190 Y25.2196
G01 X4.5130 Y25.2203
G01 X4.5069 Y25.2202
G01 X4.4635 Y25.2160
G01 X4.4563 Y25.2148
G01 X4.4505 Y25.2130
G01 X4.4449 Y25.2104
G01 X4.4057 Y25.1884
G01 X4.3996 Y25.1842
G01 X4.3960 Y25.1809
G01 X4.3919 Y25.1763
G01 X4.3644 Y25.1393
G01 X4.3602 Y25.1319
G01 X4.3574 Y25.1239
G01 X4.3480 Y25.0787
G01 X4.3472 Y25.0698
G01 X4.3472 Y21.7684
G01 X4.3481 Y21.7612
G01 X4.3557 Y21.7221
G01 X4.3572 Y21.7163
G01 X4.3589 Y21.7118
G01 X4.3629 Y21.7043
G01 X4.3860 Y21.6708
G01 X4.3922 Y21.6634
G01 X4.3978 Y21.6587
G01 X4.4313 Y21.6356
G01 X4.4365 Y21.6325
G01 X4.4409 Y21.6305
G01 X4.4501 Y21.6277
G01 X4.4904 Y21.6199
G01 X4.4976 Y21.6192
G01 X15.5232 Y21.6192
G01 X15.5232 Y18.1632
G00 Z2.0000
G00 X14.7780 Y25.3497
G01 F60.00
G01 Z-0.0500
G01 F120.00
G01 X14.7830 Y25.2493
G01 X14.7981 Y25.1473
G01 X14.8232 Y25.0474
G01 X14.8579 Y24.9504
G01 X14.9019 Y24.8572
G01 X14.9549 Y24.7688
G01 X15.0163 Y24.6861
G01 X15.0855 Y24.6097
G01 X15.1618 Y24.5405
G01 X15.2446 Y24.4791
G01 X15.3330 Y24.4262
G01 X15.4261 Y24.3821
G01 X15.5232 Y24.3474
G01 X15.6231 Y24.3224
G01 X15.7250 Y24.3072
G01 X15.8280 Y24.3022
G01 X15.9309 Y24.3072
G01 X16.0328 Y24.3224
G01 X16.1328 Y24.3474
G01 X16.2298 Y24.3821
G01 X16.3229 Y24.4262
G01 X16.4113 Y24.4791
G01 X16.4941 Y24.5405
G01 X16.5704 Y24.6097
G01 X16.6396 Y24.6861
G01 X16.7010 Y24.7688
G01 X16.7540 Y24.8572
G01 X16.7980 Y24.9504
G01 X16.8327 Y25.0474
G01 X16.8578 Y25.1473
G01 X16.8729 Y25.2493
G01 X16.8780 Y25.3522
G01 X16.8729 Y25.4551
G01 X16.8578 Y25.5570
G01 X16.8327 Y25.6570
G01 X16.7980 Y25.7540
G01 X16.7540 Y25.8472
G01 X16.7010 Y25.9355
G01 X16.6396 Y26.0183
G01 X16.5704 Y26.0947
G01 X16.4941 Y26.1639
G01 X16.4113 Y26.2252
G01 X16.3229 Y26.2782
G01 X16.2298 Y26.3223
G01 X16.1328 Y26.3570
G01 X16.0328 Y26.3820
G01 X15.9309 Y26.3971
G01 X15.8280 Y26.4022
G01 X15.7250 Y26.3971
G01 X15.6231 Y26.3820
G01 X15.5232 Y26.3570
G01 X15.4261 Y26.3223
G01 X15.3330 Y26.2782
G01 X15.2446 Y26.2252
G01 X15.1618 Y26.1639
G01 X15.0855 Y26.0947
G01 X15.0163 Y26.0183
G01 X14.9549 Y25.9355
G01 X14.9019 Y25.8472
G01 X14.8579 Y25.7540
G01 X14.8232 Y25.6570
G01 X14.7981 Y25.5570
G01 X14.7830 Y25.4551
G01 X14.7780 Y25.3497
G00 Z2.0000
G00 X15.7943 Y26.4040
G01 F60.00
G01 Z-0.0500
G01 F120.00
G01 X15.6600 Y26.3909
G01 X15.5285 Y26.3608
G01 X15.4019 Y26.3142
G01 X15.2827 Y26.2522
G01 X15.1721 Y26.1751
G01 X15.0723 Y26.0844
G01 X14.9850 Y25.9816
G01 X14.9112 Y25.8686
G01 X14.8526 Y25.7469
G01 X14.8104 Y25.6188
G01 X14.7842 Y25.4870
G01 X14.7759 Y25.3522
G01 X14.7842 Y25.2174
G01 X14.8104 Y25.0855
G01 X14.8526 Y24.9574
G01 X14.9112 Y24.8358
G01 X14.9850 Y24.7228
G01 X15.0723 Y24.6199
G01 X15.1721 Y24.5293
G01 X15.2827 Y24.4522
G01 X15.4019 Y24.3901
G01 X15.5285 Y24.3436
G01 X15.6600 Y24.3135
G01 X15.7943 Y24.3004
G01 X15.9291 Y24.3048
G01 X16.0625 Y24.3261
G01 X16.1913 Y24.3644
G01 X16.3145 Y24.4192
G01 X16.4300 Y24.4891
G01 X16.5357 Y24.5734
G01 X16.6293 Y24.6699
G01 X16.7098 Y24.7781
G01 X16.7762 Y24.8954
G01 X16.8266 Y25.0205
G01 X16.8611 Y25.1509
G01 X16.8780 Y25.2847
G01 X16.8780 Y25.4196
G01 X16.8611 Y25.5534
G01 X16.8266 Y25.6839
G01 X16.7762 Y25.8090
G01 X16.7098 Y25.9263
G01 X16.6293 Y26.0345
G01 X16.5357 Y26.1309
G01 X16.4300 Y26.2153
G01 X16.3145 Y26.2852
G01 X16.1913 Y26.3400
G01 X16.0625 Y26.3783
G01 X15.9291 Y26.3996
G01 X15.7943 Y26.4040
G00 Z2.0000
G00 X17.3180 Y25.3497
G01 F60.00
G01 Z-0.0500
G01 F120.00
G01 X17.3230 Y25.2493
G01 X17.3381 Y25.1473
G01 X17.3632 Y25.0474
G01 X17.3979 Y24.9504
G01 X17.4419 Y24.8572
G01 X17.4949 Y24.7688
G01 X17.5563 Y24.6861
G01 X17.6255 Y24.6097
G01 X17.7018 Y24.5405
G01 X17.7846 Y24.4791
G01 X17.8730 Y24.4262
G01 X17.9661 Y24.3821
G01 X18.0632 Y24.3474
G01 X18.1631 Y24.3224
G01 X18.2650 Y24.3072
G01 X18.3680 Y24.3022
G01 X18.4709 Y24.3072
G01 X18.5728 Y24.3224
G01 X18.6728 Y24.3474
G01 X18.7698 Y24.3821
G01 X18.8629 Y24.4262
G01 X18.9513 Y24.4791
G01 X19.0341 Y24.5405
G01 X19.1104 Y24.6097
G01 X19.1796 Y24.6861
G01 X19.2410 Y24.7688
G01 X19.2940 Y24.8572
G01 X19.3380 Y24.9504
G01 X19.3727 Y25.0474
G01 X19.3978 Y25.1473
G01 X19.4129 Y25.2493
G01 X19.4180 Y25.3522
G01 X19.4129 Y25.4551
G01 X19.3978 Y25.5570
G01 X19.3727 Y25.6570
G01 X19.3380 Y25.7540
G01 X19.2940 Y25.8472
G01 X19.2410 Y25.9355
G01 X19.1796 Y26.0183
G01 X19.1104 Y26.0947
G01 X19.0341 Y26.1639
G01 X18.9513 Y26.2252
G01 X18.8629 Y26.2782
G01 X18.7698 Y26.3223
G01 X18.6728 Y26.3570
G01 X18.5728 Y26.3820
G01 X18.4709 Y26.3971
G01 X18.3680 Y26.4022
G01 X18.2650 Y26.3971
G01 X18.1631 Y26.3820
G01 X18.0632 Y26.3570
G01 X17.9661 Y26.3223
G01 X17.8730 Y26.2782
G01 X17.7846 Y26.2252
G01 X17.7018 Y26.1639
G01 X17.6255 Y26.0947
G01 X17.5563 Y26.0183
G01 X17.4949 Y25.9355
G01 X17.4419 Y25.8472
G01 X17.3979 Y25.7540
G01 X17.3632 Y25.6570
G01 X17.3381 Y25.5570
G01 X17.3230 Y25.4551
G01 X17.3180 Y25.3497
G00 Z2.0000
G00 X18.3343 Y26.4040
G01 F60.00
G01 Z-0.0500
G01 F120.00
G01 X18.2000 Y26.3909
G01 X18.0685 Y26.3608
G01 X17.9419 Y26.3142
G01 X17.8227 Y26.2522
G01 X17.7121 Y26.1751
G01 X17.6123 Y26.0844
G01 X17.5250 Y25.9816
G01 X17.4512 Y25.8686
G01 X17.3926 Y25.7469
G01 X17.3504 Y25.6188
G01 X17.3242 Y25.4870
G01 X17.3159 Y25.3522
G01 X17.3242 Y25.2174
G01 X17.3504 Y25.0855
G01 X17.3926 Y24.9574
G01 X17.4512 Y24.8358
G01 X17.5250 Y24.7228
G01 X17.6123 Y24.6199
G01 X17.7121 Y24.5293
G01 X17.8227 Y24.4522
G01 X17.9419 Y24.3901
G01 X18.0685 Y24.3436
G01 X18.2000 Y24.3135
G01 X18.3343 Y24.3004
G01 X18.4691 Y24.3048
G01 X18.6025 Y24.3261
G01 X18.7313 Y24.3644
G01 X18.8545 Y24.4192
G01 X18.9700 Y24.4891
G01 X19.0757 Y24.5734
G01 X19.1693 Y24.6699
G01 X19.2498 Y24.7781
G01 X19.3162 Y24.8954
G01 X19.3666 Y25.0205
G01 X19.4011 Y25.1509
G01 X19.4180 Y25.2847
G01 X19.4180 Y25.4196
G01 X19.4011 Y25.5534
G01 X19.3666 Y25.6839
G01 X19.3162 Y25.8090
G01 X19.2498 Y25.9263
G01 X19.1693 Y26.0345
G01 X19.0757 Y26.1309
G01 X18.9700 Y26.2153
G01 X18.8545 Y26.2852
G01 X18.7313 Y26.3400
G01 X18.6025 Y26.3783
G01 X18.4691 Y26.3996
G01 X18.3343 Y26.4040
G00 Z2.0000
G00 X19.8580 Y25.3497
G01 F60.00
G01 Z-0.0500
G01 F120.00
G01 X19.8630 Y25.2493
G01 X19.8781 Y25.1473
G01 X19.9032 Y25.0474
G01 X19.9379 Y24.9504
G01 X19.9819 Y24.8572
G01 X20.0349 Y24.7688
G01 X20.0963 Y24.6861
G01 X20.1655 Y24.6097
G01 X20.2418 Y24.5405
G01 X20.3246 Y24.4791
G01 X20.4130 Y24.4262
G01 X20.5061 Y24.3821
G01 X20.6032 Y24.3474
G01 X20.7031 Y24.3224
G01 X20.8050 Y24.3072
G01 X20.9080 Y24.3022
G01 X21.0109 Y24.3072
G01 X21.1128 Y24.3224
G01 X21.2128 Y24.3474
G01 X21.3098 Y24.3821
G01 X21.4029 Y24.4262
G01 X21.4913 Y24.4791
G01 X21.5741 Y24.5405
G01 X21.6504 Y24.6097
G01 X21.7196 Y24.6861
G01 X21.7810 Y24.7688
G01 X21.8340 Y24.8572
G01 X21.8780 Y24.9504
G01 X21.9127 Y25.0474
G01 X21.9378 Y25.1473
G01 X21.9529 Y25.2493
G01 X21.9580 Y25.3522
G01 X21.9529 Y25.4551
G01 X21.9378 Y25.5570
G01 X21.9127 Y25.6570
G01 X21.8780 Y25.7540
G01 X21.8340 Y25.8472
G01 X21.7810 Y25.9355
G01 X21.7196 Y26.0183
G01 X21.6504 Y26.0947
G01 X21.5741 Y26.1639
G01 X21.4913 Y26.2252
G01 X21.4029 Y26.2782
G01 X21.3098 Y26.3223
G01 X21.2128 Y26.3570
G01 X21.1128 Y26.3820
G01 X21.0109 Y26.3971
G01 X20.9080 Y26.4022
G01 X20.8050 Y26.3971
G01 X20.7031 Y26.3820
G01 X20.6032 Y26.3570
G01 X20.5061 Y26.3223
G01 X20.4130 Y26.2782
G01 X20.3246 Y26.2252
G01 X20.2418 Y26.1639
G01 X20.1655 Y26.0947
G01 X20.0963 Y26.0183
G01 X20.0349 Y25.9355
G01 X19.9819 Y25.8472
G01 X19.9379 Y25.7540
G01 X19.9032 Y25.6570
G01 X19.8781 Y25.5570
G01 X19.8630 Y25.4551
G01 X19.8580 Y25.3497
G00 Z2.0000
G00 X20.8743 Y26.4040
G01 F60.00
G01 Z-0.0500
G01 F120.00
G01 X20.7400 Y26.3909
G01 X20.6085 Y26.3608
G01 X20.4819 Y26.3142
G01 X20.3627 Y26.2522
G01 X20.2521 Y26.1751
G01 X20.1523 Y26.0844
G01 X20.0650 Y25.9816
G01 X19.9912 Y25.8686
G01 X19.9326 Y25.7469
G01 X19.8904 Y25.6188
G01 X19.8642 Y25.4870
G01 X19.8559 Y25.3522
G01 X19.8642 Y25.2174
G01 X19.8904 Y25.0855
G01 X19.9326 Y24.9574
G01 X19.9912 Y24.8358
G01 X20.0650 Y24.7228
G01 X20.1523 Y24.6199
G01 X20.2521 Y24.5293
G01 X20.3627 Y24.4522
G01 X20.4819 Y24.3901
G01 X20.6085 Y24.3436
G01 X20.7400 Y24.3135
G01 X20.8743 Y24.3004
G01 X21.0091 Y24.3048
G01 X21.1425 Y24.3261
G01 X21.2713 Y24.3644
G01 X21.3945 Y24.4192
G01 X21.5100 Y24.4891
G01 X21.6157 Y24.5734
G01 X21.7093 Y24.6699
G01 X21.7898 Y24.7781
G01 X21.8562 Y24.8954
G01 X21.9066 Y25.0205
G01 X21.9411 Y25.1509
G01 X21.9580 Y25.2847
G01 X21.9580 Y25.4196
G01 X21.9411 Y25.5534
G01 X21.9066 Y25.6839
G01 X21.8562 Y25.8090
G01 X21.7898 Y25.9263
G01 X21.7093 Y26.0345
G01 X21.6157 Y26.1309
G01 X21.5100 Y26.2153
G01 X21.3945 Y26.2852
G01 X21.2713 Y26.3400
G01 X21.1425 Y26.3783
G01 X21.0091 Y26.3996
G01 X20.8743 Y26.4040
G00 Z2.0000
G00 X22.3980 Y25.3497
G01 F60.00
G01 Z-0.0500
G01 F120.00
G01 X22.4030 Y25.2493
G01 X22.4181 Y25.1473
G01 X22.4432 Y25.0474
G01 X22.4779 Y24.9504
G01 X22.5219 Y24.8572
G01 X22.5749 Y24.7688
G01 X22.6363 Y24.6861
G01 X22.7055 Y24.6097
G01 X22.7818 Y24.5405
G01 X22.8646 Y24.4791
G01 X22.9530 Y24.4262
G01 X23.0461 Y24.3821
G01 X23.1432 Y24.3474
G01 X23.2431 Y24.3224
G01 X23.3450 Y24.3072
G01 X23.4480 Y24.3022
G01 X23.5509 Y24.3072
G01 X23.6528 Y24.3224
G01 X23.7528 Y24.3474
G01 X23.8498 Y24.3821
G01 X23.9429 Y24.4262
G01 X24.0313 Y24.4791
G01 X24.1141 Y24.5405
G01 X24.1904 Y24.6097
G01 X24.2596 Y24.6861
G01 X24.3210 Y24.7688
G01 X24.3740 Y24.8572
G01 X24.4180 Y24.9504
G01 X24.4527 Y25.0474
G01 X24.4778 Y25.1473
G01 X24.4929 Y25.2493
G01 X24.4980 Y25.3522
G01 X24.4929 Y25.4551
G01 X24.4778 Y25.5570
G01 X24.4527 Y25.6570
G01 X24.4180 Y25.7540
G01 X24.3740 Y25.8472
G01 X24.3210 Y25.9355
G01 X24.2596 Y26.0183
G01 X24.1904 Y26.0947
G01 X24.1141 Y26.1639
G01 X24.0313 Y26.2252
G01 X23.9429 Y26.2782
G01 X23.8498 Y26.3223
G01 X23.7528 Y26.3570
G01 X23.6528 Y26.3820
G01 X23.5509 Y26.3971
G01 X23.4480 Y26.4022
G01 X23.3450 Y26.3971
G01 X23.2431 Y26.3820
G01 X23.1432 Y26.3570
G01 X23.0461 Y26.3223
G01 X22.9530 Y26.2782
G01 X22.8646 Y26.2252
G01 X22.7818 Y26.1639
G01 X22.7055 Y26.0947
G01 X22.6363 Y26.0183
G01 X22.5749 Y25.9355
G01 X22.5219 Y25.8472
G01 X22.4779 Y25.7540
G01 X22.4432 Y25.6570
G01 X22.4181 Y25.5570
G01 X22.4030 Y25.4551
G01 X22.3980 Y25.3497
G00 Z2.0000
G00 X23.4143 Y26.4040
G01 F60.00
G01 Z-0.0500
G01 F120.00
G01 X23.2800 Y26.3909
G01 X23.1485 Y26.3608
G01 X23.0219 Y26.3142
G01 X22.9027 Y26.2522
G01 X22.7921 Y26.1751
G01 X22.6923 Y26.0844
G01 X22.6050 Y25.9816
G01 X22.5312 Y25.8686
G01 X22.4726 Y25.7469
G01 X22.4304 Y25.6188
G01 X22.4042 Y25.4870
G01 X22.3959 Y25.3522
G01 X22.4042 Y25.2174
G01 X22.4304 Y25.0855
G01 X22.4726 Y24.9574
G01 X22.5312 Y24.8358
G01 X22.6050 Y24.7228
G01 X22.6923 Y24.6199
G01 X22.7921 Y24.5293
G01 X22.9027 Y24.4522
G01 X23.0219 Y24.3901
G01 X23.1485 Y24.3436
G01 X23.2800 Y24.3135
G01 X23.4143 Y24.3004
G01 X23.5491 Y24.3048
G01 X23.6825 Y24.3261
G01 X23.8113 Y24.3644
G01 X23.9345 Y24.4192
G01 X24.0500 Y24.4891
G01 X24.1557 Y24.5734
G01 X24.2493 Y24.6699
G01 X24.3298 Y24.7781
G01 X24.3962 Y24.8954
G01 X24.4466 Y25.0205
G01 X24.4811 Y25.1509
G01 X24.4980 Y25.2847
G01 X24.4980 Y25.4196
G01 X24.4811 Y25.5534
G01 X24.4466 Y25.6839
G01 X24.3962 Y25.8090
G01 X24.3298 Y25.9263
G01 X24.2493 Y26.0345
G01 X24.1557 Y26.1309
G01 X24.0500 Y26.2153
G01 X23.9345 Y26.2852
G01 X23.8113 Y26.3400
G01 X23.6825 Y26.3783
G01 X23.5491 Y26.3996
G01 X23.4143 Y26.4040
G00 Z2.0000
G00 X32.8123 Y25.3500
G01 F60.00
G01 Z-0.0500
G01 F120.00
G01 X32.8173 Y25.4554
G01 X32.8324 Y25.5573
G01 X32.8574 Y25.6572
G01 X32.8921 Y25.7543
G01 X32.9362 Y25.8474
G01 X32.9892 Y25.9358
G01 X33.0505 Y26.0186
G01 X33.1206 Y26.0958
G01 X33.1961 Y26.1641
G01 X33.2789 Y26.2255
G01 X33.3672 Y26.2785
G01 X33.4615 Y26.3230
G01 X33.5574 Y26.3572
G01 X33.6598 Y26.3827
G01 X33.7617 Y26.3976
G01 X33.8622 Y26.4024
G01 X33.9598 Y26.3977
G01 X33.8956 Y26.4040
G01 X33.7608 Y26.3996
G01 X33.6280 Y26.3783
G01 X33.4985 Y26.3400
G01 X33.3754 Y26.2852
G01 X33.2600 Y26.2154
G01 X33.1547 Y26.1309
G01 X33.0606 Y26.0344
G01 X32.9802 Y25.9264
G01 X32.9142 Y25.8090
G01 X32.8633 Y25.6839
G01 X32.8293 Y25.5534
G01 X32.8119 Y25.4196
G01 X32.8119 Y25.2848
G01 X32.8293 Y25.1509
G01 X32.8633 Y25.0205
G01 X32.9142 Y24.8954
G01 X32.9802 Y24.7780
G01 X33.0606 Y24.6700
G01 X33.1547 Y24.5734
G01 X33.2600 Y24.4890
G01 X33.3754 Y24.4192
G01 X33.4985 Y24.3644
G01 X33.6280 Y24.3261
G01 X33.7608 Y24.3048
G01 X33.8956 Y24.3004
G01 X34.0299 Y24.3135
G01 X34.1614 Y24.3436
G01 X34.2880 Y24.3902
G01 X34.4078 Y24.4522
G01 X34.5183 Y24.5293
G01 X34.6182 Y24.6199
G01 X34.7055 Y24.7228
G01 X34.7792 Y24.8357
G01 X34.8373 Y24.9574
G01 X34.8800 Y25.0855
G01 X34.9057 Y25.2174
G01 X34.9145 Y25.3522
G01 X34.9057 Y25.4870
G01 X34.8800 Y25.6188
G01 X34.8373 Y25.7469
G01 X34.7792 Y25.8687
G01 X34.7055 Y25.9816
G01 X34.6182 Y26.0844
G01 X34.5183 Y26.1751
G01 X34.4078 Y26.2521
G01 X34.3589 Y26.2775
G01 X34.4456 Y26.2255
G01 X34.5283 Y26.1641
G01 X34.6047 Y26.0949
G01 X34.6723 Y26.0204
G01 X34.7366 Y25.9337
G01 X34.7882 Y25.8474
G01 X34.8323 Y25.7543
G01 X34.8670 Y25.6572
G01 X34.8915 Y25.5597
G01 X34.9073 Y25.4529
G01 X34.9122 Y25.3524
G01 X34.9072 Y25.2495
G01 X34.8920 Y25.1476
G01 X34.8677 Y25.0500
G01 X34.8313 Y24.9484
G01 X34.7882 Y24.8575
G01 X34.7353 Y24.7691
G01 X34.6739 Y24.6863
G01 X34.6064 Y24.6118
G01 X34.5264 Y24.5393
G01 X34.4456 Y24.4794
G01 X34.3572 Y24.4264
G01 X34.2640 Y24.3824
G01 X34.1693 Y24.3484
G01 X34.0646 Y24.3222
G01 X33.9651 Y24.3075
G01 X33.8622 Y24.3024
G01 X33.7593 Y24.3075
G01 X33.6574 Y24.3226
G01 X33.5574 Y24.3477
G01 X33.4604 Y24.3824
G01 X33.3672 Y24.4264
G01 X33.2789 Y24.4794
G01 X33.1961 Y24.5408
G01 X33.1197 Y24.6100
G01 X33.0505 Y24.6863
G01 X32.9892 Y24.7691
G01 X32.9362 Y24.8575
G01 X32.8921 Y24.9506
G01 X32.8574 Y25.0476
G01 X32.8324 Y25.1476
G01 X32.8173 Y25.2495
G01 X32.8123 Y25.3500
G00 Z2.0000
G00 X33.9702 Y26.3967
G01 F60.00
G01 Z-0.0500
G01 F120.00
G01 X34.0671 Y26.3823
G01 X34.1670 Y26.3572
G01 X34.2640 Y26.3225
G01 X34.3540 Y26.2800
G01 X34.2880 Y26.3142
G01 X34.1614 Y26.3608
G01 X34.0299 Y26.3909
G01 X33.9702 Y26.3967
G00 Z2.0000
G00 X35.3523 Y25.3500
G01 F60.00
G01 Z-0.0500
G01 F120.00
G01 X35.3573 Y25.4554
G01 X35.3724 Y25.5573
G01 X35.3974 Y25.6572
G01 X35.4321 Y25.7543
G01 X35.4762 Y25.8474
G01 X35.5292 Y25.9358
G01 X35.5905 Y26.0186
G01 X35.6606 Y26.0958
G01 X35.7361 Y26.1641
G01 X35.8189 Y26.2255
G01 X35.9072 Y26.2785
G01 X36.0015 Y26.3230
G01 X36.0974 Y26.3572
G01 X36.1998 Y26.3827
G01 X36.3017 Y26.3976
G01 X36.4022 Y26.4024
G01 X36.4998 Y26.3977
G01 X36.4356 Y26.4040
G01 X36.3008 Y26.3996
G01 X36.1680 Y26.3783
G01 X36.0385 Y26.3400
G01 X35.9154 Y26.2852
G01 X35.8000 Y26.2154
G01 X35.6947 Y26.1309
G01 X35.6006 Y26.0344
G01 X35.5202 Y25.9264
G01 X35.4542 Y25.8090
G01 X35.4033 Y25.6839
G01 X35.3693 Y25.5534
G01 X35.3519 Y25.4196
G01 X35.3519 Y25.2848
G01 X35.3693 Y25.1509
G01 X35.4033 Y25.0205
G01 X35.4542 Y24.8954
G01 X35.5202 Y24.7780
G01 X35.6006 Y24.6700
G01 X35.6947 Y24.5734
G01 X35.8000 Y24.4890
G01 X35.9154 Y24.4192
G01 X36.0385 Y24.3644
G01 X36.1680 Y24.3261
G01 X36.3008 Y24.3048
G01 X36.4356 Y24.3004
G01 X36.5699 Y24.3135
G01 X36.7014 Y24.3436
G01 X36.8280 Y24.3902
G01 X36.9478 Y24.4522
G01 X37.0583 Y24.5293
G01 X37.1582 Y24.6199
G01 X37.2455 Y24.7228
G01 X37.3192 Y24.8357
G01 X37.3773 Y24.9574
G01 X37.4200 Y25.0855
G01 X37.4457 Y25.2174
G01 X37.4545 Y25.3522
G01 X37.4457 Y25.4870
G01 X37.4200 Y25.6188
G01 X37.3773 Y25.7469
G01 X37.3192 Y25.8687
G01 X37.2455 Y25.9816
G01 X37.1582 Y26.0844
G01 X37.0583 Y26.1751
G01 X36.9478 Y26.2521
G01 X36.8989 Y26.2775
G01 X36.9856 Y26.2255
G01 X37.0683 Y26.1641
G01 X37.1447 Y26.0949
G01 X37.2123 Y26.0204
G01 X37.2766 Y25.9337
G01 X37.3282 Y25.8474
G01 X37.3723 Y25.7543
G01 X37.4070 Y25.6572
G01 X37.4315 Y25.5597
G01 X37.4473 Y25.4529
G01 X37.4522 Y25.3524
G01 X37.4472 Y25.2495
G01 X37.4320 Y25.1476
G01 X37.4077 Y25.0500
G01 X37.3713 Y24.9484
G01 X37.3282 Y24.8575
G01 X37.2753 Y24.7691
G01 X37.2139 Y24.6863
G01 X37.1464 Y24.6118
G01 X37.0664 Y24.5393
G01 X36.9856 Y24.4794
G01 X36.8972 Y24.4264
G01 X36.8040 Y24.3824
G01 X36.7093 Y24.3484
G01 X36.6046 Y24.3222
G01 X36.5051 Y24.3075
G01 X36.4022 Y24.3024
G01 X36.2993 Y24.3075
G01 X36.1974 Y24.3226
G01 X36.0974 Y24.3477
G01 X36.0004 Y24.3824
G01 X35.9072 Y24.4264
G01 X35.8189 Y24.4794
G01 X35.7361 Y24.5408
G01 X35.6597 Y24.6100
G01 X35.5905 Y24.6863
G01 X35.5292 Y24.7691
G01 X35.4762 Y24.8575
G01 X35.4321 Y24.9506
G01 X35.3974 Y25.0476
G01 X35.3724 Y25.1476
G01 X35.3573 Y25.2495
G01 X35.3523 Y25.3500
G00 Z2.0000
G00 X36.5102 Y26.3967
G01 F60.00
G01 Z-0.0500
G01 F120.00
G01 X36.6071 Y26.3823
G01 X36.7070 Y26.3572
G01 X36.8040 Y26.3225
G01 X36.8940 Y26.2800
G01 X36.8280 Y26.3142
G01 X36.7014 Y26.3608
G01 X36.5699 Y26.3909
G01 X36.5102 Y26.3967
G00 Z2.0000
G00 X37.8923 Y25.3500
G01 F60.00
G01 Z-0.0500
G01 F120.00
G01 X37.8973 Y25.4554
G01 X37.9124 Y25.5573
G01 X37.9374 Y25.6572
G01 X37.9721 Y25.7543
G01 X38.0162 Y25.8474
G01 X38.0692 Y25.9358
G01 X38.1305 Y26.0186
G01 X38.2006 Y26.0958
G01 X38.2761 Y26.1641
G01 X38.3589 Y26.2255
G01 X38.4472 Y26.2785
G01 X38.5415 Y26.3230
G01 X38.6374 Y26.3572
G01 X38.7398 Y26.3827
G01 X38.8417 Y26.3976
G01 X38.9422 Y26.4024
G01 X39.0398 Y26.3977
G01 X38.9756 Y26.4040
G01 X38.8408 Y26.3996
G01 X38.7080 Y26.3783
G01 X38.5785 Y26.3400
G01 X38.4554 Y26.2852
G01 X38.3400 Y26.2154
G01 X38.2347 Y26.1309
G01 X38.1406 Y26.0344
G01 X38.0602 Y25.9264
G01 X37.9942 Y25.8090
G01 X37.9433 Y25.6839
G01 X37.9093 Y25.5534
G01 X37.8919 Y25.4196
G01 X37.8919 Y25.2848
G01 X37.9093 Y25.1509
G01 X37.9433 Y25.0205
G01 X37.9942 Y24.8954
G01 X38.0602 Y24.7780
G01 X38.1406 Y24.6700
G01 X38.2347 Y24.5734
G01 X38.3400 Y24.4890
G01 X38.4554 Y24.4192
G01 X38.5785 Y24.3644
G01 X38.7080 Y24.3261
G01 X38.8408 Y24.3048
G01 X38.9756 Y24.3004
G01 X39.1099 Y24.3135
G01 X39.2414 Y24.3436
G01 X39.3680 Y24.3902
G01 X39.4878 Y24.4522
G01 X39.5983 Y24.5293
G01 X39.6982 Y24.6199
G01 X39.7855 Y24.7228
G01 X39.8592 Y24.8357
G01 X39.9173 Y24.9574
G01 X39.9600 Y25.0855
G01 X39.9857 Y25.2174
G01 X39.9945 Y25.3522
G01 X39.9857 Y25.4870
G01 X39.9600 Y25.6188
G01 X39.9173 Y25.7469
G01 X39.8592 Y25.8687
G01 X39.7855 Y25.9816
G01 X39.6982 Y26.0844
G01 X39.5983 Y26.1751
G01 X39.4878 Y26.2521
G01 X39.4389 Y26.2775
G01 X39.5256 Y26.2255
G01 X39.6083 Y26.1641
G01 X39.6847 Y26.0949
G01 X39.7523 Y26.0204
G01 X39.8166 Y25.9337
G01 X39.8682 Y25.8474
G01 X39.9123 Y25.7543
G01 X39.9470 Y25.6572
G01 X39.9715 Y25.5597
G01 X39.9873 Y25.4529
G01 X39.9922 Y25.3524
G01 X39.9872 Y25.2495
G01 X39.9720 Y25.1476
G01 X39.9477 Y25.0500
G01 X39.9113 Y24.9484
G01 X39.8682 Y24.8575
G01 X39.8153 Y24.7691
G01 X39.7539 Y24.6863
G01 X39.6864 Y24.6118
G01 X39.6064 Y24.5393
G01 X39.5256 Y24.4794
G01 X39.4372 Y24.4264
G01 X39.3440 Y24.3824
G01 X39.2493 Y24.3484
G01 X39.1446 Y24.3222
G01 X39.0451 Y24.3075
G01 X38.9422 Y24.3024
G01 X38.8393 Y24.3075
G01 X38.7374 Y24.3226
G01 X38.6374 Y24.3477
G01 X38.5404 Y24.3824
G01 X38.4472 Y24.4264
G01 X38.3589 Y24.4794
G01 X38.2761 Y24.5408
G01 X38.1997 Y24.6100
G01 X38.1305 Y24.6863
G01 X38.0692 Y24.7691
G01 X38.0162 Y24.8575
G01 X37.9721 Y24.9506
G01 X37.9374 Y25.0476
G01 X37.9124 Y25.1476
G01 X37.8973 Y25.2495
G01 X37.8923 Y25.3500
G00 Z2.0000
G00 X39.0502 Y26.3967
G01 F60.00
G01 Z-0.0500
G01 F120.00
G01 X39.1471 Y26.3823
G01 X39.2470 Y26.3572
G01 X39.3440 Y26.3225
G01 X39.4340 Y26.2800
G01 X39.3680 Y26.3142
G01 X39.2414 Y26.3608
G01 X39.1099 Y26.3909
G01 X39.0502 Y26.3967
G00 Z2.0000
G00 X40.4323 Y25.3500
G01 F60.00
G01 Z-0.0500
G01 F120.00
G01 X40.4373 Y25.4554
G01 X40.4524 Y25.5573
G01 X40.4774 Y25.6572
G01 X40.5121 Y25.7543
G01 X40.5562 Y25.8474
G01 X40.6092 Y25.9358
G01 X40.6705 Y26.0186
G01 X40.7406 Y26.0958
G01 X40.8161 Y26.1641
G01 X40.8989 Y26.2255
G01 X40.9872 Y26.2785
G01 X41.0815 Y26.3230
G01 X41.1774 Y26.3572
G01 X41.2798 Y26.3827
G01 X41.3817 Y26.3976
G01 X41.4822 Y26.4024
G01 X41.5798 Y26.3977
G01 X41.5156 Y26.4040
G01 X41.3808 Y26.3996
G01 X41.2480 Y26.3783
G01 X41.1185 Y26.3400
G01 X40.9954 Y26.2852
G01 X40.8800 Y26.2154
G01 X40.7747 Y26.1309
G01 X40.6806 Y26.0344
G01 X40.6002 Y25.9264
G01 X40.5342 Y25.8090
G01 X40.4833 Y25.6839
G01 X40.4493 Y25.5534
G01 X40.4319 Y25.4196
G01 X40.4319 Y25.2848
G01 X40.4493 Y25.1509
G01 X40.4833 Y25.0205
G01 X40.5342 Y24.8954
G01 X40.6002 Y24.7780
G01 X40.6806 Y24.6700
G01 X40.7747 Y24.5734
G01 X40.8800 Y24.4890
G01 X40.9954 Y24.4192
G01 X41.1185 Y24.3644
G01 X41.2480 Y24.3261
G01 X41.3808 Y24.3048
G01 X41.5156 Y24.3004
G01 X41.6499 Y24.3135
G01 X41.7814 Y24.3436
G01 X41.9080 Y24.3902
G01 X42.0278 Y24.4522
G01 X42.1383 Y24.5293
G01 X42.2382 Y24.6199
G01 X42.3255 Y24.7228
G01 X42.3992 Y24.8357
G01 X42.4573 Y24.9574
G01 X42.5000 Y25.0855
G01 X42.5257 Y25.2174
G01 X42.5345 Y25.3522
G01 X42.5257 Y25.4870
G01 X42.5000 Y25.6188
G01 X42.4573 Y25.7469
G01 X42.3992 Y25.8687
G01 X42.3255 Y25.9816
G01 X42.2382 Y26.0844
G01 X42.1383 Y26.1751
G01 X42.0278 Y26.2521
G01 X41.9789 Y26.2775
G01 X42.0656 Y26.2255
G01 X42.1483 Y26.1641
G01 X42.2247 Y26.0949
G01 X42.2923 Y26.0204
G01 X42.3566 Y25.9337
G01 X42.4082 Y25.8474
G01 X42.4523 Y25.7543
G01 X42.4870 Y25.6572
G01 X42.5115 Y25.5597
G01 X42.5273 Y25.4529
G01 X42.5322 Y25.3524
G01 X42.5272 Y25.2495
G01 X42.5120 Y25.1476
G01 X42.4877 Y25.0500
G01 X42.4513 Y24.9484
G01 X42.4082 Y24.8575
G01 X42.3553 Y24.7691
G01 X42.2939 Y24.6863
G01 X42.2264 Y24.6118
G01 X42.1464 Y24.5393
G01 X42.0656 Y24.4794
G01 X41.9772 Y24.4264
G01 X41.8840 Y24.3824
G01 X41.7893 Y24.3484
G01 X41.6846 Y24.3222
G01 X41.5851 Y24.3075
G01 X41.4822 Y24.3024
G01 X41.3793 Y24.3075
G01 X41.2774 Y24.3226
G01 X41.1774 Y24.3477
G01 X41.0804 Y24.3824
G01 X40.9872 Y24.4264
G01 X40.8989 Y24.4794
G01 X40.8161 Y24.5408
G01 X40.7397 Y24.6100
G01 X40.6705 Y24.6863
G01 X40.6092 Y24.7691
G01 X40.5562 Y24.8575
G01 X40.5121 Y24.9506
G01 X40.4774 Y25.0476
G01 X40.4524 Y25.1476
G01 X40.4373 Y25.2495
G01 X40.4323 Y25.3500
G00 Z2.0000
G00 X41.5902 Y26.3967
G01 F60.00
G01 Z-0.0500
G01 F120.00
G01 X41.6871 Y26.3823
G01 X41.7870 Y26.3572
G01 X41.8840 Y26.3225
G01 X41.9740 Y26.2800
G01 X41.9080 Y26.3142
G01 X41.7814 Y26.3608
G01 X41.6499 Y26.3909
G01 X41.5902 Y26.3967
G00 Z2.0000
G00 X42.9723 Y25.3500
G01 F60.00
G01 Z-0.0500
G01 F120.00
G01 X42.9773 Y25.4554
G01 X42.9924 Y25.5573
G01 X43.0174 Y25.6572
G01 X43.0521 Y25.7543
G01 X43.0962 Y25.8474
G01 X43.1492 Y25.9358
G01 X43.2105 Y26.0186
G01 X43.2806 Y26.0958
G01 X43.3561 Y26.1641
G01 X43.4389 Y26.2255
G01 X43.5272 Y26.2785
G01 X43.6215 Y26.3230
G01 X43.7174 Y26.3572
G01 X43.8198 Y26.3827
G01 X43.9217 Y26.3976
G01 X44.0222 Y26.4024
G01 X44.1198 Y26.3977
G01 X44.0556 Y26.4040
G01 X43.9208 Y26.3996
G01 X43.7880 Y26.3783
G01 X43.6585 Y26.3400
G01 X43.5354 Y26.2852
G01 X43.4200 Y26.2154
G01 X43.3147 Y26.1309
G01 X43.2206 Y26.0344
G01 X43.1402 Y25.9264
G01 X43.0742 Y25.8090
G01 X43.0233 Y25.6839
G01 X42.9893 Y25.5534
G01 X42.9719 Y25.4196
G01 X42.9719 Y25.2848
G01 X42.9893 Y25.1509
G01 X43.0233 Y25.0205
G01 X43.0742 Y24.8954
G01 X43.1402 Y24.7780
G01 X43.2206 Y24.6700
G01 X43.3147 Y24.5734
G01 X43.4200 Y24.4890
G01 X43.5354 Y24.4192
G01 X43.6585 Y24.3644
G01 X43.7880 Y24.3261
G01 X43.9208 Y24.3048
G01 X44.0556 Y24.3004
G01 X44.1899 Y24.3135
G01 X44.3214 Y24.3436
G01 X44.4480 Y24.3902
G01 X44.5678 Y24.4522
G01 X44.6783 Y24.5293
G01 X44.7782 Y24.6199
G01 X44.8655 Y24.7228
G01 X44.9392 Y24.8357
G01 X44.9973 Y24.9574
G01 X45.0400 Y25.0855
G01 X45.0657 Y25.2174
G01 X45.0745 Y25.3522
G01 X45.0657 Y25.4870
G01 X45.0400 Y25.6188
G01 X44.9973 Y25.7469
G01 X44.9392 Y25.8687
G01 X44.8655 Y25.9816
G01 X44.7782 Y26.0844
G01 X44.6783 Y26.1751
G01 X44.5678 Y26.2521
G01 X44.5189 Y26.2775
G01 X44.6056 Y26.2255
G01 X44.6883 Y26.1641
G01 X44.7647 Y26.0949
G01 X44.8323 Y26.0204
G01 X44.8966 Y25.9337
G01 X44.9482 Y25.8474
G01 X44.9923 Y25.7543
G01 X45.0270 Y25.6572
G01 X45.0515 Y25.5597
G01 X45.0673 Y25.4529
G01 X45.0722 Y25.3524
G01 X45.0672 Y25.2495
G01 X45.0520 Y25.1476
G01 X45.0277 Y25.0500
G01 X44.9913 Y24.9484
G01 X44.9482 Y24.8575
G01 X44.8953 Y24.7691
G01 X44.8339 Y24.6863
G01 X44.7664 Y24.6118
G01 X44.6864 Y24.5393
G01 X44.6056 Y24.4794
G01 X44.5172 Y24.4264
G01 X44.4240 Y24.3824
G01 X44.3293 Y24.3484
G01 X44.2246 Y24.3222
G01 X44.1251 Y24.3075
G01 X44.0222 Y24.3024
G01 X43.9193 Y24.3075
G01 X43.8174 Y24.3226
G01 X43.7174 Y24.3477
G01 X43.6204 Y24.3824
G01 X43.5272 Y24.4264
G01 X43.4389 Y24.4794
G01 X43.3561 Y24.5408
G01 X43.2797 Y24.6100
G01 X43.2105 Y24.6863
G01 X43.1492 Y24.7691
G01 X43.0962 Y24.8575
G01 X43.0521 Y24.9506
G01 X43.0174 Y25.0476
G01 X42.9924 Y25.1476
G01 X42.9773 Y25.2495
G01 X42.9723 Y25.3500
G00 Z2.0000
G00 X44.1302 Y26.3967
G01 F60.00
G01 Z-0.0500
G01 F120.00
G01 X44.2271 Y26.3823
G01 X44.3270 Y26.3572
G01 X44.4240 Y26.3225
G01 X44.5140 Y26.2800
G01 X44.4480 Y26.3142
G01 X44.3214 Y26.3608
G01 X44.1899 Y26.3909
G01 X44.1302 Y26.3967
G00 Z2.0000
G00 X45.5123 Y25.3500
G01 F60.00
G01 Z-0.0500
G01 F120.00
G01 X45.5173 Y25.4554
G01 X45.5324 Y25.5573
G01 X45.5574 Y25.6572
G01 X45.5921 Y25.7543
G01 X45.6362 Y25.8474
G01 X45.6892 Y25.9358
G01 X45.7505 Y26.0186
G01 X45.8206 Y26.0958
G01 X45.8961 Y26.1641
G01 X45.9789 Y26.2255
G01 X46.0672 Y26.2785
G01 X46.1615 Y26.3230
G01 X46.2574 Y26.3572
G01 X46.3598 Y26.3827
G01 X46.4617 Y26.3976
G01 X46.5622 Y26.4024
G01 X46.6598 Y26.3977
G01 X46.5956 Y26.4040
G01 X46.4608 Y26.3996
G01 X46.3280 Y26.3783
G01 X46.1985 Y26.3400
G01 X46.0754 Y26.2852
G01 X45.9600 Y26.2154
G01 X45.8547 Y26.1309
G01 X45.7606 Y26.0344
G01 X45.6802 Y25.9264
G01 X45.6142 Y25.8090
G01 X45.5633 Y25.6839
G01 X45.5293 Y25.5534
G01 X45.5119 Y25.4196
G01 X45.5119 Y25.2848
G01 X45.5293 Y25.1509
G01 X45.5633 Y25.0205
G01 X45.6142 Y24.8954
G01 X45.6802 Y24.7780
G01 X45.7606 Y24.6700
G01 X45.8547 Y24.5734
G01 X45.9600 Y24.4890
G01 X46.0754 Y24.4192
G01 X46.1985 Y24.3644
G01 X46.3280 Y24.3261
G01 X46.4608 Y24.3048
G01 X46.5956 Y24.3004
G01 X46.7299 Y24.3135
G01 X46.8614 Y24.3436
G01 X46.9880 Y24.3902
G01 X47.1078 Y24.4522
G01 X47.2183 Y24.5293
G01 X47.3182 Y24.6199
G01 X47.4055 Y24.7228
G01 X47.4792 Y24.8357
G01 X47.5373 Y24.9574
G01 X47.5800 Y25.0855
G01 X47.6057 Y25.2174
G01 X47.6145 Y25.3522
G01 X47.6057 Y25.4870
G01 X47.5800 Y25.6188
G01 X47.5373 Y25.7469
G01 X47.4792 Y25.8687
G01 X47.4055 Y25.9816
G01 X47.3182 Y26.0844
G01 X47.2183 Y26.1751
G01 X47.1078 Y26.2521
G01 X47.0589 Y26.2775
G01 X47.1456 Y26.2255
G01 X47.2283 Y26.1641
G01 X47.3047 Y26.0949
G01 X47.3723 Y26.0204
G01 X47.4366 Y25.9337
G01 X47.4882 Y25.8474
G01 X47.5323 Y25.7543
G01 X47.5670 Y25.6572
G01 X47.5915 Y25.5597
G01 X47.6073 Y25.4529
G01 X47.6122 Y25.3524
G01 X47.6072 Y25.2495
G01 X47.5920 Y25.1476
G01 X47.5677 Y25.0500
G01 X47.5313 Y24.9484
G01 X47.4882 Y24.8575
G01 X47.4353 Y24.7691
G01 X47.3739 Y24.6863
G01 X47.3064 Y24.6118
G01 X47.2264 Y24.5393
G01 X47.1456 Y24.4794
G01 X47.0572 Y24.4264
G01 X46.9640 Y24.3824
G01 X46.8693 Y24.3484
G01 X46.7646 Y24.3222
G01 X46.6651 Y24.3075
G01 X46.5622 Y24.3024
G01 X46.4593 Y24.3075
G01 X46.3574 Y24.3226
G01 X46.2574 Y24.3477
G01 X46.1604 Y24.3824
G01 X46.0672 Y24.4264
G01 X45.9789 Y24.4794
G01 X45.8961 Y24.5408
G01 X45.8197 Y24.6100
G01 X45.7505 Y24.6863
G01 X45.6892 Y24.7691
G01 X45.6362 Y24.8575
G01 X45.5921 Y24.9506
G01 X45.5574 Y25.0476
G01 X45.5324 Y25.1476
G01 X45.5173 Y25.2495
G01 X45.5123 Y25.3500
G00 Z2.0000
G00 X46.6702 Y26.3967
G01 F60.00
G01 Z-0.0500
G01 F120.00
G01 X46.7671 Y26.3823
G01 X46.8670 Y26.3572
G01 X46.9640 Y26.3225
G01 X47.0540 Y26.2800
G01 X46.9880 Y26.3142
G01 X46.8614 Y26.3608
G01 X46.7299 Y26.3909
G01 X46.6702 Y26.3967
G00 Z2.0000
G00 X48.0523 Y25.3500
G01 F60.00
G01 Z-0.0500
G01 F120.00
G01 X48.0573 Y25.4554
G01 X48.0724 Y25.5573
G01 X48.0974 Y25.6572
G01 X48.1321 Y25.7543
G01 X48.1762 Y25.8474
G01 X48.2292 Y25.9358
G01 X48.2905 Y26.0186
G01 X48.3606 Y26.0958
G01 X48.4361 Y26.1641
G01 X48.5189 Y26.2255
G01 X48.6072 Y26.2785
G01 X48.7015 Y26.3230
G01 X48.7974 Y26.3572
G01 X48.8998 Y26.3827
G01 X49.0017 Y26.3976
G01 X49.1022 Y26.4024
G01 X49.1998 Y26.3977
G01 X49.1356 Y26.4040
G01 X49.0008 Y26.3996
G01 X48.8680 Y26.3783
G01 X48.7385 Y26.3400
G01 X48.6154 Y26.2852
G01 X48.5000 Y26.2154
G01 X48.3947 Y26.1309
G01 X48.3006 Y26.0344
G01 X48.2202 Y25.9264
G01 X48.1542 Y25.8090
G01 X48.1033 Y25.6839
G01 X48.0693 Y25.5534
G01 X48.0519 Y25.4196
G01 X48.0519 Y25.2848
G01 X48.0693 Y25.1509
G01 X48.1033 Y25.0205
G01 X48.1542 Y24.8954
G01 X48.2202 Y24.7780
G01 X48.3006 Y24.6700
G01 X48.3947 Y24.5734
G01 X48.5000 Y24.4890
G01 X48.6154 Y24.4192
G01 X48.7385 Y24.3644
G01 X48.8680 Y24.3261
G01 X49.0008 Y24.3048
G01 X49.1356 Y24.3004
G01 X49.2699 Y24.3135
G01 X49.4014 Y24.3436
G01 X49.5280 Y24.3902
G01 X49.6478 Y24.4522
G01 X49.7583 Y24.5293
G01 X49.8582 Y24.6199
G01 X49.9455 Y24.7228
G01 X50.0192 Y24.8357
G01 X50.0773 Y24.9574
G01 X50.1200 Y25.0855
G01 X50.1457 Y25.2174
G01 X50.1545 Y25.3522
G01 X50.1457 Y25.4870
G01 X50.1200 Y25.6188
G01 X50.0773 Y25.7469
G01 X50.0192 Y25.8687
G01 X49.9455 Y25.9816
G01 X49.8582 Y26.0844
G01 X49.7583 Y26.1751
G01 X49.6478 Y26.2521
G01 X49.5989 Y26.2775
G01 X49.6856 Y26.2255
G01 X49.7683 Y26.1641
G01 X49.8447 Y26.0949
G01 X49.9123 Y26.0204
G01 X49.9766 Y25.9337
G01 X50.0282 Y25.8474
G01 X50.0723 Y25.7543
G01 X50.1070 Y25.6572
G01 X50.1315 Y25.5597
G01 X50.1473 Y25.4529
G01 X50.1522 Y25.3524
G01 X50.1472 Y25.2495
G01 X50.1320 Y25.1476
G01 X50.1077 Y25.0500
G01 X50.0713 Y24.9484
G01 X50.0282 Y24.8575
G01 X49.9753 Y24.7691
G01 X49.9139 Y24.6863
G01 X49.8464 Y24.6118
G01 X49.7664 Y24.5393
G01 X49.6856 Y24.4794
G01 X49.5972 Y24.4264
G01 X49.5040 Y24.3824
G01 X49.4093 Y24.3484
G01 X49.3046 Y24.3222
G01 X49.2051 Y24.3075
G01 X49.1022 Y24.3024
G01 X48.9993 Y24.3075
G01 X48.8974 Y24.3226
G01 X48.7974 Y24.3477
G01 X48.7004 Y24.3824
G01 X48.6072 Y24.4264
G01 X48.5189 Y24.4794
G01 X48.4361 Y24.5408
G01 X48.3597 Y24.6100
G01 X48.2905 Y24.6863
G01 X48.2292 Y24.7691
G01 X48.1762 Y24.8575
G01 X48.1321 Y24.9506
G01 X48.0974 Y25.0476
G01 X48.0724 Y25.1476
G01 X48.0573 Y25.2495
G01 X48.0523 Y25.3500
G00 Z2.0000
G00 X49.2102 Y26.3967
G01 F60.00
G01 Z-0.0500
G01 F120.00
G01 X49.3071 Y26.3823
G01 X49.4070 Y26.3572
G01 X49.5040 Y26.3225
G01 X49.5940 Y26.2800
G01 X49.5280 Y26.3142
G01 X49.4014 Y26.3608
G01 X49.2699 Y26.3909
G01 X49.2102 Y26.3967
G00 Z2.0000
G00 X50.5923 Y25.3500
G01 F60.00
G01 Z-0.0500
G01 F120.00
G01 X50.5973 Y25.4554
G01 X50.6124 Y25.5573
G01 X50.6374 Y25.6572
G01 X50.6721 Y25.7543
G01 X50.7162 Y25.8474
G01 X50.7692 Y25.9358
G01 X50.8305 Y26.0186
G01 X50.9006 Y26.0958
G01 X50.9761 Y26.1641
G01 X51.0589 Y26.2255
G01 X51.1472 Y26.2785
G01 X51.2415 Y26.3230
G01 X51.3374 Y26.3572
G01 X51.4398 Y26.3827
G01 X51.5417 Y26.3976
G01 X51.6422 Y26.4024
G01 X51.7398 Y26.3977
G01 X51.6756 Y26.4040
G01 X51.5408 Y26.3996
G01 X51.4080 Y26.3783
G01 X51.2785 Y26.3400
G01 X51.1554 Y26.2852
G01 X51.0400 Y26.2154
G01 X50.9347 Y26.1309
G01 X50.8406 Y26.0344
G01 X50.7602 Y25.9264
G01 X50.6942 Y25.8090
G01 X50.6433 Y25.6839
G01 X50.6093 Y25.5534
G01 X50.5919 Y25.4196
G01 X50.5919 Y25.2848
G01 X50.6093 Y25.1509
G01 X50.6433 Y25.0205
G01 X50.6942 Y24.8954
G01 X50.7602 Y24.7780
G01 X50.8406 Y24.6700
G01 X50.9347 Y24.5734
G01 X51.0400 Y24.4890
G01 X51.1554 Y24.4192
G01 X51.2785 Y24.3644
G01 X51.4080 Y24.3261
G01 X51.5408 Y24.3048
G01 X51.6756 Y24.3004
G01 X51.8099 Y24.3135
G01 X51.9414 Y24.3436
G01 X52.0680 Y24.3902
G01 X52.1878 Y24.4522
G01 X52.2983 Y24.5293
G01 X52.3982 Y24.6199
G01 X52.4855 Y24.7228
G01 X52.5592 Y24.8357
G01 X52.6173 Y24.9574
G01 X52.6600 Y25.0855
G01 X52.6857 Y25.2174
G01 X52.6945 Y25.3522
G01 X52.6857 Y25.4870
G01 X52.6600 Y25.6188
G01 X52.6173 Y25.7469
G01 X52.5592 Y25.8687
G01 X52.4855 Y25.9816
G01 X52.3982 Y26.0844
G01 X52.2983 Y26.1751
G01 X52.1878 Y26.2521
G01 X52.1389 Y26.2775
G01 X52.2256 Y26.2255
G01 X52.3083 Y26.1641
G01 X52.3847 Y26.0949
G01 X52.4523 Y26.0204
G01 X52.5166 Y25.9337
G01 X52.5682 Y25.8474
G01 X52.6123 Y25.7543
G01 X52.6470 Y25.6572
G01 X52.6715 Y25.5597
G01 X52.6873 Y25.4529
G01 X52.6922 Y25.3524
G01 X52.6872 Y25.2495
G01 X52.6720 Y25.1476
G01 X52.6477 Y25.0500
G01 X52.6113 Y24.9484
G01 X52.5682 Y24.8575
G01 X52.5153 Y24.7691
G01 X52.4539 Y24.6863
G01 X52.3864 Y24.6118
G01 X52.3064 Y24.5393
G01 X52.2256 Y24.4794
G01 X52.1372 Y24.4264
G01 X52.0440 Y24.3824
G01 X51.9493 Y24.3484
G01 X51.8446 Y24.3222
G01 X51.7451 Y24.3075
G01 X51.6422 Y24.3024
G01 X51.5393 Y24.3075
G01 X51.4374 Y24.3226
G01 X51.3374 Y24.3477
G01 X51.2404 Y24.3824
G01 X51.1472 Y24.4264
G01 X51.0589 Y24.4794
G01 X50.9761 Y24.5408
G01 X50.8997 Y24.6100
G01 X50.8305 Y24.6863
G01 X50.7692 Y24.7691
G01 X50.7162 Y24.8575
G01 X50.6721 Y24.9506
G01 X50.6374 Y25.0476
G01 X50.6124 Y25.1476
G01 X50.5973 Y25.2495
G01 X50.5923 Y25.3500
G00 Z2.0000
G00 X51.7502 Y26.3967
G01 F60.00
G01 Z-0.0500
G01 F120.00
G01 X51.8471 Y26.3823
G01 X51.9470 Y26.3572
G01 X52.0440 Y26.3225
G01 X52.1340 Y26.2800
G01 X52.0680 Y26.3142
G01 X51.9414 Y26.3608
G01 X51.8099 Y26.3909
G01 X51.7502 Y26.3967
G00 Z2.0000
G00 X58.2113 Y25.3500
G01 F60.00
G01 Z-0.0500
G01 F120.00
G01 X58.2162 Y25.4554
G01 X58.2314 Y25.5573
G01 X58.2564 Y25.6572
G01 X58.2911 Y25.7543
G01 X58.3352 Y25.8474
G01 X58.3881 Y25.9358
G01 X58.4495 Y26.0186
G01 X58.5172 Y26.0933
G01 X58.4601 Y26.0344
G01 X58.3791 Y25.9263
G01 X58.3132 Y25.8090
G01 X58.2623 Y25.6839
G01 X58.2283 Y25.5534
G01 X58.2109 Y25.4196
G01 X58.2109 Y25.2848
G01 X58.2283 Y25.1509
G01 X58.2623 Y25.0205
G01 X58.3132 Y24.8954
G01 X58.3791 Y24.7781
G01 X58.4601 Y24.6700
G01 X58.5537 Y24.5734
G01 X58.6590 Y24.4890
G01 X58.7743 Y24.4192
G01 X58.8980 Y24.3644
G01 X59.0269 Y24.3261
G01 X59.1603 Y24.3048
G01 X59.2951 Y24.3004
G01 X59.4289 Y24.3135
G01 X59.5604 Y24.3436
G01 X59.6870 Y24.3902
G01 X59.8068 Y24.4522
G01 X59.9173 Y24.5293
G01 X60.0172 Y24.6199
G01 X60.1045 Y24.7228
G01 X60.1781 Y24.8357
G01 X60.2363 Y24.9574
G01 X60.2790 Y25.0855
G01 X60.3047 Y25.2174
G01 X60.3134 Y25.3522
G01 X60.3047 Y25.4870
G01 X60.2790 Y25.6188
G01 X60.2363 Y25.7469
G01 X60.1781 Y25.8687
G01 X60.1045 Y25.9816
G01 X60.0172 Y26.0844
G01 X59.9173 Y26.1751
G01 X59.8068 Y26.2521
G01 X59.7579 Y26.2775
G01 X59.8445 Y26.2255
G01 X59.9273 Y26.1641
G01 X60.0037 Y26.0949
G01 X60.0712 Y26.0204
G01 X60.1355 Y25.9337
G01 X60.1872 Y25.8474
G01 X60.2313 Y25.7543
G01 X60.2660 Y25.6572
G01 X60.2905 Y25.5597
G01 X60.3063 Y25.4529
G01 X60.3112 Y25.3524
G01 X60.3061 Y25.2495
G01 X60.2910 Y25.1476
G01 X60.2666 Y25.0500
G01 X60.2303 Y24.9484
G01 X60.1872 Y24.8575
G01 X60.1342 Y24.7691
G01 X60.0729 Y24.6863
G01 X60.0053 Y24.6118
G01 X59.9254 Y24.5393
G01 X59.8445 Y24.4794
G01 X59.7562 Y24.4264
G01 X59.6630 Y24.3824
G01 X59.5683 Y24.3484
G01 X59.4636 Y24.3222
G01 X59.3641 Y24.3075
G01 X59.2612 Y24.3024
G01 X59.1583 Y24.3075
G01 X59.0563 Y24.3226
G01 X58.9564 Y24.3477
G01 X58.8594 Y24.3824
G01 X58.7662 Y24.4264
G01 X58.6778 Y24.4794
G01 X58.5951 Y24.5408
G01 X58.5187 Y24.6100
G01 X58.4495 Y24.6863
G01 X58.3881 Y24.7691
G01 X58.3352 Y24.8575
G01 X58.2911 Y24.9506
G01 X58.2564 Y25.0476
G01 X58.2314 Y25.1476
G01 X58.2162 Y25.2495
G01 X58.2113 Y25.3500
G00 Z2.0000
G00 X58.5191 Y26.0953
G01 F60.00
G01 Z-0.0500
G01 F120.00
G01 X58.5951 Y26.1641
G01 X58.6778 Y26.2255
G01 X58.7662 Y26.2785
G01 X58.8617 Y26.3234
G01 X58.9564 Y26.3572
G01 X59.0588 Y26.3827
G01 X59.1607 Y26.3976
G01 X59.2612 Y26.4024
G01 X59.3593 Y26.3977
G01 X59.2951 Y26.4040
G01 X59.1603 Y26.3996
G01 X59.0269 Y26.3783
G01 X58.8980 Y26.3400
G01 X58.7743 Y26.2852
G01 X58.6590 Y26.2154
G01 X58.5537 Y26.1310
G01 X58.5191 Y26.0953
G00 Z2.0000
G00 X59.3688 Y26.3968
G01 F60.00
G01 Z-0.0500
G01 F120.00
G01 X59.4660 Y26.3823
G01 X59.5660 Y26.3572
G01 X59.6630 Y26.3225
G01 X59.7530 Y26.2800
G01 X59.6870 Y26.3142
G01 X59.5604 Y26.3608
G01 X59.4289 Y26.3909
G01 X59.3688 Y26.3968
G00 Z2.0000
G00 X61.0591 Y26.0953
G01 F60.00
G01 Z-0.0500
G01 F120.00
G01 X61.1351 Y26.1641
G01 X61.2178 Y26.2255
G01 X61.3062 Y26.2785
G01 X61.4017 Y26.3234
G01 X61.4964 Y26.3572
G01 X61.5988 Y26.3827
G01 X61.7007 Y26.3976
G01 X61.8012 Y26.4024
G01 X61.8993 Y26.3977
G01 X61.8351 Y26.4040
G01 X61.7003 Y26.3996
G01 X61.5669 Y26.3783
G01 X61.4380 Y26.3400
G01 X61.3143 Y26.2852
G01 X61.1990 Y26.2154
G01 X61.0937 Y26.1310
G01 X61.0591 Y26.0953
G00 Z2.0000
G00 X60.7513 Y25.3500
G01 F60.00
G01 Z-0.0500
G01 F120.00
G01 X60.7562 Y25.4554
G01 X60.7714 Y25.5573
G01 X60.7964 Y25.6572
G01 X60.8311 Y25.7543
G01 X60.8752 Y25.8474
G01 X60.9281 Y25.9358
G01 X60.9895 Y26.0186
G01 X61.0572 Y26.0933
G01 X61.0001 Y26.0344
G01 X60.9191 Y25.9263
G01 X60.8532 Y25.8090
G01 X60.8023 Y25.6839
G01 X60.7683 Y25.5534
G01 X60.7509 Y25.4196
G01 X60.7509 Y25.2848
G01 X60.7683 Y25.1509
G01 X60.8023 Y25.0205
G01 X60.8532 Y24.8954
G01 X60.9191 Y24.7781
G01 X61.0001 Y24.6700
G01 X61.0937 Y24.5734
G01 X61.1990 Y24.4890
G01 X61.3143 Y24.4192
G01 X61.4380 Y24.3644
G01 X61.5669 Y24.3261
G01 X61.7003 Y24.3048
G01 X61.8351 Y24.3004
G01 X61.9689 Y24.3135
G01 X62.1004 Y24.3436
G01 X62.2270 Y24.3902
G01 X62.3468 Y24.4522
G01 X62.4573 Y24.5293
G01 X62.5572 Y24.6199
G01 X62.6445 Y24.7228
G01 X62.7181 Y24.8357
G01 X62.7763 Y24.9574
G01 X62.8190 Y25.0855
G01 X62.8447 Y25.2174
G01 X62.8534 Y25.3522
G01 X62.8447 Y25.4870
G01 X62.8190 Y25.6188
G01 X62.7763 Y25.7469
G01 X62.7181 Y25.8687
G01 X62.6445 Y25.9816
G01 X62.5572 Y26.0844
G01 X62.4573 Y26.1751
G01 X62.3468 Y26.2521
G01 X62.2979 Y26.2775
G01 X62.3845 Y26.2255
G01 X62.4673 Y26.1641
G01 X62.5437 Y26.0949
G01 X62.6112 Y26.0204
G01 X62.6755 Y25.9337
G01 X62.7272 Y25.8474
G01 X62.7713 Y25.7543
G01 X62.8060 Y25.6572
G01 X62.8305 Y25.5597
G01 X62.8463 Y25.4529
G01 X62.8512 Y25.3524
G01 X62.8461 Y25.2495
G01 X62.8310 Y25.1476
G01 X62.8066 Y25.0500
G01 X62.7703 Y24.9484
G01 X62.7272 Y24.8575
G01 X62.6742 Y24.7691
G01 X62.6129 Y24.6863
G01 X62.5453 Y24.6118
G01 X62.4654 Y24.5393
G01 X62.3845 Y24.4794
G01 X62.2962 Y24.4264
G01 X62.2030 Y24.3824
G01 X62.1083 Y24.3484
G01 X62.0036 Y24.3222
G01 X61.9041 Y24.3075
G01 X61.8012 Y24.3024
G01 X61.6983 Y24.3075
G01 X61.5963 Y24.3226
G01 X61.4964 Y24.3477
G01 X61.3994 Y24.3824
G01 X61.3062 Y24.4264
G01 X61.2178 Y24.4794
G01 X61.1351 Y24.5408
G01 X61.0587 Y24.6100
G01 X60.9895 Y24.6863
G01 X60.9281 Y24.7691
G01 X60.8752 Y24.8575
G01 X60.8311 Y24.9506
G01 X60.7964 Y25.0476
G01 X60.7714 Y25.1476
G01 X60.7562 Y25.2495
G01 X60.7513 Y25.3500
G00 Z2.0000
G00 X61.9088 Y26.3968
G01 F60.00
G01 Z-0.0500
G01 F120.00
G01 X62.0060 Y26.3823
G01 X62.1060 Y26.3572
G01 X62.2030 Y26.3225
G01 X62.2930 Y26.2800
G01 X62.2270 Y26.3142
G01 X62.1004 Y26.3608
G01 X61.9689 Y26.3909
G01 X61.9088 Y26.3968
G00 Z2.0000
G00 X63.5991 Y26.0953
G01 F60.00
G01 Z-0.0500
G01 F120.00
G01 X63.6751 Y26.1641
G01 X63.7578 Y26.2255
G01 X63.8462 Y26.2785
G01 X63.9417 Y26.3234
G01 X64.0364 Y26.3572
G01 X64.1388 Y26.3827
G01 X64.2407 Y26.3976
G01 X64.3412 Y26.4024
G01 X64.4393 Y26.3977
G01 X64.3751 Y26.4040
G01 X64.2403 Y26.3996
G01 X64.1069 Y26.3783
G01 X63.9780 Y26.3400
G01 X63.8543 Y26.2852
G01 X63.7390 Y26.2154
G01 X63.6337 Y26.1310
G01 X63.5991 Y26.0953
G00 Z2.0000
G00 X63.2913 Y25.3500
G01 F60.00
G01 Z-0.0500
G01 F120.00
G01 X63.2962 Y25.4554
G01 X63.3114 Y25.5573
G01 X63.3364 Y25.6572
G01 X63.3711 Y25.7543
G01 X63.4152 Y25.8474
G01 X63.4681 Y25.9358
G01 X63.5295 Y26.0186
G01 X63.5972 Y26.0933
G01 X63.5401 Y26.0344
G01 X63.4591 Y25.9263
G01 X63.3932 Y25.8090
G01 X63.3423 Y25.6839
G01 X63.3083 Y25.5534
G01 X63.2909 Y25.4196
G01 X63.2909 Y25.2848
G01 X63.3083 Y25.1509
G01 X63.3423 Y25.0205
G01 X63.3932 Y24.8954
G01 X63.4591 Y24.7781
G01 X63.5401 Y24.6700
G01 X63.6337 Y24.5734
G01 X63.7390 Y24.4890
G01 X63.8543 Y24.4192
G01 X63.9780 Y24.3644
G01 X64.1069 Y24.3261
G01 X64.2403 Y24.3048
G01 X64.3751 Y24.3004
G01 X64.5089 Y24.3135
G01 X64.6404 Y24.3436
G01 X64.7670 Y24.3902
G01 X64.8868 Y24.4522
G01 X64.9973 Y24.5293
G01 X65.0972 Y24.6199
G01 X65.1845 Y24.7228
G01 X65.2581 Y24.8357
G01 X65.3163 Y24.9574
G01 X65.3590 Y25.0855
G01 X65.3847 Y25.2174
G01 X65.3934 Y25.3522
G01 X65.3847 Y25.4870
G01 X65.3590 Y25.6188
G01 X65.3163 Y25.7469
G01 X65.2581 Y25.8687
G01 X65.1845 Y25.9816
G01 X65.0972 Y26.0844
G01 X64.9973 Y26.1751
G01 X64.8868 Y26.2521
G01 X64.8379 Y26.2775
G01 X64.9245 Y26.2255
G01 X65.0073 Y26.1641
G01 X65.0837 Y26.0949
G01 X65.1512 Y26.0204
G01 X65.2155 Y25.9337
G01 X65.2672 Y25.8474
G01 X65.3113 Y25.7543
G01 X65.3460 Y25.6572
G01 X65.3705 Y25.5597
G01 X65.3863 Y25.4529
G01 X65.3912 Y25.3524
G01 X65.3861 Y25.2495
G01 X65.3710 Y25.1476
G01 X65.3466 Y25.0500
G01 X65.3103 Y24.9484
G01 X65.2672 Y24.8575
G01 X65.2142 Y24.7691
G01 X65.1529 Y24.6863
G01 X65.0853 Y24.6118
G01 X65.0054 Y24.5393
G01 X64.9245 Y24.4794
G01 X64.8362 Y24.4264
G01 X64.7430 Y24.3824
G01 X64.6483 Y24.3484
G01 X64.5436 Y24.3222
G01 X64.4441 Y24.3075
G01 X64.3412 Y24.3024
G01 X64.2383 Y24.3075
G01 X64.1363 Y24.3226
G01 X64.0364 Y24.3477
G01 X63.9394 Y24.3824
G01 X63.8462 Y24.4264
G01 X63.7578 Y24.4794
G01 X63.6751 Y24.5408
G01 X63.5987 Y24.6100
G01 X63.5295 Y24.6863
G01 X63.4681 Y24.7691
G01 X63.4152 Y24.8575
G01 X63.3711 Y24.9506
G01 X63.3364 Y25.0476
G01 X63.3114 Y25.1476
G01 X63.2962 Y25.2495
G01 X63.2913 Y25.3500
G00 Z2.0000
G00 X64.4488 Y26.3968
G01 F60.00
G01 Z-0.0500
G01 F120.00
G01 X64.5460 Y26.3823
G01 X64.6460 Y26.3572
G01 X64.7430 Y26.3225
G01 X64.8330 Y26.2800
G01 X64.7670 Y26.3142
G01 X64.6404 Y26.3608
G01 X64.5089 Y26.3909
G01 X64.4488 Y26.3968
G00 Z2.0000
G00 X66.1391 Y26.0953
G01 F60.00
G01 Z-0.0500
G01 F120.00
G01 X66.2151 Y26.1641
G01 X66.2978 Y26.2255
G01 X66.3862 Y26.2785
G01 X66.4817 Y26.3234
G01 X66.5764 Y26.3572
G01 X66.6788 Y26.3827
G01 X66.7807 Y26.3976
G01 X66.8812 Y26.4024
G01 X66.9793 Y26.3977
G01 X66.9151 Y26.4040
G01 X66.7803 Y26.3996
G01 X66.6469 Y26.3783
G01 X66.5180 Y26.3400
G01 X66.3943 Y26.2852
G01 X66.2790 Y26.2154
G01 X66.1737 Y26.1310
G01 X66.1391 Y26.0953
G00 Z2.0000
G00 X65.8313 Y25.3500
G01 F60.00
G01 Z-0.0500
G01 F120.00
G01 X65.8362 Y25.4554
G01 X65.8514 Y25.5573
G01 X65.8764 Y25.6572
G01 X65.9111 Y25.7543
G01 X65.9552 Y25.8474
G01 X66.0081 Y25.9358
G01 X66.0695 Y26.0186
G01 X66.1372 Y26.0933
G01 X66.0801 Y26.0344
G01 X65.9991 Y25.9263
G01 X65.9332 Y25.8090
G01 X65.8823 Y25.6839
G01 X65.8483 Y25.5534
G01 X65.8309 Y25.4196
G01 X65.8309 Y25.2848
G01 X65.8483 Y25.1509
G01 X65.8823 Y25.0205
G01 X65.9332 Y24.8954
G01 X65.9991 Y24.7781
G01 X66.0801 Y24.6700
G01 X66.1737 Y24.5734
G01 X66.2790 Y24.4890
G01 X66.3943 Y24.4192
G01 X66.5180 Y24.3644
G01 X66.6469 Y24.3261
G01 X66.7803 Y24.3048
G01 X66.9151 Y24.3004
G01 X67.0489 Y24.3135
G01 X67.1804 Y24.3436
G01 X67.3070 Y24.3902
G01 X67.4268 Y24.4522
G01 X67.5373 Y24.5293
G01 X67.6372 Y24.6199
G01 X67.7245 Y24.7228
G01 X67.7981 Y24.8357
G01 X67.8563 Y24.9574
G01 X67.8990 Y25.0855
G01 X67.9247 Y25.2174
G01 X67.9334 Y25.3522
G01 X67.9247 Y25.4870
G01 X67.8990 Y25.6188
G01 X67.8563 Y25.7469
G01 X67.7981 Y25.8687
G01 X67.7245 Y25.9816
G01 X67.6372 Y26.0844
G01 X67.5373 Y26.1751
G01 X67.4268 Y26.2521
G01 X67.3779 Y26.2775
G01 X67.4645 Y26.2255
G01 X67.5473 Y26.1641
G01 X67.6237 Y26.0949
G01 X67.6912 Y26.0204
G01 X67.7555 Y25.9337
G01 X67.8072 Y25.8474
G01 X67.8513 Y25.7543
G01 X67.8860 Y25.6572
G01 X67.9105 Y25.5597
G01 X67.9263 Y25.4529
G01 X67.9312 Y25.3524
G01 X67.9261 Y25.2495
G01 X67.9110 Y25.1476
G01 X67.8866 Y25.0500
G01 X67.8503 Y24.9484
G01 X67.8072 Y24.8575
G01 X67.7542 Y24.7691
G01 X67.6929 Y24.6863
G01 X67.6253 Y24.6118
G01 X67.5454 Y24.5393
G01 X67.4645 Y24.4794
G01 X67.3762 Y24.4264
G01 X67.2830 Y24.3824
G01 X67.1883 Y24.3484
G01 X67.0836 Y24.3222
G01 X66.9841 Y24.3075
G01 X66.8812 Y24.3024
G01 X66.7783 Y24.3075
G01 X66.6763 Y24.3226
G01 X66.5764 Y24.3477
G01 X66.4794 Y24.3824
G01 X66.3862 Y24.4264
G01 X66.2978 Y24.4794
G01 X66.2151 Y24.5408
G01 X66.1387 Y24.6100
G01 X66.0695 Y24.6863
G01 X66.0081 Y24.7691
G01 X65.9552 Y24.8575
G01 X65.9111 Y24.9506
G01 X65.8764 Y25.0476
G01 X65.8514 Y25.1476
G01 X65.8362 Y25.2495
G01 X65.8313 Y25.3500
G00 Z2.0000
G00 X66.9888 Y26.3968
G01 F60.00
G01 Z-0.0500
G01 F120.00
G01 X67.0860 Y26.3823
G01 X67.1860 Y26.3572
G01 X67.2830 Y26.3225
G01 X67.3730 Y26.2800
G01 X67.3070 Y26.3142
G01 X67.1804 Y26.3608
G01 X67.0489 Y26.3909
G01 X66.9888 Y26.3968
G00 Z2.0000
G00 X68.6791 Y26.0953
G01 F60.00
G01 Z-0.0500
G01 F120.00
G01 X68.7551 Y26.1641
G01 X68.8378 Y26.2255
G01 X68.9262 Y26.2785
G01 X69.0217 Y26.3234
G01 X69.1164 Y26.3572
G01 X69.2188 Y26.3827
G01 X69.3207 Y26.3976
G01 X69.4212 Y26.4024
G01 X69.5193 Y26.3977
G01 X69.4551 Y26.4040
G01 X69.3203 Y26.3996
G01 X69.1869 Y26.3783
G01 X69.0580 Y26.3400
G01 X68.9343 Y26.2852
G01 X68.8190 Y26.2154
G01 X68.7137 Y26.1310
G01 X68.6791 Y26.0953
G00 Z2.0000
G00 X68.3713 Y25.3500
G01 F60.00
G01 Z-0.0500
G01 F120.00
G01 X68.3762 Y25.4554
G01 X68.3914 Y25.5573
G01 X68.4164 Y25.6572
G01 X68.4511 Y25.7543
G01 X68.4952 Y25.8474
G01 X68.5481 Y25.9358
G01 X68.6095 Y26.0186
G01 X68.6772 Y26.0933
G01 X68.6201 Y26.0344
G01 X68.5391 Y25.9263
G01 X68.4732 Y25.8090
G01 X68.4223 Y25.6839
G01 X68.3883 Y25.5534
G01 X68.3709 Y25.4196
G01 X68.3709 Y25.2848
G01 X68.3883 Y25.1509
G01 X68.4223 Y25.0205
G01 X68.4732 Y24.8954
G01 X68.5391 Y24.7781
G01 X68.6201 Y24.6700
G01 X68.7137 Y24.5734
G01 X68.8190 Y24.4890
G01 X68.9343 Y24.4192
G01 X69.0580 Y24.3644
G01 X69.1869 Y24.3261
G01 X69.3203 Y24.3048
G01 X69.4551 Y24.3004
G01 X69.5889 Y24.3135
G01 X69.7204 Y24.3436
G01 X69.8470 Y24.3902
G01 X69.9668 Y24.4522
G01 X70.0773 Y24.5293
G01 X70.1772 Y24.6199
G01 X70.2645 Y24.7228
G01 X70.3381 Y24.8357
G01 X70.3963 Y24.9574
G01 X70.4390 Y25.0855
G01 X70.4647 Y25.2174
G01 X70.4734 Y25.3522
G01 X70.4647 Y25.4870
G01 X70.4390 Y25.6188
G01 X70.3963 Y25.7469
G01 X70.3381 Y25.8687
G01 X70.2645 Y25.9816
G01 X70.1772 Y26.0844
G01 X70.0773 Y26.1751
G01 X69.9668 Y26.2521
G01 X69.9179 Y26.2775
G01 X70.0045 Y26.2255
G01 X70.0873 Y26.1641
G01 X70.1637 Y26.0949
G01 X70.2312 Y26.0204
G01 X70.2955 Y25.9337
G01 X70.3472 Y25.8474
G01 X70.3913 Y25.7543
G01 X70.4260 Y25.6572
G01 X70.4505 Y25.5597
G01 X70.4663 Y25.4529
G01 X70.4712 Y25.3524
G01 X70.4661 Y25.2495
G01 X70.4510 Y25.1476
G01 X70.4266 Y25.0500
G01 X70.3903 Y24.9484
G01 X70.3472 Y24.8575
G01 X70.2942 Y24.7691
G01 X70.2329 Y24.6863
G01 X70.1653 Y24.6118
G01 X70.0854 Y24.5393
G01 X70.0045 Y24.4794
G01 X69.9162 Y24.4264
G01 X69.8230 Y24.3824
G01 X69.7283 Y24.3484
G01 X69.6236 Y24.3222
G01 X69.5241 Y24.3075
G01 X69.4212 Y24.3024
G01 X69.3183 Y24.3075
G01 X69.2163 Y24.3226
G01 X69.1164 Y24.3477
G01 X69.0194 Y24.3824
G01 X68.9262 Y24.4264
G01 X68.8378 Y24.4794
G01 X68.7551 Y24.5408
G01 X68.6787 Y24.6100
G01 X68.6095 Y24.6863
G01 X68.5481 Y24.7691
G01 X68.4952 Y24.8575
G01 X68.4511 Y24.9506
G01 X68.4164 Y25.0476
G01 X68.3914 Y25.1476
G01 X68.3762 Y25.2495
G01 X68.3713 Y25.3500
G00 Z2.0000
G00 X69.5288 Y26.3968
G01 F60.00
G01 Z-0.0500
G01 F120.00
G01 X69.6260 Y26.3823
G01 X69.7260 Y26.3572
G01 X69.8230 Y26.3225
G01 X69.9130 Y26.2800
G01 X69.8470 Y26.3142
G01 X69.7204 Y26.3608
G01 X69.5889 Y26.3909
G01 X69.5288 Y26.3968
G00 Z2.0000
G00 X71.2191 Y26.0953
G01 F60.00
G01 Z-0.0500
G01 F120.00
G01 X71.2951 Y26.1641
G01 X71.3778 Y26.2255
G01 X71.4662 Y26.2785
G01 X71.5617 Y26.3234
G01 X71.6564 Y26.3572
G01 X71.7588 Y26.3827
G01 X71.8607 Y26.3976
G01 X71.9612 Y26.4024
G01 X72.0593 Y26.3977
G01 X71.9951 Y26.4040
G01 X71.8603 Y26.3996
G01 X71.7269 Y26.3783
G01 X71.5980 Y26.3400
G01 X71.4743 Y26.2852
G01 X71.3590 Y26.2154
G01 X71.2537 Y26.1310
G01 X71.2191 Y26.0953
G00 Z2.0000
G00 X70.9113 Y25.3500
G01 F60.00
G01 Z-0.0500
G01 F120.00
G01 X70.9162 Y25.4554
G01 X70.9314 Y25.5573
G01 X70.9564 Y25.6572
G01 X70.9911 Y25.7543
G01 X71.0352 Y25.8474
G01 X71.0881 Y25.9358
G01 X71.1495 Y26.0186
G01 X71.2172 Y26.0933
G01 X71.1601 Y26.0344
G01 X71.0791 Y25.9263
G01 X71.0132 Y25.8090
G01 X70.9623 Y25.6839
G01 X70.9283 Y25.5534
G01 X70.9109 Y25.4196
G01 X70.9109 Y25.2848
G01 X70.9283 Y25.1509
G01 X70.9623 Y25.0205
G01 X71.0132 Y24.8954
G01 X71.0791 Y24.7781
G01 X71.1601 Y24.6700
G01 X71.2537 Y24.5734
G01 X71.3590 Y24.4890
G01 X71.4743 Y24.4192
G01 X71.5980 Y24.3644
G01 X71.7269 Y24.3261
G01 X71.8603 Y24.3048
G01 X71.9951 Y24.3004
G01 X72.1289 Y24.3135
G01 X72.2604 Y24.3436
G01 X72.3870 Y24.3902
G01 X72.5068 Y24.4522
G01 X72.6173 Y24.5293
G01 X72.7172 Y24.6199
G01 X72.8045 Y24.7228
G01 X72.8781 Y24.8357
G01 X72.9363 Y24.9574
G01 X72.9790 Y25.0855
G01 X73.0047 Y25.2174
G01 X73.0134 Y25.3522
G01 X73.0047 Y25.4870
G01 X72.9790 Y25.6188
G01 X72.9363 Y25.7469
G01 X72.8781 Y25.8687
G01 X72.8045 Y25.9816
G01 X72.7172 Y26.0844
G01 X72.6173 Y26.1751
G01 X72.5068 Y26.2521
G01 X72.4579 Y26.2775
G01 X72.5445 Y26.2255
G01 X72.6273 Y26.1641
G01 X72.7037 Y26.0949
G01 X72.7712 Y26.0204
G01 X72.8355 Y25.9337
G01 X72.8872 Y25.8474
G01 X72.9313 Y25.7543
G01 X72.9660 Y25.6572
G01 X72.9905 Y25.5597
G01 X73.0063 Y25.4529
G01 X73.0112 Y25.3524
G01 X73.0061 Y25.2495
G01 X72.9910 Y25.1476
G01 X72.9666 Y25.0500
G01 X72.9303 Y24.9484
G01 X72.8872 Y24.8575
G01 X72.8342 Y24.7691
G01 X72.7729 Y24.6863
G01 X72.7053 Y24.6118
G01 X72.6254 Y24.5393
G01 X72.5445 Y24.4794
G01 X72.4562 Y24.4264
G01 X72.3630 Y24.3824
G01 X72.2683 Y24.3484
G01 X72.1636 Y24.3222
G01 X72.0641 Y24.3075
G01 X71.9612 Y24.3024
G01 X71.8583 Y24.3075
G01 X71.7563 Y24.3226
G01 X71.6564 Y24.3477
G01 X71.5594 Y24.3824
G01 X71.4662 Y24.4264
G01 X71.3778 Y24.4794
G01 X71.2951 Y24.5408
G01 X71.2187 Y24.6100
G01 X71.1495 Y24.6863
G01 X71.0881 Y24.7691
G01 X71.0352 Y24.8575
G01 X70.9911 Y24.9506
G01 X70.9564 Y25.0476
G01 X70.9314 Y25.1476
G01 X70.9162 Y25.2495
G01 X70.9113 Y25.3500
G00 Z2.0000
G00 X72.0688 Y26.3968
G01 F60.00
G01 Z-0.0500
G01 F120.00
G01 X72.1660 Y26.3823
G01 X72.2660 Y26.3572
G01 X72.3630 Y26.3225
G01 X72.4530 Y26.2800
G01 X72.3870 Y26.3142
G01 X72.2604 Y26.3608
G01 X72.1289 Y26.3909
G01 X72.0688 Y26.3968
G00 Z2.0000
G00 X73.7591 Y26.0953
G01 F60.00
G01 Z-0.0500
G01 F120.00
G01 X73.8351 Y26.1641
G01 X73.9178 Y26.2255
G01 X74.0062 Y26.2785
G01 X74.1017 Y26.3234
G01 X74.1964 Y26.3572
G01 X74.2988 Y26.3827
G01 X74.4007 Y26.3976
G01 X74.5012 Y26.4024
G01 X74.5993 Y26.3977
G01 X74.5351 Y26.4040
G01 X74.4003 Y26.3996
G01 X74.2669 Y26.3783
G01 X74.1380 Y26.3400
G01 X74.0143 Y26.2852
G01 X73.8990 Y26.2154
G01 X73.7937 Y26.1310
G01 X73.7591 Y26.0953
G00 Z2.0000
G00 X73.4513 Y25.3500
G01 F60.00
G01 Z-0.0500
G01 F120.00
G01 X73.4562 Y25.4554
G01 X73.4714 Y25.5573
G01 X73.4964 Y25.6572
G01 X73.5311 Y25.7543
G01 X73.5752 Y25.8474
G01 X73.6281 Y25.9358
G01 X73.6895 Y26.0186
G01 X73.7572 Y26.0933
G01 X73.7001 Y26.0344
G01 X73.6191 Y25.9263
G01 X73.5532 Y25.8090
G01 X73.5023 Y25.6839
G01 X73.4683 Y25.5534
G01 X73.4509 Y25.4196
G01 X73.4509 Y25.2848
G01 X73.4683 Y25.1509
G01 X73.5023 Y25.0205
G01 X73.5532 Y24.8954
G01 X73.6191 Y24.7781
G01 X73.7001 Y24.6700
G01 X73.7937 Y24.5734
G01 X73.8990 Y24.4890
G01 X74.0143 Y24.4192
G01 X74.1380 Y24.3644
G01 X74.2669 Y24.3261
G01 X74.4003 Y24.3048
G01 X74.5351 Y24.3004
G01 X74.6689 Y24.3135
G01 X74.8004 Y24.3436
G01 X74.9270 Y24.3902
G01 X75.0468 Y24.4522
G01 X75.1573 Y24.5293
G01 X75.2572 Y24.6199
G01 X75.3445 Y24.7228
G01 X75.4181 Y24.8357
G01 X75.4763 Y24.9574
G01 X75.5190 Y25.0855
G01 X75.5447 Y25.2174
G01 X75.5534 Y25.3522
G01 X75.5447 Y25.4870
G01 X75.5190 Y25.6188
G01 X75.4763 Y25.7469
G01 X75.4181 Y25.8687
G01 X75.3445 Y25.9816
G01 X75.2572 Y26.0844
G01 X75.1573 Y26.1751
G01 X75.0468 Y26.2521
G01 X74.9979 Y26.2775
G01 X75.0845 Y26.2255
G01 X75.1673 Y26.1641
G01 X75.2437 Y26.0949
G01 X75.3112 Y26.0204
G01 X75.3755 Y25.9337
G01 X75.4272 Y25.8474
G01 X75.4713 Y25.7543
G01 X75.5060 Y25.6572
G01 X75.5305 Y25.5597
G01 X75.5463 Y25.4529
G01 X75.5512 Y25.3524
G01 X75.5461 Y25.2495
G01 X75.5310 Y25.1476
G01 X75.5066 Y25.0500
G01 X75.4703 Y24.9484
G01 X75.4272 Y24.8575
G01 X75.3742 Y24.7691
G01 X75.3129 Y24.6863
G01 X75.2453 Y24.6118
G01 X75.1654 Y24.5393
G01 X75.0845 Y24.4794
G01 X74.9962 Y24.4264
G01 X74.9030 Y24.3824
G01 X74.8083 Y24.3484
G01 X74.7036 Y24.3222
G01 X74.6041 Y24.3075
G01 X74.5012 Y24.3024
G01 X74.3983 Y24.3075
G01 X74.2963 Y24.3226
G01 X74.1964 Y24.3477
G01 X74.0994 Y24.3824
G01 X74.0062 Y24.4264
G01 X73.9178 Y24.4794
G01 X73.8351 Y24.5408
G01 X73.7587 Y24.6100
G01 X73.6895 Y24.6863
G01 X73.6281 Y24.7691
G01 X73.5752 Y24.8575
G01 X73.5311 Y24.9506
G01 X73.4964 Y25.0476
G01 X73.4714 Y25.1476
G01 X73.4562 Y25.2495
G01 X73.4513 Y25.3500
G00 Z2.0000
G00 X74.6088 Y26.3968
G01 F60.00
G01 Z-0.0500
G01 F120.00
G01 X74.7060 Y26.3823
G01 X74.8060 Y26.3572
G01 X74.9030 Y26.3225
G01 X74.9930 Y26.2800
G01 X74.9270 Y26.3142
G01 X74.8004 Y26.3608
G01 X74.6689 Y26.3909
G01 X74.6088 Y26.3968
G00 Z2.0000
G00 X76.2991 Y26.0953
G01 F60.00
G01 Z-0.0500
G01 F120.00
G01 X76.3751 Y26.1641
G01 X76.4578 Y26.2255
G01 X76.5462 Y26.2785
G01 X76.6417 Y26.3234
G01 X76.7364 Y26.3572
G01 X76.8388 Y26.3827
G01 X76.9407 Y26.3976
G01 X77.0412 Y26.4024
G01 X77.1393 Y26.3977
G01 X77.0751 Y26.4040
G01 X76.9403 Y26.3996
G01 X76.8069 Y26.3783
G01 X76.6780 Y26.3400
G01 X76.5543 Y26.2852
G01 X76.4390 Y26.2154
G01 X76.3337 Y26.1310
G01 X76.2991 Y26.0953
G00 Z2.0000
G00 X75.9913 Y25.3500
G01 F60.00
G01 Z-0.0500
G01 F120.00
G01 X75.9962 Y25.4554
G01 X76.0114 Y25.5573
G01 X76.0364 Y25.6572
G01 X76.0711 Y25.7543
G01 X76.1152 Y25.8474
G01 X76.1681 Y25.9358
G01 X76.2295 Y26.0186
G01 X76.2972 Y26.0933
G01 X76.2401 Y26.0344
G01 X76.1591 Y25.9263
G01 X76.0932 Y25.8090
G01 X76.0423 Y25.6839
G01 X76.0083 Y25.5534
G01 X75.9909 Y25.4196
G01 X75.9909 Y25.2848
G01 X76.0083 Y25.1509
G01 X76.0423 Y25.0205
G01 X76.0932 Y24.8954
G01 X76.1591 Y24.7781
G01 X76.2401 Y24.6700
G01 X76.3337 Y24.5734
G01 X76.4390 Y24.4890
G01 X76.5543 Y24.4192
G01 X76.6780 Y24.3644
G01 X76.8069 Y24.3261
G01 X76.9403 Y24.3048
G01 X77.0751 Y24.3004
G01 X77.2089 Y24.3135
G01 X77.3404 Y24.3436
G01 X77.4670 Y24.3902
G01 X77.5868 Y24.4522
G01 X77.6973 Y24.5293
G01 X77.7972 Y24.6199
G01 X77.8845 Y24.7228
G01 X77.9581 Y24.8357
G01 X78.0163 Y24.9574
G01 X78.0590 Y25.0855
G01 X78.0847 Y25.2174
G01 X78.0934 Y25.3522
G01 X78.0847 Y25.4870
G01 X78.0590 Y25.6188
G01 X78.0163 Y25.7469
G01 X77.9581 Y25.8687
G01 X77.8845 Y25.9816
G01 X77.7972 Y26.0844
G01 X77.6973 Y26.1751
G01 X77.5868 Y26.2521
G01 X77.5379 Y26.2775
G01 X77.6245 Y26.2255
G01 X77.7073 Y26.1641
G01 X77.7837 Y26.0949
G01 X77.8512 Y26.0204
G01 X77.9155 Y25.9337
G01 X77.9672 Y25.8474
G01 X78.0113 Y25.7543
G01 X78.0460 Y25.6572
G01 X78.0705 Y25.5597
G01 X78.0863 Y25.4529
G01 X78.0912 Y25.3524
G01 X78.0861 Y25.2495
G01 X78.0710 Y25.1476
G01 X78.0466 Y25.0500
G01 X78.0103 Y24.9484
G01 X77.9672 Y24.8575
G01 X77.9142 Y24.7691
G01 X77.8529 Y24.6863
G01 X77.7853 Y24.6118
G01 X77.7054 Y24.5393
G01 X77.6245 Y24.4794
G01 X77.5362 Y24.4264
G01 X77.4430 Y24.3824
G01 X77.3483 Y24.3484
G01 X77.2436 Y24.3222
G01 X77.1441 Y24.3075
G01 X77.0412 Y24.3024
G01 X76.9383 Y24.3075
G01 X76.8363 Y24.3226
G01 X76.7364 Y24.3477
G01 X76.6394 Y24.3824
G01 X76.5462 Y24.4264
G01 X76.4578 Y24.4794
G01 X76.3751 Y24.5408
G01 X76.2987 Y24.6100
G01 X76.2295 Y24.6863
G01 X76.1681 Y24.7691
G01 X76.1152 Y24.8575
G01 X76.0711 Y24.9506
G01 X76.0364 Y25.0476
G01 X76.0114 Y25.1476
G01 X75.9962 Y25.2495
G01 X75.9913 Y25.3500
G00 Z2.0000
G00 X77.1488 Y26.3968
G01 F60.00
G01 Z-0.0500
G01 F120.00
G01 X77.2460 Y26.3823
G01 X77.3460 Y26.3572
G01 X77.4430 Y26.3225
G01 X77.5330 Y26.2800
G01 X77.4670 Y26.3142
G01 X77.3404 Y26.3608
G01 X77.2089 Y26.3909
G01 X77.1488 Y26.3968
G00 Z2.0000
G00 X78.1413 Y19.6934
G01 F60.00
G01 Z-0.0500
G01 F120.00
G01 X77.9731 Y19.6934
G01 X77.8062 Y19.6752
G01 X77.6419 Y19.6392
G01 X77.4824 Y19.5851
G01 X77.3298 Y19.5147
G01 X77.1862 Y19.4281
G01 X77.0523 Y19.3262
G01 X76.9302 Y19.2106
G01 X76.8215 Y19.0826
G01 X76.7270 Y18.9433
G01 X76.6482 Y18.7953
G01 X76.5862 Y18.6387
G01 X76.5410 Y18.4768
G01 X76.5139 Y18.3110
G01 X76.5050 Y18.1432
G01 X76.5139 Y17.9753
G01 X76.5410 Y17.8095
G01 X76.5862 Y17.6476
G01 X76.6482 Y17.4916
G01 X76.7270 Y17.3430
G01 X76.8215 Y17.2037
G01 X76.9302 Y17.0757
G01 X77.0523 Y16.9601
G01 X77.1862 Y16.8582
G01 X77.3298 Y16.7716
G01 X77.4823 Y16.7013
G01 X77.6419 Y16.6476
G01 X77.8063 Y16.6112
G01 X77.9731 Y16.5930
G01 X78.1413 Y16.5930
G01 X78.3081 Y16.6112
G01 X78.4725 Y16.6476
G01 X78.6320 Y16.7013
G01 X78.7846 Y16.7716
G01 X78.9282 Y16.8582
G01 X79.0621 Y16.9601
G01 X79.1842 Y17.0757
G01 X79.2929 Y17.2037
G01 X79.3874 Y17.3430
G01 X79.4661 Y17.4916
G01 X79.5282 Y17.6476
G01 X79.5734 Y17.8095
G01 X79.6005 Y17.9754
G01 X79.6099 Y18.1432
G01 X79.6005 Y18.3110
G01 X79.5734 Y18.4768
G01 X79.5282 Y18.6387
G01 X79.4661 Y18.7953
G01 X79.3874 Y18.9433
G01 X79.2929 Y19.0826
G01 X79.1842 Y19.2106
G01 X79.0621 Y19.3262
G01 X78.9282 Y19.4281
G01 X78.7846 Y19.5147
G01 X78.6320 Y19.5851
G01 X78.4725 Y19.6392
G01 X78.3082 Y19.6752
G01 X78.1413 Y19.6934
G00 Z2.0000
G00 X76.5073 Y18.1407
G01 F60.00
G01 Z-0.0500
G01 F120.00
G01 X76.5147 Y17.9912
G01 X76.5370 Y17.8408
G01 X76.5739 Y17.6932
G01 X76.6252 Y17.5500
G01 X76.6902 Y17.4125
G01 X76.7684 Y17.2820
G01 X76.8590 Y17.1599
G01 X76.9612 Y17.0472
G01 X77.0739 Y16.9450
G01 X77.1961 Y16.8544
G01 X77.3265 Y16.7762
G01 X77.4640 Y16.7112
G01 X77.6072 Y16.6599
G01 X77.7548 Y16.6230
G01 X77.9053 Y16.6006
G01 X78.0572 Y16.5932
G01 X78.2091 Y16.6006
G01 X78.3596 Y16.6230
G01 X78.5071 Y16.6599
G01 X78.6503 Y16.7112
G01 X78.7879 Y16.7762
G01 X78.9183 Y16.8544
G01 X79.0405 Y16.9450
G01 X79.1532 Y17.0472
G01 X79.2554 Y17.1599
G01 X79.3460 Y17.2820
G01 X79.4242 Y17.4125
G01 X79.4892 Y17.5500
G01 X79.5404 Y17.6932
G01 X79.5774 Y17.8408
G01 X79.5997 Y17.9912
G01 X79.6072 Y18.1432
G01 X79.5997 Y18.2951
G01 X79.5774 Y18.4456
G01 X79.5404 Y18.5931
G01 X79.4892 Y18.7363
G01 X79.4242 Y18.8738
G01 X79.3460 Y19.0043
G01 X79.2554 Y19.1265
G01 X79.1532 Y19.2392
G01 X79.0405 Y19.3413
G01 X78.9183 Y19.4319
G01 X78.7879 Y19.5101
G01 X78.6503 Y19.5752
G01 X78.5071 Y19.6264
G01 X78.3596 Y19.6634
G01 X78.2091 Y19.6857
G01 X78.0572 Y19.6932
G01 X77.9053 Y19.6857
G01 X77.7548 Y19.6634
G01 X77.6072 Y19.6264
G01 X77.4640 Y19.5752
G01 X77.3265 Y19.5101
G01 X77.1961 Y19.4319
G01 X77.0739 Y19.3413
G01 X76.9612 Y19.2392
G01 X76.8590 Y19.1265
G01 X76.7684 Y19.0043
G01 X76.6902 Y18.8738
G01 X76.6252 Y18.7363
G01 X76.5739 Y18.5931
G01 X76.5370 Y18.4456
G01 X76.5147 Y18.2951
G01 X76.5073 Y18.1407
G00 Z2.0000
G00 X78.0797 Y8.6931
G01 F60.00
G01 Z-0.0500
G01 F120.00
G01 X78.2292 Y8.6857
G01 X78.3772 Y8.6638
G01 X78.5272 Y8.6264
G01 X78.6727 Y8.5742
G01 X78.8079 Y8.5102
G01 X78.9363 Y8.4333
G01 X79.0606 Y8.3414
G01 X79.1750 Y8.2374
G01 X79.2754 Y8.1265
G01 X79.3646 Y8.0063
G01 X79.4434 Y7.8754
G01 X79.4072 Y7.9437
G01 X79.3132 Y8.0824
G01 X79.2044 Y8.2109
G01 X79.0825 Y8.3265
G01 X78.9486 Y8.4279
G01 X78.8044 Y8.5150
G01 X78.6519 Y8.5853
G01 X78.4924 Y8.6390
G01 X78.3285 Y8.6749
G01 X78.1612 Y8.6931
G01 X78.0797 Y8.6931
G00 Z2.0000
G00 X79.4452 Y7.8719
G01 F60.00
G01 Z-0.0500
G01 F120.00
G01 X79.5102 Y7.7341
G01 X79.5605 Y7.5931
G01 X79.5969 Y7.4480
G01 X79.6198 Y7.2951
G01 X79.6273 Y7.1432
G01 X79.6198 Y6.9913
G01 X79.5969 Y6.8384
G01 X79.5605 Y6.6932
G01 X79.5102 Y6.5523
G01 X79.4452 Y6.4144
G01 X79.4860 Y6.4914
G01 X79.5485 Y6.6474
G01 X79.5932 Y6.8092
G01 X79.6203 Y6.9751
G01 X79.6297 Y7.1434
G01 X79.6203 Y7.3112
G01 X79.5932 Y7.4771
G01 X79.5485 Y7.6390
G01 X79.4860 Y7.7950
G01 X79.4452 Y7.8719
G00 Z2.0000
G00 X79.4434 Y6.4110
G01 F60.00
G01 Z-0.0500
G01 F120.00
G01 X79.3646 Y6.2801
G01 X79.2754 Y6.1599
G01 X79.1750 Y6.0490
G01 X79.0606 Y5.9450
G01 X78.9363 Y5.8531
G01 X78.8079 Y5.7762
G01 X78.6727 Y5.7122
G01 X78.5272 Y5.6599
G01 X78.3772 Y5.6226
G01 X78.2292 Y5.6007
G01 X78.0794 Y5.5932
G01 X78.1612 Y5.5932
G01 X78.3285 Y5.6115
G01 X78.4924 Y5.6474
G01 X78.6518 Y5.7010
G01 X78.8044 Y5.7719
G01 X78.9486 Y5.8585
G01 X79.0825 Y5.9599
G01 X79.2044 Y6.0755
G01 X79.3132 Y6.2039
G01 X79.4072 Y6.3427
G01 X79.4434 Y6.4110
G00 Z2.0000
G00 X76.5273 Y7.1407
G01 F60.00
G01 Z-0.0500
G01 F120.00
G01 X76.5347 Y7.2951
G01 X76.5570 Y7.4456
G01 X76.5940 Y7.5931
G01 X76.6452 Y7.7363
G01 X76.7103 Y7.8739
G01 X76.7885 Y8.0043
G01 X76.8791 Y8.1265
G01 X76.9812 Y8.2392
G01 X77.0940 Y8.3414
G01 X77.2161 Y8.4320
G01 X77.3466 Y8.5102
G01 X77.4841 Y8.5752
G01 X77.6273 Y8.6264
G01 X77.7749 Y8.6634
G01 X77.9253 Y8.6857
G01 X78.0748 Y8.6931
G01 X77.9934 Y8.6931
G01 X77.8260 Y8.6749
G01 X77.6616 Y8.6390
G01 X77.5027 Y8.5854
G01 X77.3502 Y8.5150
G01 X77.2059 Y8.4279
G01 X77.0721 Y8.3265
G01 X76.9501 Y8.2109
G01 X76.8413 Y8.0824
G01 X76.7468 Y7.9436
G01 X76.6681 Y7.7950
G01 X76.6061 Y7.6391
G01 X76.5613 Y7.4771
G01 X76.5337 Y7.3112
G01 X76.5248 Y7.1434
G01 X76.5337 Y6.9751
G01 X76.5613 Y6.8093
G01 X76.6061 Y6.6473
G01 X76.6681 Y6.4913
G01 X76.7468 Y6.3428
G01 X76.8413 Y6.2040
G01 X76.9501 Y6.0755
G01 X77.0721 Y5.9599
G01 X77.2059 Y5.8585
G01 X77.3502 Y5.7719
G01 X77.5028 Y5.7010
G01 X77.6616 Y5.6474
G01 X77.8260 Y5.6115
G01 X77.9934 Y5.5932
G01 X78.0751 Y5.5932
G01 X77.9253 Y5.6007
G01 X77.7749 Y5.6230
G01 X77.6273 Y5.6599
G01 X77.4841 Y5.7112
G01 X77.3466 Y5.7762
G01 X77.2161 Y5.8544
G01 X77.0940 Y5.9450
G01 X76.9812 Y6.0472
G01 X76.8791 Y6.1599
G01 X76.7885 Y6.2821
G01 X76.7103 Y6.4125
G01 X76.6452 Y6.5500
G01 X76.5940 Y6.6932
G01 X76.5570 Y6.8408
G01 X76.5347 Y6.9913
G01 X76.5273 Y7.1407
G00 Z2.0000
G00 X74.3652 Y7.8719
G01 F60.00
G01 Z-0.0500
G01 F120.00
G01 X74.4302 Y7.7341
G01 X74.4805 Y7.5931
G01 X74.5169 Y7.4480
G01 X74.5398 Y7.2951
G01 X74.5473 Y7.1432
G01 X74.5398 Y6.9913
G01 X74.5169 Y6.8384
G01 X74.4805 Y6.6932
G01 X74.4302 Y6.5523
G01 X74.3652 Y6.4144
G01 X74.4060 Y6.4914
G01 X74.4685 Y6.6474
G01 X74.5132 Y6.8092
G01 X74.5403 Y6.9751
G01 X74.5497 Y7.1434
G01 X74.5403 Y7.3112
G01 X74.5132 Y7.4771
G01 X74.4685 Y7.6390
G01 X74.4060 Y7.7950
G01 X74.3652 Y7.8719
G00 Z2.0000
G00 X74.3634 Y6.4110
G01 F60.00
G01 Z-0.0500
G01 F120.00
G01 X74.2846 Y6.2801
G01 X74.1954 Y6.1599
G01 X74.0950 Y6.0490
G01 X73.9806 Y5.9450
G01 X73.8563 Y5.8531
G01 X73.7279 Y5.7762
G01 X73.5927 Y5.7122
G01 X73.4472 Y5.6599
G01 X73.2972 Y5.6226
G01 X73.1492 Y5.6007
G01 X72.9994 Y5.5932
G01 X73.0812 Y5.5932
G01 X73.2485 Y5.6115
G01 X73.4124 Y5.6474
G01 X73.5718 Y5.7010
G01 X73.7244 Y5.7719
G01 X73.8686 Y5.8585
G01 X74.0025 Y5.9599
G01 X74.1244 Y6.0755
G01 X74.2332 Y6.2039
G01 X74.3272 Y6.3427
G01 X74.3634 Y6.4110
G00 Z2.0000
G00 X72.9997 Y8.6931
G01 F60.00
G01 Z-0.0500
G01 F120.00
G01 X73.1492 Y8.6857
G01 X73.2972 Y8.6638
G01 X73.4472 Y8.6264
G01 X73.5927 Y8.5742
G01 X73.7279 Y8.5102
G01 X73.8563 Y8.4333
G01 X73.9806 Y8.3414
G01 X74.0950 Y8.2374
G01 X74.1954 Y8.1265
G01 X74.2846 Y8.0063
G01 X74.3634 Y7.8754
G01 X74.3272 Y7.9437
G01 X74.2332 Y8.0824
G01 X74.1244 Y8.2109
G01 X74.0025 Y8.3265
G01 X73.8686 Y8.4279
G01 X73.7244 Y8.5150
G01 X73.5719 Y8.5853
G01 X73.4124 Y8.6390
G01 X73.2485 Y8.6749
G01 X73.0812 Y8.6931
G01 X72.9997 Y8.6931
G00 Z2.0000
G00 X71.4473 Y7.1407
G01 F60.00
G01 Z-0.0500
G01 F120.00
G01 X71.4547 Y7.2951
G01 X71.4770 Y7.4456
G01 X71.5140 Y7.5931
G01 X71.5652 Y7.7363
G01 X71.6303 Y7.8739
G01 X71.7085 Y8.0043
G01 X71.7991 Y8.1265
G01 X71.9012 Y8.2392
G01 X72.0140 Y8.3414
G01 X72.1361 Y8.4320
G01 X72.2666 Y8.5102
G01 X72.4041 Y8.5752
G01 X72.5473 Y8.6264
G01 X72.6949 Y8.6634
G01 X72.8453 Y8.6857
G01 X72.9948 Y8.6931
G01 X72.9134 Y8.6931
G01 X72.7460 Y8.6749
G01 X72.5816 Y8.6390
G01 X72.4227 Y8.5854
G01 X72.2702 Y8.5150
G01 X72.1259 Y8.4279
G01 X71.9921 Y8.3265
G01 X71.8701 Y8.2109
G01 X71.7613 Y8.0824
G01 X71.6668 Y7.9436
G01 X71.5881 Y7.7950
G01 X71.5261 Y7.6391
G01 X71.4813 Y7.4771
G01 X71.4537 Y7.3112
G01 X71.4448 Y7.1434
G01 X71.4537 Y6.9751
G01 X71.4813 Y6.8093
G01 X71.5261 Y6.6473
G01 X71.5881 Y6.4913
G01 X71.6668 Y6.3428
G01 X71.7613 Y6.2040
G01 X71.8701 Y6.0755
G01 X71.9921 Y5.9599
G01 X72.1259 Y5.8585
G01 X72.2702 Y5.7719
G01 X72.4228 Y5.7010
G01 X72.5816 Y5.6474
G01 X72.7460 Y5.6115
G01 X72.9134 Y5.5932
G01 X72.9951 Y5.5932
G01 X72.8453 Y5.6007
G01 X72.6949 Y5.6230
G01 X72.5473 Y5.6599
G01 X72.4041 Y5.7112
G01 X72.2666 Y5.7762
G01 X72.1361 Y5.8544
G01 X72.0140 Y5.9450
G01 X71.9012 Y6.0472
G01 X71.7991 Y6.1599
G01 X71.7085 Y6.2821
G01 X71.6303 Y6.4125
G01 X71.5652 Y6.5500
G01 X71.5140 Y6.6932
G01 X71.4770 Y6.8408
G01 X71.4547 Y6.9913
G01 X71.4473 Y7.1407
G00 Z2.0000
G00 X52.0109 Y14.9552
G01 F60.00
G01 Z-0.0500
G01 F120.00
G01 X51.8762 Y14.9508
G01 X51.7433 Y14.9290
G01 X51.6137 Y14.8907
G01 X51.4907 Y14.8364
G01 X51.3752 Y14.7660
G01 X51.2695 Y14.6821
G01 X51.1760 Y14.5852
G01 X51.0954 Y14.4770
G01 X51.0290 Y14.3597
G01 X50.9786 Y14.2346
G01 X50.9441 Y14.1041
G01 X50.9272 Y13.9708
G01 X50.9272 Y13.8359
G01 X50.9441 Y13.7021
G01 X50.9786 Y13.5717
G01 X51.0290 Y13.4466
G01 X51.0954 Y13.3293
G01 X51.1760 Y13.2211
G01 X51.2695 Y13.1241
G01 X51.3751 Y13.0403
G01 X51.4907 Y12.9704
G01 X51.6138 Y12.9156
G01 X51.7432 Y12.8773
G01 X51.8761 Y12.8560
G01 X52.0110 Y12.8516
G01 X52.1453 Y12.8642
G01 X52.2767 Y12.8943
G01 X52.4032 Y12.9408
G01 X52.5225 Y13.0034
G01 X52.6331 Y13.0805
G01 X52.7330 Y13.1712
G01 X52.8207 Y13.2740
G01 X52.8940 Y13.3870
G01 X52.9527 Y13.5083
G01 X52.9953 Y13.6362
G01 X53.0210 Y13.7685
G01 X53.0292 Y13.9034
G01 X53.0210 Y14.0378
G01 X52.9953 Y14.1701
G01 X52.9527 Y14.2981
G01 X52.8939 Y14.4199
G01 X52.8208 Y14.5328
G01 X52.7330 Y14.6350
G01 X52.6331 Y14.7258
G01 X52.5225 Y14.8029
G01 X52.4032 Y14.8655
G01 X52.2767 Y14.9120
G01 X52.1452 Y14.9421
G01 X52.0109 Y14.9552
G00 Z2.0000
G00 X50.9273 Y13.9007
G01 F60.00
G01 Z-0.0500
G01 F120.00
G01 X50.9323 Y13.8002
G01 X50.9474 Y13.6983
G01 X50.9725 Y13.5984
G01 X51.0072 Y13.5013
G01 X51.0512 Y13.4082
G01 X51.1042 Y13.3198
G01 X51.1656 Y13.2370
G01 X51.2348 Y13.1607
G01 X51.3111 Y13.0915
G01 X51.3939 Y13.0301
G01 X51.4823 Y12.9771
G01 X51.5754 Y12.9331
G01 X51.6724 Y12.8984
G01 X51.7724 Y12.8733
G01 X51.8743 Y12.8582
G01 X51.9772 Y12.8532
G01 X52.0802 Y12.8582
G01 X52.1821 Y12.8733
G01 X52.2820 Y12.8984
G01 X52.3791 Y12.9331
G01 X52.4722 Y12.9771
G01 X52.5606 Y13.0301
G01 X52.6434 Y13.0915
G01 X52.7197 Y13.1607
G01 X52.7889 Y13.2370
G01 X52.8503 Y13.3198
G01 X52.9033 Y13.4082
G01 X52.9473 Y13.5013
G01 X52.9820 Y13.5984
G01 X53.0071 Y13.6983
G01 X53.0222 Y13.8002
G01 X53.0272 Y13.9032
G01 X53.0222 Y14.0061
G01 X53.0071 Y14.1080
G01 X52.9820 Y14.2079
G01 X52.9473 Y14.3050
G01 X52.9033 Y14.3981
G01 X52.8503 Y14.4865
G01 X52.7889 Y14.5693
G01 X52.7197 Y14.6456
G01 X52.6434 Y14.7148
G01 X52.5606 Y14.7762
G01 X52.4722 Y14.8292
G01 X52.3791 Y14.8732
G01 X52.2820 Y14.9079
G01 X52.1821 Y14.9330
G01 X52.0802 Y14.9481
G01 X51.9772 Y14.9532
G01 X51.8743 Y14.9481
G01 X51.7724 Y14.9330
G01 X51.6724 Y14.9079
G01 X51.5754 Y14.8732
G01 X51.4823 Y14.8292
G01 X51.3939 Y14.7762
G01 X51.3111 Y14.7148
G01 X51.2348 Y14.6456
G01 X51.1656 Y14.5693
G01 X51.1042 Y14.4865
G01 X51.0512 Y14.3981
G01 X51.0072 Y14.3050
G01 X50.9725 Y14.2079
G01 X50.9474 Y14.1080
G01 X50.9323 Y14.0061
G01 X50.9273 Y13.9007
G00 Z2.0000
G00 X50.9273 Y16.4407
G01 F60.00
G01 Z-0.0500
G01 F120.00
G01 X50.9323 Y16.3402
G01 X50.9474 Y16.2383
G01 X50.9725 Y16.1384
G01 X51.0072 Y16.0413
G01 X51.0512 Y15.9482
G01 X51.1042 Y15.8598
G01 X51.1656 Y15.7770
G01 X51.2348 Y15.7007
G01 X51.3111 Y15.6315
G01 X51.3939 Y15.5701
G01 X51.4823 Y15.5171
G01 X51.5754 Y15.4731
G01 X51.6724 Y15.4384
G01 X51.7724 Y15.4133
G01 X51.8743 Y15.3982
G01 X51.9772 Y15.3932
G01 X52.0802 Y15.3982
G01 X52.1821 Y15.4133
G01 X52.2820 Y15.4384
G01 X52.3791 Y15.4731
G01 X52.4722 Y15.5171
G01 X52.5606 Y15.5701
G01 X52.6434 Y15.6315
G01 X52.7197 Y15.7007
G01 X52.7889 Y15.7770
G01 X52.8503 Y15.8598
G01 X52.9033 Y15.9482
G01 X52.9473 Y16.0413
G01 X52.9820 Y16.1384
G01 X53.0071 Y16.2383
G01 X53.0222 Y16.3402
G01 X53.0272 Y16.4432
G01 X53.0222 Y16.5461
G01 X53.0071 Y16.6480
G01 X52.9820 Y16.7479
G01 X52.9473 Y16.8450
G01 X52.9033 Y16.9381
G01 X52.8503 Y17.0265
G01 X52.7889 Y17.1093
G01 X52.7197 Y17.1856
G01 X52.6434 Y17.2548
G01 X52.5606 Y17.3162
G01 X52.4722 Y17.3692
G01 X52.3791 Y17.4132
G01 X52.2820 Y17.4479
G01 X52.1821 Y17.4730
G01 X52.0802 Y17.4881
G01 X51.9772 Y17.4932
G01 X51.8743 Y17.4881
G01 X51.7724 Y17.4730
G01 X51.6724 Y17.4479
G01 X51.5754 Y17.4132
G01 X51.4823 Y17.3692
G01 X51.3939 Y17.3162
G01 X51.3111 Y17.2548
G01 X51.2348 Y17.1856
G01 X51.1656 Y17.1093
G01 X51.1042 Y17.0265
G01 X51.0512 Y16.9381
G01 X51.0072 Y16.8450
G01 X50.9725 Y16.7479
G01 X50.9474 Y16.6480
G01 X50.9323 Y16.5461
G01 X50.9273 Y16.4407
G00 Z2.0000
G00 X52.0109 Y17.4952
G01 F60.00
G01 Z-0.0500
G01 F120.00
G01 X51.8762 Y17.4908
G01 X51.7433 Y17.4690
G01 X51.6137 Y17.4307
G01 X51.4907 Y17.3764
G01 X51.3752 Y17.3060
G01 X51.2695 Y17.2221
G01 X51.1760 Y17.1252
G01 X51.0954 Y17.0170
G01 X51.0290 Y16.8997
G01 X50.9786 Y16.7746
G01 X50.9441 Y16.6441
G01 X50.9272 Y16.5108
G01 X50.9272 Y16.3759
G01 X50.9441 Y16.2421
G01 X50.9786 Y16.1117
G01 X51.0290 Y15.9866
G01 X51.0954 Y15.8693
G01 X51.1760 Y15.7611
G01 X51.2695 Y15.6641
G01 X51.3751 Y15.5803
G01 X51.4907 Y15.5104
G01 X51.6138 Y15.4556
G01 X51.7432 Y15.4173
G01 X51.8761 Y15.3960
G01 X52.0110 Y15.3916
G01 X52.1453 Y15.4042
G01 X52.2767 Y15.4343
G01 X52.4032 Y15.4808
G01 X52.5225 Y15.5434
G01 X52.6331 Y15.6205
G01 X52.7330 Y15.7112
G01 X52.8207 Y15.8140
G01 X52.8940 Y15.9270
G01 X52.9527 Y16.0483
G01 X52.9953 Y16.1762
G01 X53.0210 Y16.3085
G01 X53.0292 Y16.4434
G01 X53.0210 Y16.5778
G01 X52.9953 Y16.7101
G01 X52.9527 Y16.8381
G01 X52.8939 Y16.9599
G01 X52.8208 Y17.0728
G01 X52.7330 Y17.1750
G01 X52.6331 Y17.2658
G01 X52.5225 Y17.3429
G01 X52.4032 Y17.4055
G01 X52.2767 Y17.4520
G01 X52.1452 Y17.4821
G01 X52.0109 Y17.4952
G00 Z2.0000
G00 X49.2108 Y16.1449
G01 F60.00
G01 Z-0.0500
G01 F120.00
G01 X49.0760 Y16.1405
G01 X48.9431 Y16.1192
G01 X48.8137 Y16.0809
G01 X48.6906 Y16.0261
G01 X48.5751 Y15.9563
G01 X48.4699 Y15.8724
G01 X48.3758 Y15.7754
G01 X48.2953 Y15.6673
G01 X48.2289 Y15.5499
G01 X48.1785 Y15.4249
G01 X48.1445 Y15.2944
G01 X48.1271 Y15.1605
G01 X48.1271 Y15.0258
G01 X48.1445 Y14.8919
G01 X48.1785 Y14.7614
G01 X48.2289 Y14.6369
G01 X48.2953 Y14.5190
G01 X48.3758 Y14.4109
G01 X48.4699 Y14.3144
G01 X48.5752 Y14.2300
G01 X48.6905 Y14.1602
G01 X48.8137 Y14.1059
G01 X48.9432 Y14.0671
G01 X49.0760 Y14.0457
G01 X49.2108 Y14.0414
G01 X49.3451 Y14.0545
G01 X49.4766 Y14.0845
G01 X49.6032 Y14.1311
G01 X49.7230 Y14.1932
G01 X49.8334 Y14.2702
G01 X49.9329 Y14.3609
G01 X50.0206 Y14.4637
G01 X50.0938 Y14.5767
G01 X50.1526 Y14.6985
G01 X50.1952 Y14.8265
G01 X50.2209 Y14.9588
G01 X50.2296 Y15.0931
G01 X50.2209 Y15.2280
G01 X50.1952 Y15.3603
G01 X50.1526 Y15.4878
G01 X50.0938 Y15.6096
G01 X50.0206 Y15.7226
G01 X49.9329 Y15.8254
G01 X49.8334 Y15.9161
G01 X49.7230 Y15.9931
G01 X49.6032 Y16.0552
G01 X49.4766 Y16.1017
G01 X49.3451 Y16.1318
G01 X49.2108 Y16.1449
G00 Z2.0000
G00 X48.1272 Y15.0907
G01 F60.00
G01 Z-0.0500
G01 F120.00
G01 X48.1322 Y14.9902
G01 X48.1473 Y14.8883
G01 X48.1724 Y14.7883
G01 X48.2071 Y14.6913
G01 X48.2511 Y14.5982
G01 X48.3041 Y14.5098
G01 X48.3655 Y14.4270
G01 X48.4347 Y14.3507
G01 X48.5110 Y14.2815
G01 X48.5938 Y14.2201
G01 X48.6822 Y14.1671
G01 X48.7753 Y14.1231
G01 X48.8723 Y14.0884
G01 X48.9723 Y14.0633
G01 X49.0742 Y14.0482
G01 X49.1771 Y14.0431
G01 X49.2801 Y14.0482
G01 X49.3820 Y14.0633
G01 X49.4819 Y14.0884
G01 X49.5790 Y14.1231
G01 X49.6721 Y14.1671
G01 X49.7605 Y14.2201
G01 X49.8433 Y14.2815
G01 X49.9196 Y14.3507
G01 X49.9888 Y14.4270
G01 X50.0502 Y14.5098
G01 X50.1032 Y14.5982
G01 X50.1472 Y14.6913
G01 X50.1819 Y14.7883
G01 X50.2070 Y14.8883
G01 X50.2221 Y14.9902
G01 X50.2271 Y15.0931
G01 X50.2221 Y15.1961
G01 X50.2070 Y15.2980
G01 X50.1819 Y15.3979
G01 X50.1472 Y15.4950
G01 X50.1032 Y15.5881
G01 X50.0502 Y15.6765
G01 X49.9888 Y15.7593
G01 X49.9196 Y15.8356
G01 X49.8433 Y15.9048
G01 X49.7605 Y15.9662
G01 X49.6721 Y16.0192
G01 X49.5790 Y16.0632
G01 X49.4819 Y16.0979
G01 X49.3820 Y16.1230
G01 X49.2801 Y16.1381
G01 X49.1771 Y16.1431
G01 X49.0742 Y16.1381
G01 X48.9723 Y16.1230
G01 X48.8723 Y16.0979
G01 X48.7753 Y16.0632
G01 X48.6822 Y16.0192
G01 X48.5938 Y15.9662
G01 X48.5110 Y15.9048
G01 X48.4347 Y15.8356
G01 X48.3655 Y15.7593
G01 X48.3041 Y15.6765
G01 X48.2511 Y15.5881
G01 X48.2071 Y15.4950
G01 X48.1724 Y15.3979
G01 X48.1473 Y15.2980
G01 X48.1322 Y15.1961
G01 X48.1272 Y15.0907
G00 Z2.0000
G00 X29.5312 Y10.7998
G01 F60.00
G01 Z-0.0500
G01 F120.00
G01 X27.5231 Y10.7998
G01 X27.4956 Y10.7956
G01 X27.4818 Y10.7883
G01 X27.4701 Y10.7766
G01 X27.4628 Y10.7628
G01 X27.4586 Y10.7352
G01 X27.4586 Y8.7271
G01 X27.4628 Y8.6996
G01 X27.4701 Y8.6858
G01 X27.4818 Y8.6741
G01 X27.4956 Y8.6668
G01 X27.5231 Y8.6626
G01 X29.5313 Y8.6626
G01 X29.5588 Y8.6668
G01 X29.5726 Y8.6741
G01 X29.5843 Y8.6858
G01 X29.5916 Y8.6996
G01 X29.5958 Y8.7271
G01 X29.5958 Y10.7352
G01 X29.5916 Y10.7628
G01 X29.5843 Y10.7766
G01 X29.5726 Y10.7883
G01 X29.5588 Y10.7956
G01 X29.5312 Y10.7998
G00 Z2.0000
G00 X29.5772 Y8.7312
G01 F60.00
G01 Z-0.0500
G01 F120.00
G01 X29.5772 Y10.7312
G01 X29.5762 Y10.7409
G01 X29.5750 Y10.7457
G01 X29.5729 Y10.7515
G01 X29.5681 Y10.7600
G01 X29.5617 Y10.7674
G01 X29.5539 Y10.7734
G01 X29.5452 Y10.7778
G01 X29.5369 Y10.7802
G01 X29.5272 Y10.7812
G01 X27.5272 Y10.7812
G01 X27.5174 Y10.7802
G01 X27.5127 Y10.7790
G01 X27.5069 Y10.7769
G01 X27.4984 Y10.7721
G01 X27.4910 Y10.7657
G01 X27.4850 Y10.7579
G01 X27.4806 Y10.7492
G01 X27.4782 Y10.7409
G01 X27.4772 Y10.7312
G01 X27.4772 Y8.7312
G01 X27.4782 Y8.7214
G01 X27.4810 Y8.7121
G01 X27.4831 Y8.7076
G01 X27.4863 Y8.7024
G01 X27.4927 Y8.6950
G01 X27.5005 Y8.6890
G01 X27.5092 Y8.6846
G01 X27.5187 Y8.6819
G01 X27.5272 Y8.6812
G01 X29.5284 Y8.6812
G01 X29.5381 Y8.6824
G01 X29.5475 Y8.6855
G01 X29.5560 Y8.6903
G01 X29.5634 Y8.6967
G01 X29.5694 Y8.7045
G01 X29.5738 Y8.7132
G01 X29.5762 Y8.7214
G01 X29.5772 Y8.7312
G00 Z2.0000
G00 X23.4127 Y10.7987
G01 F60.00
G01 Z-0.0500
G01 F120.00
G01 X23.2768 Y10.7856
G01 X23.1434 Y10.7555
G01 X23.0149 Y10.7080
G01 X22.8935 Y10.6449
G01 X22.7809 Y10.5663
G01 X22.6795 Y10.4746
G01 X22.5913 Y10.3703
G01 X22.5165 Y10.2552
G01 X22.4568 Y10.1319
G01 X22.4136 Y10.0019
G01 X22.3874 Y9.8680
G01 X22.3787 Y9.7312
G01 X22.3874 Y9.5944
G01 X22.4136 Y9.4605
G01 X22.4568 Y9.3304
G01 X22.5165 Y9.2072
G01 X22.5913 Y9.0921
G01 X22.6795 Y8.9878
G01 X22.7809 Y8.8961
G01 X22.8935 Y8.8175
G01 X23.0149 Y8.7544
G01 X23.1434 Y8.7069
G01 X23.2768 Y8.6768
G01 X23.4127 Y8.6637
G01 X23.5496 Y8.6680
G01 X23.6850 Y8.6899
G01 X23.8160 Y8.7287
G01 X23.9412 Y8.7840
G01 X24.0586 Y8.8549
G01 X24.1653 Y8.9402
G01 X24.2604 Y9.0387
G01 X24.3425 Y9.1485
G01 X24.4099 Y9.2678
G01 X24.4609 Y9.3944
G01 X24.4958 Y9.5269
G01 X24.5133 Y9.6628
G01 X24.5133 Y9.7996
G01 X24.4958 Y9.9355
G01 X24.4609 Y10.0680
G01 X24.4099 Y10.1946
G01 X24.3425 Y10.3139
G01 X24.2604 Y10.4236
G01 X24.1653 Y10.5222
G01 X24.0586 Y10.6075
G01 X23.9412 Y10.6784
G01 X23.8160 Y10.7337
G01 X23.6850 Y10.7725
G01 X23.5496 Y10.7943
G01 X23.4127 Y10.7987
G00 Z2.0000
G00 X22.3973 Y9.7287
G01 F60.00
G01 Z-0.0500
G01 F120.00
G01 X22.4022 Y9.6283
G01 X22.4174 Y9.5263
G01 X22.4424 Y9.4264
G01 X22.4771 Y9.3294
G01 X22.5212 Y9.2362
G01 X22.5741 Y9.1478
G01 X22.6355 Y9.0651
G01 X22.7047 Y8.9887
G01 X22.7811 Y8.9195
G01 X22.8638 Y8.8581
G01 X22.9522 Y8.8052
G01 X23.0454 Y8.7611
G01 X23.1424 Y8.7264
G01 X23.2423 Y8.7014
G01 X23.3443 Y8.6862
G01 X23.4472 Y8.6812
G01 X23.5501 Y8.6862
G01 X23.6520 Y8.7014
G01 X23.7520 Y8.7264
G01 X23.8490 Y8.7611
G01 X23.9422 Y8.8052
G01 X24.0305 Y8.8581
G01 X24.1133 Y8.9195
G01 X24.1897 Y8.9887
G01 X24.2589 Y9.0651
G01 X24.3202 Y9.1478
G01 X24.3732 Y9.2362
G01 X24.4173 Y9.3294
G01 X24.4520 Y9.4264
G01 X24.4770 Y9.5263
G01 X24.4921 Y9.6283
G01 X24.4972 Y9.7312
G01 X24.4921 Y9.8341
G01 X24.4770 Y9.9360
G01 X24.4520 Y10.0360
G01 X24.4173 Y10.1330
G01 X24.3732 Y10.2262
G01 X24.3202 Y10.3145
G01 X24.2589 Y10.3973
G01 X24.1897 Y10.4737
G01 X24.1133 Y10.5429
G01 X24.0305 Y10.6042
G01 X23.9422 Y10.6572
G01 X23.8490 Y10.7013
G01 X23.7520 Y10.7360
G01 X23.6520 Y10.7610
G01 X23.5501 Y10.7761
G01 X23.4472 Y10.7812
G01 X23.3443 Y10.7761
G01 X23.2423 Y10.7610
G01 X23.1424 Y10.7360
G01 X23.0454 Y10.7013
G01 X22.9522 Y10.6572
G01 X22.8638 Y10.6042
G01 X22.7811 Y10.5429
G01 X22.7047 Y10.4737
G01 X22.6355 Y10.3973
G01 X22.5741 Y10.3145
G01 X22.5212 Y10.2262
G01 X22.4771 Y10.1330
G01 X22.4424 Y10.0360
G01 X22.4174 Y9.9360
G01 X22.4022 Y9.8341
G01 X22.3973 Y9.7287
G00 Z2.0000
G00 X22.3973 Y15.0627
G01 F60.00
G01 Z-0.0500
G01 F120.00
G01 X22.4022 Y14.9623
G01 X22.4174 Y14.8603
G01 X22.4424 Y14.7604
G01 X22.4771 Y14.6634
G01 X22.5212 Y14.5702
G01 X22.5741 Y14.4818
G01 X22.6355 Y14.3991
G01 X22.7047 Y14.3227
G01 X22.7811 Y14.2535
G01 X22.8638 Y14.1921
G01 X22.9522 Y14.1392
G01 X23.0454 Y14.0951
G01 X23.1424 Y14.0604
G01 X23.2423 Y14.0354
G01 X23.3443 Y14.0202
G01 X23.4472 Y14.0152
G01 X23.5501 Y14.0202
G01 X23.6520 Y14.0354
G01 X23.7520 Y14.0604
G01 X23.8490 Y14.0951
G01 X23.9422 Y14.1392
G01 X24.0305 Y14.1921
G01 X24.1133 Y14.2535
G01 X24.1897 Y14.3227
G01 X24.2589 Y14.3991
G01 X24.3202 Y14.4818
G01 X24.3732 Y14.5702
G01 X24.4173 Y14.6634
G01 X24.4520 Y14.7604
G01 X24.4770 Y14.8603
G01 X24.4921 Y14.9623
G01 X24.4972 Y15.0652
G01 X24.4921 Y15.1681
G01 X24.4770 Y15.2700
G01 X24.4520 Y15.3700
G01 X24.4173 Y15.4670
G01 X24.3732 Y15.5602
G01 X24.3202 Y15.6485
G01 X24.2589 Y15.7313
G01 X24.1897 Y15.8077
G01 X24.1133 Y15.8769
G01 X24.0305 Y15.9382
G01 X23.9422 Y15.9912
G01 X23.8490 Y16.0353
G01 X23.7520 Y16.0700
G01 X23.6520 Y16.0950
G01 X23.5501 Y16.1101
G01 X23.4472 Y16.1152
G01 X23.3443 Y16.1101
G01 X23.2423 Y16.0950
G01 X23.1424 Y16.0700
G01 X23.0454 Y16.0353
G01 X22.9522 Y15.9912
G01 X22.8638 Y15.9382
G01 X22.7811 Y15.8769
G01 X22.7047 Y15.8077
G01 X22.6355 Y15.7313
G01 X22.5741 Y15.6485
G01 X22.5212 Y15.5602
G01 X22.4771 Y15.4670
G01 X22.4424 Y15.3700
G01 X22.4174 Y15.2700
G01 X22.4022 Y15.1681
G01 X22.3973 Y15.0627
G00 Z2.0000
G00 X23.4811 Y16.1170
G01 F60.00
G01 Z-0.0500
G01 F120.00
G01 X23.3463 Y16.1126
G01 X23.2129 Y16.0913
G01 X23.0840 Y16.0530
G01 X22.9603 Y15.9982
G01 X22.8450 Y15.9284
G01 X22.7397 Y15.8440
G01 X22.6461 Y15.7474
G01 X22.5651 Y15.6393
G01 X22.4992 Y15.5220
G01 X22.4483 Y15.3969
G01 X22.4143 Y15.2664
G01 X22.3969 Y15.1326
G01 X22.3969 Y14.9978
G01 X22.4143 Y14.8639
G01 X22.4483 Y14.7335
G01 X22.4992 Y14.6084
G01 X22.5651 Y14.4911
G01 X22.6461 Y14.3830
G01 X22.7397 Y14.2864
G01 X22.8450 Y14.2020
G01 X22.9603 Y14.1322
G01 X23.0840 Y14.0774
G01 X23.2129 Y14.0391
G01 X23.3463 Y14.0178
G01 X23.4811 Y14.0134
G01 X23.6149 Y14.0265
G01 X23.7464 Y14.0566
G01 X23.8730 Y14.1032
G01 X23.9928 Y14.1652
G01 X24.1033 Y14.2423
G01 X24.2032 Y14.3329
G01 X24.2905 Y14.4358
G01 X24.3641 Y14.5487
G01 X24.4223 Y14.6704
G01 X24.4650 Y14.7985
G01 X24.4907 Y14.9304
G01 X24.4995 Y15.0652
G01 X24.4907 Y15.2000
G01 X24.4650 Y15.3319
G01 X24.4223 Y15.4599
G01 X24.3641 Y15.5817
G01 X24.2905 Y15.6946
G01 X24.2032 Y15.7974
G01 X24.1033 Y15.8881
G01 X23.9928 Y15.9652
G01 X23.8730 Y16.0272
G01 X23.7464 Y16.0738
G01 X23.6149 Y16.1039
G01 X23.4811 Y16.1170
G00 Z2.0000
G00 X27.4773 Y15.0627
G01 F60.00
G01 Z-0.0500
G01 F120.00
G01 X27.4822 Y14.9623
G01 X27.4974 Y14.8603
G01 X27.5224 Y14.7604
G01 X27.5571 Y14.6634
G01 X27.6012 Y14.5702
G01 X27.6541 Y14.4818
G01 X27.7155 Y14.3991
G01 X27.7847 Y14.3227
G01 X27.8611 Y14.2535
G01 X27.9438 Y14.1921
G01 X28.0322 Y14.1392
G01 X28.1254 Y14.0951
G01 X28.2224 Y14.0604
G01 X28.3223 Y14.0354
G01 X28.4243 Y14.0202
G01 X28.5272 Y14.0152
G01 X28.6301 Y14.0202
G01 X28.7320 Y14.0354
G01 X28.8320 Y14.0604
G01 X28.9290 Y14.0951
G01 X29.0222 Y14.1392
G01 X29.1105 Y14.1921
G01 X29.1933 Y14.2535
G01 X29.2697 Y14.3227
G01 X29.3389 Y14.3991
G01 X29.4002 Y14.4818
G01 X29.4532 Y14.5702
G01 X29.4973 Y14.6634
G01 X29.5320 Y14.7604
G01 X29.5570 Y14.8603
G01 X29.5721 Y14.9623
G01 X29.5772 Y15.0652
G01 X29.5721 Y15.1681
G01 X29.5570 Y15.2700
G01 X29.5320 Y15.3700
G01 X29.4973 Y15.4670
G01 X29.4532 Y15.5602
G01 X29.4002 Y15.6485
G01 X29.3389 Y15.7313
G01 X29.2697 Y15.8077
G01 X29.1933 Y15.8769
G01 X29.1105 Y15.9382
G01 X29.0222 Y15.9912
G01 X28.9290 Y16.0353
G01 X28.8320 Y16.0700
G01 X28.7320 Y16.0950
G01 X28.6301 Y16.1101
G01 X28.5272 Y16.1152
G01 X28.4243 Y16.1101
G01 X28.3223 Y16.0950
G01 X28.2224 Y16.0700
G01 X28.1254 Y16.0353
G01 X28.0322 Y15.9912
G01 X27.9438 Y15.9382
G01 X27.8611 Y15.8769
G01 X27.7847 Y15.8077
G01 X27.7155 Y15.7313
G01 X27.6541 Y15.6485
G01 X27.6012 Y15.5602
G01 X27.5571 Y15.4670
G01 X27.5224 Y15.3700
G01 X27.4974 Y15.2700
G01 X27.4822 Y15.1681
G01 X27.4773 Y15.0627
G00 Z2.0000
G00 X28.5611 Y16.1170
G01 F60.00
G01 Z-0.0500
G01 F120.00
G01 X28.4263 Y16.1126
G01 X28.2929 Y16.0913
G01 X28.1640 Y16.0530
G01 X28.0403 Y15.9982
G01 X27.9250 Y15.9284
G01 X27.8197 Y15.8440
G01 X27.7261 Y15.7474
G01 X27.6451 Y15.6393
G01 X27.5792 Y15.5220
G01 X27.5283 Y15.3969
G01 X27.4943 Y15.2664
G01 X27.4769 Y15.1326
G01 X27.4769 Y14.9978
G01 X27.4943 Y14.8639
G01 X27.5283 Y14.7335
G01 X27.5792 Y14.6084
G01 X27.6451 Y14.4911
G01 X27.7261 Y14.3830
G01 X27.8197 Y14.2864
G01 X27.9250 Y14.2020
G01 X28.0403 Y14.1322
G01 X28.1640 Y14.0774
G01 X28.2929 Y14.0391
G01 X28.4263 Y14.0178
G01 X28.5611 Y14.0134
G01 X28.6949 Y14.0265
G01 X28.8264 Y14.0566
G01 X28.9530 Y14.1032
G01 X29.0728 Y14.1652
G01 X29.1833 Y14.2423
G01 X29.2832 Y14.3329
G01 X29.3705 Y14.4358
G01 X29.4441 Y14.5487
G01 X29.5023 Y14.6704
G01 X29.5450 Y14.7985
G01 X29.5707 Y14.9304
G01 X29.5795 Y15.0652
G01 X29.5707 Y15.2000
G01 X29.5450 Y15.3319
G01 X29.5023 Y15.4599
G01 X29.4441 Y15.5817
G01 X29.3705 Y15.6946
G01 X29.2832 Y15.7974
G01 X29.1833 Y15.8881
G01 X29.0728 Y15.9652
G01 X28.9530 Y16.0272
G01 X28.8264 Y16.0738
G01 X28.6949 Y16.1039
G01 X28.5611 Y16.1170
G00 Z2.0000
G00 X14.2912 Y10.7998
G01 F60.00
G01 Z-0.0500
G01 F120.00
G01 X12.2831 Y10.7998
G01 X12.2556 Y10.7956
G01 X12.2418 Y10.7883
G01 X12.2301 Y10.7766
G01 X12.2228 Y10.7628
G01 X12.2186 Y10.7352
G01 X12.2186 Y8.7271
G01 X12.2228 Y8.6996
G01 X12.2301 Y8.6858
G01 X12.2418 Y8.6741
G01 X12.2556 Y8.6668
G01 X12.2831 Y8.6626
G01 X14.2913 Y8.6626
G01 X14.3188 Y8.6668
G01 X14.3326 Y8.6741
G01 X14.3443 Y8.6858
G01 X14.3516 Y8.6996
G01 X14.3558 Y8.7271
G01 X14.3558 Y10.7352
G01 X14.3516 Y10.7628
G01 X14.3443 Y10.7766
G01 X14.3326 Y10.7883
G01 X14.3188 Y10.7956
G01 X14.2912 Y10.7998
G00 Z2.0000
G00 X14.3372 Y8.7312
G01 F60.00
G01 Z-0.0500
G01 F120.00
G01 X14.3372 Y10.7312
G01 X14.3362 Y10.7409
G01 X14.3334 Y10.7503
G01 X14.3307 Y10.7558
G01 X14.3281 Y10.7600
G01 X14.3217 Y10.7674
G01 X14.3139 Y10.7734
G01 X14.3052 Y10.7778
G01 X14.2969 Y10.7802
G01 X14.2872 Y10.7812
G01 X12.2872 Y10.7812
G01 X12.2811 Y10.7808
G01 X12.2762 Y10.7800
G01 X12.2669 Y10.7769
G01 X12.2584 Y10.7721
G01 X12.2510 Y10.7657
G01 X12.2456 Y10.7590
G01 X12.2410 Y10.7503
G01 X12.2382 Y10.7409
G01 X12.2372 Y10.7312
G01 X12.2372 Y8.7312
G01 X12.2382 Y8.7214
G01 X12.2410 Y8.7121
G01 X12.2456 Y8.7034
G01 X12.2493 Y8.6985
G01 X12.2527 Y8.6950
G01 X12.2605 Y8.6890
G01 X12.2681 Y8.6850
G01 X12.2774 Y8.6822
G01 X12.2872 Y8.6812
G01 X14.2884 Y8.6812
G01 X14.2981 Y8.6824
G01 X14.3075 Y8.6855
G01 X14.3160 Y8.6903
G01 X14.3225 Y8.6958
G01 X14.3288 Y8.7034
G01 X14.3334 Y8.7121
G01 X14.3362 Y8.7214
G01 X14.3372 Y8.7312
G00 Z2.0000
G00 X12.2380 Y25.3497
G01 F60.00
G01 Z-0.0500
G01 F120.00
G01 X12.2430 Y25.2493
G01 X12.2581 Y25.1473
G01 X12.2832 Y25.0474
G01 X12.3179 Y24.9504
G01 X12.3619 Y24.8572
G01 X12.4149 Y24.7688
G01 X12.4763 Y24.6861
G01 X12.5455 Y24.6097
G01 X12.6218 Y24.5405
G01 X12.7046 Y24.4791
G01 X12.7930 Y24.4262
G01 X12.8861 Y24.3821
G01 X12.9832 Y24.3474
G01 X13.0831 Y24.3224
G01 X13.1850 Y24.3072
G01 X13.2880 Y24.3022
G01 X13.3909 Y24.3072
G01 X13.4928 Y24.3224
G01 X13.5928 Y24.3474
G01 X13.6898 Y24.3821
G01 X13.7829 Y24.4262
G01 X13.8713 Y24.4791
G01 X13.9541 Y24.5405
G01 X14.0304 Y24.6097
G01 X14.0996 Y24.6861
G01 X14.1610 Y24.7688
G01 X14.2140 Y24.8572
G01 X14.2580 Y24.9504
G01 X14.2927 Y25.0474
G01 X14.3178 Y25.1473
G01 X14.3329 Y25.2493
G01 X14.3380 Y25.3522
G01 X14.3329 Y25.4551
G01 X14.3178 Y25.5570
G01 X14.2927 Y25.6570
G01 X14.2580 Y25.7540
G01 X14.2140 Y25.8472
G01 X14.1610 Y25.9355
G01 X14.0996 Y26.0183
G01 X14.0304 Y26.0947
G01 X13.9541 Y26.1639
G01 X13.8713 Y26.2252
G01 X13.7829 Y26.2782
G01 X13.6898 Y26.3223
G01 X13.5928 Y26.3570
G01 X13.4928 Y26.3820
G01 X13.3909 Y26.3971
G01 X13.2880 Y26.4022
G01 X13.1850 Y26.3971
G01 X13.0831 Y26.3820
G01 X12.9832 Y26.3570
G01 X12.8861 Y26.3223
G01 X12.7930 Y26.2782
G01 X12.7046 Y26.2252
G01 X12.6218 Y26.1639
G01 X12.5455 Y26.0947
G01 X12.4763 Y26.0183
G01 X12.4149 Y25.9355
G01 X12.3619 Y25.8472
G01 X12.3179 Y25.7540
G01 X12.2832 Y25.6570
G01 X12.2581 Y25.5570
G01 X12.2430 Y25.4551
G01 X12.2380 Y25.3497
G00 Z2.0000
G00 X13.2543 Y26.4040
G01 F60.00
G01 Z-0.0500
G01 F120.00
G01 X13.1200 Y26.3909
G01 X12.9885 Y26.3608
G01 X12.8619 Y26.3142
G01 X12.7427 Y26.2522
G01 X12.6321 Y26.1751
G01 X12.5323 Y26.0844
G01 X12.4450 Y25.9816
G01 X12.3712 Y25.8686
G01 X12.3126 Y25.7469
G01 X12.2704 Y25.6188
G01 X12.2442 Y25.4870
G01 X12.2359 Y25.3522
G01 X12.2442 Y25.2174
G01 X12.2704 Y25.0855
G01 X12.3126 Y24.9574
G01 X12.3712 Y24.8358
G01 X12.4450 Y24.7228
G01 X12.5323 Y24.6199
G01 X12.6321 Y24.5293
G01 X12.7427 Y24.4522
G01 X12.8619 Y24.3901
G01 X12.9885 Y24.3436
G01 X13.1200 Y24.3135
G01 X13.2543 Y24.3004
G01 X13.3891 Y24.3048
G01 X13.5225 Y24.3261
G01 X13.6513 Y24.3644
G01 X13.7745 Y24.4192
G01 X13.8900 Y24.4891
G01 X13.9957 Y24.5734
G01 X14.0893 Y24.6699
G01 X14.1698 Y24.7781
G01 X14.2362 Y24.8954
G01 X14.2866 Y25.0205
G01 X14.3211 Y25.1509
G01 X14.3380 Y25.2847
G01 X14.3380 Y25.4196
G01 X14.3211 Y25.5534
G01 X14.2866 Y25.6839
G01 X14.2362 Y25.8090
G01 X14.1698 Y25.9263
G01 X14.0893 Y26.0345
G01 X13.9957 Y26.1309
G01 X13.8900 Y26.2153
G01 X13.7745 Y26.2852
G01 X13.6513 Y26.3400
G01 X13.5225 Y26.3783
G01 X13.3891 Y26.3996
G01 X13.2543 Y26.4040
G00 Z2.0000
G00 X10.7143 Y26.4040
G01 F60.00
G01 Z-0.0500
G01 F120.00
G01 X10.5800 Y26.3909
G01 X10.4485 Y26.3608
G01 X10.3219 Y26.3142
G01 X10.2027 Y26.2522
G01 X10.0921 Y26.1751
G01 X9.9923 Y26.0844
G01 X9.9050 Y25.9816
G01 X9.8312 Y25.8686
G01 X9.7726 Y25.7469
G01 X9.7304 Y25.6189
G01 X9.7042 Y25.4870
G01 X9.6959 Y25.3522
G01 X9.7042 Y25.2174
G01 X9.7304 Y25.0855
G01 X9.7726 Y24.9574
G01 X9.8312 Y24.8358
G01 X9.9050 Y24.7228
G01 X9.9923 Y24.6199
G01 X10.0921 Y24.5293
G01 X10.2027 Y24.4522
