(G-CODE GENERATED BY FLATCAM v8.993 - www.flatcam.org - Version Date: 2020/06/05)

(Name: Drill_1)
(Type: G-code from Geometry)
(Units: MM)

(Created on Wednesday, 24 March 2021 at 22:34)

(This preprocessor is the default preprocessor used by FlatCAM.)
(It is made to work with MACH3 compatible motion controllers.)

(TOOL DIAMETER: 1.0 mm)
(Feedrate_XY: 120.0 mm/min)
(Feedrate_Z: 60.0 mm/min)
(Feedrate rapids 1500.0 mm/min)

(Z_Cut: -1.8 mm)
(Z_Move: 2.0 mm)
(Z Start: None mm)
(Z End: 15.0 mm)
(Steps per circle: 64)
(Preprocessor Geometry: default)

(X range:    5.6682 ...  175.8472  mm)
(Y range:    7.1432 ...   94.3612  mm)

(Spindle Speed: None RPM)
G21
G90
G94



G01 F120.00
G00 Z2.0000

M03
G00 X8.2072 Y9.7312
G01 F60.00
G01 Z-1.8000
G01 F120.00
G01 X8.2072 Y9.7312
G01 X8.2072 Y9.7312
G01 X8.2072 Y9.7312
G01 X8.2072 Y9.7312
G00 Z2.0000
G00 X10.7472 Y9.7312
G01 F60.00
G01 Z-1.8000
G01 F120.00
G01 X10.7472 Y9.7312
G01 X10.7472 Y9.7312
G01 X10.7472 Y9.7312
G01 X10.7472 Y9.7312
G00 Z2.0000
G00 X13.2872 Y9.7312
G01 F60.00
G01 Z-1.8000
G01 F120.00
G01 X13.2872 Y9.7312
G01 X13.2872 Y9.7312
G01 X13.2872 Y9.7312
G01 X13.2872 Y9.7312
G00 Z2.0000
G00 X13.2872 Y15.0652
G01 F60.00
G01 Z-1.8000
G01 F120.00
G01 X13.2872 Y15.0652
G01 X13.2872 Y15.0652
G01 X13.2872 Y15.0652
G01 X13.2872 Y15.0652
G00 Z2.0000
G00 X8.2072 Y15.0652
G01 F60.00
G01 Z-1.8000
G01 F120.00
G01 X8.2072 Y15.0652
G01 X8.2072 Y15.0652
G01 X8.2072 Y15.0652
G01 X8.2072 Y15.0652
G00 Z2.0000
G00 X8.2082 Y25.3522
G01 F60.00
G01 Z-1.8000
G01 F120.00
G01 X8.2082 Y25.3522
G01 X8.2082 Y25.3522
G01 X8.2082 Y25.3522
G01 X8.2082 Y25.3522
G00 Z2.0000
G00 X10.7482 Y25.3522
G01 F60.00
G01 Z-1.8000
G01 F120.00
G01 X10.7482 Y25.3522
G01 X10.7482 Y25.3522
G01 X10.7482 Y25.3522
G01 X10.7482 Y25.3522
G00 Z2.0000
G00 X13.2882 Y25.3522
G01 F60.00
G01 Z-1.8000
G01 F120.00
G01 X13.2882 Y25.3522
G01 X13.2882 Y25.3522
G01 X13.2882 Y25.3522
G01 X13.2882 Y25.3522
G00 Z2.0000
G00 X15.8282 Y25.3522
G01 F60.00
G01 Z-1.8000
G01 F120.00
G01 X15.8282 Y25.3522
G01 X15.8282 Y25.3522
G01 X15.8282 Y25.3522
G01 X15.8282 Y25.3522
G00 Z2.0000
G00 X18.3682 Y25.3522
G01 F60.00
G01 Z-1.8000
G01 F120.00
G01 X18.3682 Y25.3522
G01 X18.3682 Y25.3522
G01 X18.3682 Y25.3522
G01 X18.3682 Y25.3522
G00 Z2.0000
G00 X20.9082 Y25.3522
G01 F60.00
G01 Z-1.8000
G01 F120.00
G01 X20.9082 Y25.3522
G01 X20.9082 Y25.3522
G01 X20.9082 Y25.3522
G01 X20.9082 Y25.3522
G00 Z2.0000
G00 X23.4482 Y25.3522
G01 F60.00
G01 Z-1.8000
G01 F120.00
G01 X23.4482 Y25.3522
G01 X23.4482 Y25.3522
G01 X23.4482 Y25.3522
G01 X23.4482 Y25.3522
G00 Z2.0000
G00 X25.9882 Y25.3522
G01 F60.00
G01 Z-1.8000
G01 F120.00
G01 X25.9882 Y25.3522
G01 X25.9882 Y25.3522
G01 X25.9882 Y25.3522
G01 X25.9882 Y25.3522
G00 Z2.0000
G00 X31.3222 Y25.3522
G01 F60.00
G01 Z-1.8000
G01 F120.00
G01 X31.3222 Y25.3522
G01 X31.3222 Y25.3522
G01 X31.3222 Y25.3522
G01 X31.3222 Y25.3522
G00 Z2.0000
G00 X33.8622 Y25.3522
G01 F60.00
G01 Z-1.8000
G01 F120.00
G01 X33.8622 Y25.3522
G01 X33.8622 Y25.3522
G01 X33.8622 Y25.3522
G01 X33.8622 Y25.3522
G00 Z2.0000
G00 X36.4022 Y25.3522
G01 F60.00
G01 Z-1.8000
G01 F120.00
G01 X36.4022 Y25.3522
G01 X36.4022 Y25.3522
G01 X36.4022 Y25.3522
G01 X36.4022 Y25.3522
G00 Z2.0000
G00 X38.9422 Y25.3522
G01 F60.00
G01 Z-1.8000
G01 F120.00
G01 X38.9422 Y25.3522
G01 X38.9422 Y25.3522
G01 X38.9422 Y25.3522
G01 X38.9422 Y25.3522
G00 Z2.0000
G00 X41.4822 Y25.3522
G01 F60.00
G01 Z-1.8000
G01 F120.00
G01 X41.4822 Y25.3522
G01 X41.4822 Y25.3522
G01 X41.4822 Y25.3522
G01 X41.4822 Y25.3522
G00 Z2.0000
G00 X44.0222 Y25.3522
G01 F60.00
G01 Z-1.8000
G01 F120.00
G01 X44.0222 Y25.3522
G01 X44.0222 Y25.3522
G01 X44.0222 Y25.3522
G01 X44.0222 Y25.3522
G00 Z2.0000
G00 X46.5622 Y25.3522
G01 F60.00
G01 Z-1.8000
G01 F120.00
G01 X46.5622 Y25.3522
G01 X46.5622 Y25.3522
G01 X46.5622 Y25.3522
G01 X46.5622 Y25.3522
G00 Z2.0000
G00 X49.1022 Y25.3522
G01 F60.00
G01 Z-1.8000
G01 F120.00
G01 X49.1022 Y25.3522
G01 X49.1022 Y25.3522
G01 X49.1022 Y25.3522
G01 X49.1022 Y25.3522
G00 Z2.0000
G00 X51.6422 Y25.3522
G01 F60.00
G01 Z-1.8000
G01 F120.00
G01 X51.6422 Y25.3522
G01 X51.6422 Y25.3522
G01 X51.6422 Y25.3522
G01 X51.6422 Y25.3522
G00 Z2.0000
G00 X56.7212 Y25.3522
G01 F60.00
G01 Z-1.8000
G01 F120.00
G01 X56.7212 Y25.3522
G01 X56.7212 Y25.3522
G01 X56.7212 Y25.3522
G01 X56.7212 Y25.3522
G00 Z2.0000
G00 X59.2612 Y25.3522
G01 F60.00
G01 Z-1.8000
G01 F120.00
G01 X59.2612 Y25.3522
G01 X59.2612 Y25.3522
G01 X59.2612 Y25.3522
G01 X59.2612 Y25.3522
G00 Z2.0000
G00 X61.8012 Y25.3522
G01 F60.00
G01 Z-1.8000
G01 F120.00
G01 X61.8012 Y25.3522
G01 X61.8012 Y25.3522
G01 X61.8012 Y25.3522
G01 X61.8012 Y25.3522
G00 Z2.0000
G00 X64.3412 Y25.3522
G01 F60.00
G01 Z-1.8000
G01 F120.00
G01 X64.3412 Y25.3522
G01 X64.3412 Y25.3522
G01 X64.3412 Y25.3522
G01 X64.3412 Y25.3522
G00 Z2.0000
G00 X66.8812 Y25.3522
G01 F60.00
G01 Z-1.8000
G01 F120.00
G01 X66.8812 Y25.3522
G01 X66.8812 Y25.3522
G01 X66.8812 Y25.3522
G01 X66.8812 Y25.3522
G00 Z2.0000
G00 X69.4212 Y25.3522
G01 F60.00
G01 Z-1.8000
G01 F120.00
G01 X69.4212 Y25.3522
G01 X69.4212 Y25.3522
G01 X69.4212 Y25.3522
G01 X69.4212 Y25.3522
G00 Z2.0000
G00 X71.9612 Y25.3522
G01 F60.00
G01 Z-1.8000
G01 F120.00
G01 X71.9612 Y25.3522
G01 X71.9612 Y25.3522
G01 X71.9612 Y25.3522
G01 X71.9612 Y25.3522
G00 Z2.0000
G00 X74.5012 Y25.3522
G01 F60.00
G01 Z-1.8000
G01 F120.00
G01 X74.5012 Y25.3522
G01 X74.5012 Y25.3522
G01 X74.5012 Y25.3522
G01 X74.5012 Y25.3522
G00 Z2.0000
G00 X77.0412 Y25.3522
G01 F60.00
G01 Z-1.8000
G01 F120.00
G01 X77.0412 Y25.3522
G01 X77.0412 Y25.3522
G01 X77.0412 Y25.3522
G01 X77.0412 Y25.3522
G00 Z2.0000
G00 X78.0572 Y18.1432
G01 F60.00
G01 Z-1.8000
G01 F120.00
G01 X78.0572 Y18.1432
G01 X78.0572 Y18.1432
G01 X78.0572 Y18.1432
G01 X78.0572 Y18.1432
G00 Z2.0000
G00 X72.9772 Y18.1432
G01 F60.00
G01 Z-1.8000
G01 F120.00
G01 X72.9772 Y18.1432
G01 X72.9772 Y18.1432
G01 X72.9772 Y18.1432
G01 X72.9772 Y18.1432
G00 Z2.0000
G00 X72.9972 Y7.1432
G01 F60.00
G01 Z-1.8000
G01 F120.00
G01 X72.9972 Y7.1432
G01 X72.9972 Y7.1432
G01 X72.9972 Y7.1432
G01 X72.9972 Y7.1432
G00 Z2.0000
G00 X78.0772 Y7.1432
G01 F60.00
G01 Z-1.8000
G01 F120.00
G01 X78.0772 Y7.1432
G01 X78.0772 Y7.1432
G01 X78.0772 Y7.1432
G01 X78.0772 Y7.1432
G00 Z2.0000
G00 X85.6762 Y26.4952
G01 F60.00
G01 Z-1.8000
G01 F120.00
G01 X85.6762 Y26.4952
G01 X85.6762 Y26.4952
G01 X85.6762 Y26.4952
G01 X85.6762 Y26.4952
G00 Z2.0000
G00 X88.2162 Y26.4952
G01 F60.00
G01 Z-1.8000
G01 F120.00
G01 X88.2162 Y26.4952
G01 X88.2162 Y26.4952
G01 X88.2162 Y26.4952
G01 X88.2162 Y26.4952
G00 Z2.0000
G00 X88.2162 Y29.0352
G01 F60.00
G01 Z-1.8000
G01 F120.00
G01 X88.2162 Y29.0352
G01 X88.2162 Y29.0352
G01 X88.2162 Y29.0352
G01 X88.2162 Y29.0352
G00 Z2.0000
G00 X85.6762 Y29.0352
G01 F60.00
G01 Z-1.8000
G01 F120.00
G01 X85.6762 Y29.0352
G01 X85.6762 Y29.0352
G01 X85.6762 Y29.0352
G01 X85.6762 Y29.0352
G00 Z2.0000
G00 X85.6762 Y31.5752
G01 F60.00
G01 Z-1.8000
G01 F120.00
G01 X85.6762 Y31.5752
G01 X85.6762 Y31.5752
G01 X85.6762 Y31.5752
G01 X85.6762 Y31.5752
G00 Z2.0000
G00 X85.6762 Y34.1152
G01 F60.00
G01 Z-1.8000
G01 F120.00
G01 X85.6762 Y34.1152
G01 X85.6762 Y34.1152
G01 X85.6762 Y34.1152
G01 X85.6762 Y34.1152
G00 Z2.0000
G00 X85.6762 Y36.6552
G01 F60.00
G01 Z-1.8000
G01 F120.00
G01 X85.6762 Y36.6552
G01 X85.6762 Y36.6552
G01 X85.6762 Y36.6552
G01 X85.6762 Y36.6552
G00 Z2.0000
G00 X85.6762 Y39.1952
G01 F60.00
G01 Z-1.8000
G01 F120.00
G01 X85.6762 Y39.1952
G01 X85.6762 Y39.1952
G01 X85.6762 Y39.1952
G01 X85.6762 Y39.1952
G00 Z2.0000
G00 X85.6762 Y41.7352
G01 F60.00
G01 Z-1.8000
G01 F120.00
G01 X85.6762 Y41.7352
G01 X85.6762 Y41.7352
G01 X85.6762 Y41.7352
G01 X85.6762 Y41.7352
G00 Z2.0000
G00 X85.6762 Y44.2752
G01 F60.00
G01 Z-1.8000
G01 F120.00
G01 X85.6762 Y44.2752
G01 X85.6762 Y44.2752
G01 X85.6762 Y44.2752
G01 X85.6762 Y44.2752
G00 Z2.0000
G00 X88.2162 Y44.2752
G01 F60.00
G01 Z-1.8000
G01 F120.00
G01 X88.2162 Y44.2752
G01 X88.2162 Y44.2752
G01 X88.2162 Y44.2752
G01 X88.2162 Y44.2752
G00 Z2.0000
G00 X88.2162 Y41.7352
G01 F60.00
G01 Z-1.8000
G01 F120.00
G01 X88.2162 Y41.7352
G01 X88.2162 Y41.7352
G01 X88.2162 Y41.7352
G01 X88.2162 Y41.7352
G00 Z2.0000
G00 X88.2162 Y39.1952
G01 F60.00
G01 Z-1.8000
G01 F120.00
G01 X88.2162 Y39.1952
G01 X88.2162 Y39.1952
G01 X88.2162 Y39.1952
G01 X88.2162 Y39.1952
G00 Z2.0000
G00 X88.2162 Y36.6552
G01 F60.00
G01 Z-1.8000
G01 F120.00
G01 X88.2162 Y36.6552
G01 X88.2162 Y36.6552
G01 X88.2162 Y36.6552
G01 X88.2162 Y36.6552
G00 Z2.0000
G00 X88.2162 Y34.1152
G01 F60.00
G01 Z-1.8000
G01 F120.00
G01 X88.2162 Y34.1152
G01 X88.2162 Y34.1152
G01 X88.2162 Y34.1152
G01 X88.2162 Y34.1152
G00 Z2.0000
G00 X88.2162 Y31.5752
G01 F60.00
G01 Z-1.8000
G01 F120.00
G01 X88.2162 Y31.5752
G01 X88.2162 Y31.5752
G01 X88.2162 Y31.5752
G01 X88.2162 Y31.5752
G00 Z2.0000
G00 X95.8362 Y26.4952
G01 F60.00
G01 Z-1.8000
G01 F120.00
G01 X95.8362 Y26.4952
G01 X95.8362 Y26.4952
G01 X95.8362 Y26.4952
G01 X95.8362 Y26.4952
G00 Z2.0000
G00 X98.3762 Y26.4952
G01 F60.00
G01 Z-1.8000
G01 F120.00
G01 X98.3762 Y26.4952
G01 X98.3762 Y26.4952
G01 X98.3762 Y26.4952
G01 X98.3762 Y26.4952
G00 Z2.0000
G00 X100.9162 Y26.4952
G01 F60.00
G01 Z-1.8000
G01 F120.00
G01 X100.9162 Y26.4952
G01 X100.9162 Y26.4952
G01 X100.9162 Y26.4952
G01 X100.9162 Y26.4952
G00 Z2.0000
G00 X103.4562 Y26.4952
G01 F60.00
G01 Z-1.8000
G01 F120.00
G01 X103.4562 Y26.4952
G01 X103.4562 Y26.4952
G01 X103.4562 Y26.4952
G01 X103.4562 Y26.4952
G00 Z2.0000
G00 X105.9962 Y26.4952
G01 F60.00
G01 Z-1.8000
G01 F120.00
G01 X105.9962 Y26.4952
G01 X105.9962 Y26.4952
G01 X105.9962 Y26.4952
G01 X105.9962 Y26.4952
G00 Z2.0000
G00 X108.5362 Y26.4952
G01 F60.00
G01 Z-1.8000
G01 F120.00
G01 X108.5362 Y26.4952
G01 X108.5362 Y26.4952
G01 X108.5362 Y26.4952
G01 X108.5362 Y26.4952
G00 Z2.0000
G00 X111.0762 Y26.4952
G01 F60.00
G01 Z-1.8000
G01 F120.00
G01 X111.0762 Y26.4952
G01 X111.0762 Y26.4952
G01 X111.0762 Y26.4952
G01 X111.0762 Y26.4952
G00 Z2.0000
G00 X113.6162 Y26.4952
G01 F60.00
G01 Z-1.8000
G01 F120.00
G01 X113.6162 Y26.4952
G01 X113.6162 Y26.4952
G01 X113.6162 Y26.4952
G01 X113.6162 Y26.4952
G00 Z2.0000
G00 X113.6172 Y22.6852
G01 F60.00
G01 Z-1.8000
G01 F120.00
G01 X113.6172 Y22.6852
G01 X113.6172 Y22.6852
G01 X113.6172 Y22.6852
G01 X113.6172 Y22.6852
G00 Z2.0000
G00 X111.0772 Y22.6852
G01 F60.00
G01 Z-1.8000
G01 F120.00
G01 X111.0772 Y22.6852
G01 X111.0772 Y22.6852
G01 X111.0772 Y22.6852
G01 X111.0772 Y22.6852
G00 Z2.0000
G00 X108.5372 Y22.6852
G01 F60.00
G01 Z-1.8000
G01 F120.00
G01 X108.5372 Y22.6852
G01 X108.5372 Y22.6852
G01 X108.5372 Y22.6852
G01 X108.5372 Y22.6852
G00 Z2.0000
G00 X105.9972 Y22.6852
G01 F60.00
G01 Z-1.8000
G01 F120.00
G01 X105.9972 Y22.6852
G01 X105.9972 Y22.6852
G01 X105.9972 Y22.6852
G01 X105.9972 Y22.6852
G00 Z2.0000
G00 X103.4572 Y22.6852
G01 F60.00
G01 Z-1.8000
G01 F120.00
G01 X103.4572 Y22.6852
G01 X103.4572 Y22.6852
G01 X103.4572 Y22.6852
G01 X103.4572 Y22.6852
G00 Z2.0000
G00 X100.9172 Y22.6852
G01 F60.00
G01 Z-1.8000
G01 F120.00
G01 X100.9172 Y22.6852
G01 X100.9172 Y22.6852
G01 X100.9172 Y22.6852
G01 X100.9172 Y22.6852
G00 Z2.0000
G00 X98.3772 Y22.6852
G01 F60.00
G01 Z-1.8000
G01 F120.00
G01 X98.3772 Y22.6852
G01 X98.3772 Y22.6852
G01 X98.3772 Y22.6852
G01 X98.3772 Y22.6852
G00 Z2.0000
G00 X95.8372 Y22.6852
G01 F60.00
G01 Z-1.8000
G01 F120.00
G01 X95.8372 Y22.6852
G01 X95.8372 Y22.6852
G01 X95.8372 Y22.6852
G01 X95.8372 Y22.6852
G00 Z2.0000
G00 X98.8852 Y39.1952
G01 F60.00
G01 Z-1.8000
G01 F120.00
G01 X98.8852 Y39.1952
G01 X98.8852 Y39.1952
G01 X98.8852 Y39.1952
G01 X98.8852 Y39.1952
G00 Z2.0000
G00 X98.8852 Y41.7352
G01 F60.00
G01 Z-1.8000
G01 F120.00
G01 X98.8852 Y41.7352
G01 X98.8852 Y41.7352
G01 X98.8852 Y41.7352
G01 X98.8852 Y41.7352
G00 Z2.0000
G00 X98.8852 Y44.2752
G01 F60.00
G01 Z-1.8000
G01 F120.00
G01 X98.8852 Y44.2752
G01 X98.8852 Y44.2752
G01 X98.8852 Y44.2752
G01 X98.8852 Y44.2752
G00 Z2.0000
G00 X98.8852 Y46.8152
G01 F60.00
G01 Z-1.8000
G01 F120.00
G01 X98.8852 Y46.8152
G01 X98.8852 Y46.8152
G01 X98.8852 Y46.8152
G01 X98.8852 Y46.8152
G00 Z2.0000
G00 X98.8852 Y49.3552
G01 F60.00
G01 Z-1.8000
G01 F120.00
G01 X98.8852 Y49.3552
G01 X98.8852 Y49.3552
G01 X98.8852 Y49.3552
G01 X98.8852 Y49.3552
G00 Z2.0000
G00 X98.8852 Y51.8952
G01 F60.00
G01 Z-1.8000
G01 F120.00
G01 X98.8852 Y51.8952
G01 X98.8852 Y51.8952
G01 X98.8852 Y51.8952
G01 X98.8852 Y51.8952
G00 Z2.0000
G00 X98.8852 Y54.4352
G01 F60.00
G01 Z-1.8000
G01 F120.00
G01 X98.8852 Y54.4352
G01 X98.8852 Y54.4352
G01 X98.8852 Y54.4352
G01 X98.8852 Y54.4352
G00 Z2.0000
G00 X98.8852 Y56.9752
G01 F60.00
G01 Z-1.8000
G01 F120.00
G01 X98.8852 Y56.9752
G01 X98.8852 Y56.9752
G01 X98.8852 Y56.9752
G01 X98.8852 Y56.9752
G00 Z2.0000
G00 X98.8852 Y59.5152
G01 F60.00
G01 Z-1.8000
G01 F120.00
G01 X98.8852 Y59.5152
G01 X98.8852 Y59.5152
G01 X98.8852 Y59.5152
G01 X98.8852 Y59.5152
G00 Z2.0000
G00 X98.8852 Y62.0552
G01 F60.00
G01 Z-1.8000
G01 F120.00
G01 X98.8852 Y62.0552
G01 X98.8852 Y62.0552
G01 X98.8852 Y62.0552
G01 X98.8852 Y62.0552
G00 Z2.0000
G00 X88.2162 Y62.0552
G01 F60.00
G01 Z-1.8000
G01 F120.00
G01 X88.2162 Y62.0552
G01 X88.2162 Y62.0552
G01 X88.2162 Y62.0552
G01 X88.2162 Y62.0552
G00 Z2.0000
G00 X85.6762 Y62.0552
G01 F60.00
G01 Z-1.8000
G01 F120.00
G01 X85.6762 Y62.0552
G01 X85.6762 Y62.0552
G01 X85.6762 Y62.0552
G01 X85.6762 Y62.0552
G00 Z2.0000
G00 X85.6762 Y59.5152
G01 F60.00
G01 Z-1.8000
G01 F120.00
G01 X85.6762 Y59.5152
G01 X85.6762 Y59.5152
G01 X85.6762 Y59.5152
G01 X85.6762 Y59.5152
G00 Z2.0000
G00 X85.6762 Y56.9752
G01 F60.00
G01 Z-1.8000
G01 F120.00
G01 X85.6762 Y56.9752
G01 X85.6762 Y56.9752
G01 X85.6762 Y56.9752
G01 X85.6762 Y56.9752
G00 Z2.0000
G00 X85.6762 Y54.4352
G01 F60.00
G01 Z-1.8000
G01 F120.00
G01 X85.6762 Y54.4352
G01 X85.6762 Y54.4352
G01 X85.6762 Y54.4352
G01 X85.6762 Y54.4352
G00 Z2.0000
G00 X85.6762 Y51.8952
G01 F60.00
G01 Z-1.8000
G01 F120.00
G01 X85.6762 Y51.8952
G01 X85.6762 Y51.8952
G01 X85.6762 Y51.8952
G01 X85.6762 Y51.8952
G00 Z2.0000
G00 X85.6762 Y49.3552
G01 F60.00
G01 Z-1.8000
G01 F120.00
G01 X85.6762 Y49.3552
G01 X85.6762 Y49.3552
G01 X85.6762 Y49.3552
G01 X85.6762 Y49.3552
G00 Z2.0000
G00 X85.6762 Y46.8152
G01 F60.00
G01 Z-1.8000
G01 F120.00
G01 X85.6762 Y46.8152
G01 X85.6762 Y46.8152
G01 X85.6762 Y46.8152
G01 X85.6762 Y46.8152
G00 Z2.0000
G00 X88.2162 Y46.8152
G01 F60.00
G01 Z-1.8000
G01 F120.00
G01 X88.2162 Y46.8152
G01 X88.2162 Y46.8152
G01 X88.2162 Y46.8152
G01 X88.2162 Y46.8152
G00 Z2.0000
G00 X88.2162 Y49.3552
G01 F60.00
G01 Z-1.8000
G01 F120.00
G01 X88.2162 Y49.3552
G01 X88.2162 Y49.3552
G01 X88.2162 Y49.3552
G01 X88.2162 Y49.3552
G00 Z2.0000
G00 X88.2162 Y51.8952
G01 F60.00
G01 Z-1.8000
G01 F120.00
G01 X88.2162 Y51.8952
G01 X88.2162 Y51.8952
G01 X88.2162 Y51.8952
G01 X88.2162 Y51.8952
G00 Z2.0000
G00 X88.2162 Y54.4352
G01 F60.00
G01 Z-1.8000
G01 F120.00
G01 X88.2162 Y54.4352
G01 X88.2162 Y54.4352
G01 X88.2162 Y54.4352
G01 X88.2162 Y54.4352
G00 Z2.0000
G00 X88.2162 Y56.9752
G01 F60.00
G01 Z-1.8000
G01 F120.00
G01 X88.2162 Y56.9752
G01 X88.2162 Y56.9752
G01 X88.2162 Y56.9752
G01 X88.2162 Y56.9752
G00 Z2.0000
G00 X88.2162 Y59.5152
G01 F60.00
G01 Z-1.8000
G01 F120.00
G01 X88.2162 Y59.5152
G01 X88.2162 Y59.5152
G01 X88.2162 Y59.5152
G01 X88.2162 Y59.5152
G00 Z2.0000
G00 X88.2162 Y64.5952
G01 F60.00
G01 Z-1.8000
G01 F120.00
G01 X88.2162 Y64.5952
G01 X88.2162 Y64.5952
G01 X88.2162 Y64.5952
G01 X88.2162 Y64.5952
G00 Z2.0000
G00 X88.2162 Y67.1352
G01 F60.00
G01 Z-1.8000
G01 F120.00
G01 X88.2162 Y67.1352
G01 X88.2162 Y67.1352
G01 X88.2162 Y67.1352
G01 X88.2162 Y67.1352
G00 Z2.0000
G00 X85.6762 Y67.1352
G01 F60.00
G01 Z-1.8000
G01 F120.00
G01 X85.6762 Y67.1352
G01 X85.6762 Y67.1352
G01 X85.6762 Y67.1352
G01 X85.6762 Y67.1352
G00 Z2.0000
G00 X85.6762 Y64.5952
G01 F60.00
G01 Z-1.8000
G01 F120.00
G01 X85.6762 Y64.5952
G01 X85.6762 Y64.5952
G01 X85.6762 Y64.5952
G01 X85.6762 Y64.5952
G00 Z2.0000
G00 X85.6762 Y69.6752
G01 F60.00
G01 Z-1.8000
G01 F120.00
G01 X85.6762 Y69.6752
G01 X85.6762 Y69.6752
G01 X85.6762 Y69.6752
G01 X85.6762 Y69.6752
G00 Z2.0000
G00 X88.2162 Y69.6752
G01 F60.00
G01 Z-1.8000
G01 F120.00
G01 X88.2162 Y69.6752
G01 X88.2162 Y69.6752
G01 X88.2162 Y69.6752
G01 X88.2162 Y69.6752
G00 Z2.0000
G00 X90.7562 Y74.7552
G01 F60.00
G01 Z-1.8000
G01 F120.00
G01 X90.7562 Y74.7552
G01 X90.7562 Y74.7552
G01 X90.7562 Y74.7552
G01 X90.7562 Y74.7552
G00 Z2.0000
G00 X93.2962 Y74.7552
G01 F60.00
G01 Z-1.8000
G01 F120.00
G01 X93.2962 Y74.7552
G01 X93.2962 Y74.7552
G01 X93.2962 Y74.7552
G01 X93.2962 Y74.7552
G00 Z2.0000
G00 X95.8362 Y74.7552
G01 F60.00
G01 Z-1.8000
G01 F120.00
G01 X95.8362 Y74.7552
G01 X95.8362 Y74.7552
G01 X95.8362 Y74.7552
G01 X95.8362 Y74.7552
G00 Z2.0000
G00 X98.3762 Y74.7552
G01 F60.00
G01 Z-1.8000
G01 F120.00
G01 X98.3762 Y74.7552
G01 X98.3762 Y74.7552
G01 X98.3762 Y74.7552
G01 X98.3762 Y74.7552
G00 Z2.0000
G00 X100.9162 Y74.7552
G01 F60.00
G01 Z-1.8000
G01 F120.00
G01 X100.9162 Y74.7552
G01 X100.9162 Y74.7552
G01 X100.9162 Y74.7552
G01 X100.9162 Y74.7552
G00 Z2.0000
G00 X103.4562 Y74.7552
G01 F60.00
G01 Z-1.8000
G01 F120.00
G01 X103.4562 Y74.7552
G01 X103.4562 Y74.7552
G01 X103.4562 Y74.7552
G01 X103.4562 Y74.7552
G00 Z2.0000
G00 X105.9962 Y74.7552
G01 F60.00
G01 Z-1.8000
G01 F120.00
G01 X105.9962 Y74.7552
G01 X105.9962 Y74.7552
G01 X105.9962 Y74.7552
G01 X105.9962 Y74.7552
G00 Z2.0000
G00 X108.5362 Y74.7552
G01 F60.00
G01 Z-1.8000
G01 F120.00
G01 X108.5362 Y74.7552
G01 X108.5362 Y74.7552
G01 X108.5362 Y74.7552
G01 X108.5362 Y74.7552
G00 Z2.0000
G00 X108.5372 Y78.5652
G01 F60.00
G01 Z-1.8000
G01 F120.00
G01 X108.5372 Y78.5652
G01 X108.5372 Y78.5652
G01 X108.5372 Y78.5652
G01 X108.5372 Y78.5652
G00 Z2.0000
G00 X105.9972 Y78.5652
G01 F60.00
G01 Z-1.8000
G01 F120.00
G01 X105.9972 Y78.5652
G01 X105.9972 Y78.5652
G01 X105.9972 Y78.5652
G01 X105.9972 Y78.5652
G00 Z2.0000
G00 X103.4572 Y78.5652
G01 F60.00
G01 Z-1.8000
G01 F120.00
G01 X103.4572 Y78.5652
G01 X103.4572 Y78.5652
G01 X103.4572 Y78.5652
G01 X103.4572 Y78.5652
G00 Z2.0000
G00 X100.9172 Y78.5652
G01 F60.00
G01 Z-1.8000
G01 F120.00
G01 X100.9172 Y78.5652
G01 X100.9172 Y78.5652
G01 X100.9172 Y78.5652
G01 X100.9172 Y78.5652
G00 Z2.0000
G00 X98.3772 Y78.5652
G01 F60.00
G01 Z-1.8000
G01 F120.00
G01 X98.3772 Y78.5652
G01 X98.3772 Y78.5652
G01 X98.3772 Y78.5652
G01 X98.3772 Y78.5652
G00 Z2.0000
G00 X95.8372 Y78.5652
G01 F60.00
G01 Z-1.8000
G01 F120.00
G01 X95.8372 Y78.5652
G01 X95.8372 Y78.5652
G01 X95.8372 Y78.5652
G01 X95.8372 Y78.5652
G00 Z2.0000
G00 X93.2972 Y78.5652
G01 F60.00
G01 Z-1.8000
G01 F120.00
G01 X93.2972 Y78.5652
G01 X93.2972 Y78.5652
G01 X93.2972 Y78.5652
G01 X93.2972 Y78.5652
G00 Z2.0000
G00 X90.7572 Y78.5652
G01 F60.00
G01 Z-1.8000
G01 F120.00
G01 X90.7572 Y78.5652
G01 X90.7572 Y78.5652
G01 X90.7572 Y78.5652
G01 X90.7572 Y78.5652
G00 Z2.0000
G00 X77.0412 Y75.7712
G01 F60.00
G01 Z-1.8000
G01 F120.00
G01 X77.0412 Y75.7712
G01 X77.0412 Y75.7712
G01 X77.0412 Y75.7712
G01 X77.0412 Y75.7712
G00 Z2.0000
G00 X74.5012 Y75.7712
G01 F60.00
G01 Z-1.8000
G01 F120.00
G01 X74.5012 Y75.7712
G01 X74.5012 Y75.7712
G01 X74.5012 Y75.7712
G01 X74.5012 Y75.7712
G00 Z2.0000
G00 X71.9612 Y75.7712
G01 F60.00
G01 Z-1.8000
G01 F120.00
G01 X71.9612 Y75.7712
G01 X71.9612 Y75.7712
G01 X71.9612 Y75.7712
G01 X71.9612 Y75.7712
G00 Z2.0000
G00 X69.4212 Y75.7712
G01 F60.00
G01 Z-1.8000
G01 F120.00
G01 X69.4212 Y75.7712
G01 X69.4212 Y75.7712
G01 X69.4212 Y75.7712
G01 X69.4212 Y75.7712
G00 Z2.0000
G00 X66.8812 Y75.7712
G01 F60.00
G01 Z-1.8000
G01 F120.00
G01 X66.8812 Y75.7712
G01 X66.8812 Y75.7712
G01 X66.8812 Y75.7712
G01 X66.8812 Y75.7712
G00 Z2.0000
G00 X64.3412 Y75.7712
G01 F60.00
G01 Z-1.8000
G01 F120.00
G01 X64.3412 Y75.7712
G01 X64.3412 Y75.7712
G01 X64.3412 Y75.7712
G01 X64.3412 Y75.7712
G00 Z2.0000
G00 X61.8012 Y75.7712
G01 F60.00
G01 Z-1.8000
G01 F120.00
G01 X61.8012 Y75.7712
G01 X61.8012 Y75.7712
G01 X61.8012 Y75.7712
G01 X61.8012 Y75.7712
G00 Z2.0000
G00 X59.2612 Y75.7712
G01 F60.00
G01 Z-1.8000
G01 F120.00
G01 X59.2612 Y75.7712
G01 X59.2612 Y75.7712
G01 X59.2612 Y75.7712
G01 X59.2612 Y75.7712
G00 Z2.0000
G00 X56.7212 Y75.7712
G01 F60.00
G01 Z-1.8000
G01 F120.00
G01 X56.7212 Y75.7712
G01 X56.7212 Y75.7712
G01 X56.7212 Y75.7712
G01 X56.7212 Y75.7712
G00 Z2.0000
G00 X51.6422 Y75.7712
G01 F60.00
G01 Z-1.8000
G01 F120.00
G01 X51.6422 Y75.7712
G01 X51.6422 Y75.7712
G01 X51.6422 Y75.7712
G01 X51.6422 Y75.7712
G00 Z2.0000
G00 X49.1022 Y75.7712
G01 F60.00
G01 Z-1.8000
G01 F120.00
G01 X49.1022 Y75.7712
G01 X49.1022 Y75.7712
G01 X49.1022 Y75.7712
G01 X49.1022 Y75.7712
G00 Z2.0000
G00 X46.5622 Y75.7712
G01 F60.00
G01 Z-1.8000
G01 F120.00
G01 X46.5622 Y75.7712
G01 X46.5622 Y75.7712
G01 X46.5622 Y75.7712
G01 X46.5622 Y75.7712
G00 Z2.0000
G00 X44.0222 Y75.7712
G01 F60.00
G01 Z-1.8000
G01 F120.00
G01 X44.0222 Y75.7712
G01 X44.0222 Y75.7712
G01 X44.0222 Y75.7712
G01 X44.0222 Y75.7712
G00 Z2.0000
G00 X41.4822 Y75.7712
G01 F60.00
G01 Z-1.8000
G01 F120.00
G01 X41.4822 Y75.7712
G01 X41.4822 Y75.7712
G01 X41.4822 Y75.7712
G01 X41.4822 Y75.7712
G00 Z2.0000
G00 X38.9422 Y75.7712
G01 F60.00
G01 Z-1.8000
G01 F120.00
G01 X38.9422 Y75.7712
G01 X38.9422 Y75.7712
G01 X38.9422 Y75.7712
G01 X38.9422 Y75.7712
G00 Z2.0000
G00 X36.4022 Y75.7712
G01 F60.00
G01 Z-1.8000
G01 F120.00
G01 X36.4022 Y75.7712
G01 X36.4022 Y75.7712
G01 X36.4022 Y75.7712
G01 X36.4022 Y75.7712
G00 Z2.0000
G00 X33.8622 Y75.7712
G01 F60.00
G01 Z-1.8000
G01 F120.00
G01 X33.8622 Y75.7712
G01 X33.8622 Y75.7712
G01 X33.8622 Y75.7712
G01 X33.8622 Y75.7712
G00 Z2.0000
G00 X31.3222 Y75.7712
G01 F60.00
G01 Z-1.8000
G01 F120.00
G01 X31.3222 Y75.7712
G01 X31.3222 Y75.7712
G01 X31.3222 Y75.7712
G01 X31.3222 Y75.7712
G00 Z2.0000
G00 X25.9882 Y75.7712
G01 F60.00
G01 Z-1.8000
G01 F120.00
G01 X25.9882 Y75.7712
G01 X25.9882 Y75.7712
G01 X25.9882 Y75.7712
G01 X25.9882 Y75.7712
G00 Z2.0000
G00 X23.4482 Y75.7712
G01 F60.00
G01 Z-1.8000
G01 F120.00
G01 X23.4482 Y75.7712
G01 X23.4482 Y75.7712
G01 X23.4482 Y75.7712
G01 X23.4482 Y75.7712
G00 Z2.0000
G00 X20.9082 Y75.7712
G01 F60.00
G01 Z-1.8000
G01 F120.00
G01 X20.9082 Y75.7712
G01 X20.9082 Y75.7712
G01 X20.9082 Y75.7712
G01 X20.9082 Y75.7712
G00 Z2.0000
G00 X18.3682 Y75.7712
G01 F60.00
G01 Z-1.8000
G01 F120.00
G01 X18.3682 Y75.7712
G01 X18.3682 Y75.7712
G01 X18.3682 Y75.7712
G01 X18.3682 Y75.7712
G00 Z2.0000
G00 X15.8282 Y75.7712
G01 F60.00
G01 Z-1.8000
G01 F120.00
G01 X15.8282 Y75.7712
G01 X15.8282 Y75.7712
G01 X15.8282 Y75.7712
G01 X15.8282 Y75.7712
G00 Z2.0000
G00 X13.2882 Y75.7712
G01 F60.00
G01 Z-1.8000
G01 F120.00
G01 X13.2882 Y75.7712
G01 X13.2882 Y75.7712
G01 X13.2882 Y75.7712
G01 X13.2882 Y75.7712
G00 Z2.0000
G00 X10.7482 Y75.7712
G01 F60.00
G01 Z-1.8000
G01 F120.00
G01 X10.7482 Y75.7712
G01 X10.7482 Y75.7712
G01 X10.7482 Y75.7712
G01 X10.7482 Y75.7712
G00 Z2.0000
G00 X8.2082 Y75.7712
G01 F60.00
G01 Z-1.8000
G01 F120.00
G01 X8.2082 Y75.7712
G01 X8.2082 Y75.7712
G01 X8.2082 Y75.7712
G01 X8.2082 Y75.7712
G00 Z2.0000
G00 X5.6682 Y75.7712
G01 F60.00
G01 Z-1.8000
G01 F120.00
G01 X5.6682 Y75.7712
G01 X5.6682 Y75.7712
G01 X5.6682 Y75.7712
G01 X5.6682 Y75.7712
G00 Z2.0000
G00 X8.2072 Y86.1852
G01 F60.00
G01 Z-1.8000
G01 F120.00
G01 X8.2072 Y86.1852
G01 X8.2072 Y86.1852
G01 X8.2072 Y86.1852
G01 X8.2072 Y86.1852
G00 Z2.0000
G00 X13.2872 Y86.1852
G01 F60.00
G01 Z-1.8000
G01 F120.00
G01 X13.2872 Y86.1852
G01 X13.2872 Y86.1852
G01 X13.2872 Y86.1852
G01 X13.2872 Y86.1852
G00 Z2.0000
G00 X13.2872 Y91.7732
G01 F60.00
G01 Z-1.8000
G01 F120.00
G01 X13.2872 Y91.7732
G01 X13.2872 Y91.7732
G01 X13.2872 Y91.7732
G01 X13.2872 Y91.7732
G00 Z2.0000
G00 X10.7472 Y91.7732
G01 F60.00
G01 Z-1.8000
G01 F120.00
G01 X10.7472 Y91.7732
G01 X10.7472 Y91.7732
G01 X10.7472 Y91.7732
G01 X10.7472 Y91.7732
G00 Z2.0000
G00 X8.2072 Y91.7732
G01 F60.00
G01 Z-1.8000
G01 F120.00
G01 X8.2072 Y91.7732
G01 X8.2072 Y91.7732
G01 X8.2072 Y91.7732
G01 X8.2072 Y91.7732
G00 Z2.0000
G00 X23.4472 Y91.7732
G01 F60.00
G01 Z-1.8000
G01 F120.00
G01 X23.4472 Y91.7732
G01 X23.4472 Y91.7732
G01 X23.4472 Y91.7732
G01 X23.4472 Y91.7732
G00 Z2.0000
G00 X25.9872 Y91.7732
G01 F60.00
G01 Z-1.8000
G01 F120.00
G01 X25.9872 Y91.7732
G01 X25.9872 Y91.7732
G01 X25.9872 Y91.7732
G01 X25.9872 Y91.7732
G00 Z2.0000
G00 X28.5272 Y91.7732
G01 F60.00
G01 Z-1.8000
G01 F120.00
G01 X28.5272 Y91.7732
G01 X28.5272 Y91.7732
G01 X28.5272 Y91.7732
G01 X28.5272 Y91.7732
G00 Z2.0000
G00 X28.5272 Y85.6772
G01 F60.00
G01 Z-1.8000
G01 F120.00
G01 X28.5272 Y85.6772
G01 X28.5272 Y85.6772
G01 X28.5272 Y85.6772
G01 X28.5272 Y85.6772
G00 Z2.0000
G00 X23.4472 Y85.6772
G01 F60.00
G01 Z-1.8000
G01 F120.00
G01 X23.4472 Y85.6772
G01 X23.4472 Y85.6772
G01 X23.4472 Y85.6772
G01 X23.4472 Y85.6772
G00 Z2.0000
G00 X18.3672 Y67.3892
G01 F60.00
G01 Z-1.8000
G01 F120.00
G01 X18.3672 Y67.3892
G01 X18.3672 Y67.3892
G01 X18.3672 Y67.3892
G01 X18.3672 Y67.3892
G00 Z2.0000
G00 X13.2872 Y67.3892
G01 F60.00
G01 Z-1.8000
G01 F120.00
G01 X13.2872 Y67.3892
G01 X13.2872 Y67.3892
G01 X13.2872 Y67.3892
G01 X13.2872 Y67.3892
G00 Z2.0000
G00 X13.2872 Y60.7852
G01 F60.00
G01 Z-1.8000
G01 F120.00
G01 X13.2872 Y60.7852
G01 X13.2872 Y60.7852
G01 X13.2872 Y60.7852
G01 X13.2872 Y60.7852
G00 Z2.0000
G00 X18.3672 Y60.7852
G01 F60.00
G01 Z-1.8000
G01 F120.00
G01 X18.3672 Y60.7852
G01 X18.3672 Y60.7852
G01 X18.3672 Y60.7852
G01 X18.3672 Y60.7852
G00 Z2.0000
G00 X18.3672 Y54.4352
G01 F60.00
G01 Z-1.8000
G01 F120.00
G01 X18.3672 Y54.4352
G01 X18.3672 Y54.4352
G01 X18.3672 Y54.4352
G01 X18.3672 Y54.4352
G00 Z2.0000
G00 X13.2872 Y54.4352
G01 F60.00
G01 Z-1.8000
G01 F120.00
G01 X13.2872 Y54.4352
G01 X13.2872 Y54.4352
G01 X13.2872 Y54.4352
G01 X13.2872 Y54.4352
G00 Z2.0000
G00 X38.9412 Y54.4352
G01 F60.00
G01 Z-1.8000
G01 F120.00
G01 X38.9412 Y54.4352
G01 X38.9412 Y54.4352
G01 X38.9412 Y54.4352
G01 X38.9412 Y54.4352
G00 Z2.0000
G00 X44.0212 Y54.4352
G01 F60.00
G01 Z-1.8000
G01 F120.00
G01 X44.0212 Y54.4352
G01 X44.0212 Y54.4352
G01 X44.0212 Y54.4352
G01 X44.0212 Y54.4352
G00 Z2.0000
G00 X44.0212 Y60.7852
G01 F60.00
G01 Z-1.8000
G01 F120.00
G01 X44.0212 Y60.7852
G01 X44.0212 Y60.7852
G01 X44.0212 Y60.7852
G01 X44.0212 Y60.7852
G00 Z2.0000
G00 X38.9412 Y60.7852
G01 F60.00
G01 Z-1.8000
G01 F120.00
G01 X38.9412 Y60.7852
G01 X38.9412 Y60.7852
G01 X38.9412 Y60.7852
G01 X38.9412 Y60.7852
G00 Z2.0000
G00 X38.9412 Y67.3892
G01 F60.00
G01 Z-1.8000
G01 F120.00
G01 X38.9412 Y67.3892
G01 X38.9412 Y67.3892
G01 X38.9412 Y67.3892
G01 X38.9412 Y67.3892
G00 Z2.0000
G00 X44.0212 Y67.3892
G01 F60.00
G01 Z-1.8000
G01 F120.00
G01 X44.0212 Y67.3892
G01 X44.0212 Y67.3892
G01 X44.0212 Y67.3892
G01 X44.0212 Y67.3892
G00 Z2.0000
G00 X50.1172 Y83.3612
G01 F60.00
G01 Z-1.8000
G01 F120.00
G01 X50.1172 Y83.3612
G01 X50.1172 Y83.3612
G01 X50.1172 Y83.3612
G01 X50.1172 Y83.3612
G00 Z2.0000
G00 X55.1972 Y83.3612
G01 F60.00
G01 Z-1.8000
G01 F120.00
G01 X55.1972 Y83.3612
G01 X55.1972 Y83.3612
G01 X55.1972 Y83.3612
G01 X55.1972 Y83.3612
G00 Z2.0000
G00 X55.1772 Y94.3612
G01 F60.00
G01 Z-1.8000
G01 F120.00
G01 X55.1772 Y94.3612
G01 X55.1772 Y94.3612
G01 X55.1772 Y94.3612
G01 X55.1772 Y94.3612
G00 Z2.0000
G00 X50.0972 Y94.3612
G01 F60.00
G01 Z-1.8000
G01 F120.00
G01 X50.0972 Y94.3612
G01 X50.0972 Y94.3612
G01 X50.0972 Y94.3612
G01 X50.0972 Y94.3612
G00 Z2.0000
G00 X76.1972 Y92.6812
G01 F60.00
G01 Z-1.8000
G01 F120.00
G01 X76.1972 Y92.6812
G01 X76.1972 Y92.6812
G01 X76.1972 Y92.6812
G01 X76.1972 Y92.6812
G00 Z2.0000
G00 X76.1972 Y90.1412
G01 F60.00
G01 Z-1.8000
G01 F120.00
G01 X76.1972 Y90.1412
G01 X76.1972 Y90.1412
G01 X76.1972 Y90.1412
G01 X76.1972 Y90.1412
G00 Z2.0000
G00 X76.1972 Y87.6012
G01 F60.00
G01 Z-1.8000
G01 F120.00
G01 X76.1972 Y87.6012
G01 X76.1972 Y87.6012
G01 X76.1972 Y87.6012
G01 X76.1972 Y87.6012
G00 Z2.0000
G00 X76.1972 Y85.0612
G01 F60.00
G01 Z-1.8000
G01 F120.00
G01 X76.1972 Y85.0612
G01 X76.1972 Y85.0612
G01 X76.1972 Y85.0612
G01 X76.1972 Y85.0612
G00 Z2.0000
G00 X78.9972 Y86.4112
G01 F60.00
G01 Z-1.8000
G01 F120.00
G01 X78.9972 Y86.4112
G01 X78.9972 Y86.4112
G01 X78.9972 Y86.4112
G01 X78.9972 Y86.4112
G00 Z2.0000
G00 X78.9972 Y91.4112
G01 F60.00
G01 Z-1.8000
G01 F120.00
G01 X78.9972 Y91.4112
G01 X78.9972 Y91.4112
G01 X78.9972 Y91.4112
G01 X78.9972 Y91.4112
G00 Z2.0000
G00 X69.6752 Y67.1352
G01 F60.00
G01 Z-1.8000
G01 F120.00
G01 X69.6752 Y67.1352
G01 X69.6752 Y67.1352
G01 X69.6752 Y67.1352
G01 X69.6752 Y67.1352
G00 Z2.0000
G00 X64.5952 Y67.1352
G01 F60.00
G01 Z-1.8000
G01 F120.00
G01 X64.5952 Y67.1352
G01 X64.5952 Y67.1352
G01 X64.5952 Y67.1352
G01 X64.5952 Y67.1352
G00 Z2.0000
G00 X113.6162 Y74.7552
G01 F60.00
G01 Z-1.8000
G01 F120.00
G01 X113.6162 Y74.7552
G01 X113.6162 Y74.7552
G01 X113.6162 Y74.7552
G01 X113.6162 Y74.7552
G00 Z2.0000
G00 X116.1562 Y74.7552
G01 F60.00
G01 Z-1.8000
G01 F120.00
G01 X116.1562 Y74.7552
G01 X116.1562 Y74.7552
G01 X116.1562 Y74.7552
G01 X116.1562 Y74.7552
G00 Z2.0000
G00 X118.6962 Y74.7552
G01 F60.00
G01 Z-1.8000
G01 F120.00
G01 X118.6962 Y74.7552
G01 X118.6962 Y74.7552
G01 X118.6962 Y74.7552
G01 X118.6962 Y74.7552
G00 Z2.0000
G00 X121.2362 Y74.7552
G01 F60.00
G01 Z-1.8000
G01 F120.00
G01 X121.2362 Y74.7552
G01 X121.2362 Y74.7552
G01 X121.2362 Y74.7552
G01 X121.2362 Y74.7552
G00 Z2.0000
G00 X123.7762 Y74.7552
G01 F60.00
G01 Z-1.8000
G01 F120.00
G01 X123.7762 Y74.7552
G01 X123.7762 Y74.7552
G01 X123.7762 Y74.7552
G01 X123.7762 Y74.7552
G00 Z2.0000
G00 X126.3162 Y74.7552
G01 F60.00
G01 Z-1.8000
G01 F120.00
G01 X126.3162 Y74.7552
G01 X126.3162 Y74.7552
G01 X126.3162 Y74.7552
G01 X126.3162 Y74.7552
G00 Z2.0000
G00 X128.8562 Y74.7552
G01 F60.00
G01 Z-1.8000
G01 F120.00
G01 X128.8562 Y74.7552
G01 X128.8562 Y74.7552
G01 X128.8562 Y74.7552
G01 X128.8562 Y74.7552
G00 Z2.0000
G00 X131.3962 Y74.7552
G01 F60.00
G01 Z-1.8000
G01 F120.00
G01 X131.3962 Y74.7552
G01 X131.3962 Y74.7552
G01 X131.3962 Y74.7552
G01 X131.3962 Y74.7552
G00 Z2.0000
G00 X131.3972 Y78.5652
G01 F60.00
G01 Z-1.8000
G01 F120.00
G01 X131.3972 Y78.5652
G01 X131.3972 Y78.5652
G01 X131.3972 Y78.5652
G01 X131.3972 Y78.5652
G00 Z2.0000
G00 X128.8572 Y78.5652
G01 F60.00
G01 Z-1.8000
G01 F120.00
G01 X128.8572 Y78.5652
G01 X128.8572 Y78.5652
G01 X128.8572 Y78.5652
G01 X128.8572 Y78.5652
G00 Z2.0000
G00 X126.3172 Y78.5652
G01 F60.00
G01 Z-1.8000
G01 F120.00
G01 X126.3172 Y78.5652
G01 X126.3172 Y78.5652
G01 X126.3172 Y78.5652
G01 X126.3172 Y78.5652
G00 Z2.0000
G00 X123.7772 Y78.5652
G01 F60.00
G01 Z-1.8000
G01 F120.00
G01 X123.7772 Y78.5652
G01 X123.7772 Y78.5652
G01 X123.7772 Y78.5652
G01 X123.7772 Y78.5652
G00 Z2.0000
G00 X121.2372 Y78.5652
G01 F60.00
G01 Z-1.8000
G01 F120.00
G01 X121.2372 Y78.5652
G01 X121.2372 Y78.5652
G01 X121.2372 Y78.5652
G01 X121.2372 Y78.5652
G00 Z2.0000
G00 X118.6972 Y78.5652
G01 F60.00
G01 Z-1.8000
G01 F120.00
G01 X118.6972 Y78.5652
G01 X118.6972 Y78.5652
G01 X118.6972 Y78.5652
G01 X118.6972 Y78.5652
G00 Z2.0000
G00 X116.1572 Y78.5652
G01 F60.00
G01 Z-1.8000
G01 F120.00
G01 X116.1572 Y78.5652
G01 X116.1572 Y78.5652
G01 X116.1572 Y78.5652
G01 X116.1572 Y78.5652
G00 Z2.0000
G00 X113.6172 Y78.5652
G01 F60.00
G01 Z-1.8000
G01 F120.00
G01 X113.6172 Y78.5652
G01 X113.6172 Y78.5652
G01 X113.6172 Y78.5652
G01 X113.6172 Y78.5652
G00 Z2.0000
G00 X123.7772 Y59.5152
G01 F60.00
G01 Z-1.8000
G01 F120.00
G01 X123.7772 Y59.5152
G01 X123.7772 Y59.5152
G01 X123.7772 Y59.5152
G01 X123.7772 Y59.5152
G00 Z2.0000
G00 X126.3172 Y59.5152
G01 F60.00
G01 Z-1.8000
G01 F120.00
G01 X126.3172 Y59.5152
G01 X126.3172 Y59.5152
G01 X126.3172 Y59.5152
G01 X126.3172 Y59.5152
G00 Z2.0000
G00 X128.8572 Y59.5152
G01 F60.00
G01 Z-1.8000
G01 F120.00
G01 X128.8572 Y59.5152
G01 X128.8572 Y59.5152
G01 X128.8572 Y59.5152
G01 X128.8572 Y59.5152
G00 Z2.0000
G00 X128.8572 Y51.8952
G01 F60.00
G01 Z-1.8000
G01 F120.00
G01 X128.8572 Y51.8952
G01 X128.8572 Y51.8952
G01 X128.8572 Y51.8952
G01 X128.8572 Y51.8952
G00 Z2.0000
G00 X123.7772 Y51.8952
G01 F60.00
G01 Z-1.8000
G01 F120.00
G01 X123.7772 Y51.8952
G01 X123.7772 Y51.8952
G01 X123.7772 Y51.8952
G01 X123.7772 Y51.8952
G00 Z2.0000
G00 X123.7772 Y46.8152
G01 F60.00
G01 Z-1.8000
G01 F120.00
G01 X123.7772 Y46.8152
G01 X123.7772 Y46.8152
G01 X123.7772 Y46.8152
G01 X123.7772 Y46.8152
G00 Z2.0000
G00 X128.8572 Y46.8152
G01 F60.00
G01 Z-1.8000
G01 F120.00
G01 X128.8572 Y46.8152
G01 X128.8572 Y46.8152
G01 X128.8572 Y46.8152
G01 X128.8572 Y46.8152
G00 Z2.0000
G00 X128.8572 Y38.6872
G01 F60.00
G01 Z-1.8000
G01 F120.00
G01 X128.8572 Y38.6872
G01 X128.8572 Y38.6872
G01 X128.8572 Y38.6872
G01 X128.8572 Y38.6872
G00 Z2.0000
G00 X126.3172 Y38.6872
G01 F60.00
G01 Z-1.8000
G01 F120.00
G01 X126.3172 Y38.6872
G01 X126.3172 Y38.6872
G01 X126.3172 Y38.6872
G01 X126.3172 Y38.6872
G00 Z2.0000
G00 X123.7772 Y38.6872
G01 F60.00
G01 Z-1.8000
G01 F120.00
G01 X123.7772 Y38.6872
G01 X123.7772 Y38.6872
G01 X123.7772 Y38.6872
G01 X123.7772 Y38.6872
G00 Z2.0000
G00 X123.7762 Y26.4952
G01 F60.00
G01 Z-1.8000
G01 F120.00
G01 X123.7762 Y26.4952
G01 X123.7762 Y26.4952
G01 X123.7762 Y26.4952
G01 X123.7762 Y26.4952
G00 Z2.0000
G00 X126.3162 Y26.4952
G01 F60.00
G01 Z-1.8000
G01 F120.00
G01 X126.3162 Y26.4952
G01 X126.3162 Y26.4952
G01 X126.3162 Y26.4952
G01 X126.3162 Y26.4952
G00 Z2.0000
G00 X128.8562 Y26.4952
G01 F60.00
G01 Z-1.8000
G01 F120.00
G01 X128.8562 Y26.4952
G01 X128.8562 Y26.4952
G01 X128.8562 Y26.4952
G01 X128.8562 Y26.4952
G00 Z2.0000
G00 X131.3962 Y26.4952
G01 F60.00
G01 Z-1.8000
G01 F120.00
G01 X131.3962 Y26.4952
G01 X131.3962 Y26.4952
G01 X131.3962 Y26.4952
G01 X131.3962 Y26.4952
G00 Z2.0000
G00 X133.9362 Y26.4952
G01 F60.00
G01 Z-1.8000
G01 F120.00
G01 X133.9362 Y26.4952
G01 X133.9362 Y26.4952
G01 X133.9362 Y26.4952
G01 X133.9362 Y26.4952
G00 Z2.0000
G00 X136.4762 Y26.4952
G01 F60.00
G01 Z-1.8000
G01 F120.00
G01 X136.4762 Y26.4952
G01 X136.4762 Y26.4952
G01 X136.4762 Y26.4952
G01 X136.4762 Y26.4952
G00 Z2.0000
G00 X136.4772 Y22.6852
G01 F60.00
G01 Z-1.8000
G01 F120.00
G01 X136.4772 Y22.6852
G01 X136.4772 Y22.6852
G01 X136.4772 Y22.6852
G01 X136.4772 Y22.6852
G00 Z2.0000
G00 X133.9372 Y22.6852
G01 F60.00
G01 Z-1.8000
G01 F120.00
G01 X133.9372 Y22.6852
G01 X133.9372 Y22.6852
G01 X133.9372 Y22.6852
G01 X133.9372 Y22.6852
G00 Z2.0000
G00 X131.3972 Y22.6852
G01 F60.00
G01 Z-1.8000
G01 F120.00
G01 X131.3972 Y22.6852
G01 X131.3972 Y22.6852
G01 X131.3972 Y22.6852
G01 X131.3972 Y22.6852
G00 Z2.0000
G00 X128.8572 Y22.6852
G01 F60.00
G01 Z-1.8000
G01 F120.00
G01 X128.8572 Y22.6852
G01 X128.8572 Y22.6852
G01 X128.8572 Y22.6852
G01 X128.8572 Y22.6852
G00 Z2.0000
G00 X126.3172 Y22.6852
G01 F60.00
G01 Z-1.8000
G01 F120.00
G01 X126.3172 Y22.6852
G01 X126.3172 Y22.6852
G01 X126.3172 Y22.6852
G01 X126.3172 Y22.6852
G00 Z2.0000
G00 X123.7772 Y22.6852
G01 F60.00
G01 Z-1.8000
G01 F120.00
G01 X123.7772 Y22.6852
G01 X123.7772 Y22.6852
G01 X123.7772 Y22.6852
G01 X123.7772 Y22.6852
G00 Z2.0000
G00 X121.2372 Y22.6852
G01 F60.00
G01 Z-1.8000
G01 F120.00
G01 X121.2372 Y22.6852
G01 X121.2372 Y22.6852
G01 X121.2372 Y22.6852
G01 X121.2372 Y22.6852
G00 Z2.0000
G00 X118.6972 Y22.6852
G01 F60.00
G01 Z-1.8000
G01 F120.00
G01 X118.6972 Y22.6852
G01 X118.6972 Y22.6852
G01 X118.6972 Y22.6852
G01 X118.6972 Y22.6852
G00 Z2.0000
G00 X118.6962 Y26.4952
G01 F60.00
G01 Z-1.8000
G01 F120.00
G01 X118.6962 Y26.4952
G01 X118.6962 Y26.4952
G01 X118.6962 Y26.4952
G01 X118.6962 Y26.4952
G00 Z2.0000
G00 X121.2362 Y26.4952
G01 F60.00
G01 Z-1.8000
G01 F120.00
G01 X121.2362 Y26.4952
G01 X121.2362 Y26.4952
G01 X121.2362 Y26.4952
G01 X121.2362 Y26.4952
G00 Z2.0000
G00 X140.5402 Y26.4952
G01 F60.00
G01 Z-1.8000
G01 F120.00
G01 X140.5402 Y26.4952
G01 X140.5402 Y26.4952
G01 X140.5402 Y26.4952
G01 X140.5402 Y26.4952
G00 Z2.0000
G00 X143.0802 Y26.4952
G01 F60.00
G01 Z-1.8000
G01 F120.00
G01 X143.0802 Y26.4952
G01 X143.0802 Y26.4952
G01 X143.0802 Y26.4952
G01 X143.0802 Y26.4952
G00 Z2.0000
G00 X145.6202 Y26.4952
G01 F60.00
G01 Z-1.8000
G01 F120.00
G01 X145.6202 Y26.4952
G01 X145.6202 Y26.4952
G01 X145.6202 Y26.4952
G01 X145.6202 Y26.4952
G00 Z2.0000
G00 X148.1602 Y26.4952
G01 F60.00
G01 Z-1.8000
G01 F120.00
G01 X148.1602 Y26.4952
G01 X148.1602 Y26.4952
G01 X148.1602 Y26.4952
G01 X148.1602 Y26.4952
G00 Z2.0000
G00 X150.7002 Y26.4952
G01 F60.00
G01 Z-1.8000
G01 F120.00
G01 X150.7002 Y26.4952
G01 X150.7002 Y26.4952
G01 X150.7002 Y26.4952
G01 X150.7002 Y26.4952
G00 Z2.0000
G00 X153.2402 Y26.4952
G01 F60.00
G01 Z-1.8000
G01 F120.00
G01 X153.2402 Y26.4952
G01 X153.2402 Y26.4952
G01 X153.2402 Y26.4952
G01 X153.2402 Y26.4952
G00 Z2.0000
G00 X155.7802 Y26.4952
G01 F60.00
G01 Z-1.8000
G01 F120.00
G01 X155.7802 Y26.4952
G01 X155.7802 Y26.4952
G01 X155.7802 Y26.4952
G01 X155.7802 Y26.4952
G00 Z2.0000
G00 X158.3202 Y26.4952
G01 F60.00
G01 Z-1.8000
G01 F120.00
G01 X158.3202 Y26.4952
G01 X158.3202 Y26.4952
G01 X158.3202 Y26.4952
G01 X158.3202 Y26.4952
G00 Z2.0000
G00 X158.3212 Y22.6852
G01 F60.00
G01 Z-1.8000
G01 F120.00
G01 X158.3212 Y22.6852
G01 X158.3212 Y22.6852
G01 X158.3212 Y22.6852
G01 X158.3212 Y22.6852
G00 Z2.0000
G00 X155.7812 Y22.6852
G01 F60.00
G01 Z-1.8000
G01 F120.00
G01 X155.7812 Y22.6852
G01 X155.7812 Y22.6852
G01 X155.7812 Y22.6852
G01 X155.7812 Y22.6852
G00 Z2.0000
G00 X153.2412 Y22.6852
G01 F60.00
G01 Z-1.8000
G01 F120.00
G01 X153.2412 Y22.6852
G01 X153.2412 Y22.6852
G01 X153.2412 Y22.6852
G01 X153.2412 Y22.6852
G00 Z2.0000
G00 X150.7012 Y22.6852
G01 F60.00
G01 Z-1.8000
G01 F120.00
G01 X150.7012 Y22.6852
G01 X150.7012 Y22.6852
G01 X150.7012 Y22.6852
G01 X150.7012 Y22.6852
G00 Z2.0000
G00 X148.1612 Y22.6852
G01 F60.00
G01 Z-1.8000
G01 F120.00
G01 X148.1612 Y22.6852
G01 X148.1612 Y22.6852
G01 X148.1612 Y22.6852
G01 X148.1612 Y22.6852
G00 Z2.0000
G00 X145.6212 Y22.6852
G01 F60.00
G01 Z-1.8000
G01 F120.00
G01 X145.6212 Y22.6852
G01 X145.6212 Y22.6852
G01 X145.6212 Y22.6852
G01 X145.6212 Y22.6852
G00 Z2.0000
G00 X143.0812 Y22.6852
G01 F60.00
G01 Z-1.8000
G01 F120.00
G01 X143.0812 Y22.6852
G01 X143.0812 Y22.6852
G01 X143.0812 Y22.6852
G01 X143.0812 Y22.6852
G00 Z2.0000
G00 X140.5412 Y22.6852
G01 F60.00
G01 Z-1.8000
G01 F120.00
G01 X140.5412 Y22.6852
G01 X140.5412 Y22.6852
G01 X140.5412 Y22.6852
G01 X140.5412 Y22.6852
G00 Z2.0000
G00 X145.8752 Y39.1952
G01 F60.00
G01 Z-1.8000
G01 F120.00
G01 X145.8752 Y39.1952
G01 X145.8752 Y39.1952
G01 X145.8752 Y39.1952
G01 X145.8752 Y39.1952
G00 Z2.0000
G00 X145.8752 Y41.7352
G01 F60.00
G01 Z-1.8000
G01 F120.00
G01 X145.8752 Y41.7352
G01 X145.8752 Y41.7352
G01 X145.8752 Y41.7352
G01 X145.8752 Y41.7352
G00 Z2.0000
G00 X145.8752 Y44.2752
G01 F60.00
G01 Z-1.8000
G01 F120.00
G01 X145.8752 Y44.2752
G01 X145.8752 Y44.2752
G01 X145.8752 Y44.2752
G01 X145.8752 Y44.2752
G00 Z2.0000
G00 X145.8752 Y46.8152
G01 F60.00
G01 Z-1.8000
G01 F120.00
G01 X145.8752 Y46.8152
G01 X145.8752 Y46.8152
G01 X145.8752 Y46.8152
G01 X145.8752 Y46.8152
G00 Z2.0000
G00 X145.8752 Y49.3552
G01 F60.00
G01 Z-1.8000
G01 F120.00
G01 X145.8752 Y49.3552
G01 X145.8752 Y49.3552
G01 X145.8752 Y49.3552
G01 X145.8752 Y49.3552
G00 Z2.0000
G00 X145.8752 Y51.8952
G01 F60.00
G01 Z-1.8000
G01 F120.00
G01 X145.8752 Y51.8952
G01 X145.8752 Y51.8952
G01 X145.8752 Y51.8952
G01 X145.8752 Y51.8952
G00 Z2.0000
G00 X145.8752 Y54.4352
G01 F60.00
G01 Z-1.8000
G01 F120.00
G01 X145.8752 Y54.4352
G01 X145.8752 Y54.4352
G01 X145.8752 Y54.4352
G01 X145.8752 Y54.4352
G00 Z2.0000
G00 X145.8752 Y56.9752
G01 F60.00
G01 Z-1.8000
G01 F120.00
G01 X145.8752 Y56.9752
G01 X145.8752 Y56.9752
G01 X145.8752 Y56.9752
G01 X145.8752 Y56.9752
G00 Z2.0000
G00 X145.8752 Y59.5152
G01 F60.00
G01 Z-1.8000
G01 F120.00
G01 X145.8752 Y59.5152
G01 X145.8752 Y59.5152
G01 X145.8752 Y59.5152
G01 X145.8752 Y59.5152
G00 Z2.0000
G00 X145.8752 Y62.0552
G01 F60.00
G01 Z-1.8000
G01 F120.00
G01 X145.8752 Y62.0552
G01 X145.8752 Y62.0552
G01 X145.8752 Y62.0552
G01 X145.8752 Y62.0552
G00 Z2.0000
G00 X149.6852 Y62.0552
G01 F60.00
G01 Z-1.8000
G01 F120.00
G01 X149.6852 Y62.0552
G01 X149.6852 Y62.0552
G01 X149.6852 Y62.0552
G01 X149.6852 Y62.0552
G00 Z2.0000
G00 X149.6852 Y59.5152
G01 F60.00
G01 Z-1.8000
G01 F120.00
G01 X149.6852 Y59.5152
G01 X149.6852 Y59.5152
G01 X149.6852 Y59.5152
G01 X149.6852 Y59.5152
G00 Z2.0000
G00 X149.6852 Y56.9752
G01 F60.00
G01 Z-1.8000
G01 F120.00
G01 X149.6852 Y56.9752
G01 X149.6852 Y56.9752
G01 X149.6852 Y56.9752
G01 X149.6852 Y56.9752
G00 Z2.0000
G00 X149.6852 Y54.4352
G01 F60.00
G01 Z-1.8000
G01 F120.00
G01 X149.6852 Y54.4352
G01 X149.6852 Y54.4352
G01 X149.6852 Y54.4352
G01 X149.6852 Y54.4352
G00 Z2.0000
G00 X149.6852 Y51.8952
G01 F60.00
G01 Z-1.8000
G01 F120.00
G01 X149.6852 Y51.8952
G01 X149.6852 Y51.8952
G01 X149.6852 Y51.8952
G01 X149.6852 Y51.8952
G00 Z2.0000
G00 X149.6852 Y49.3552
G01 F60.00
G01 Z-1.8000
G01 F120.00
G01 X149.6852 Y49.3552
G01 X149.6852 Y49.3552
G01 X149.6852 Y49.3552
G01 X149.6852 Y49.3552
G00 Z2.0000
G00 X149.6852 Y46.8152
G01 F60.00
G01 Z-1.8000
G01 F120.00
G01 X149.6852 Y46.8152
G01 X149.6852 Y46.8152
G01 X149.6852 Y46.8152
G01 X149.6852 Y46.8152
G00 Z2.0000
G00 X149.6852 Y44.2752
G01 F60.00
G01 Z-1.8000
G01 F120.00
G01 X149.6852 Y44.2752
G01 X149.6852 Y44.2752
G01 X149.6852 Y44.2752
G01 X149.6852 Y44.2752
G00 Z2.0000
G00 X149.6852 Y41.7352
G01 F60.00
G01 Z-1.8000
G01 F120.00
G01 X149.6852 Y41.7352
G01 X149.6852 Y41.7352
G01 X149.6852 Y41.7352
G01 X149.6852 Y41.7352
G00 Z2.0000
G00 X149.6852 Y39.1952
G01 F60.00
G01 Z-1.8000
G01 F120.00
G01 X149.6852 Y39.1952
G01 X149.6852 Y39.1952
G01 X149.6852 Y39.1952
G01 X149.6852 Y39.1952
G00 Z2.0000
G00 X156.2892 Y39.1952
G01 F60.00
G01 Z-1.8000
G01 F120.00
G01 X156.2892 Y39.1952
G01 X156.2892 Y39.1952
G01 X156.2892 Y39.1952
G01 X156.2892 Y39.1952
G00 Z2.0000
G00 X156.2892 Y41.7352
G01 F60.00
G01 Z-1.8000
G01 F120.00
G01 X156.2892 Y41.7352
G01 X156.2892 Y41.7352
G01 X156.2892 Y41.7352
G01 X156.2892 Y41.7352
G00 Z2.0000
G00 X156.2892 Y44.2752
G01 F60.00
G01 Z-1.8000
G01 F120.00
G01 X156.2892 Y44.2752
G01 X156.2892 Y44.2752
G01 X156.2892 Y44.2752
G01 X156.2892 Y44.2752
G00 Z2.0000
G00 X156.2892 Y46.8152
G01 F60.00
G01 Z-1.8000
G01 F120.00
G01 X156.2892 Y46.8152
G01 X156.2892 Y46.8152
G01 X156.2892 Y46.8152
G01 X156.2892 Y46.8152
G00 Z2.0000
G00 X156.2892 Y49.3552
G01 F60.00
G01 Z-1.8000
G01 F120.00
G01 X156.2892 Y49.3552
G01 X156.2892 Y49.3552
G01 X156.2892 Y49.3552
G01 X156.2892 Y49.3552
G00 Z2.0000
G00 X156.2892 Y51.8952
G01 F60.00
G01 Z-1.8000
G01 F120.00
G01 X156.2892 Y51.8952
G01 X156.2892 Y51.8952
G01 X156.2892 Y51.8952
G01 X156.2892 Y51.8952
G00 Z2.0000
G00 X156.2892 Y54.4352
G01 F60.00
G01 Z-1.8000
G01 F120.00
G01 X156.2892 Y54.4352
G01 X156.2892 Y54.4352
G01 X156.2892 Y54.4352
G01 X156.2892 Y54.4352
G00 Z2.0000
G00 X156.2892 Y56.9752
G01 F60.00
G01 Z-1.8000
G01 F120.00
G01 X156.2892 Y56.9752
G01 X156.2892 Y56.9752
G01 X156.2892 Y56.9752
G01 X156.2892 Y56.9752
G00 Z2.0000
G00 X156.2892 Y59.5152
G01 F60.00
G01 Z-1.8000
G01 F120.00
G01 X156.2892 Y59.5152
G01 X156.2892 Y59.5152
G01 X156.2892 Y59.5152
G01 X156.2892 Y59.5152
G00 Z2.0000
G00 X156.2892 Y62.0552
G01 F60.00
G01 Z-1.8000
G01 F120.00
G01 X156.2892 Y62.0552
G01 X156.2892 Y62.0552
G01 X156.2892 Y62.0552
G01 X156.2892 Y62.0552
G00 Z2.0000
G00 X160.3532 Y62.0552
G01 F60.00
G01 Z-1.8000
G01 F120.00
G01 X160.3532 Y62.0552
G01 X160.3532 Y62.0552
G01 X160.3532 Y62.0552
G01 X160.3532 Y62.0552
G00 Z2.0000
G00 X160.3532 Y59.5152
G01 F60.00
G01 Z-1.8000
G01 F120.00
G01 X160.3532 Y59.5152
G01 X160.3532 Y59.5152
G01 X160.3532 Y59.5152
G01 X160.3532 Y59.5152
G00 Z2.0000
G00 X160.3532 Y56.9752
G01 F60.00
G01 Z-1.8000
G01 F120.00
G01 X160.3532 Y56.9752
G01 X160.3532 Y56.9752
G01 X160.3532 Y56.9752
G01 X160.3532 Y56.9752
G00 Z2.0000
G00 X160.3532 Y54.4352
G01 F60.00
G01 Z-1.8000
G01 F120.00
G01 X160.3532 Y54.4352
G01 X160.3532 Y54.4352
G01 X160.3532 Y54.4352
G01 X160.3532 Y54.4352
G00 Z2.0000
G00 X160.3532 Y51.8952
G01 F60.00
G01 Z-1.8000
G01 F120.00
G01 X160.3532 Y51.8952
G01 X160.3532 Y51.8952
G01 X160.3532 Y51.8952
G01 X160.3532 Y51.8952
G00 Z2.0000
G00 X160.3532 Y49.3552
G01 F60.00
G01 Z-1.8000
G01 F120.00
G01 X160.3532 Y49.3552
G01 X160.3532 Y49.3552
G01 X160.3532 Y49.3552
G01 X160.3532 Y49.3552
G00 Z2.0000
G00 X160.3532 Y46.8152
G01 F60.00
G01 Z-1.8000
G01 F120.00
G01 X160.3532 Y46.8152
G01 X160.3532 Y46.8152
G01 X160.3532 Y46.8152
G01 X160.3532 Y46.8152
G00 Z2.0000
G00 X160.3532 Y44.2752
G01 F60.00
G01 Z-1.8000
G01 F120.00
G01 X160.3532 Y44.2752
G01 X160.3532 Y44.2752
G01 X160.3532 Y44.2752
G01 X160.3532 Y44.2752
G00 Z2.0000
G00 X160.3532 Y41.7352
G01 F60.00
G01 Z-1.8000
G01 F120.00
G01 X160.3532 Y41.7352
G01 X160.3532 Y41.7352
G01 X160.3532 Y41.7352
G01 X160.3532 Y41.7352
G00 Z2.0000
G00 X160.3532 Y39.1952
G01 F60.00
G01 Z-1.8000
G01 F120.00
G01 X160.3532 Y39.1952
G01 X160.3532 Y39.1952
G01 X160.3532 Y39.1952
G01 X160.3532 Y39.1952
G00 Z2.0000
G00 X170.7672 Y41.0122
G01 F60.00
G01 Z-1.8000
G01 F120.00
G01 X170.7672 Y41.0122
G01 X170.7672 Y41.0122
G01 X170.7672 Y41.0122
G01 X170.7672 Y41.0122
G00 Z2.0000
G00 X170.7672 Y46.0132
G01 F60.00
G01 Z-1.8000
G01 F120.00
G01 X170.7672 Y46.0132
G01 X170.7672 Y46.0132
G01 X170.7672 Y46.0132
G01 X170.7672 Y46.0132
G00 Z2.0000
G00 X175.8472 Y54.1812
G01 F60.00
G01 Z-1.8000
G01 F120.00
G01 X175.8472 Y54.1812
G01 X175.8472 Y54.1812
G01 X175.8472 Y54.1812
G01 X175.8472 Y54.1812
G00 Z2.0000
G00 X175.8472 Y59.2612
G01 F60.00
G01 Z-1.8000
G01 F120.00
G01 X175.8472 Y59.2612
G01 X175.8472 Y59.2612
G01 X175.8472 Y59.2612
G01 X175.8472 Y59.2612
G00 Z2.0000
G00 X151.7162 Y74.7552
G01 F60.00
G01 Z-1.8000
G01 F120.00
G01 X151.7162 Y74.7552
G01 X151.7162 Y74.7552
G01 X151.7162 Y74.7552
G01 X151.7162 Y74.7552
G00 Z2.0000
G00 X149.1762 Y74.7552
G01 F60.00
G01 Z-1.8000
G01 F120.00
G01 X149.1762 Y74.7552
G01 X149.1762 Y74.7552
G01 X149.1762 Y74.7552
G01 X149.1762 Y74.7552
G00 Z2.0000
G00 X146.6362 Y74.7552
G01 F60.00
G01 Z-1.8000
G01 F120.00
G01 X146.6362 Y74.7552
G01 X146.6362 Y74.7552
G01 X146.6362 Y74.7552
G01 X146.6362 Y74.7552
G00 Z2.0000
G00 X144.0962 Y74.7552
G01 F60.00
G01 Z-1.8000
G01 F120.00
G01 X144.0962 Y74.7552
G01 X144.0962 Y74.7552
G01 X144.0962 Y74.7552
G01 X144.0962 Y74.7552
G00 Z2.0000
G00 X141.5562 Y74.7552
G01 F60.00
G01 Z-1.8000
G01 F120.00
G01 X141.5562 Y74.7552
G01 X141.5562 Y74.7552
G01 X141.5562 Y74.7552
G01 X141.5562 Y74.7552
G00 Z2.0000
G00 X139.0162 Y74.7552
G01 F60.00
G01 Z-1.8000
G01 F120.00
G01 X139.0162 Y74.7552
G01 X139.0162 Y74.7552
G01 X139.0162 Y74.7552
G01 X139.0162 Y74.7552
G00 Z2.0000
G00 X136.4762 Y74.7552
G01 F60.00
G01 Z-1.8000
G01 F120.00
G01 X136.4762 Y74.7552
G01 X136.4762 Y74.7552
G01 X136.4762 Y74.7552
G01 X136.4762 Y74.7552
G00 Z2.0000
G00 X136.4772 Y78.8192
G01 F60.00
G01 Z-1.8000
G01 F120.00
G01 X136.4772 Y78.8192
G01 X136.4772 Y78.8192
G01 X136.4772 Y78.8192
G01 X136.4772 Y78.8192
G00 Z2.0000
G00 X139.0172 Y78.8192
G01 F60.00
G01 Z-1.8000
G01 F120.00
G01 X139.0172 Y78.8192
G01 X139.0172 Y78.8192
G01 X139.0172 Y78.8192
G01 X139.0172 Y78.8192
G00 Z2.0000
G00 X141.5572 Y78.8192
G01 F60.00
G01 Z-1.8000
G01 F120.00
G01 X141.5572 Y78.8192
G01 X141.5572 Y78.8192
G01 X141.5572 Y78.8192
G01 X141.5572 Y78.8192
G00 Z2.0000
G00 X144.0972 Y78.8192
G01 F60.00
G01 Z-1.8000
G01 F120.00
G01 X144.0972 Y78.8192
G01 X144.0972 Y78.8192
G01 X144.0972 Y78.8192
G01 X144.0972 Y78.8192
G00 Z2.0000
G00 X146.6372 Y78.8192
G01 F60.00
G01 Z-1.8000
G01 F120.00
G01 X146.6372 Y78.8192
G01 X146.6372 Y78.8192
G01 X146.6372 Y78.8192
G01 X146.6372 Y78.8192
G00 Z2.0000
G00 X149.1772 Y78.8192
G01 F60.00
G01 Z-1.8000
G01 F120.00
G01 X149.1772 Y78.8192
G01 X149.1772 Y78.8192
G01 X149.1772 Y78.8192
G01 X149.1772 Y78.8192
G00 Z2.0000
G00 X151.7172 Y78.8192
G01 F60.00
G01 Z-1.8000
G01 F120.00
G01 X151.7172 Y78.8192
G01 X151.7172 Y78.8192
G01 X151.7172 Y78.8192
G01 X151.7172 Y78.8192
G00 Z2.0000
G00 X154.2572 Y78.8192
G01 F60.00
G01 Z-1.8000
G01 F120.00
G01 X154.2572 Y78.8192
G01 X154.2572 Y78.8192
G01 X154.2572 Y78.8192
G01 X154.2572 Y78.8192
G00 Z2.0000
G00 X160.8612 Y22.6852
G01 F60.00
G01 Z-1.8000
G01 F120.00
G01 X160.8612 Y22.6852
G01 X160.8612 Y22.6852
G01 X160.8612 Y22.6852
G01 X160.8612 Y22.6852
G00 Z2.0000
G00 X163.4012 Y22.6852
G01 F60.00
G01 Z-1.8000
G01 F120.00
G01 X163.4012 Y22.6852
G01 X163.4012 Y22.6852
G01 X163.4012 Y22.6852
G01 X163.4012 Y22.6852
G00 Z2.0000
G00 X51.9772 Y16.4432
G01 F60.00
G01 Z-1.8000
G01 F120.00
G01 X51.9772 Y16.4432
G01 X51.9772 Y16.4432
G01 X51.9772 Y16.4432
G01 X51.9772 Y16.4432
G00 Z2.0000
G00 X51.9772 Y13.9032
G01 F60.00
G01 Z-1.8000
G01 F120.00
G01 X51.9772 Y13.9032
G01 X51.9772 Y13.9032
G01 X51.9772 Y13.9032
G01 X51.9772 Y13.9032
G00 Z2.0000
G00 X51.9772 Y11.3632
G01 F60.00
G01 Z-1.8000
G01 F120.00
G01 X51.9772 Y11.3632
G01 X51.9772 Y11.3632
G01 X51.9772 Y11.3632
G01 X51.9772 Y11.3632
G00 Z2.0000
G00 X51.9772 Y8.8232
G01 F60.00
G01 Z-1.8000
G01 F120.00
G01 X51.9772 Y8.8232
G01 X51.9772 Y8.8232
G01 X51.9772 Y8.8232
G01 X51.9772 Y8.8232
G00 Z2.0000
G00 X49.1772 Y10.0932
G01 F60.00
G01 Z-1.8000
G01 F120.00
G01 X49.1772 Y10.0932
G01 X49.1772 Y10.0932
G01 X49.1772 Y10.0932
G01 X49.1772 Y10.0932
G00 Z2.0000
G00 X49.1772 Y15.0932
G01 F60.00
G01 Z-1.8000
G01 F120.00
G01 X49.1772 Y15.0932
G01 X49.1772 Y15.0932
G01 X49.1772 Y15.0932
G01 X49.1772 Y15.0932
G00 Z2.0000
G00 X28.5272 Y15.0652
G01 F60.00
G01 Z-1.8000
G01 F120.00
G01 X28.5272 Y15.0652
G01 X28.5272 Y15.0652
G01 X28.5272 Y15.0652
G01 X28.5272 Y15.0652
G00 Z2.0000
G00 X23.4472 Y15.0652
G01 F60.00
G01 Z-1.8000
G01 F120.00
G01 X23.4472 Y15.0652
G01 X23.4472 Y15.0652
G01 X23.4472 Y15.0652
G01 X23.4472 Y15.0652
G00 Z2.0000
G00 X23.4472 Y9.7312
G01 F60.00
G01 Z-1.8000
G01 F120.00
G01 X23.4472 Y9.7312
G01 X23.4472 Y9.7312
G01 X23.4472 Y9.7312
G01 X23.4472 Y9.7312
G00 Z2.0000
G00 X25.9872 Y9.7312
G01 F60.00
G01 Z-1.8000
G01 F120.00
G01 X25.9872 Y9.7312
G01 X25.9872 Y9.7312
G01 X25.9872 Y9.7312
G01 X25.9872 Y9.7312
G00 Z2.0000
G00 X28.5272 Y9.7312
G01 F60.00
G01 Z-1.8000
G01 F120.00
G01 X28.5272 Y9.7312
G01 X28.5272 Y9.7312
G01 X28.5272 Y9.7312
G01 X28.5272 Y9.7312
G00 Z2.0000
G00 X5.6682 Y25.3522
G01 F60.00
G01 Z-1.8000
G01 F120.00
G01 X5.6682 Y25.3522
G01 X5.6682 Y25.3522
G01 X5.6682 Y25.3522
G01 X5.6682 Y25.3522
G00 Z2.0000
M05
G00 Z2.0000
G00 Z15.00

