(G-CODE GENERATED BY FLATCAM v8.993 - www.flatcam.org - Version Date: 2020/06/05)

(Name: Gerber_BoardOutline.GKO_cutout_cnc)
(Type: G-code from Geometry)
(Units: MM)

(Created on Monday, 29 March 2021 at 23:41)

(This preprocessor is the default preprocessor used by FlatCAM.)
(It is made to work with MACH3 compatible motion controllers.)

(TOOL DIAMETER: 2.4 mm)
(Feedrate_XY: 120.0 mm/min)
(Feedrate_Z: 60.0 mm/min)
(Feedrate rapids 1500.0 mm/min)

(Z_Cut: -1.8 mm)
(DepthPerCut: 0.6 mm <=>3 passes)
(Z_Move: 2.0 mm)
(Z Start: None mm)
(Z End: 15.0 mm)
(Steps per circle: 64)
(Preprocessor Geometry: default)

(X range:    1.8000 ...  181.2384  mm)
(Y range:    1.8000 ...   99.7050  mm)

(Spindle Speed: None RPM)
G21
G90
G94



G01 F120.00
G00 Z2.0000

M03
G00 X40.0384 Y18.5654
G01 F60.00
G01 Z-0.6000
G01 F120.00
G01 X9.2231 Y18.5663
G01 X9.1937 Y18.5667
G01 X9.1456 Y18.5682
G01 X8.5979 Y18.5952
G01 X8.5391 Y18.5995
G01 X8.5019 Y18.6032
G01 X8.4435 Y18.6104
G01 X7.9010 Y18.6908
G01 X7.8430 Y18.7009
G01 X7.8063 Y18.7082
G01 X7.7488 Y18.7211
G01 X7.2169 Y18.8543
G01 X7.1601 Y18.8701
G01 X7.1243 Y18.8809
G01 X7.0684 Y18.8994
G01 X6.5521 Y19.0841
G01 X6.4971 Y19.1053
G01 X6.4626 Y19.1196
G01 X6.4087 Y19.1435
G01 X5.9130 Y19.3780
G01 X5.8604 Y19.4045
G01 X5.8274 Y19.4221
G01 X5.7761 Y19.4511
G01 X5.3058 Y19.7330
G01 X5.2560 Y19.7646
G01 X5.2249 Y19.7853
G01 X5.1767 Y19.8193
G01 X4.7363 Y20.1459
G01 X4.6898 Y20.1822
G01 X4.6609 Y20.2059
G01 X4.6163 Y20.2444
G01 X4.2100 Y20.6126
G01 X4.1674 Y20.6532
G01 X4.1409 Y20.6797
G01 X4.1003 Y20.7224
G01 X3.7320 Y21.1287
G01 X3.6935 Y21.1733
G01 X3.6698 Y21.2022
G01 X3.6336 Y21.2486
G01 X3.3069 Y21.6891
G01 X3.2730 Y21.7372
G01 X3.2522 Y21.7683
G01 X3.2207 Y21.8181
G01 X2.9388 Y22.2885
G01 X2.9097 Y22.3397
G01 X2.8921 Y22.3727
G01 X2.8656 Y22.4253
G01 X2.6312 Y22.9210
G01 X2.6073 Y22.9749
G01 X2.5930 Y23.0095
G01 X2.5718 Y23.0644
G01 X2.3870 Y23.5807
G01 X2.3686 Y23.6367
G01 X2.3577 Y23.6725
G01 X2.3420 Y23.7292
G01 X2.2088 Y24.2612
G01 X2.1958 Y24.3186
G01 X2.1886 Y24.3553
G01 X2.1785 Y24.4134
G01 X2.0980 Y24.9558
G01 X2.0908 Y25.0143
G01 X2.0871 Y25.0515
G01 X2.0828 Y25.1102
G01 X2.0559 Y25.6579
G01 X2.0546 Y25.6935
G01 X2.0540 Y25.7252
G01 X1.9409 Y48.0000
G00 X1.9409 Y48.0000
G01 F60.00
G01 Z-1.2000
G01 F120.00
G01 X2.0540 Y25.7252
G01 X2.0546 Y25.6935
G01 X2.0559 Y25.6579
G01 X2.0828 Y25.1102
G01 X2.0871 Y25.0515
G01 X2.0908 Y25.0143
G01 X2.0980 Y24.9558
G01 X2.1785 Y24.4134
G01 X2.1886 Y24.3553
G01 X2.1958 Y24.3186
G01 X2.2088 Y24.2612
G01 X2.3420 Y23.7292
G01 X2.3577 Y23.6725
G01 X2.3686 Y23.6367
G01 X2.3870 Y23.5807
G01 X2.5718 Y23.0644
G01 X2.5930 Y23.0095
G01 X2.6073 Y22.9749
G01 X2.6312 Y22.9210
G01 X2.8656 Y22.4253
G01 X2.8921 Y22.3727
G01 X2.9097 Y22.3397
G01 X2.9388 Y22.2885
G01 X3.2207 Y21.8181
G01 X3.2522 Y21.7683
G01 X3.2730 Y21.7372
G01 X3.3069 Y21.6891
G01 X3.6336 Y21.2486
G01 X3.6698 Y21.2022
G01 X3.6935 Y21.1733
G01 X3.7320 Y21.1287
G01 X4.1003 Y20.7224
G01 X4.1409 Y20.6797
G01 X4.1674 Y20.6532
G01 X4.2100 Y20.6126
G01 X4.6163 Y20.2444
G01 X4.6609 Y20.2059
G01 X4.6898 Y20.1822
G01 X4.7363 Y20.1459
G01 X5.1767 Y19.8193
G01 X5.2249 Y19.7853
G01 X5.2560 Y19.7646
G01 X5.3058 Y19.7330
G01 X5.7761 Y19.4511
G01 X5.8274 Y19.4221
G01 X5.8604 Y19.4045
G01 X5.9130 Y19.3780
G01 X6.4087 Y19.1435
G01 X6.4626 Y19.1196
G01 X6.4971 Y19.1053
G01 X6.5521 Y19.0841
G01 X7.0684 Y18.8994
G01 X7.1243 Y18.8809
G01 X7.1601 Y18.8701
G01 X7.2169 Y18.8543
G01 X7.7488 Y18.7211
G01 X7.8063 Y18.7082
G01 X7.8430 Y18.7009
G01 X7.9010 Y18.6908
G01 X8.4435 Y18.6104
G01 X8.5019 Y18.6032
G01 X8.5391 Y18.5995
G01 X8.5979 Y18.5952
G01 X9.1456 Y18.5682
G01 X9.1937 Y18.5667
G01 X9.2231 Y18.5663
G01 X40.0384 Y18.5654
G00 X40.0384 Y18.5654
G01 F60.00
G01 Z-1.8000
G01 F120.00
G01 X9.2231 Y18.5663
G01 X9.1937 Y18.5667
G01 X9.1456 Y18.5682
G01 X8.5979 Y18.5952
G01 X8.5391 Y18.5995
G01 X8.5019 Y18.6032
G01 X8.4435 Y18.6104
G01 X7.9010 Y18.6908
G01 X7.8430 Y18.7009
G01 X7.8063 Y18.7082
G01 X7.7488 Y18.7211
G01 X7.2169 Y18.8543
G01 X7.1601 Y18.8701
G01 X7.1243 Y18.8809
G01 X7.0684 Y18.8994
G01 X6.5521 Y19.0841
G01 X6.4971 Y19.1053
G01 X6.4626 Y19.1196
G01 X6.4087 Y19.1435
G01 X5.9130 Y19.3780
G01 X5.8604 Y19.4045
G01 X5.8274 Y19.4221
G01 X5.7761 Y19.4511
G01 X5.3058 Y19.7330
G01 X5.2560 Y19.7646
G01 X5.2249 Y19.7853
G01 X5.1767 Y19.8193
G01 X4.7363 Y20.1459
G01 X4.6898 Y20.1822
G01 X4.6609 Y20.2059
G01 X4.6163 Y20.2444
G01 X4.2100 Y20.6126
G01 X4.1674 Y20.6532
G01 X4.1409 Y20.6797
G01 X4.1003 Y20.7224
G01 X3.7320 Y21.1287
G01 X3.6935 Y21.1733
G01 X3.6698 Y21.2022
G01 X3.6336 Y21.2486
G01 X3.3069 Y21.6891
G01 X3.2730 Y21.7372
G01 X3.2522 Y21.7683
G01 X3.2207 Y21.8181
G01 X2.9388 Y22.2885
G01 X2.9097 Y22.3397
G01 X2.8921 Y22.3727
G01 X2.8656 Y22.4253
G01 X2.6312 Y22.9210
G01 X2.6073 Y22.9749
G01 X2.5930 Y23.0095
G01 X2.5718 Y23.0644
G01 X2.3870 Y23.5807
G01 X2.3686 Y23.6367
G01 X2.3577 Y23.6725
G01 X2.3420 Y23.7292
G01 X2.2088 Y24.2612
G01 X2.1958 Y24.3186
G01 X2.1886 Y24.3553
G01 X2.1785 Y24.4134
G01 X2.0980 Y24.9558
G01 X2.0908 Y25.0143
G01 X2.0871 Y25.0515
G01 X2.0828 Y25.1102
G01 X2.0559 Y25.6579
G01 X2.0546 Y25.6935
G01 X2.0540 Y25.7252
G01 X1.9409 Y48.0000
G00 Z2.0000
G00 X1.8902 Y58.0000
G01 F60.00
G01 Z-0.6000
G01 F120.00
G01 X1.8000 Y75.7632
G01 X1.8003 Y75.7957
G01 X1.8019 Y75.8488
G01 X1.8288 Y76.3965
G01 X1.8331 Y76.4552
G01 X1.8368 Y76.4925
G01 X1.8440 Y76.5509
G01 X1.9245 Y77.0934
G01 X1.9346 Y77.1514
G01 X1.9418 Y77.1881
G01 X1.9548 Y77.2456
G01 X2.0880 Y77.7775
G01 X2.1037 Y77.8343
G01 X2.1146 Y77.8701
G01 X2.1330 Y77.9260
G01 X2.3178 Y78.4423
G01 X2.3390 Y78.4973
G01 X2.3533 Y78.5318
G01 X2.3772 Y78.5857
G01 X2.6116 Y79.0814
G01 X2.6381 Y79.1340
G01 X2.6557 Y79.1670
G01 X2.6848 Y79.2182
G01 X2.9667 Y79.6886
G01 X2.9982 Y79.7384
G01 X3.0190 Y79.7695
G01 X3.0529 Y79.8176
G01 X3.3796 Y80.2581
G01 X3.4158 Y80.3045
G01 X3.4395 Y80.3334
G01 X3.4780 Y80.3780
G01 X3.8463 Y80.7844
G01 X3.8869 Y80.8270
G01 X3.9134 Y80.8535
G01 X3.9560 Y80.8941
G01 X4.3623 Y81.2624
G01 X4.4069 Y81.3008
G01 X4.4358 Y81.3246
G01 X4.4823 Y81.3608
G01 X4.9227 Y81.6875
G01 X4.9709 Y81.7214
G01 X5.0020 Y81.7422
G01 X5.0518 Y81.7737
G01 X5.5221 Y82.0556
G01 X5.5734 Y82.0846
G01 X5.6064 Y82.1023
G01 X5.6590 Y82.1287
G01 X6.1547 Y82.3632
G01 X6.2086 Y82.3871
G01 X6.2431 Y82.4014
G01 X6.2981 Y82.4226
G01 X6.8144 Y82.6073
G01 X6.8703 Y82.6258
G01 X6.9061 Y82.6367
G01 X6.9629 Y82.6524
G01 X7.4948 Y82.7856
G01 X7.5523 Y82.7985
G01 X7.5890 Y82.8058
G01 X7.6470 Y82.8159
G01 X8.1895 Y82.8964
G01 X8.2479 Y82.9036
G01 X8.2851 Y82.9072
G01 X8.3439 Y82.9116
G01 X8.8916 Y82.9385
G01 X8.9211 Y82.9396
G01 X8.9692 Y82.9404
G01 X40.0384 Y82.9394
G00 X40.0384 Y82.9394
G01 F60.00
G01 Z-1.2000
G01 F120.00
G01 X8.9692 Y82.9404
G01 X8.9211 Y82.9396
G01 X8.8916 Y82.9385
G01 X8.3439 Y82.9116
G01 X8.2851 Y82.9072
G01 X8.2479 Y82.9036
G01 X8.1895 Y82.8964
G01 X7.6470 Y82.8159
G01 X7.5890 Y82.8058
G01 X7.5523 Y82.7985
G01 X7.4948 Y82.7856
G01 X6.9629 Y82.6524
G01 X6.9061 Y82.6367
G01 X6.8703 Y82.6258
G01 X6.8144 Y82.6073
G01 X6.2981 Y82.4226
G01 X6.2431 Y82.4014
G01 X6.2086 Y82.3871
G01 X6.1547 Y82.3632
G01 X5.6590 Y82.1287
G01 X5.6064 Y82.1023
G01 X5.5734 Y82.0846
G01 X5.5221 Y82.0556
G01 X5.0518 Y81.7737
G01 X5.0020 Y81.7422
G01 X4.9709 Y81.7214
G01 X4.9227 Y81.6875
G01 X4.4823 Y81.3608
G01 X4.4358 Y81.3246
G01 X4.4069 Y81.3008
G01 X4.3623 Y81.2624
G01 X3.9560 Y80.8941
G01 X3.9134 Y80.8535
G01 X3.8869 Y80.8270
G01 X3.8463 Y80.7844
G01 X3.4780 Y80.3780
G01 X3.4395 Y80.3334
G01 X3.4158 Y80.3045
G01 X3.3796 Y80.2581
G01 X3.0529 Y79.8176
G01 X3.0190 Y79.7695
G01 X2.9982 Y79.7384
G01 X2.9667 Y79.6886
G01 X2.6848 Y79.2182
G01 X2.6557 Y79.1670
G01 X2.6381 Y79.1340
G01 X2.6116 Y79.0814
G01 X2.3772 Y78.5857
G01 X2.3533 Y78.5318
G01 X2.3390 Y78.4973
G01 X2.3178 Y78.4423
G01 X2.1330 Y77.9260
G01 X2.1146 Y77.8701
G01 X2.1037 Y77.8343
G01 X2.0880 Y77.7775
G01 X1.9548 Y77.2456
G01 X1.9418 Y77.1881
G01 X1.9346 Y77.1514
G01 X1.9245 Y77.0934
G01 X1.8440 Y76.5509
G01 X1.8368 Y76.4925
G01 X1.8331 Y76.4552
G01 X1.8288 Y76.3965
G01 X1.8019 Y75.8488
G01 X1.8003 Y75.7957
G01 X1.8000 Y75.7632
G01 X1.8902 Y58.0000
G00 X1.8902 Y58.0000
G01 F60.00
G01 Z-1.8000
G01 F120.00
G01 X1.8000 Y75.7632
G01 X1.8003 Y75.7957
G01 X1.8019 Y75.8488
G01 X1.8288 Y76.3965
G01 X1.8331 Y76.4552
G01 X1.8368 Y76.4925
G01 X1.8440 Y76.5509
G01 X1.9245 Y77.0934
G01 X1.9346 Y77.1514
G01 X1.9418 Y77.1881
G01 X1.9548 Y77.2456
G01 X2.0880 Y77.7775
G01 X2.1037 Y77.8343
G01 X2.1146 Y77.8701
G01 X2.1330 Y77.9260
G01 X2.3178 Y78.4423
G01 X2.3390 Y78.4973
G01 X2.3533 Y78.5318
G01 X2.3772 Y78.5857
G01 X2.6116 Y79.0814
G01 X2.6381 Y79.1340
G01 X2.6557 Y79.1670
G01 X2.6848 Y79.2182
G01 X2.9667 Y79.6886
G01 X2.9982 Y79.7384
G01 X3.0190 Y79.7695
G01 X3.0529 Y79.8176
G01 X3.3796 Y80.2581
G01 X3.4158 Y80.3045
G01 X3.4395 Y80.3334
G01 X3.4780 Y80.3780
G01 X3.8463 Y80.7844
G01 X3.8869 Y80.8270
G01 X3.9134 Y80.8535
G01 X3.9560 Y80.8941
G01 X4.3623 Y81.2624
G01 X4.4069 Y81.3008
G01 X4.4358 Y81.3246
G01 X4.4823 Y81.3608
G01 X4.9227 Y81.6875
G01 X4.9709 Y81.7214
G01 X5.0020 Y81.7422
G01 X5.0518 Y81.7737
G01 X5.5221 Y82.0556
G01 X5.5734 Y82.0846
G01 X5.6064 Y82.1023
G01 X5.6590 Y82.1287
G01 X6.1547 Y82.3632
G01 X6.2086 Y82.3871
G01 X6.2431 Y82.4014
G01 X6.2981 Y82.4226
G01 X6.8144 Y82.6073
G01 X6.8703 Y82.6258
G01 X6.9061 Y82.6367
G01 X6.9629 Y82.6524
G01 X7.4948 Y82.7856
G01 X7.5523 Y82.7985
G01 X7.5890 Y82.8058
G01 X7.6470 Y82.8159
G01 X8.1895 Y82.8964
G01 X8.2479 Y82.9036
G01 X8.2851 Y82.9072
G01 X8.3439 Y82.9116
G01 X8.8916 Y82.9385
G01 X8.9211 Y82.9396
G01 X8.9692 Y82.9404
G01 X40.0384 Y82.9394
G00 Z2.0000
G00 X50.0384 Y82.9391
G01 F60.00
G01 Z-0.6000
G01 F120.00
G01 X84.5143 Y82.9381
G01 X100.8151 Y99.2389
G01 X100.8578 Y99.2795
G01 X100.8855 Y99.3047
G01 X100.9765 Y99.3794
G01 X101.0066 Y99.4016
G01 X101.1045 Y99.4671
G01 X101.1366 Y99.4863
G01 X101.2404 Y99.5418
G01 X101.2742 Y99.5578
G01 X101.3830 Y99.6029
G01 X101.4183 Y99.6155
G01 X101.5310 Y99.6497
G01 X101.5672 Y99.6588
G01 X101.6827 Y99.6817
G01 X101.7197 Y99.6872
G01 X101.8369 Y99.6988
G01 X101.8743 Y99.7006
G01 X101.9967 Y99.7004
G01 X102.0601 Y99.7020
G01 X130.0384 Y99.7032
G00 X130.0384 Y99.7032
G01 F60.00
G01 Z-1.2000
G01 F120.00
G01 X102.0601 Y99.7020
G01 X101.9967 Y99.7004
G01 X101.8743 Y99.7006
G01 X101.8369 Y99.6988
G01 X101.7197 Y99.6872
G01 X101.6827 Y99.6817
G01 X101.5672 Y99.6588
G01 X101.5310 Y99.6497
G01 X101.4183 Y99.6155
G01 X101.3830 Y99.6029
G01 X101.2742 Y99.5578
G01 X101.2404 Y99.5418
G01 X101.1366 Y99.4863
G01 X101.1045 Y99.4671
G01 X101.0066 Y99.4016
G01 X100.9765 Y99.3794
G01 X100.8855 Y99.3047
G01 X100.8578 Y99.2795
G01 X100.8151 Y99.2389
G01 X84.5143 Y82.9381
G01 X50.0384 Y82.9391
G00 X50.0384 Y82.9391
G01 F60.00
G01 Z-1.8000
G01 F120.00
G01 X84.5143 Y82.9381
G01 X100.8151 Y99.2389
G01 X100.8578 Y99.2795
G01 X100.8855 Y99.3047
G01 X100.9765 Y99.3794
G01 X101.0066 Y99.4016
G01 X101.1045 Y99.4671
G01 X101.1366 Y99.4863
G01 X101.2404 Y99.5418
G01 X101.2742 Y99.5578
G01 X101.3830 Y99.6029
G01 X101.4183 Y99.6155
G01 X101.5310 Y99.6497
G01 X101.5672 Y99.6588
G01 X101.6827 Y99.6817
G01 X101.7197 Y99.6872
G01 X101.8369 Y99.6988
G01 X101.8743 Y99.7006
G01 X101.9967 Y99.7004
G01 X102.0601 Y99.7020
G01 X130.0384 Y99.7032
G00 Z2.0000
G00 X140.0384 Y99.7036
G01 F60.00
G01 Z-0.6000
G01 F120.00
G01 X174.0691 Y99.7050
G01 X174.0969 Y99.7046
G01 X174.1422 Y99.7033
G01 X174.6578 Y99.6794
G01 X174.7131 Y99.6756
G01 X174.7482 Y99.6723
G01 X174.8032 Y99.6660
G01 X175.3144 Y99.5947
G01 X175.3691 Y99.5857
G01 X175.4038 Y99.5793
G01 X175.4580 Y99.5678
G01 X175.9604 Y99.4496
G01 X176.0141 Y99.4357
G01 X176.0479 Y99.4261
G01 X176.1009 Y99.4097
G01 X176.5903 Y99.2456
G01 X176.6424 Y99.2268
G01 X176.6753 Y99.2141
G01 X176.7265 Y99.1929
G01 X177.1986 Y98.9844
G01 X177.2488 Y98.9608
G01 X177.2803 Y98.9452
G01 X177.3294 Y98.9193
G01 X177.7803 Y98.6681
G01 X177.8281 Y98.6401
G01 X177.8580 Y98.6215
G01 X177.9045 Y98.5913
G01 X178.3303 Y98.2996
G01 X178.3753 Y98.2672
G01 X178.4034 Y98.2460
G01 X178.4468 Y98.2116
G01 X178.8439 Y97.8818
G01 X178.8858 Y97.8454
G01 X178.9118 Y97.8217
G01 X178.9519 Y97.7834
G01 X179.3168 Y97.4185
G01 X179.3551 Y97.3784
G01 X179.3788 Y97.3523
G01 X179.4152 Y97.3105
G01 X179.7450 Y96.9134
G01 X179.7794 Y96.8700
G01 X179.8006 Y96.8419
G01 X179.8330 Y96.7969
G01 X180.1247 Y96.3711
G01 X180.1549 Y96.3246
G01 X180.1735 Y96.2947
G01 X180.2016 Y96.2469
G01 X180.4527 Y95.7960
G01 X180.4786 Y95.7469
G01 X180.4943 Y95.7154
G01 X180.5178 Y95.6652
G01 X180.7263 Y95.1931
G01 X180.7475 Y95.1418
G01 X180.7602 Y95.1090
G01 X180.7791 Y95.0569
G01 X180.9431 Y94.5675
G01 X180.9595 Y94.5145
G01 X180.9691 Y94.4807
G01 X180.9831 Y94.4270
G01 X181.1012 Y93.9246
G01 X181.1127 Y93.8703
G01 X181.1191 Y93.8357
G01 X181.1281 Y93.7810
G01 X181.1994 Y93.2698
G01 X181.2058 Y93.2148
G01 X181.2090 Y93.1797
G01 X181.2128 Y93.1245
G01 X181.2164 Y93.0481
G01 X181.2181 Y93.0396
G01 X181.2236 Y93.0026
G01 X181.2351 Y92.8854
G01 X181.2369 Y92.8481
G01 X181.2384 Y92.7892
G01 X181.2384 Y58.0000
G00 X181.2384 Y58.0000
G01 F60.00
G01 Z-1.2000
G01 F120.00
G01 X181.2384 Y92.7892
G01 X181.2369 Y92.8481
G01 X181.2351 Y92.8854
G01 X181.2236 Y93.0026
G01 X181.2181 Y93.0396
G01 X181.2164 Y93.0481
G01 X181.2128 Y93.1245
G01 X181.2090 Y93.1797
G01 X181.2058 Y93.2148
G01 X181.1994 Y93.2698
G01 X181.1281 Y93.7810
G01 X181.1191 Y93.8357
G01 X181.1127 Y93.8703
G01 X181.1012 Y93.9246
G01 X180.9831 Y94.4270
G01 X180.9691 Y94.4807
G01 X180.9595 Y94.5145
G01 X180.9431 Y94.5675
G01 X180.7791 Y95.0569
G01 X180.7602 Y95.1090
G01 X180.7475 Y95.1418
G01 X180.7263 Y95.1931
G01 X180.5178 Y95.6652
G01 X180.4943 Y95.7154
G01 X180.4786 Y95.7469
G01 X180.4527 Y95.7960
G01 X180.2016 Y96.2469
G01 X180.1735 Y96.2947
G01 X180.1549 Y96.3246
G01 X180.1247 Y96.3711
G01 X179.8330 Y96.7969
G01 X179.8006 Y96.8419
G01 X179.7794 Y96.8700
G01 X179.7450 Y96.9134
G01 X179.4152 Y97.3105
G01 X179.3788 Y97.3523
G01 X179.3551 Y97.3784
G01 X179.3168 Y97.4185
G01 X178.9519 Y97.7834
G01 X178.9118 Y97.8217
G01 X178.8858 Y97.8454
G01 X178.8439 Y97.8818
G01 X178.4468 Y98.2116
G01 X178.4034 Y98.2460
G01 X178.3753 Y98.2672
G01 X178.3303 Y98.2996
G01 X177.9045 Y98.5913
G01 X177.8580 Y98.6215
G01 X177.8281 Y98.6401
G01 X177.7803 Y98.6681
G01 X177.3294 Y98.9193
G01 X177.2803 Y98.9452
G01 X177.2488 Y98.9608
G01 X177.1986 Y98.9844
G01 X176.7265 Y99.1929
G01 X176.6753 Y99.2141
G01 X176.6424 Y99.2268
G01 X176.5903 Y99.2456
G01 X176.1009 Y99.4097
G01 X176.0479 Y99.4261
G01 X176.0141 Y99.4357
G01 X175.9604 Y99.4496
G01 X175.4580 Y99.5678
G01 X175.4038 Y99.5793
G01 X175.3691 Y99.5857
G01 X175.3144 Y99.5947
G01 X174.8032 Y99.6660
G01 X174.7482 Y99.6723
G01 X174.7131 Y99.6756
G01 X174.6578 Y99.6794
G01 X174.1422 Y99.7033
G01 X174.0969 Y99.7046
G01 X174.0691 Y99.7050
G01 X140.0384 Y99.7036
G00 X140.0384 Y99.7036
G01 F60.00
G01 Z-1.8000
G01 F120.00
G01 X174.0691 Y99.7050
G01 X174.0969 Y99.7046
G01 X174.1422 Y99.7033
G01 X174.6578 Y99.6794
G01 X174.7131 Y99.6756
G01 X174.7482 Y99.6723
G01 X174.8032 Y99.6660
G01 X175.3144 Y99.5947
G01 X175.3691 Y99.5857
G01 X175.4038 Y99.5793
G01 X175.4580 Y99.5678
G01 X175.9604 Y99.4496
G01 X176.0141 Y99.4357
G01 X176.0479 Y99.4261
G01 X176.1009 Y99.4097
G01 X176.5903 Y99.2456
G01 X176.6424 Y99.2268
G01 X176.6753 Y99.2141
G01 X176.7265 Y99.1929
G01 X177.1986 Y98.9844
G01 X177.2488 Y98.9608
G01 X177.2803 Y98.9452
G01 X177.3294 Y98.9193
G01 X177.7803 Y98.6681
G01 X177.8281 Y98.6401
G01 X177.8580 Y98.6215
G01 X177.9045 Y98.5913
G01 X178.3303 Y98.2996
G01 X178.3753 Y98.2672
G01 X178.4034 Y98.2460
G01 X178.4468 Y98.2116
G01 X178.8439 Y97.8818
G01 X178.8858 Y97.8454
G01 X178.9118 Y97.8217
G01 X178.9519 Y97.7834
G01 X179.3168 Y97.4185
G01 X179.3551 Y97.3784
G01 X179.3788 Y97.3523
G01 X179.4152 Y97.3105
G01 X179.7450 Y96.9134
G01 X179.7794 Y96.8700
G01 X179.8006 Y96.8419
G01 X179.8330 Y96.7969
G01 X180.1247 Y96.3711
G01 X180.1549 Y96.3246
G01 X180.1735 Y96.2947
G01 X180.2016 Y96.2469
G01 X180.4527 Y95.7960
G01 X180.4786 Y95.7469
G01 X180.4943 Y95.7154
G01 X180.5178 Y95.6652
G01 X180.7263 Y95.1931
G01 X180.7475 Y95.1418
G01 X180.7602 Y95.1090
G01 X180.7791 Y95.0569
G01 X180.9431 Y94.5675
G01 X180.9595 Y94.5145
G01 X180.9691 Y94.4807
G01 X180.9831 Y94.4270
G01 X181.1012 Y93.9246
G01 X181.1127 Y93.8703
G01 X181.1191 Y93.8357
G01 X181.1281 Y93.7810
G01 X181.1994 Y93.2698
G01 X181.2058 Y93.2148
G01 X181.2090 Y93.1797
G01 X181.2128 Y93.1245
G01 X181.2164 Y93.0481
G01 X181.2181 Y93.0396
G01 X181.2236 Y93.0026
G01 X181.2351 Y92.8854
G01 X181.2369 Y92.8481
G01 X181.2384 Y92.7892
G01 X181.2384 Y58.0000
G00 Z2.0000
G00 X181.2384 Y48.0000
G01 F60.00
G01 Z-0.6000
G01 F120.00
G01 X181.2384 Y8.9692
G01 X181.2380 Y8.9397
G01 X181.2365 Y8.8916
G01 X181.2096 Y8.3439
G01 X181.2052 Y8.2851
G01 X181.2016 Y8.2479
G01 X181.1944 Y8.1895
G01 X181.1139 Y7.6470
G01 X181.1038 Y7.5890
G01 X181.0965 Y7.5523
G01 X181.0836 Y7.4948
G01 X180.9504 Y6.9629
G01 X180.9347 Y6.9061
G01 X180.9238 Y6.8703
G01 X180.9053 Y6.8144
G01 X180.7206 Y6.2981
G01 X180.6994 Y6.2431
G01 X180.6851 Y6.2086
G01 X180.6612 Y6.1547
G01 X180.4267 Y5.6590
G01 X180.4003 Y5.6064
G01 X180.3826 Y5.5734
G01 X180.3536 Y5.5221
G01 X180.0717 Y5.0518
G01 X180.0402 Y5.0020
G01 X180.0194 Y4.9709
G01 X179.9855 Y4.9227
G01 X179.6588 Y4.4823
G01 X179.6226 Y4.4359
G01 X179.5988 Y4.4069
G01 X179.5604 Y4.3623
G01 X179.1921 Y3.9560
G01 X179.1515 Y3.9134
G01 X179.1250 Y3.8869
G01 X179.0824 Y3.8463
G01 X178.6760 Y3.4780
G01 X178.6314 Y3.4396
G01 X178.6025 Y3.4158
G01 X178.5561 Y3.3796
G01 X178.1156 Y3.0529
G01 X178.0675 Y3.0190
G01 X178.0364 Y2.9982
G01 X177.9866 Y2.9667
G01 X177.5162 Y2.6848
G01 X177.4650 Y2.6558
G01 X177.4320 Y2.6381
G01 X177.3794 Y2.6116
G01 X176.8837 Y2.3772
G01 X176.8298 Y2.3533
G01 X176.7953 Y2.3390
G01 X176.7403 Y2.3178
G01 X176.2240 Y2.1330
G01 X176.1681 Y2.1146
G01 X176.1323 Y2.1037
G01 X176.0755 Y2.0880
G01 X175.5435 Y1.9548
G01 X175.4861 Y1.9419
G01 X175.4494 Y1.9346
G01 X175.3914 Y1.9245
G01 X174.8489 Y1.8440
G01 X174.7905 Y1.8368
G01 X174.7532 Y1.8331
G01 X174.6945 Y1.8288
G01 X174.1468 Y1.8019
G01 X174.1173 Y1.8008
G01 X174.0692 Y1.8000
G01 X140.0384 Y1.8000
G00 X140.0384 Y1.8000
G01 F60.00
G01 Z-1.2000
G01 F120.00
G01 X174.0692 Y1.8000
G01 X174.1173 Y1.8008
G01 X174.1468 Y1.8019
G01 X174.6945 Y1.8288
G01 X174.7532 Y1.8331
G01 X174.7905 Y1.8368
G01 X174.8489 Y1.8440
G01 X175.3914 Y1.9245
G01 X175.4494 Y1.9346
G01 X175.4861 Y1.9419
G01 X175.5435 Y1.9548
G01 X176.0755 Y2.0880
G01 X176.1323 Y2.1037
G01 X176.1681 Y2.1146
G01 X176.2240 Y2.1330
G01 X176.7403 Y2.3178
G01 X176.7953 Y2.3390
G01 X176.8298 Y2.3533
G01 X176.8837 Y2.3772
G01 X177.3794 Y2.6116
G01 X177.4320 Y2.6381
G01 X177.4650 Y2.6558
G01 X177.5162 Y2.6848
G01 X177.9866 Y2.9667
G01 X178.0364 Y2.9982
G01 X178.0675 Y3.0190
G01 X178.1156 Y3.0529
G01 X178.5561 Y3.3796
G01 X178.6025 Y3.4158
G01 X178.6314 Y3.4396
G01 X178.6760 Y3.4780
G01 X179.0824 Y3.8463
G01 X179.1250 Y3.8869
G01 X179.1515 Y3.9134
G01 X179.1921 Y3.9560
G01 X179.5604 Y4.3623
G01 X179.5988 Y4.4069
G01 X179.6226 Y4.4359
G01 X179.6588 Y4.4823
G01 X179.9855 Y4.9227
G01 X180.0194 Y4.9709
G01 X180.0402 Y5.0020
G01 X180.0717 Y5.0518
G01 X180.3536 Y5.5221
G01 X180.3826 Y5.5734
G01 X180.4003 Y5.6064
G01 X180.4267 Y5.6590
G01 X180.6612 Y6.1547
G01 X180.6851 Y6.2086
G01 X180.6994 Y6.2431
G01 X180.7206 Y6.2981
G01 X180.9053 Y6.8144
G01 X180.9238 Y6.8703
G01 X180.9347 Y6.9061
G01 X180.9504 Y6.9629
G01 X181.0836 Y7.4948
G01 X181.0965 Y7.5523
G01 X181.1038 Y7.5890
G01 X181.1139 Y7.6470
G01 X181.1944 Y8.1895
G01 X181.2016 Y8.2479
G01 X181.2052 Y8.2851
G01 X181.2096 Y8.3439
G01 X181.2365 Y8.8916
G01 X181.2380 Y8.9397
G01 X181.2384 Y8.9692
G01 X181.2384 Y48.0000
G00 X181.2384 Y48.0000
G01 F60.00
G01 Z-1.8000
G01 F120.00
G01 X181.2384 Y8.9692
G01 X181.2380 Y8.9397
G01 X181.2365 Y8.8916
G01 X181.2096 Y8.3439
G01 X181.2052 Y8.2851
G01 X181.2016 Y8.2479
G01 X181.1944 Y8.1895
G01 X181.1139 Y7.6470
G01 X181.1038 Y7.5890
G01 X181.0965 Y7.5523
G01 X181.0836 Y7.4948
G01 X180.9504 Y6.9629
G01 X180.9347 Y6.9061
G01 X180.9238 Y6.8703
G01 X180.9053 Y6.8144
G01 X180.7206 Y6.2981
G01 X180.6994 Y6.2431
G01 X180.6851 Y6.2086
G01 X180.6612 Y6.1547
G01 X180.4267 Y5.6590
G01 X180.4003 Y5.6064
G01 X180.3826 Y5.5734
G01 X180.3536 Y5.5221
G01 X180.0717 Y5.0518
G01 X180.0402 Y5.0020
G01 X180.0194 Y4.9709
G01 X179.9855 Y4.9227
G01 X179.6588 Y4.4823
G01 X179.6226 Y4.4359
G01 X179.5988 Y4.4069
G01 X179.5604 Y4.3623
G01 X179.1921 Y3.9560
G01 X179.1515 Y3.9134
G01 X179.1250 Y3.8869
G01 X179.0824 Y3.8463
G01 X178.6760 Y3.4780
G01 X178.6314 Y3.4396
G01 X178.6025 Y3.4158
G01 X178.5561 Y3.3796
G01 X178.1156 Y3.0529
G01 X178.0675 Y3.0190
G01 X178.0364 Y2.9982
G01 X177.9866 Y2.9667
G01 X177.5162 Y2.6848
G01 X177.4650 Y2.6558
G01 X177.4320 Y2.6381
G01 X177.3794 Y2.6116
G01 X176.8837 Y2.3772
G01 X176.8298 Y2.3533
G01 X176.7953 Y2.3390
G01 X176.7403 Y2.3178
G01 X176.2240 Y2.1330
G01 X176.1681 Y2.1146
G01 X176.1323 Y2.1037
G01 X176.0755 Y2.0880
G01 X175.5435 Y1.9548
G01 X175.4861 Y1.9419
G01 X175.4494 Y1.9346
G01 X175.3914 Y1.9245
G01 X174.8489 Y1.8440
G01 X174.7905 Y1.8368
G01 X174.7532 Y1.8331
G01 X174.6945 Y1.8288
G01 X174.1468 Y1.8019
G01 X174.1173 Y1.8008
G01 X174.0692 Y1.8000
G01 X140.0384 Y1.8000
G00 Z2.0000
G00 X130.0384 Y1.8000
G01 F60.00
G01 Z-0.6000
G01 F120.00
G01 X102.3142 Y1.8000
G01 X102.2507 Y1.8017
G01 X102.1283 Y1.8014
G01 X102.0909 Y1.8033
G01 X101.9737 Y1.8148
G01 X101.9367 Y1.8203
G01 X101.8212 Y1.8433
G01 X101.7850 Y1.8524
G01 X101.6723 Y1.8866
G01 X101.6370 Y1.8992
G01 X101.5282 Y1.9442
G01 X101.4944 Y1.9602
G01 X101.3906 Y2.0157
G01 X101.3585 Y2.0350
G01 X101.2606 Y2.1004
G01 X101.2305 Y2.1227
G01 X101.1395 Y2.1974
G01 X101.1118 Y2.2225
G01 X101.0691 Y2.2631
G01 X84.7682 Y18.5640
G01 X50.0384 Y18.5651
G00 X50.0384 Y18.5651
G01 F60.00
G01 Z-1.2000
G01 F120.00
G01 X84.7682 Y18.5640
G01 X101.0691 Y2.2631
G01 X101.1118 Y2.2225
G01 X101.1395 Y2.1974
G01 X101.2305 Y2.1227
G01 X101.2606 Y2.1004
G01 X101.3585 Y2.0350
G01 X101.3906 Y2.0157
G01 X101.4944 Y1.9602
G01 X101.5282 Y1.9442
G01 X101.6370 Y1.8992
G01 X101.6723 Y1.8866
G01 X101.7850 Y1.8524
G01 X101.8212 Y1.8433
G01 X101.9367 Y1.8203
G01 X101.9737 Y1.8148
G01 X102.0909 Y1.8033
G01 X102.1283 Y1.8014
G01 X102.2507 Y1.8017
G01 X102.3142 Y1.8000
G01 X130.0384 Y1.8000
G00 X130.0384 Y1.8000
G01 F60.00
G01 Z-1.8000
G01 F120.00
G01 X102.3142 Y1.8000
G01 X102.2507 Y1.8017
G01 X102.1283 Y1.8014
G01 X102.0909 Y1.8033
G01 X101.9737 Y1.8148
G01 X101.9367 Y1.8203
G01 X101.8212 Y1.8433
G01 X101.7850 Y1.8524
G01 X101.6723 Y1.8866
G01 X101.6370 Y1.8992
G01 X101.5282 Y1.9442
G01 X101.4944 Y1.9602
G01 X101.3906 Y2.0157
G01 X101.3585 Y2.0350
G01 X101.2606 Y2.1004
G01 X101.2305 Y2.1227
G01 X101.1395 Y2.1974
G01 X101.1118 Y2.2225
G01 X101.0691 Y2.2631
G01 X84.7682 Y18.5640
G01 X50.0384 Y18.5651
G00 Z2.0000
M05
G00 Z2.0000
G00 Z15.00

