(G-CODE GENERATED BY FLATCAM v8.993 - www.flatcam.org - Version Date: 2020/06/05)

(Name: Gerber_BottomLayer.GBL_0.1000_iso_cnc)
(Type: G-code from Geometry)
(Units: MM)

(Created on Thursday, 25 March 2021 at 21:42)

(This preprocessor is the default preprocessor used by FlatCAM.)
(It is made to work with MACH3 compatible motion controllers.)

(TOOL DIAMETER: 0.1 mm)
(Feedrate_XY: 120.0 mm/min)
(Feedrate_Z: 60.0 mm/min)
(Feedrate rapids 1500.0 mm/min)

(Z_Cut: -0.05 mm)
(Z_Move: 2.0 mm)
(Z Start: None mm)
(Z End: 15.0 mm)
(Steps per circle: 64)
(Preprocessor Geometry: default)

(X range:    3.5877 ...  179.4506  mm)
(Y range:    3.5877 ...   97.9172  mm)

(Spindle Speed: None RPM)
G21
G90
G94



G01 F120.00
G00 Z2.0000

M03
G00 X18.6320 Y21.6355
G01 F60.00
G01 Z-0.0500
G01 F120.00
G01 X18.6372 Y21.6352
G01 X20.6372 Y21.6352
G01 X20.6424 Y21.6355
G01 X20.6254 Y21.6328
G01 X18.6489 Y21.6328
G01 X18.6320 Y21.6355
G00 Z2.0000
G00 X18.5882 Y21.6750
G01 F60.00
G01 Z-0.0500
G01 F120.00
G01 X18.5901 Y21.6684
G01 X18.5931 Y21.6616
G01 X18.5970 Y21.6554
G01 X18.6018 Y21.6498
G01 X18.6074 Y21.6450
G01 X18.6136 Y21.6411
G01 X18.6203 Y21.6381
G01 X18.6270 Y21.6362
G01 X18.6213 Y21.6371
G01 X18.6071 Y21.6442
G01 X18.5962 Y21.6551
G01 X18.5891 Y21.6693
G01 X18.5882 Y21.6750
G00 Z2.0000
G00 X18.5872 Y21.6852
G01 F60.00
G01 Z-0.0500
G01 F120.00
G01 X18.5875 Y21.6801
G01 X18.5848 Y21.6969
G01 X18.5848 Y23.6735
G01 X18.5875 Y23.6903
G01 X18.5872 Y23.6852
G01 X18.5872 Y21.6852
G00 Z2.0000
G00 X20.6473 Y21.6362
G01 F60.00
G01 Z-0.0500
G01 F120.00
G01 X20.6552 Y21.6386
G01 X20.6629 Y21.6423
G01 X20.6698 Y21.6473
G01 X20.6758 Y21.6535
G01 X20.6807 Y21.6606
G01 X20.6843 Y21.6684
G01 X20.6864 Y21.6767
G01 X20.6872 Y21.6852
G01 X20.6872 Y23.6852
G01 X20.6862 Y23.6949
G01 X20.6834 Y23.7043
G01 X20.6787 Y23.7130
G01 X20.6725 Y23.7205
G01 X20.6650 Y23.7268
G01 X20.6563 Y23.7314
G01 X20.6469 Y23.7342
G01 X20.6372 Y23.7352
G01 X18.6372 Y23.7352
G01 X18.6286 Y23.7345
G01 X18.6203 Y23.7323
G01 X18.6125 Y23.7287
G01 X18.6055 Y23.7238
G01 X18.5993 Y23.7178
G01 X18.5943 Y23.7109
G01 X18.5905 Y23.7032
G01 X18.5882 Y23.6954
G01 X18.5891 Y23.7010
G01 X18.5962 Y23.7153
G01 X18.6071 Y23.7261
G01 X18.6216 Y23.7334
G01 X18.6492 Y23.7381
G01 X20.6251 Y23.7381
G01 X20.6527 Y23.7334
G01 X20.6672 Y23.7261
G01 X20.6781 Y23.7153
G01 X20.6854 Y23.7008
G01 X20.6900 Y23.6731
G01 X20.6900 Y21.6973
G01 X20.6854 Y21.6696
G01 X20.6781 Y21.6551
G01 X20.6672 Y21.6442
G01 X20.6530 Y21.6371
G01 X20.6473 Y21.6362
G00 Z2.0000
G00 X22.2111 Y23.7370
G01 F60.00
G01 Z-0.0500
G01 F120.00
G01 X22.3449 Y23.7239
G01 X22.4764 Y23.6938
G01 X22.6030 Y23.6472
G01 X22.7228 Y23.5852
G01 X22.8333 Y23.5081
G01 X22.9331 Y23.4174
G01 X23.0204 Y23.3146
G01 X23.0941 Y23.2017
G01 X23.1523 Y23.0799
G01 X23.1950 Y22.9519
G01 X23.2207 Y22.8200
G01 X23.2294 Y22.6852
G01 X23.2207 Y22.5504
G01 X23.1950 Y22.4185
G01 X23.1523 Y22.2904
G01 X23.0941 Y22.1687
G01 X23.0204 Y22.0558
G01 X22.9331 Y21.9529
G01 X22.8333 Y21.8623
G01 X22.7228 Y21.7852
G01 X22.6030 Y21.7232
G01 X22.4764 Y21.6766
G01 X22.3449 Y21.6465
G01 X22.2111 Y21.6334
G01 X22.0763 Y21.6378
G01 X21.9429 Y21.6591
G01 X21.8140 Y21.6974
G01 X21.6903 Y21.7522
G01 X21.5750 Y21.8220
G01 X21.4697 Y21.9064
G01 X21.3761 Y22.0030
G01 X21.2951 Y22.1111
G01 X21.2292 Y22.2284
G01 X21.1783 Y22.3535
G01 X21.1443 Y22.4839
G01 X21.1269 Y22.6178
G01 X21.1269 Y22.7526
G01 X21.1443 Y22.8865
G01 X21.1783 Y23.0169
G01 X21.2292 Y23.1420
G01 X21.2951 Y23.2593
G01 X21.3761 Y23.3674
G01 X21.4697 Y23.4640
G01 X21.5750 Y23.5484
G01 X21.6903 Y23.6182
G01 X21.8140 Y23.6730
G01 X21.9429 Y23.7113
G01 X22.0763 Y23.7326
G01 X22.2111 Y23.7370
G00 Z2.0000
G00 X23.2271 Y22.6827
G01 F60.00
G01 Z-0.0500
G01 F120.00
G01 X23.2221 Y22.5823
G01 X23.2070 Y22.4803
G01 X23.1820 Y22.3804
G01 X23.1473 Y22.2834
G01 X23.1032 Y22.1902
G01 X23.0502 Y22.1018
G01 X22.9888 Y22.0191
G01 X22.9196 Y21.9427
G01 X22.8433 Y21.8735
G01 X22.7605 Y21.8121
G01 X22.6722 Y21.7592
G01 X22.5790 Y21.7151
G01 X22.4820 Y21.6804
G01 X22.3820 Y21.6554
G01 X22.2801 Y21.6402
G01 X22.1772 Y21.6352
G01 X22.0743 Y21.6402
G01 X21.9723 Y21.6554
G01 X21.8724 Y21.6804
G01 X21.7754 Y21.7151
G01 X21.6822 Y21.7592
G01 X21.5938 Y21.8121
G01 X21.5111 Y21.8735
G01 X21.4347 Y21.9427
G01 X21.3655 Y22.0191
G01 X21.3041 Y22.1018
G01 X21.2512 Y22.1902
G01 X21.2071 Y22.2834
G01 X21.1724 Y22.3804
G01 X21.1474 Y22.4803
G01 X21.1322 Y22.5823
G01 X21.1272 Y22.6852
G01 X21.1322 Y22.7881
G01 X21.1474 Y22.8900
G01 X21.1724 Y22.9900
G01 X21.2071 Y23.0870
G01 X21.2512 Y23.1802
G01 X21.3041 Y23.2685
G01 X21.3655 Y23.3513
G01 X21.4347 Y23.4277
G01 X21.5111 Y23.4969
G01 X21.5938 Y23.5582
G01 X21.6822 Y23.6112
G01 X21.7754 Y23.6553
G01 X21.8724 Y23.6900
G01 X21.9723 Y23.7150
G01 X22.0743 Y23.7301
G01 X22.1772 Y23.7352
G01 X22.2801 Y23.7301
G01 X22.3820 Y23.7150
G01 X22.4820 Y23.6900
G01 X22.5790 Y23.6553
G01 X22.6722 Y23.6112
G01 X22.7605 Y23.5582
G01 X22.8433 Y23.4969
G01 X22.9196 Y23.4277
G01 X22.9888 Y23.3513
G01 X23.0502 Y23.2685
G01 X23.1032 Y23.1802
G01 X23.1473 Y23.0870
G01 X23.1820 Y22.9900
G01 X23.2070 Y22.8900
G01 X23.2221 Y22.7881
G01 X23.2271 Y22.6827
G00 Z2.0000
G00 X24.7511 Y23.7370
G01 F60.00
G01 Z-0.0500
G01 F120.00
G01 X24.8849 Y23.7239
G01 X25.0164 Y23.6938
G01 X25.1430 Y23.6472
G01 X25.2628 Y23.5852
G01 X25.3733 Y23.5081
G01 X25.4731 Y23.4174
G01 X25.5604 Y23.3146
G01 X25.6341 Y23.2017
G01 X25.6923 Y23.0799
G01 X25.7350 Y22.9519
G01 X25.7607 Y22.8200
G01 X25.7694 Y22.6852
G01 X25.7607 Y22.5504
G01 X25.7350 Y22.4185
G01 X25.6923 Y22.2904
G01 X25.6341 Y22.1687
G01 X25.5604 Y22.0558
G01 X25.4731 Y21.9529
G01 X25.3733 Y21.8623
G01 X25.2628 Y21.7852
G01 X25.1430 Y21.7232
G01 X25.0164 Y21.6766
G01 X24.8849 Y21.6465
G01 X24.7511 Y21.6334
G01 X24.6163 Y21.6378
G01 X24.4829 Y21.6591
G01 X24.3540 Y21.6974
G01 X24.2303 Y21.7522
G01 X24.1150 Y21.8220
G01 X24.0097 Y21.9064
G01 X23.9161 Y22.0030
G01 X23.8351 Y22.1111
G01 X23.7692 Y22.2284
G01 X23.7183 Y22.3535
G01 X23.6843 Y22.4839
G01 X23.6669 Y22.6178
G01 X23.6669 Y22.7526
G01 X23.6843 Y22.8865
G01 X23.7183 Y23.0169
G01 X23.7692 Y23.1420
G01 X23.8351 Y23.2593
G01 X23.9161 Y23.3674
G01 X24.0097 Y23.4640
G01 X24.1150 Y23.5484
G01 X24.2303 Y23.6182
G01 X24.3540 Y23.6730
G01 X24.4829 Y23.7113
G01 X24.6163 Y23.7326
G01 X24.7511 Y23.7370
G00 Z2.0000
G00 X25.7671 Y22.6827
G01 F60.00
G01 Z-0.0500
G01 F120.00
G01 X25.7621 Y22.5823
G01 X25.7470 Y22.4803
G01 X25.7220 Y22.3804
G01 X25.6873 Y22.2834
G01 X25.6432 Y22.1902
G01 X25.5902 Y22.1018
G01 X25.5288 Y22.0191
G01 X25.4596 Y21.9427
G01 X25.3833 Y21.8735
G01 X25.3005 Y21.8121
G01 X25.2122 Y21.7592
G01 X25.1190 Y21.7151
G01 X25.0220 Y21.6804
G01 X24.9220 Y21.6554
G01 X24.8201 Y21.6402
G01 X24.7172 Y21.6352
G01 X24.6143 Y21.6402
G01 X24.5123 Y21.6554
G01 X24.4124 Y21.6804
G01 X24.3154 Y21.7151
G01 X24.2222 Y21.7592
G01 X24.1338 Y21.8121
G01 X24.0511 Y21.8735
G01 X23.9747 Y21.9427
G01 X23.9055 Y22.0191
G01 X23.8441 Y22.1018
G01 X23.7912 Y22.1902
G01 X23.7471 Y22.2834
G01 X23.7124 Y22.3804
G01 X23.6874 Y22.4803
G01 X23.6722 Y22.5823
G01 X23.6672 Y22.6852
G01 X23.6722 Y22.7881
G01 X23.6874 Y22.8900
G01 X23.7124 Y22.9900
G01 X23.7471 Y23.0870
G01 X23.7912 Y23.1802
G01 X23.8441 Y23.2685
G01 X23.9055 Y23.3513
G01 X23.9747 Y23.4277
G01 X24.0511 Y23.4969
G01 X24.1338 Y23.5582
G01 X24.2222 Y23.6112
G01 X24.3154 Y23.6553
G01 X24.4124 Y23.6900
G01 X24.5123 Y23.7150
G01 X24.6143 Y23.7301
G01 X24.7172 Y23.7352
G01 X24.8201 Y23.7301
G01 X24.9220 Y23.7150
G01 X25.0220 Y23.6900
G01 X25.1190 Y23.6553
G01 X25.2122 Y23.6112
G01 X25.3005 Y23.5582
G01 X25.3833 Y23.4969
G01 X25.4596 Y23.4277
G01 X25.5288 Y23.3513
G01 X25.5902 Y23.2685
G01 X25.6432 Y23.1802
G01 X25.6873 Y23.0870
G01 X25.7220 Y22.9900
G01 X25.7470 Y22.8900
G01 X25.7621 Y22.7881
G01 X25.7671 Y22.6827
G00 Z2.0000
G00 X25.7681 Y26.4927
G01 F60.00
G01 Z-0.0500
G01 F120.00
G01 X25.7631 Y26.3923
G01 X25.7480 Y26.2903
G01 X25.7230 Y26.1904
G01 X25.6883 Y26.0934
G01 X25.6442 Y26.0002
G01 X25.5912 Y25.9118
G01 X25.5299 Y25.8291
G01 X25.4607 Y25.7527
G01 X25.3843 Y25.6835
G01 X25.3015 Y25.6221
G01 X25.2132 Y25.5692
G01 X25.1200 Y25.5251
G01 X25.0230 Y25.4904
G01 X24.9230 Y25.4654
G01 X24.8211 Y25.4502
G01 X24.7182 Y25.4452
G01 X24.6153 Y25.4502
G01 X24.5134 Y25.4654
G01 X24.4134 Y25.4904
G01 X24.3164 Y25.5251
G01 X24.2232 Y25.5692
G01 X24.1348 Y25.6221
G01 X24.0521 Y25.6835
G01 X23.9757 Y25.7527
G01 X23.9065 Y25.8291
G01 X23.8452 Y25.9118
G01 X23.7922 Y26.0002
G01 X23.7481 Y26.0934
G01 X23.7134 Y26.1904
G01 X23.6884 Y26.2903
G01 X23.6733 Y26.3923
G01 X23.6682 Y26.4952
G01 X23.6733 Y26.5981
G01 X23.6884 Y26.7000
G01 X23.7134 Y26.8000
G01 X23.7481 Y26.8970
G01 X23.7922 Y26.9902
G01 X23.8452 Y27.0785
G01 X23.9065 Y27.1613
G01 X23.9757 Y27.2377
G01 X24.0521 Y27.3069
G01 X24.1348 Y27.3682
G01 X24.2232 Y27.4212
G01 X24.3164 Y27.4653
G01 X24.4134 Y27.5000
G01 X24.5134 Y27.5250
G01 X24.6153 Y27.5401
G01 X24.7182 Y27.5452
G01 X24.8211 Y27.5401
G01 X24.9230 Y27.5250
G01 X25.0230 Y27.5000
G01 X25.1200 Y27.4653
G01 X25.2132 Y27.4212
G01 X25.3015 Y27.3682
G01 X25.3843 Y27.3069
G01 X25.4607 Y27.2377
G01 X25.5299 Y27.1613
G01 X25.5912 Y27.0785
G01 X25.6442 Y26.9902
G01 X25.6883 Y26.8970
G01 X25.7230 Y26.8000
G01 X25.7480 Y26.7000
G01 X25.7631 Y26.5981
G01 X25.7681 Y26.4927
G00 Z2.0000
G00 X24.6508 Y27.5455
G01 F60.00
G01 Z-0.0500
G01 F120.00
G01 X24.7856 Y27.5455
G01 X24.9195 Y27.5281
G01 X25.0499 Y27.4941
G01 X25.1750 Y27.4432
G01 X25.2923 Y27.3773
G01 X25.4004 Y27.2963
G01 X25.4970 Y27.2026
G01 X25.5814 Y27.0974
G01 X25.6512 Y26.9821
G01 X25.7060 Y26.8584
G01 X25.7443 Y26.7294
G01 X25.7656 Y26.5961
G01 X25.7700 Y26.4613
G01 X25.7569 Y26.3275
G01 X25.7268 Y26.1960
G01 X25.6802 Y26.0694
G01 X25.6182 Y25.9496
G01 X25.5411 Y25.8391
G01 X25.4504 Y25.7392
G01 X25.3476 Y25.6519
G01 X25.2347 Y25.5782
G01 X25.1129 Y25.5201
G01 X24.9849 Y25.4773
G01 X24.8530 Y25.4517
G01 X24.7182 Y25.4429
G01 X24.5834 Y25.4517
G01 X24.4515 Y25.4773
G01 X24.3234 Y25.5201
G01 X24.2017 Y25.5782
G01 X24.0888 Y25.6519
G01 X23.9860 Y25.7392
G01 X23.8953 Y25.8391
G01 X23.8182 Y25.9496
G01 X23.7562 Y26.0694
G01 X23.7096 Y26.1960
G01 X23.6795 Y26.3275
G01 X23.6664 Y26.4613
G01 X23.6708 Y26.5961
G01 X23.6921 Y26.7294
G01 X23.7304 Y26.8584
G01 X23.7852 Y26.9821
G01 X23.8550 Y27.0974
G01 X23.9394 Y27.2026
G01 X24.0360 Y27.2963
G01 X24.1441 Y27.3773
G01 X24.2614 Y27.4432
G01 X24.3865 Y27.4941
G01 X24.5169 Y27.5281
G01 X24.6508 Y27.5455
G00 Z2.0000
G00 X29.7308 Y27.5455
G01 F60.00
G01 Z-0.0500
G01 F120.00
G01 X29.8656 Y27.5455
G01 X29.9995 Y27.5281
G01 X30.1299 Y27.4941
G01 X30.2550 Y27.4432
G01 X30.3723 Y27.3773
G01 X30.4804 Y27.2963
G01 X30.5770 Y27.2026
G01 X30.6614 Y27.0974
G01 X30.7312 Y26.9821
G01 X30.7860 Y26.8584
G01 X30.8243 Y26.7294
G01 X30.8456 Y26.5961
G01 X30.8500 Y26.4613
G01 X30.8369 Y26.3275
G01 X30.8068 Y26.1960
G01 X30.7602 Y26.0694
G01 X30.6982 Y25.9496
G01 X30.6211 Y25.8391
G01 X30.5304 Y25.7392
G01 X30.4276 Y25.6519
G01 X30.3147 Y25.5782
G01 X30.1929 Y25.5201
G01 X30.0649 Y25.4773
G01 X29.9330 Y25.4517
G01 X29.7982 Y25.4429
G01 X29.6634 Y25.4517
G01 X29.5315 Y25.4773
G01 X29.4034 Y25.5201
G01 X29.2817 Y25.5782
G01 X29.1688 Y25.6519
G01 X29.0660 Y25.7392
G01 X28.9753 Y25.8391
G01 X28.8982 Y25.9496
G01 X28.8362 Y26.0694
G01 X28.7896 Y26.1960
G01 X28.7595 Y26.3275
G01 X28.7464 Y26.4613
G01 X28.7508 Y26.5961
G01 X28.7721 Y26.7294
G01 X28.8104 Y26.8584
G01 X28.8652 Y26.9821
G01 X28.9350 Y27.0974
G01 X29.0194 Y27.2026
G01 X29.1160 Y27.2963
G01 X29.2241 Y27.3773
G01 X29.3414 Y27.4432
G01 X29.4665 Y27.4941
G01 X29.5969 Y27.5281
G01 X29.7308 Y27.5455
G00 Z2.0000
G00 X30.8481 Y26.4927
G01 F60.00
G01 Z-0.0500
G01 F120.00
G01 X30.8431 Y26.3923
G01 X30.8280 Y26.2903
G01 X30.8030 Y26.1904
G01 X30.7683 Y26.0934
G01 X30.7242 Y26.0002
G01 X30.6712 Y25.9118
G01 X30.6099 Y25.8291
G01 X30.5407 Y25.7527
G01 X30.4643 Y25.6835
G01 X30.3815 Y25.6221
G01 X30.2932 Y25.5692
G01 X30.2000 Y25.5251
G01 X30.1030 Y25.4904
G01 X30.0030 Y25.4654
G01 X29.9011 Y25.4502
G01 X29.7982 Y25.4452
G01 X29.6953 Y25.4502
G01 X29.5934 Y25.4654
G01 X29.4934 Y25.4904
G01 X29.3964 Y25.5251
G01 X29.3032 Y25.5692
G01 X29.2148 Y25.6221
G01 X29.1321 Y25.6835
G01 X29.0557 Y25.7527
G01 X28.9865 Y25.8291
G01 X28.9252 Y25.9118
G01 X28.8722 Y26.0002
G01 X28.8281 Y26.0934
G01 X28.7934 Y26.1904
G01 X28.7684 Y26.2903
G01 X28.7533 Y26.3923
G01 X28.7482 Y26.4952
G01 X28.7533 Y26.5981
G01 X28.7684 Y26.7000
G01 X28.7934 Y26.8000
G01 X28.8281 Y26.8970
G01 X28.8722 Y26.9902
G01 X28.9252 Y27.0785
G01 X28.9865 Y27.1613
G01 X29.0557 Y27.2377
G01 X29.1321 Y27.3069
G01 X29.2148 Y27.3682
G01 X29.3032 Y27.4212
G01 X29.3964 Y27.4653
G01 X29.4934 Y27.5000
G01 X29.5934 Y27.5250
G01 X29.6953 Y27.5401
G01 X29.7982 Y27.5452
G01 X29.9011 Y27.5401
G01 X30.0030 Y27.5250
G01 X30.1030 Y27.5000
G01 X30.2000 Y27.4653
G01 X30.2932 Y27.4212
G01 X30.3815 Y27.3682
G01 X30.4643 Y27.3069
G01 X30.5407 Y27.2377
G01 X30.6099 Y27.1613
G01 X30.6712 Y27.0785
G01 X30.7242 Y26.9902
G01 X30.7683 Y26.8970
G01 X30.8030 Y26.8000
G01 X30.8280 Y26.7000
G01 X30.8431 Y26.5981
G01 X30.8481 Y26.4927
G00 Z2.0000
G00 X32.2708 Y27.5455
G01 F60.00
G01 Z-0.0500
G01 F120.00
G01 X32.4056 Y27.5455
G01 X32.5395 Y27.5281
G01 X32.6699 Y27.4941
G01 X32.7950 Y27.4432
G01 X32.9123 Y27.3773
G01 X33.0204 Y27.2963
G01 X33.1170 Y27.2026
G01 X33.2014 Y27.0974
G01 X33.2712 Y26.9821
G01 X33.3260 Y26.8584
G01 X33.3643 Y26.7294
G01 X33.3856 Y26.5961
G01 X33.3900 Y26.4613
G01 X33.3769 Y26.3275
G01 X33.3468 Y26.1960
G01 X33.3002 Y26.0694
G01 X33.2382 Y25.9496
G01 X33.1611 Y25.8391
G01 X33.0704 Y25.7392
G01 X32.9676 Y25.6519
G01 X32.8547 Y25.5782
G01 X32.7329 Y25.5201
G01 X32.6049 Y25.4773
G01 X32.4730 Y25.4517
G01 X32.3382 Y25.4429
G01 X32.2034 Y25.4517
G01 X32.0715 Y25.4773
G01 X31.9434 Y25.5201
G01 X31.8217 Y25.5782
G01 X31.7088 Y25.6519
G01 X31.6060 Y25.7392
G01 X31.5153 Y25.8391
G01 X31.4382 Y25.9496
G01 X31.3762 Y26.0694
G01 X31.3296 Y26.1960
G01 X31.2995 Y26.3275
G01 X31.2864 Y26.4613
G01 X31.2908 Y26.5961
G01 X31.3121 Y26.7294
G01 X31.3504 Y26.8584
G01 X31.4052 Y26.9821
G01 X31.4750 Y27.0974
G01 X31.5594 Y27.2026
G01 X31.6560 Y27.2963
G01 X31.7641 Y27.3773
G01 X31.8814 Y27.4432
G01 X32.0065 Y27.4941
G01 X32.1369 Y27.5281
G01 X32.2708 Y27.5455
G00 Z2.0000
G00 X33.3881 Y26.4927
G01 F60.00
G01 Z-0.0500
G01 F120.00
G01 X33.3831 Y26.3923
G01 X33.3680 Y26.2903
G01 X33.3430 Y26.1904
G01 X33.3083 Y26.0934
G01 X33.2642 Y26.0002
G01 X33.2112 Y25.9118
G01 X33.1499 Y25.8291
G01 X33.0807 Y25.7527
G01 X33.0043 Y25.6835
G01 X32.9215 Y25.6221
G01 X32.8332 Y25.5692
G01 X32.7400 Y25.5251
G01 X32.6430 Y25.4904
G01 X32.5430 Y25.4654
G01 X32.4411 Y25.4502
G01 X32.3382 Y25.4452
G01 X32.2353 Y25.4502
G01 X32.1334 Y25.4654
G01 X32.0334 Y25.4904
G01 X31.9364 Y25.5251
G01 X31.8432 Y25.5692
G01 X31.7548 Y25.6221
G01 X31.6721 Y25.6835
G01 X31.5957 Y25.7527
G01 X31.5265 Y25.8291
G01 X31.4652 Y25.9118
G01 X31.4122 Y26.0002
G01 X31.3681 Y26.0934
G01 X31.3334 Y26.1904
G01 X31.3084 Y26.2903
G01 X31.2933 Y26.3923
G01 X31.2882 Y26.4952
G01 X31.2933 Y26.5981
G01 X31.3084 Y26.7000
G01 X31.3334 Y26.8000
G01 X31.3681 Y26.8970
G01 X31.4122 Y26.9902
G01 X31.4652 Y27.0785
G01 X31.5265 Y27.1613
G01 X31.5957 Y27.2377
G01 X31.6721 Y27.3069
G01 X31.7548 Y27.3682
G01 X31.8432 Y27.4212
G01 X31.9364 Y27.4653
G01 X32.0334 Y27.5000
G01 X32.1334 Y27.5250
G01 X32.2353 Y27.5401
G01 X32.3382 Y27.5452
G01 X32.4411 Y27.5401
G01 X32.5430 Y27.5250
G01 X32.6430 Y27.5000
G01 X32.7400 Y27.4653
G01 X32.8332 Y27.4212
G01 X32.9215 Y27.3682
G01 X33.0043 Y27.3069
G01 X33.0807 Y27.2377
G01 X33.1499 Y27.1613
G01 X33.2112 Y27.0785
G01 X33.2642 Y26.9902
G01 X33.3083 Y26.8970
G01 X33.3430 Y26.8000
G01 X33.3680 Y26.7000
G01 X33.3831 Y26.5981
G01 X33.3881 Y26.4927
G00 Z2.0000
G00 X34.8108 Y27.5455
G01 F60.00
G01 Z-0.0500
G01 F120.00
G01 X34.9456 Y27.5455
G01 X35.0795 Y27.5281
G01 X35.2099 Y27.4941
G01 X35.3350 Y27.4432
G01 X35.4523 Y27.3773
G01 X35.5604 Y27.2963
G01 X35.6570 Y27.2026
G01 X35.7414 Y27.0974
G01 X35.8112 Y26.9821
G01 X35.8660 Y26.8584
G01 X35.9043 Y26.7294
G01 X35.9256 Y26.5961
G01 X35.9300 Y26.4613
G01 X35.9169 Y26.3275
G01 X35.8868 Y26.1960
G01 X35.8402 Y26.0694
G01 X35.7782 Y25.9496
G01 X35.7011 Y25.8391
G01 X35.6104 Y25.7392
G01 X35.5076 Y25.6519
G01 X35.3947 Y25.5782
G01 X35.2729 Y25.5201
G01 X35.1449 Y25.4773
G01 X35.0130 Y25.4517
G01 X34.8782 Y25.4429
G01 X34.7434 Y25.4517
G01 X34.6115 Y25.4773
G01 X34.4834 Y25.5201
G01 X34.3617 Y25.5782
G01 X34.2488 Y25.6519
G01 X34.1460 Y25.7392
G01 X34.0553 Y25.8391
G01 X33.9782 Y25.9496
G01 X33.9162 Y26.0694
G01 X33.8696 Y26.1960
G01 X33.8395 Y26.3275
G01 X33.8264 Y26.4613
G01 X33.8308 Y26.5961
G01 X33.8521 Y26.7294
G01 X33.8904 Y26.8584
G01 X33.9452 Y26.9821
G01 X34.0150 Y27.0974
G01 X34.0994 Y27.2026
G01 X34.1960 Y27.2963
G01 X34.3041 Y27.3773
G01 X34.4214 Y27.4432
G01 X34.5465 Y27.4941
G01 X34.6769 Y27.5281
G01 X34.8108 Y27.5455
G00 Z2.0000
G00 X35.9281 Y26.4927
G01 F60.00
G01 Z-0.0500
G01 F120.00
G01 X35.9231 Y26.3923
G01 X35.9080 Y26.2903
G01 X35.8830 Y26.1904
G01 X35.8483 Y26.0934
G01 X35.8042 Y26.0002
G01 X35.7512 Y25.9118
G01 X35.6899 Y25.8291
G01 X35.6207 Y25.7527
G01 X35.5443 Y25.6835
G01 X35.4615 Y25.6221
G01 X35.3732 Y25.5692
G01 X35.2800 Y25.5251
G01 X35.1830 Y25.4904
G01 X35.0830 Y25.4654
G01 X34.9811 Y25.4502
G01 X34.8782 Y25.4452
G01 X34.7753 Y25.4502
G01 X34.6734 Y25.4654
G01 X34.5734 Y25.4904
G01 X34.4764 Y25.5251
G01 X34.3832 Y25.5692
G01 X34.2948 Y25.6221
G01 X34.2121 Y25.6835
G01 X34.1357 Y25.7527
G01 X34.0665 Y25.8291
G01 X34.0052 Y25.9118
G01 X33.9522 Y26.0002
G01 X33.9081 Y26.0934
G01 X33.8734 Y26.1904
G01 X33.8484 Y26.2903
G01 X33.8333 Y26.3923
G01 X33.8282 Y26.4952
G01 X33.8333 Y26.5981
G01 X33.8484 Y26.7000
G01 X33.8734 Y26.8000
G01 X33.9081 Y26.8970
G01 X33.9522 Y26.9902
G01 X34.0052 Y27.0785
G01 X34.0665 Y27.1613
G01 X34.1357 Y27.2377
G01 X34.2121 Y27.3069
G01 X34.2948 Y27.3682
G01 X34.3832 Y27.4212
G01 X34.4764 Y27.4653
G01 X34.5734 Y27.5000
G01 X34.6734 Y27.5250
G01 X34.7753 Y27.5401
G01 X34.8782 Y27.5452
G01 X34.9811 Y27.5401
G01 X35.0830 Y27.5250
G01 X35.1830 Y27.5000
G01 X35.2800 Y27.4653
G01 X35.3732 Y27.4212
G01 X35.4615 Y27.3682
G01 X35.5443 Y27.3069
G01 X35.6207 Y27.2377
G01 X35.6899 Y27.1613
G01 X35.7512 Y27.0785
G01 X35.8042 Y26.9902
G01 X35.8483 Y26.8970
G01 X35.8830 Y26.8000
G01 X35.9080 Y26.7000
G01 X35.9231 Y26.5981
G01 X35.9281 Y26.4927
G00 Z2.0000
G00 X37.3508 Y27.5455
G01 F60.00
G01 Z-0.0500
G01 F120.00
G01 X37.4856 Y27.5455
G01 X37.6195 Y27.5281
G01 X37.7499 Y27.4941
G01 X37.8750 Y27.4432
G01 X37.9923 Y27.3773
G01 X38.1004 Y27.2963
G01 X38.1970 Y27.2026
G01 X38.2814 Y27.0974
G01 X38.3512 Y26.9821
G01 X38.4060 Y26.8584
G01 X38.4443 Y26.7294
G01 X38.4656 Y26.5961
G01 X38.4700 Y26.4613
G01 X38.4569 Y26.3275
G01 X38.4268 Y26.1960
G01 X38.3802 Y26.0694
G01 X38.3182 Y25.9496
G01 X38.2411 Y25.8391
G01 X38.1504 Y25.7392
G01 X38.0476 Y25.6519
G01 X37.9347 Y25.5782
G01 X37.8129 Y25.5201
G01 X37.6849 Y25.4773
G01 X37.5530 Y25.4517
G01 X37.4182 Y25.4429
G01 X37.2834 Y25.4517
G01 X37.1515 Y25.4773
G01 X37.0234 Y25.5201
G01 X36.9017 Y25.5782
G01 X36.7888 Y25.6519
G01 X36.6860 Y25.7392
G01 X36.5953 Y25.8391
G01 X36.5182 Y25.9496
G01 X36.4562 Y26.0694
G01 X36.4096 Y26.1960
G01 X36.3795 Y26.3275
G01 X36.3664 Y26.4613
G01 X36.3708 Y26.5961
G01 X36.3921 Y26.7294
G01 X36.4304 Y26.8584
G01 X36.4852 Y26.9821
G01 X36.5550 Y27.0974
G01 X36.6394 Y27.2026
G01 X36.7360 Y27.2963
G01 X36.8441 Y27.3773
G01 X36.9614 Y27.4432
G01 X37.0865 Y27.4941
G01 X37.2169 Y27.5281
G01 X37.3508 Y27.5455
G00 Z2.0000
G00 X38.4681 Y26.4927
G01 F60.00
G01 Z-0.0500
G01 F120.00
G01 X38.4631 Y26.3923
G01 X38.4480 Y26.2903
G01 X38.4230 Y26.1904
G01 X38.3883 Y26.0934
G01 X38.3442 Y26.0002
G01 X38.2912 Y25.9118
G01 X38.2299 Y25.8291
G01 X38.1607 Y25.7527
G01 X38.0843 Y25.6835
G01 X38.0015 Y25.6221
G01 X37.9132 Y25.5692
G01 X37.8200 Y25.5251
G01 X37.7230 Y25.4904
G01 X37.6230 Y25.4654
G01 X37.5211 Y25.4502
G01 X37.4182 Y25.4452
G01 X37.3153 Y25.4502
G01 X37.2134 Y25.4654
G01 X37.1134 Y25.4904
G01 X37.0164 Y25.5251
G01 X36.9232 Y25.5692
G01 X36.8348 Y25.6221
G01 X36.7521 Y25.6835
G01 X36.6757 Y25.7527
G01 X36.6065 Y25.8291
G01 X36.5452 Y25.9118
G01 X36.4922 Y26.0002
G01 X36.4481 Y26.0934
G01 X36.4134 Y26.1904
G01 X36.3884 Y26.2903
G01 X36.3733 Y26.3923
G01 X36.3682 Y26.4952
G01 X36.3733 Y26.5981
G01 X36.3884 Y26.7000
G01 X36.4134 Y26.8000
G01 X36.4481 Y26.8970
G01 X36.4922 Y26.9902
G01 X36.5452 Y27.0785
G01 X36.6065 Y27.1613
G01 X36.6757 Y27.2377
G01 X36.7521 Y27.3069
G01 X36.8348 Y27.3682
G01 X36.9232 Y27.4212
G01 X37.0164 Y27.4653
G01 X37.1134 Y27.5000
G01 X37.2134 Y27.5250
G01 X37.3153 Y27.5401
G01 X37.4182 Y27.5452
G01 X37.5211 Y27.5401
G01 X37.6230 Y27.5250
G01 X37.7230 Y27.5000
G01 X37.8200 Y27.4653
G01 X37.9132 Y27.4212
G01 X38.0015 Y27.3682
G01 X38.0843 Y27.3069
G01 X38.1607 Y27.2377
G01 X38.2299 Y27.1613
G01 X38.2912 Y27.0785
G01 X38.3442 Y26.9902
G01 X38.3883 Y26.8970
G01 X38.4230 Y26.8000
G01 X38.4480 Y26.7000
G01 X38.4631 Y26.5981
G01 X38.4681 Y26.4927
G00 Z2.0000
G00 X39.8908 Y27.5455
G01 F60.00
G01 Z-0.0500
G01 F120.00
G01 X40.0256 Y27.5455
G01 X40.1595 Y27.5281
G01 X40.2899 Y27.4941
G01 X40.4150 Y27.4432
G01 X40.5323 Y27.3773
G01 X40.6404 Y27.2963
G01 X40.7370 Y27.2026
G01 X40.8214 Y27.0974
G01 X40.8912 Y26.9821
G01 X40.9460 Y26.8584
G01 X40.9843 Y26.7294
G01 X41.0056 Y26.5961
G01 X41.0100 Y26.4613
G01 X40.9969 Y26.3275
G01 X40.9668 Y26.1960
G01 X40.9202 Y26.0694
G01 X40.8582 Y25.9496
G01 X40.7811 Y25.8391
G01 X40.6904 Y25.7392
G01 X40.5876 Y25.6519
G01 X40.4747 Y25.5782
G01 X40.3529 Y25.5201
G01 X40.2249 Y25.4773
G01 X40.0930 Y25.4517
G01 X39.9582 Y25.4429
G01 X39.8234 Y25.4517
G01 X39.6915 Y25.4773
G01 X39.5634 Y25.5201
G01 X39.4417 Y25.5782
G01 X39.3288 Y25.6519
G01 X39.2260 Y25.7392
G01 X39.1353 Y25.8391
G01 X39.0582 Y25.9496
G01 X38.9962 Y26.0694
G01 X38.9496 Y26.1960
G01 X38.9195 Y26.3275
G01 X38.9064 Y26.4613
G01 X38.9108 Y26.5961
G01 X38.9321 Y26.7294
G01 X38.9704 Y26.8584
G01 X39.0252 Y26.9821
G01 X39.0950 Y27.0974
G01 X39.1794 Y27.2026
G01 X39.2760 Y27.2963
G01 X39.3841 Y27.3773
G01 X39.5014 Y27.4432
G01 X39.6265 Y27.4941
G01 X39.7569 Y27.5281
G01 X39.8908 Y27.5455
G00 Z2.0000
G00 X41.0081 Y26.4927
G01 F60.00
G01 Z-0.0500
G01 F120.00
G01 X41.0031 Y26.3923
G01 X40.9880 Y26.2903
G01 X40.9630 Y26.1904
G01 X40.9283 Y26.0934
G01 X40.8842 Y26.0002
G01 X40.8312 Y25.9118
G01 X40.7699 Y25.8291
G01 X40.7007 Y25.7527
G01 X40.6243 Y25.6835
G01 X40.5415 Y25.6221
G01 X40.4532 Y25.5692
G01 X40.3600 Y25.5251
G01 X40.2630 Y25.4904
G01 X40.1630 Y25.4654
G01 X40.0611 Y25.4502
G01 X39.9582 Y25.4452
G01 X39.8553 Y25.4502
G01 X39.7534 Y25.4654
G01 X39.6534 Y25.4904
G01 X39.5564 Y25.5251
G01 X39.4632 Y25.5692
G01 X39.3748 Y25.6221
G01 X39.2921 Y25.6835
G01 X39.2157 Y25.7527
G01 X39.1465 Y25.8291
G01 X39.0852 Y25.9118
G01 X39.0322 Y26.0002
G01 X38.9881 Y26.0934
G01 X38.9534 Y26.1904
G01 X38.9284 Y26.2903
G01 X38.9133 Y26.3923
G01 X38.9082 Y26.4952
G01 X38.9133 Y26.5981
G01 X38.9284 Y26.7000
G01 X38.9534 Y26.8000
G01 X38.9881 Y26.8970
G01 X39.0322 Y26.9902
G01 X39.0852 Y27.0785
G01 X39.1465 Y27.1613
G01 X39.2157 Y27.2377
G01 X39.2921 Y27.3069
G01 X39.3748 Y27.3682
G01 X39.4632 Y27.4212
G01 X39.5564 Y27.4653
G01 X39.6534 Y27.5000
G01 X39.7534 Y27.5250
G01 X39.8553 Y27.5401
G01 X39.9582 Y27.5452
G01 X40.0611 Y27.5401
G01 X40.1630 Y27.5250
G01 X40.2630 Y27.5000
G01 X40.3600 Y27.4653
G01 X40.4532 Y27.4212
G01 X40.5415 Y27.3682
G01 X40.6243 Y27.3069
G01 X40.7007 Y27.2377
G01 X40.7699 Y27.1613
G01 X40.8312 Y27.0785
G01 X40.8842 Y26.9902
G01 X40.9283 Y26.8970
G01 X40.9630 Y26.8000
G01 X40.9880 Y26.7000
G01 X41.0031 Y26.5981
G01 X41.0081 Y26.4927
G00 Z2.0000
G00 X42.4308 Y27.5455
G01 F60.00
G01 Z-0.0500
G01 F120.00
G01 X42.5656 Y27.5455
G01 X42.6995 Y27.5281
G01 X42.8299 Y27.4941
G01 X42.9550 Y27.4432
G01 X43.0723 Y27.3773
G01 X43.1804 Y27.2963
G01 X43.2770 Y27.2026
G01 X43.3614 Y27.0974
G01 X43.4312 Y26.9821
G01 X43.4860 Y26.8584
G01 X43.5243 Y26.7294
G01 X43.5456 Y26.5961
G01 X43.5500 Y26.4613
G01 X43.5369 Y26.3275
G01 X43.5068 Y26.1960
G01 X43.4602 Y26.0694
G01 X43.3982 Y25.9496
G01 X43.3211 Y25.8391
G01 X43.2304 Y25.7392
G01 X43.1276 Y25.6519
G01 X43.0147 Y25.5782
G01 X42.8929 Y25.5201
G01 X42.7649 Y25.4773
G01 X42.6330 Y25.4517
G01 X42.4982 Y25.4429
G01 X42.3634 Y25.4517
G01 X42.2315 Y25.4773
G01 X42.1034 Y25.5201
G01 X41.9817 Y25.5782
G01 X41.8688 Y25.6519
G01 X41.7660 Y25.7392
G01 X41.6753 Y25.8391
G01 X41.5982 Y25.9496
G01 X41.5362 Y26.0694
G01 X41.4896 Y26.1960
G01 X41.4595 Y26.3275
G01 X41.4464 Y26.4613
G01 X41.4508 Y26.5961
G01 X41.4721 Y26.7294
G01 X41.5104 Y26.8584
G01 X41.5652 Y26.9821
G01 X41.6350 Y27.0974
G01 X41.7194 Y27.2026
G01 X41.8160 Y27.2963
G01 X41.9241 Y27.3773
G01 X42.0414 Y27.4432
G01 X42.1665 Y27.4941
G01 X42.2969 Y27.5281
G01 X42.4308 Y27.5455
G00 Z2.0000
G00 X43.5481 Y26.4927
G01 F60.00
G01 Z-0.0500
G01 F120.00
G01 X43.5431 Y26.3923
G01 X43.5280 Y26.2903
G01 X43.5030 Y26.1904
G01 X43.4683 Y26.0934
G01 X43.4242 Y26.0002
G01 X43.3712 Y25.9118
G01 X43.3099 Y25.8291
G01 X43.2407 Y25.7527
G01 X43.1643 Y25.6835
G01 X43.0815 Y25.6221
G01 X42.9932 Y25.5692
G01 X42.9000 Y25.5251
G01 X42.8030 Y25.4904
G01 X42.7030 Y25.4654
G01 X42.6011 Y25.4502
G01 X42.4982 Y25.4452
G01 X42.3953 Y25.4502
G01 X42.2934 Y25.4654
G01 X42.1934 Y25.4904
G01 X42.0964 Y25.5251
G01 X42.0032 Y25.5692
G01 X41.9148 Y25.6221
G01 X41.8321 Y25.6835
G01 X41.7557 Y25.7527
G01 X41.6865 Y25.8291
G01 X41.6252 Y25.9118
G01 X41.5722 Y26.0002
G01 X41.5281 Y26.0934
G01 X41.4934 Y26.1904
G01 X41.4684 Y26.2903
G01 X41.4533 Y26.3923
G01 X41.4482 Y26.4952
G01 X41.4533 Y26.5981
G01 X41.4684 Y26.7000
G01 X41.4934 Y26.8000
G01 X41.5281 Y26.8970
G01 X41.5722 Y26.9902
G01 X41.6252 Y27.0785
G01 X41.6865 Y27.1613
G01 X41.7557 Y27.2377
G01 X41.8321 Y27.3069
G01 X41.9148 Y27.3682
G01 X42.0032 Y27.4212
G01 X42.0964 Y27.4653
G01 X42.1934 Y27.5000
G01 X42.2934 Y27.5250
G01 X42.3953 Y27.5401
G01 X42.4982 Y27.5452
G01 X42.6011 Y27.5401
G01 X42.7030 Y27.5250
G01 X42.8030 Y27.5000
G01 X42.9000 Y27.4653
G01 X42.9932 Y27.4212
G01 X43.0815 Y27.3682
G01 X43.1643 Y27.3069
G01 X43.2407 Y27.2377
G01 X43.3099 Y27.1613
G01 X43.3712 Y27.0785
G01 X43.4242 Y26.9902
G01 X43.4683 Y26.8970
G01 X43.5030 Y26.8000
G01 X43.5280 Y26.7000
G01 X43.5431 Y26.5981
G01 X43.5481 Y26.4927
G00 Z2.0000
G00 X42.5311 Y23.7370
G01 F60.00
G01 Z-0.0500
G01 F120.00
G01 X42.6649 Y23.7239
G01 X42.7964 Y23.6938
G01 X42.9230 Y23.6472
G01 X43.0428 Y23.5852
G01 X43.1533 Y23.5081
G01 X43.2531 Y23.4174
G01 X43.3404 Y23.3146
G01 X43.4141 Y23.2017
G01 X43.4723 Y23.0799
G01 X43.5150 Y22.9519
G01 X43.5407 Y22.8200
G01 X43.5494 Y22.6852
G01 X43.5407 Y22.5504
G01 X43.5150 Y22.4185
G01 X43.4723 Y22.2904
G01 X43.4141 Y22.1687
G01 X43.3404 Y22.0558
G01 X43.2531 Y21.9529
G01 X43.1533 Y21.8623
G01 X43.0428 Y21.7852
G01 X42.9230 Y21.7232
G01 X42.7964 Y21.6766
G01 X42.6649 Y21.6465
G01 X42.5311 Y21.6334
G01 X42.3963 Y21.6378
G01 X42.2629 Y21.6591
G01 X42.1340 Y21.6974
G01 X42.0103 Y21.7522
G01 X41.8950 Y21.8220
G01 X41.7897 Y21.9064
G01 X41.6961 Y22.0030
G01 X41.6151 Y22.1111
G01 X41.5492 Y22.2284
G01 X41.4983 Y22.3535
G01 X41.4643 Y22.4839
G01 X41.4469 Y22.6178
G01 X41.4469 Y22.7526
G01 X41.4643 Y22.8865
G01 X41.4983 Y23.0169
G01 X41.5492 Y23.1420
G01 X41.6151 Y23.2593
G01 X41.6961 Y23.3674
G01 X41.7897 Y23.4640
G01 X41.8950 Y23.5484
G01 X42.0103 Y23.6182
G01 X42.1340 Y23.6730
G01 X42.2629 Y23.7113
G01 X42.3963 Y23.7326
G01 X42.5311 Y23.7370
G00 Z2.0000
G00 X43.5471 Y22.6827
G01 F60.00
G01 Z-0.0500
G01 F120.00
G01 X43.5421 Y22.5823
G01 X43.5270 Y22.4803
G01 X43.5020 Y22.3804
G01 X43.4673 Y22.2834
G01 X43.4232 Y22.1902
G01 X43.3702 Y22.1018
G01 X43.3088 Y22.0191
G01 X43.2396 Y21.9427
G01 X43.1633 Y21.8735
G01 X43.0805 Y21.8121
G01 X42.9922 Y21.7592
G01 X42.8990 Y21.7151
G01 X42.8020 Y21.6804
G01 X42.7020 Y21.6554
G01 X42.6001 Y21.6402
G01 X42.4972 Y21.6352
G01 X42.3943 Y21.6402
G01 X42.2923 Y21.6554
G01 X42.1924 Y21.6804
G01 X42.0954 Y21.7151
G01 X42.0022 Y21.7592
G01 X41.9138 Y21.8121
G01 X41.8311 Y21.8735
G01 X41.7547 Y21.9427
G01 X41.6855 Y22.0191
G01 X41.6241 Y22.1018
G01 X41.5712 Y22.1902
G01 X41.5271 Y22.2834
G01 X41.4924 Y22.3804
G01 X41.4674 Y22.4803
G01 X41.4522 Y22.5823
G01 X41.4472 Y22.6852
G01 X41.4522 Y22.7881
G01 X41.4674 Y22.8900
G01 X41.4924 Y22.9900
G01 X41.5271 Y23.0870
G01 X41.5712 Y23.1802
G01 X41.6241 Y23.2685
G01 X41.6855 Y23.3513
G01 X41.7547 Y23.4277
G01 X41.8311 Y23.4969
G01 X41.9138 Y23.5582
G01 X42.0022 Y23.6112
G01 X42.0954 Y23.6553
G01 X42.1924 Y23.6900
G01 X42.2923 Y23.7150
G01 X42.3943 Y23.7301
G01 X42.4972 Y23.7352
G01 X42.6001 Y23.7301
G01 X42.7020 Y23.7150
G01 X42.8020 Y23.6900
G01 X42.8990 Y23.6553
G01 X42.9922 Y23.6112
G01 X43.0805 Y23.5582
G01 X43.1633 Y23.4969
G01 X43.2396 Y23.4277
G01 X43.3088 Y23.3513
G01 X43.3702 Y23.2685
G01 X43.4232 Y23.1802
G01 X43.4673 Y23.0870
G01 X43.5020 Y22.9900
G01 X43.5270 Y22.8900
G01 X43.5421 Y22.7881
G01 X43.5471 Y22.6827
G00 Z2.0000
G00 X45.5112 Y21.6852
G01 F60.00
G01 Z-0.0500
G01 F120.00
G01 X45.5119 Y21.6767
G01 X45.5141 Y21.6684
G01 X45.5177 Y21.6606
G01 X45.5225 Y21.6535
G01 X45.5285 Y21.6473
G01 X45.5355 Y21.6423
G01 X45.5432 Y21.6386
G01 X45.5510 Y21.6362
G01 X45.5453 Y21.6371
G01 X45.5311 Y21.6442
G01 X45.5202 Y21.6551
G01 X45.5130 Y21.6696
G01 X45.5083 Y21.6973
G01 X45.5083 Y23.6731
G01 X45.5130 Y23.7007
G01 X45.5202 Y23.7153
G01 X45.5311 Y23.7261
G01 X45.5456 Y23.7334
G01 X45.5732 Y23.7381
G01 X47.5491 Y23.7381
G01 X47.5767 Y23.7334
G01 X47.5912 Y23.7261
G01 X47.6021 Y23.7153
G01 X47.6094 Y23.7008
G01 X47.6140 Y23.6731
G01 X47.6140 Y21.6973
G01 X47.6094 Y21.6696
G01 X47.6021 Y21.6551
G01 X47.5912 Y21.6442
G01 X47.5770 Y21.6371
G01 X47.5713 Y21.6362
G01 X47.5792 Y21.6386
G01 X47.5869 Y21.6423
G01 X47.5938 Y21.6473
G01 X47.5998 Y21.6535
G01 X47.6041 Y21.6595
G01 X47.6078 Y21.6672
G01 X47.6102 Y21.6754
G01 X47.6112 Y21.6840
G01 X47.6112 Y23.6864
G01 X47.6100 Y23.6961
G01 X47.6074 Y23.7043
G01 X47.6027 Y23.7130
G01 X47.5965 Y23.7205
G01 X47.5890 Y23.7268
G01 X47.5803 Y23.7314
G01 X47.5721 Y23.7340
G01 X47.5624 Y23.7352
G01 X45.5612 Y23.7352
G01 X45.5514 Y23.7342
G01 X45.5421 Y23.7314
G01 X45.5334 Y23.7268
G01 X45.5258 Y23.7205
G01 X45.5196 Y23.7130
G01 X45.5150 Y23.7043
G01 X45.5121 Y23.6949
G01 X45.5112 Y23.6852
G01 X45.5112 Y21.6852
G00 Z2.0000
G00 X45.5560 Y21.6355
G01 F60.00
G01 Z-0.0500
G01 F120.00
G01 X45.5612 Y21.6352
G01 X47.5612 Y21.6352
G01 X47.5664 Y21.6355
G01 X47.5494 Y21.6328
G01 X45.5729 Y21.6328
G01 X45.5560 Y21.6355
G00 Z2.0000
G00 X49.1351 Y23.7370
G01 F60.00
G01 Z-0.0500
G01 F120.00
G01 X49.2689 Y23.7239
G01 X49.4004 Y23.6938
G01 X49.5270 Y23.6472
G01 X49.6468 Y23.5852
G01 X49.7573 Y23.5081
G01 X49.8571 Y23.4174
G01 X49.9444 Y23.3146
G01 X50.0181 Y23.2017
G01 X50.0763 Y23.0799
G01 X50.1190 Y22.9519
G01 X50.1447 Y22.8200
G01 X50.1534 Y22.6852
G01 X50.1447 Y22.5504
G01 X50.1190 Y22.4185
G01 X50.0763 Y22.2904
G01 X50.0181 Y22.1687
G01 X49.9444 Y22.0558
G01 X49.8571 Y21.9529
G01 X49.7573 Y21.8623
G01 X49.6468 Y21.7852
G01 X49.5270 Y21.7232
G01 X49.4004 Y21.6766
G01 X49.2689 Y21.6465
G01 X49.1351 Y21.6334
G01 X49.0003 Y21.6378
G01 X48.8669 Y21.6591
G01 X48.7380 Y21.6974
G01 X48.6143 Y21.7522
G01 X48.4990 Y21.8220
G01 X48.3937 Y21.9064
G01 X48.3001 Y22.0030
G01 X48.2191 Y22.1111
G01 X48.1532 Y22.2284
G01 X48.1023 Y22.3535
G01 X48.0683 Y22.4839
G01 X48.0509 Y22.6178
G01 X48.0509 Y22.7526
G01 X48.0683 Y22.8865
G01 X48.1023 Y23.0169
G01 X48.1532 Y23.1420
G01 X48.2191 Y23.2593
G01 X48.3001 Y23.3674
G01 X48.3937 Y23.4640
G01 X48.4990 Y23.5484
G01 X48.6143 Y23.6182
G01 X48.7380 Y23.6730
G01 X48.8669 Y23.7113
G01 X49.0003 Y23.7326
G01 X49.1351 Y23.7370
G00 Z2.0000
G00 X50.1511 Y22.6827
G01 F60.00
G01 Z-0.0500
G01 F120.00
G01 X50.1461 Y22.5823
G01 X50.1310 Y22.4803
G01 X50.1060 Y22.3804
G01 X50.0713 Y22.2834
G01 X50.0272 Y22.1902
G01 X49.9742 Y22.1018
G01 X49.9128 Y22.0191
G01 X49.8436 Y21.9427
G01 X49.7673 Y21.8735
G01 X49.6845 Y21.8121
G01 X49.5962 Y21.7592
G01 X49.5030 Y21.7151
G01 X49.4060 Y21.6804
G01 X49.3060 Y21.6554
G01 X49.2041 Y21.6402
G01 X49.1012 Y21.6352
G01 X48.9983 Y21.6402
G01 X48.8963 Y21.6554
G01 X48.7964 Y21.6804
G01 X48.6994 Y21.7151
G01 X48.6062 Y21.7592
G01 X48.5178 Y21.8121
G01 X48.4351 Y21.8735
G01 X48.3587 Y21.9427
G01 X48.2895 Y22.0191
G01 X48.2281 Y22.1018
G01 X48.1752 Y22.1902
G01 X48.1311 Y22.2834
G01 X48.0964 Y22.3804
G01 X48.0714 Y22.4803
G01 X48.0562 Y22.5823
G01 X48.0512 Y22.6852
G01 X48.0562 Y22.7881
G01 X48.0714 Y22.8900
G01 X48.0964 Y22.9900
G01 X48.1311 Y23.0870
G01 X48.1752 Y23.1802
G01 X48.2281 Y23.2685
G01 X48.2895 Y23.3513
G01 X48.3587 Y23.4277
G01 X48.4351 Y23.4969
G01 X48.5178 Y23.5582
G01 X48.6062 Y23.6112
G01 X48.6994 Y23.6553
G01 X48.7964 Y23.6900
G01 X48.8963 Y23.7150
G01 X48.9983 Y23.7301
G01 X49.1012 Y23.7352
G01 X49.2041 Y23.7301
G01 X49.3060 Y23.7150
G01 X49.4060 Y23.6900
G01 X49.5030 Y23.6553
G01 X49.5962 Y23.6112
G01 X49.6845 Y23.5582
G01 X49.7673 Y23.4969
G01 X49.8436 Y23.4277
G01 X49.9128 Y23.3513
G01 X49.9742 Y23.2685
G01 X50.0272 Y23.1802
G01 X50.0713 Y23.0870
G01 X50.1060 Y22.9900
G01 X50.1310 Y22.8900
G01 X50.1461 Y22.7881
G01 X50.1511 Y22.6827
G00 Z2.0000
G00 X51.6751 Y23.7370
G01 F60.00
G01 Z-0.0500
G01 F120.00
G01 X51.8089 Y23.7239
G01 X51.9404 Y23.6938
G01 X52.0670 Y23.6472
G01 X52.1868 Y23.5852
G01 X52.2973 Y23.5081
G01 X52.3971 Y23.4174
G01 X52.4844 Y23.3146
G01 X52.5581 Y23.2017
G01 X52.6163 Y23.0799
G01 X52.6590 Y22.9519
G01 X52.6847 Y22.8200
G01 X52.6934 Y22.6852
G01 X52.6847 Y22.5504
G01 X52.6590 Y22.4185
G01 X52.6163 Y22.2904
G01 X52.5581 Y22.1687
G01 X52.4844 Y22.0558
G01 X52.3971 Y21.9529
G01 X52.2973 Y21.8623
G01 X52.1868 Y21.7852
G01 X52.0670 Y21.7232
G01 X51.9404 Y21.6766
G01 X51.8089 Y21.6465
G01 X51.6751 Y21.6334
G01 X51.5403 Y21.6378
G01 X51.4069 Y21.6591
G01 X51.2780 Y21.6974
G01 X51.1543 Y21.7522
G01 X51.0390 Y21.8220
G01 X50.9337 Y21.9064
G01 X50.8401 Y22.0030
G01 X50.7591 Y22.1111
G01 X50.6932 Y22.2284
G01 X50.6423 Y22.3535
G01 X50.6083 Y22.4839
G01 X50.5909 Y22.6178
G01 X50.5909 Y22.7526
G01 X50.6083 Y22.8865
G01 X50.6423 Y23.0169
G01 X50.6932 Y23.1420
G01 X50.7591 Y23.2593
G01 X50.8401 Y23.3674
G01 X50.9337 Y23.4640
G01 X51.0390 Y23.5484
G01 X51.1543 Y23.6182
G01 X51.2780 Y23.6730
G01 X51.4069 Y23.7113
G01 X51.5403 Y23.7326
G01 X51.6751 Y23.7370
G00 Z2.0000
G00 X52.6911 Y22.6827
G01 F60.00
G01 Z-0.0500
G01 F120.00
G01 X52.6861 Y22.5823
G01 X52.6710 Y22.4803
G01 X52.6460 Y22.3804
G01 X52.6113 Y22.2834
G01 X52.5672 Y22.1902
G01 X52.5142 Y22.1018
G01 X52.4528 Y22.0191
G01 X52.3836 Y21.9427
G01 X52.3073 Y21.8735
G01 X52.2245 Y21.8121
G01 X52.1362 Y21.7592
G01 X52.0430 Y21.7151
G01 X51.9460 Y21.6804
G01 X51.8460 Y21.6554
G01 X51.7441 Y21.6402
G01 X51.6412 Y21.6352
G01 X51.5383 Y21.6402
G01 X51.4363 Y21.6554
G01 X51.3364 Y21.6804
G01 X51.2394 Y21.7151
G01 X51.1462 Y21.7592
G01 X51.0578 Y21.8121
G01 X50.9751 Y21.8735
G01 X50.8987 Y21.9427
G01 X50.8295 Y22.0191
G01 X50.7681 Y22.1018
G01 X50.7152 Y22.1902
G01 X50.6711 Y22.2834
G01 X50.6364 Y22.3804
G01 X50.6114 Y22.4803
G01 X50.5962 Y22.5823
G01 X50.5912 Y22.6852
G01 X50.5962 Y22.7881
G01 X50.6114 Y22.8900
G01 X50.6364 Y22.9900
G01 X50.6711 Y23.0870
G01 X50.7152 Y23.1802
G01 X50.7681 Y23.2685
G01 X50.8295 Y23.3513
G01 X50.8987 Y23.4277
G01 X50.9751 Y23.4969
G01 X51.0578 Y23.5582
G01 X51.1462 Y23.6112
G01 X51.2394 Y23.6553
G01 X51.3364 Y23.6900
G01 X51.4363 Y23.7150
G01 X51.5383 Y23.7301
G01 X51.6412 Y23.7352
G01 X51.7441 Y23.7301
G01 X51.8460 Y23.7150
G01 X51.9460 Y23.6900
G01 X52.0430 Y23.6553
G01 X52.1362 Y23.6112
G01 X52.2245 Y23.5582
G01 X52.3073 Y23.4969
G01 X52.3836 Y23.4277
G01 X52.4528 Y23.3513
G01 X52.5142 Y23.2685
G01 X52.5672 Y23.1802
G01 X52.6113 Y23.0870
G01 X52.6460 Y22.9900
G01 X52.6710 Y22.8900
G01 X52.6861 Y22.7881
G01 X52.6911 Y22.6827
G00 Z2.0000
G00 X54.2151 Y23.7370
G01 F60.00
G01 Z-0.0500
G01 F120.00
G01 X54.3489 Y23.7239
G01 X54.4804 Y23.6938
G01 X54.6070 Y23.6472
G01 X54.7268 Y23.5852
G01 X54.8373 Y23.5081
G01 X54.9371 Y23.4174
G01 X55.0244 Y23.3146
G01 X55.0981 Y23.2017
G01 X55.1563 Y23.0799
G01 X55.1990 Y22.9519
G01 X55.2247 Y22.8200
G01 X55.2334 Y22.6852
G01 X55.2247 Y22.5504
G01 X55.1990 Y22.4185
G01 X55.1563 Y22.2904
G01 X55.0981 Y22.1687
G01 X55.0244 Y22.0558
G01 X54.9371 Y21.9529
G01 X54.8373 Y21.8623
G01 X54.7268 Y21.7852
G01 X54.6070 Y21.7232
G01 X54.4804 Y21.6766
G01 X54.3489 Y21.6465
G01 X54.2151 Y21.6334
G01 X54.0803 Y21.6378
G01 X53.9469 Y21.6591
G01 X53.8180 Y21.6974
G01 X53.6943 Y21.7522
G01 X53.5790 Y21.8220
G01 X53.4737 Y21.9064
G01 X53.3801 Y22.0030
G01 X53.2991 Y22.1111
G01 X53.2332 Y22.2284
G01 X53.1823 Y22.3535
G01 X53.1483 Y22.4839
G01 X53.1309 Y22.6178
G01 X53.1309 Y22.7526
G01 X53.1483 Y22.8865
G01 X53.1823 Y23.0169
G01 X53.2332 Y23.1420
G01 X53.2991 Y23.2593
G01 X53.3801 Y23.3674
G01 X53.4737 Y23.4640
G01 X53.5790 Y23.5484
G01 X53.6943 Y23.6182
G01 X53.8180 Y23.6730
G01 X53.9469 Y23.7113
G01 X54.0803 Y23.7326
G01 X54.2151 Y23.7370
G00 Z2.0000
G00 X55.2311 Y22.6827
G01 F60.00
G01 Z-0.0500
G01 F120.00
G01 X55.2261 Y22.5823
G01 X55.2110 Y22.4803
G01 X55.1860 Y22.3804
G01 X55.1513 Y22.2834
G01 X55.1072 Y22.1902
G01 X55.0542 Y22.1018
G01 X54.9928 Y22.0191
G01 X54.9236 Y21.9427
G01 X54.8473 Y21.8735
G01 X54.7645 Y21.8121
G01 X54.6762 Y21.7592
G01 X54.5830 Y21.7151
G01 X54.4860 Y21.6804
G01 X54.3860 Y21.6554
G01 X54.2841 Y21.6402
G01 X54.1812 Y21.6352
G01 X54.0783 Y21.6402
G01 X53.9763 Y21.6554
G01 X53.8764 Y21.6804
G01 X53.7794 Y21.7151
G01 X53.6862 Y21.7592
G01 X53.5978 Y21.8121
G01 X53.5151 Y21.8735
G01 X53.4387 Y21.9427
G01 X53.3695 Y22.0191
G01 X53.3081 Y22.1018
G01 X53.2552 Y22.1902
G01 X53.2111 Y22.2834
G01 X53.1764 Y22.3804
G01 X53.1514 Y22.4803
G01 X53.1362 Y22.5823
G01 X53.1312 Y22.6852
G01 X53.1362 Y22.7881
G01 X53.1514 Y22.8900
G01 X53.1764 Y22.9900
G01 X53.2111 Y23.0870
G01 X53.2552 Y23.1802
G01 X53.3081 Y23.2685
G01 X53.3695 Y23.3513
G01 X53.4387 Y23.4277
G01 X53.5151 Y23.4969
G01 X53.5978 Y23.5582
G01 X53.6862 Y23.6112
G01 X53.7794 Y23.6553
G01 X53.8764 Y23.6900
G01 X53.9763 Y23.7150
G01 X54.0783 Y23.7301
G01 X54.1812 Y23.7352
G01 X54.2841 Y23.7301
G01 X54.3860 Y23.7150
G01 X54.4860 Y23.6900
G01 X54.5830 Y23.6553
G01 X54.6762 Y23.6112
G01 X54.7645 Y23.5582
G01 X54.8473 Y23.4969
G01 X54.9236 Y23.4277
G01 X54.9928 Y23.3513
G01 X55.0542 Y23.2685
G01 X55.1072 Y23.1802
G01 X55.1513 Y23.0870
G01 X55.1860 Y22.9900
G01 X55.2110 Y22.8900
G01 X55.2261 Y22.7881
G01 X55.2311 Y22.6827
G00 Z2.0000
G00 X56.7551 Y23.7370
G01 F60.00
G01 Z-0.0500
G01 F120.00
G01 X56.8889 Y23.7239
G01 X57.0204 Y23.6938
G01 X57.1470 Y23.6472
G01 X57.2668 Y23.5852
G01 X57.3773 Y23.5081
G01 X57.4771 Y23.4174
G01 X57.5644 Y23.3146
G01 X57.6381 Y23.2017
G01 X57.6963 Y23.0799
G01 X57.7390 Y22.9519
G01 X57.7647 Y22.8200
G01 X57.7734 Y22.6852
G01 X57.7647 Y22.5504
G01 X57.7390 Y22.4185
G01 X57.6963 Y22.2904
G01 X57.6381 Y22.1687
G01 X57.5644 Y22.0558
G01 X57.4771 Y21.9529
G01 X57.3773 Y21.8623
G01 X57.2668 Y21.7852
G01 X57.1470 Y21.7232
G01 X57.0204 Y21.6766
G01 X56.8889 Y21.6465
G01 X56.7551 Y21.6334
G01 X56.6203 Y21.6378
G01 X56.4869 Y21.6591
G01 X56.3580 Y21.6974
G01 X56.2343 Y21.7522
G01 X56.1190 Y21.8220
G01 X56.0137 Y21.9064
G01 X55.9201 Y22.0030
G01 X55.8391 Y22.1111
G01 X55.7732 Y22.2284
G01 X55.7223 Y22.3535
G01 X55.6883 Y22.4839
G01 X55.6709 Y22.6178
G01 X55.6709 Y22.7526
G01 X55.6883 Y22.8865
G01 X55.7223 Y23.0169
G01 X55.7732 Y23.1420
G01 X55.8391 Y23.2593
G01 X55.9201 Y23.3674
G01 X56.0137 Y23.4640
G01 X56.1190 Y23.5484
G01 X56.2343 Y23.6182
G01 X56.3580 Y23.6730
G01 X56.4869 Y23.7113
G01 X56.6203 Y23.7326
G01 X56.7551 Y23.7370
G00 Z2.0000
G00 X57.7711 Y22.6827
G01 F60.00
G01 Z-0.0500
G01 F120.00
G01 X57.7661 Y22.5823
G01 X57.7510 Y22.4803
G01 X57.7260 Y22.3804
G01 X57.6913 Y22.2834
G01 X57.6472 Y22.1902
G01 X57.5942 Y22.1018
G01 X57.5328 Y22.0191
G01 X57.4636 Y21.9427
G01 X57.3873 Y21.8735
G01 X57.3045 Y21.8121
G01 X57.2162 Y21.7592
G01 X57.1230 Y21.7151
G01 X57.0260 Y21.6804
G01 X56.9260 Y21.6554
G01 X56.8241 Y21.6402
G01 X56.7212 Y21.6352
G01 X56.6183 Y21.6402
G01 X56.5163 Y21.6554
G01 X56.4164 Y21.6804
G01 X56.3194 Y21.7151
G01 X56.2262 Y21.7592
G01 X56.1378 Y21.8121
G01 X56.0551 Y21.8735
G01 X55.9787 Y21.9427
G01 X55.9095 Y22.0191
G01 X55.8481 Y22.1018
G01 X55.7952 Y22.1902
G01 X55.7511 Y22.2834
G01 X55.7164 Y22.3804
G01 X55.6914 Y22.4803
G01 X55.6762 Y22.5823
G01 X55.6712 Y22.6852
G01 X55.6762 Y22.7881
G01 X55.6914 Y22.8900
G01 X55.7164 Y22.9900
G01 X55.7511 Y23.0870
G01 X55.7952 Y23.1802
G01 X55.8481 Y23.2685
G01 X55.9095 Y23.3513
G01 X55.9787 Y23.4277
G01 X56.0551 Y23.4969
G01 X56.1378 Y23.5582
G01 X56.2262 Y23.6112
G01 X56.3194 Y23.6553
G01 X56.4164 Y23.6900
G01 X56.5163 Y23.7150
G01 X56.6183 Y23.7301
G01 X56.7212 Y23.7352
G01 X56.8241 Y23.7301
G01 X56.9260 Y23.7150
G01 X57.0260 Y23.6900
G01 X57.1230 Y23.6553
G01 X57.2162 Y23.6112
G01 X57.3045 Y23.5582
G01 X57.3873 Y23.4969
G01 X57.4636 Y23.4277
G01 X57.5328 Y23.3513
G01 X57.5942 Y23.2685
G01 X57.6472 Y23.1802
G01 X57.6913 Y23.0870
G01 X57.7260 Y22.9900
G01 X57.7510 Y22.8900
G01 X57.7661 Y22.7881
G01 X57.7711 Y22.6827
G00 Z2.0000
G00 X59.2951 Y23.7370
G01 F60.00
G01 Z-0.0500
G01 F120.00
G01 X59.4289 Y23.7239
G01 X59.5604 Y23.6938
G01 X59.6870 Y23.6472
G01 X59.8068 Y23.5852
G01 X59.9173 Y23.5081
G01 X60.0171 Y23.4174
G01 X60.1044 Y23.3146
G01 X60.1781 Y23.2017
G01 X60.2363 Y23.0799
G01 X60.2790 Y22.9519
G01 X60.3047 Y22.8200
G01 X60.3134 Y22.6852
G01 X60.3047 Y22.5504
G01 X60.2790 Y22.4185
G01 X60.2363 Y22.2904
G01 X60.1781 Y22.1687
G01 X60.1044 Y22.0558
G01 X60.0171 Y21.9529
G01 X59.9173 Y21.8623
G01 X59.8068 Y21.7852
G01 X59.6870 Y21.7232
G01 X59.5604 Y21.6766
G01 X59.4289 Y21.6465
G01 X59.2951 Y21.6334
G01 X59.1603 Y21.6378
G01 X59.0269 Y21.6591
G01 X58.8980 Y21.6974
G01 X58.7743 Y21.7522
G01 X58.6590 Y21.8220
G01 X58.5537 Y21.9064
G01 X58.4601 Y22.0030
G01 X58.3791 Y22.1111
G01 X58.3132 Y22.2284
G01 X58.2623 Y22.3535
G01 X58.2283 Y22.4839
G01 X58.2109 Y22.6178
G01 X58.2109 Y22.7526
G01 X58.2283 Y22.8865
G01 X58.2623 Y23.0169
G01 X58.3132 Y23.1420
G01 X58.3791 Y23.2593
G01 X58.4601 Y23.3674
G01 X58.5537 Y23.4640
G01 X58.6590 Y23.5484
G01 X58.7743 Y23.6182
G01 X58.8980 Y23.6730
G01 X59.0269 Y23.7113
G01 X59.1603 Y23.7326
G01 X59.2951 Y23.7370
G00 Z2.0000
G00 X60.3111 Y22.6827
G01 F60.00
G01 Z-0.0500
G01 F120.00
G01 X60.3061 Y22.5823
G01 X60.2910 Y22.4803
G01 X60.2660 Y22.3804
G01 X60.2313 Y22.2834
G01 X60.1872 Y22.1902
G01 X60.1342 Y22.1018
G01 X60.0728 Y22.0191
G01 X60.0036 Y21.9427
G01 X59.9273 Y21.8735
G01 X59.8445 Y21.8121
G01 X59.7562 Y21.7592
G01 X59.6630 Y21.7151
G01 X59.5660 Y21.6804
G01 X59.4660 Y21.6554
G01 X59.3641 Y21.6402
G01 X59.2612 Y21.6352
G01 X59.1583 Y21.6402
G01 X59.0563 Y21.6554
G01 X58.9564 Y21.6804
G01 X58.8594 Y21.7151
G01 X58.7662 Y21.7592
G01 X58.6778 Y21.8121
G01 X58.5951 Y21.8735
G01 X58.5187 Y21.9427
G01 X58.4495 Y22.0191
G01 X58.3881 Y22.1018
G01 X58.3352 Y22.1902
G01 X58.2911 Y22.2834
G01 X58.2564 Y22.3804
G01 X58.2314 Y22.4803
G01 X58.2162 Y22.5823
G01 X58.2112 Y22.6852
G01 X58.2162 Y22.7881
G01 X58.2314 Y22.8900
G01 X58.2564 Y22.9900
G01 X58.2911 Y23.0870
G01 X58.3352 Y23.1802
G01 X58.3881 Y23.2685
G01 X58.4495 Y23.3513
G01 X58.5187 Y23.4277
G01 X58.5951 Y23.4969
G01 X58.6778 Y23.5582
G01 X58.7662 Y23.6112
G01 X58.8594 Y23.6553
G01 X58.9564 Y23.6900
G01 X59.0563 Y23.7150
G01 X59.1583 Y23.7301
G01 X59.2612 Y23.7352
G01 X59.3641 Y23.7301
G01 X59.4660 Y23.7150
G01 X59.5660 Y23.6900
G01 X59.6630 Y23.6553
G01 X59.7562 Y23.6112
G01 X59.8445 Y23.5582
G01 X59.9273 Y23.4969
G01 X60.0036 Y23.4277
G01 X60.0728 Y23.3513
G01 X60.1342 Y23.2685
G01 X60.1872 Y23.1802
G01 X60.2313 Y23.0870
G01 X60.2660 Y22.9900
G01 X60.2910 Y22.8900
G01 X60.3061 Y22.7881
G01 X60.3111 Y22.6827
G00 Z2.0000
G00 X61.8351 Y23.7370
G01 F60.00
G01 Z-0.0500
G01 F120.00
G01 X61.9689 Y23.7239
G01 X62.1004 Y23.6938
G01 X62.2270 Y23.6472
G01 X62.3468 Y23.5852
G01 X62.4573 Y23.5081
G01 X62.5571 Y23.4174
G01 X62.6444 Y23.3146
G01 X62.7181 Y23.2017
G01 X62.7763 Y23.0799
G01 X62.8190 Y22.9519
G01 X62.8447 Y22.8200
G01 X62.8534 Y22.6852
G01 X62.8447 Y22.5504
G01 X62.8190 Y22.4185
G01 X62.7763 Y22.2904
G01 X62.7181 Y22.1687
G01 X62.6444 Y22.0558
G01 X62.5571 Y21.9529
G01 X62.4573 Y21.8623
G01 X62.3468 Y21.7852
G01 X62.2270 Y21.7232
G01 X62.1004 Y21.6766
G01 X61.9689 Y21.6465
G01 X61.8351 Y21.6334
G01 X61.7003 Y21.6378
G01 X61.5669 Y21.6591
G01 X61.4380 Y21.6974
G01 X61.3143 Y21.7522
G01 X61.1990 Y21.8220
G01 X61.0937 Y21.9064
G01 X61.0001 Y22.0030
G01 X60.9191 Y22.1111
G01 X60.8532 Y22.2284
G01 X60.8023 Y22.3535
G01 X60.7683 Y22.4839
G01 X60.7509 Y22.6178
G01 X60.7509 Y22.7526
G01 X60.7683 Y22.8865
G01 X60.8023 Y23.0169
G01 X60.8532 Y23.1420
G01 X60.9191 Y23.2593
G01 X61.0001 Y23.3674
G01 X61.0937 Y23.4640
G01 X61.1990 Y23.5484
G01 X61.3143 Y23.6182
G01 X61.4380 Y23.6730
G01 X61.5669 Y23.7113
G01 X61.7003 Y23.7326
G01 X61.8351 Y23.7370
G00 Z2.0000
G00 X62.8511 Y22.6827
G01 F60.00
G01 Z-0.0500
G01 F120.00
G01 X62.8461 Y22.5823
G01 X62.8310 Y22.4803
G01 X62.8060 Y22.3804
G01 X62.7713 Y22.2834
G01 X62.7272 Y22.1902
G01 X62.6742 Y22.1018
G01 X62.6128 Y22.0191
G01 X62.5436 Y21.9427
G01 X62.4673 Y21.8735
G01 X62.3845 Y21.8121
G01 X62.2962 Y21.7592
G01 X62.2030 Y21.7151
G01 X62.1060 Y21.6804
G01 X62.0060 Y21.6554
G01 X61.9041 Y21.6402
G01 X61.8012 Y21.6352
G01 X61.6983 Y21.6402
G01 X61.5963 Y21.6554
G01 X61.4964 Y21.6804
G01 X61.3994 Y21.7151
G01 X61.3062 Y21.7592
G01 X61.2178 Y21.8121
G01 X61.1351 Y21.8735
G01 X61.0587 Y21.9427
G01 X60.9895 Y22.0191
G01 X60.9281 Y22.1018
G01 X60.8752 Y22.1902
G01 X60.8311 Y22.2834
G01 X60.7964 Y22.3804
G01 X60.7714 Y22.4803
G01 X60.7562 Y22.5823
G01 X60.7512 Y22.6852
G01 X60.7562 Y22.7881
G01 X60.7714 Y22.8900
G01 X60.7964 Y22.9900
G01 X60.8311 Y23.0870
G01 X60.8752 Y23.1802
G01 X60.9281 Y23.2685
G01 X60.9895 Y23.3513
G01 X61.0587 Y23.4277
G01 X61.1351 Y23.4969
G01 X61.2178 Y23.5582
G01 X61.3062 Y23.6112
G01 X61.3994 Y23.6553
G01 X61.4964 Y23.6900
G01 X61.5963 Y23.7150
G01 X61.6983 Y23.7301
G01 X61.8012 Y23.7352
G01 X61.9041 Y23.7301
G01 X62.0060 Y23.7150
G01 X62.1060 Y23.6900
G01 X62.2030 Y23.6553
G01 X62.2962 Y23.6112
G01 X62.3845 Y23.5582
G01 X62.4673 Y23.4969
G01 X62.5436 Y23.4277
G01 X62.6128 Y23.3513
G01 X62.6742 Y23.2685
G01 X62.7272 Y23.1802
G01 X62.7713 Y23.0870
G01 X62.8060 Y22.9900
G01 X62.8310 Y22.8900
G01 X62.8461 Y22.7881
G01 X62.8511 Y22.6827
G00 Z2.0000
G00 X64.3751 Y23.7370
G01 F60.00
G01 Z-0.0500
G01 F120.00
G01 X64.5089 Y23.7239
G01 X64.6404 Y23.6938
G01 X64.7670 Y23.6472
G01 X64.8868 Y23.5852
G01 X64.9973 Y23.5081
G01 X65.0971 Y23.4174
G01 X65.1844 Y23.3146
G01 X65.2581 Y23.2017
G01 X65.3163 Y23.0799
G01 X65.3590 Y22.9519
G01 X65.3847 Y22.8200
G01 X65.3934 Y22.6852
G01 X65.3847 Y22.5504
G01 X65.3590 Y22.4185
G01 X65.3163 Y22.2904
G01 X65.2581 Y22.1687
G01 X65.1844 Y22.0558
G01 X65.0971 Y21.9529
G01 X64.9973 Y21.8623
G01 X64.8868 Y21.7852
G01 X64.7670 Y21.7232
G01 X64.6404 Y21.6766
G01 X64.5089 Y21.6465
G01 X64.3751 Y21.6334
G01 X64.2403 Y21.6378
G01 X64.1069 Y21.6591
G01 X63.9780 Y21.6974
G01 X63.8543 Y21.7522
G01 X63.7390 Y21.8220
G01 X63.6337 Y21.9064
G01 X63.5401 Y22.0030
G01 X63.4591 Y22.1111
G01 X63.3932 Y22.2284
G01 X63.3423 Y22.3535
G01 X63.3083 Y22.4839
G01 X63.2909 Y22.6178
G01 X63.2909 Y22.7526
G01 X63.3083 Y22.8865
G01 X63.3423 Y23.0169
G01 X63.3932 Y23.1420
G01 X63.4591 Y23.2593
G01 X63.5401 Y23.3674
G01 X63.6337 Y23.4640
G01 X63.7390 Y23.5484
G01 X63.8543 Y23.6182
G01 X63.9780 Y23.6730
G01 X64.1069 Y23.7113
G01 X64.2403 Y23.7326
G01 X64.3751 Y23.7370
G00 Z2.0000
G00 X65.3911 Y22.6827
G01 F60.00
G01 Z-0.0500
G01 F120.00
G01 X65.3861 Y22.5823
G01 X65.3710 Y22.4803
G01 X65.3460 Y22.3804
G01 X65.3113 Y22.2834
G01 X65.2672 Y22.1902
G01 X65.2142 Y22.1018
G01 X65.1528 Y22.0191
G01 X65.0836 Y21.9427
G01 X65.0073 Y21.8735
G01 X64.9245 Y21.8121
G01 X64.8362 Y21.7592
G01 X64.7430 Y21.7151
G01 X64.6460 Y21.6804
G01 X64.5460 Y21.6554
G01 X64.4441 Y21.6402
G01 X64.3412 Y21.6352
G01 X64.2383 Y21.6402
G01 X64.1363 Y21.6554
G01 X64.0364 Y21.6804
G01 X63.9394 Y21.7151
G01 X63.8462 Y21.7592
G01 X63.7578 Y21.8121
G01 X63.6751 Y21.8735
G01 X63.5987 Y21.9427
G01 X63.5295 Y22.0191
G01 X63.4681 Y22.1018
G01 X63.4152 Y22.1902
G01 X63.3711 Y22.2834
G01 X63.3364 Y22.3804
G01 X63.3114 Y22.4803
G01 X63.2962 Y22.5823
G01 X63.2912 Y22.6852
G01 X63.2962 Y22.7881
G01 X63.3114 Y22.8900
G01 X63.3364 Y22.9900
G01 X63.3711 Y23.0870
G01 X63.4152 Y23.1802
G01 X63.4681 Y23.2685
G01 X63.5295 Y23.3513
G01 X63.5987 Y23.4277
G01 X63.6751 Y23.4969
G01 X63.7578 Y23.5582
G01 X63.8462 Y23.6112
G01 X63.9394 Y23.6553
G01 X64.0364 Y23.6900
G01 X64.1363 Y23.7150
G01 X64.2383 Y23.7301
G01 X64.3412 Y23.7352
G01 X64.4441 Y23.7301
G01 X64.5460 Y23.7150
G01 X64.6460 Y23.6900
G01 X64.7430 Y23.6553
G01 X64.8362 Y23.6112
G01 X64.9245 Y23.5582
G01 X65.0073 Y23.4969
G01 X65.0836 Y23.4277
G01 X65.1528 Y23.3513
G01 X65.2142 Y23.2685
G01 X65.2672 Y23.1802
G01 X65.3113 Y23.0870
G01 X65.3460 Y22.9900
G01 X65.3710 Y22.8900
G01 X65.3861 Y22.7881
G01 X65.3911 Y22.6827
G00 Z2.0000
G00 X68.3712 Y21.6852
G01 F60.00
G01 Z-0.0500
G01 F120.00
G01 X68.3715 Y21.6801
G01 X68.3688 Y21.6969
G01 X68.3688 Y23.6735
G01 X68.3715 Y23.6903
G01 X68.3712 Y23.6852
G01 X68.3712 Y21.6852
G00 Z2.0000
G00 X68.3722 Y21.6750
G01 F60.00
G01 Z-0.0500
G01 F120.00
G01 X68.3741 Y21.6684
G01 X68.3771 Y21.6616
G01 X68.3810 Y21.6554
G01 X68.3858 Y21.6498
G01 X68.3914 Y21.6450
G01 X68.3976 Y21.6411
G01 X68.4043 Y21.6381
G01 X68.4110 Y21.6362
G01 X68.4053 Y21.6371
G01 X68.3911 Y21.6442
G01 X68.3802 Y21.6551
G01 X68.3731 Y21.6693
G01 X68.3722 Y21.6750
G00 Z2.0000
G00 X68.4160 Y21.6355
G01 F60.00
G01 Z-0.0500
G01 F120.00
G01 X68.4212 Y21.6352
G01 X70.4212 Y21.6352
G01 X70.4264 Y21.6355
G01 X70.4094 Y21.6328
G01 X68.4329 Y21.6328
G01 X68.4160 Y21.6355
G00 Z2.0000
G00 X70.4313 Y21.6362
G01 F60.00
G01 Z-0.0500
G01 F120.00
G01 X70.4392 Y21.6386
G01 X70.4469 Y21.6423
G01 X70.4538 Y21.6473
G01 X70.4598 Y21.6535
G01 X70.4647 Y21.6606
G01 X70.4683 Y21.6684
G01 X70.4704 Y21.6767
G01 X70.4712 Y21.6852
G01 X70.4712 Y23.6852
G01 X70.4702 Y23.6949
G01 X70.4674 Y23.7043
G01 X70.4627 Y23.7130
G01 X70.4565 Y23.7205
G01 X70.4490 Y23.7268
G01 X70.4403 Y23.7314
G01 X70.4309 Y23.7342
G01 X70.4212 Y23.7352
G01 X68.4212 Y23.7352
G01 X68.4126 Y23.7345
G01 X68.4043 Y23.7323
G01 X68.3965 Y23.7287
G01 X68.3895 Y23.7238
G01 X68.3833 Y23.7178
G01 X68.3783 Y23.7109
G01 X68.3745 Y23.7032
G01 X68.3722 Y23.6954
G01 X68.3731 Y23.7010
G01 X68.3802 Y23.7153
G01 X68.3911 Y23.7261
G01 X68.4056 Y23.7334
G01 X68.4332 Y23.7381
G01 X70.4091 Y23.7381
G01 X70.4367 Y23.7334
G01 X70.4512 Y23.7261
G01 X70.4621 Y23.7153
G01 X70.4694 Y23.7008
G01 X70.4740 Y23.6731
G01 X70.4740 Y21.6973
G01 X70.4694 Y21.6696
G01 X70.4621 Y21.6551
G01 X70.4512 Y21.6442
G01 X70.4370 Y21.6371
G01 X70.4313 Y21.6362
G00 Z2.0000
G00 X71.9951 Y23.7370
G01 F60.00
G01 Z-0.0500
G01 F120.00
G01 X72.1289 Y23.7239
G01 X72.2604 Y23.6938
G01 X72.3870 Y23.6472
G01 X72.5068 Y23.5852
G01 X72.6173 Y23.5081
G01 X72.7171 Y23.4174
G01 X72.8044 Y23.3146
G01 X72.8781 Y23.2017
G01 X72.9363 Y23.0799
G01 X72.9790 Y22.9519
G01 X73.0047 Y22.8200
G01 X73.0134 Y22.6852
G01 X73.0047 Y22.5504
G01 X72.9790 Y22.4185
G01 X72.9363 Y22.2904
G01 X72.8781 Y22.1687
G01 X72.8044 Y22.0558
G01 X72.7171 Y21.9529
G01 X72.6173 Y21.8623
G01 X72.5068 Y21.7852
G01 X72.3870 Y21.7232
G01 X72.2604 Y21.6766
G01 X72.1289 Y21.6465
G01 X71.9951 Y21.6334
G01 X71.8603 Y21.6378
G01 X71.7269 Y21.6591
G01 X71.5980 Y21.6974
G01 X71.4743 Y21.7522
G01 X71.3590 Y21.8220
G01 X71.2537 Y21.9064
G01 X71.1601 Y22.0030
G01 X71.0791 Y22.1111
G01 X71.0132 Y22.2284
G01 X70.9623 Y22.3535
G01 X70.9283 Y22.4839
G01 X70.9109 Y22.6178
G01 X70.9109 Y22.7526
G01 X70.9283 Y22.8865
G01 X70.9623 Y23.0169
G01 X71.0132 Y23.1420
G01 X71.0791 Y23.2593
G01 X71.1601 Y23.3674
G01 X71.2537 Y23.4640
G01 X71.3590 Y23.5484
G01 X71.4743 Y23.6182
G01 X71.5980 Y23.6730
G01 X71.7269 Y23.7113
G01 X71.8603 Y23.7326
G01 X71.9951 Y23.7370
G00 Z2.0000
G00 X73.0111 Y22.6827
G01 F60.00
G01 Z-0.0500
G01 F120.00
G01 X73.0061 Y22.5823
G01 X72.9910 Y22.4803
G01 X72.9660 Y22.3804
G01 X72.9313 Y22.2834
G01 X72.8872 Y22.1902
G01 X72.8342 Y22.1018
G01 X72.7728 Y22.0191
G01 X72.7036 Y21.9427
G01 X72.6273 Y21.8735
G01 X72.5445 Y21.8121
G01 X72.4562 Y21.7592
G01 X72.3630 Y21.7151
G01 X72.2660 Y21.6804
G01 X72.1660 Y21.6554
G01 X72.0641 Y21.6402
G01 X71.9612 Y21.6352
G01 X71.8583 Y21.6402
G01 X71.7563 Y21.6554
G01 X71.6564 Y21.6804
G01 X71.5594 Y21.7151
G01 X71.4662 Y21.7592
G01 X71.3778 Y21.8121
G01 X71.2951 Y21.8735
G01 X71.2187 Y21.9427
G01 X71.1495 Y22.0191
G01 X71.0881 Y22.1018
G01 X71.0352 Y22.1902
G01 X70.9911 Y22.2834
G01 X70.9564 Y22.3804
G01 X70.9314 Y22.4803
G01 X70.9162 Y22.5823
G01 X70.9112 Y22.6852
G01 X70.9162 Y22.7881
G01 X70.9314 Y22.8900
G01 X70.9564 Y22.9900
G01 X70.9911 Y23.0870
G01 X71.0352 Y23.1802
G01 X71.0881 Y23.2685
G01 X71.1495 Y23.3513
G01 X71.2187 Y23.4277
G01 X71.2951 Y23.4969
G01 X71.3778 Y23.5582
G01 X71.4662 Y23.6112
G01 X71.5594 Y23.6553
G01 X71.6564 Y23.6900
G01 X71.7563 Y23.7150
G01 X71.8583 Y23.7301
G01 X71.9612 Y23.7352
G01 X72.0641 Y23.7301
G01 X72.1660 Y23.7150
G01 X72.2660 Y23.6900
G01 X72.3630 Y23.6553
G01 X72.4562 Y23.6112
G01 X72.5445 Y23.5582
G01 X72.6273 Y23.4969
G01 X72.7036 Y23.4277
G01 X72.7728 Y23.3513
G01 X72.8342 Y23.2685
G01 X72.8872 Y23.1802
G01 X72.9313 Y23.0870
G01 X72.9660 Y22.9900
G01 X72.9910 Y22.8900
G01 X73.0061 Y22.7881
G01 X73.0111 Y22.6827
G00 Z2.0000
G00 X74.5351 Y23.7370
G01 F60.00
G01 Z-0.0500
G01 F120.00
G01 X74.6689 Y23.7239
G01 X74.8004 Y23.6938
G01 X74.9270 Y23.6472
G01 X75.0468 Y23.5852
G01 X75.1573 Y23.5081
G01 X75.2571 Y23.4174
G01 X75.3444 Y23.3146
G01 X75.4181 Y23.2017
G01 X75.4763 Y23.0799
G01 X75.5190 Y22.9519
G01 X75.5447 Y22.8200
G01 X75.5534 Y22.6852
G01 X75.5447 Y22.5504
G01 X75.5190 Y22.4185
G01 X75.4763 Y22.2904
G01 X75.4181 Y22.1687
G01 X75.3444 Y22.0558
G01 X75.2571 Y21.9529
G01 X75.1573 Y21.8623
G01 X75.0468 Y21.7852
G01 X74.9270 Y21.7232
G01 X74.8004 Y21.6766
G01 X74.6689 Y21.6465
G01 X74.5351 Y21.6334
G01 X74.4003 Y21.6378
G01 X74.2669 Y21.6591
G01 X74.1380 Y21.6974
G01 X74.0143 Y21.7522
G01 X73.8990 Y21.8220
G01 X73.7937 Y21.9064
G01 X73.7001 Y22.0030
G01 X73.6191 Y22.1111
G01 X73.5532 Y22.2284
G01 X73.5023 Y22.3535
G01 X73.4683 Y22.4839
G01 X73.4509 Y22.6178
G01 X73.4509 Y22.7526
G01 X73.4683 Y22.8865
G01 X73.5023 Y23.0169
G01 X73.5532 Y23.1420
G01 X73.6191 Y23.2593
G01 X73.7001 Y23.3674
G01 X73.7937 Y23.4640
G01 X73.8990 Y23.5484
G01 X74.0143 Y23.6182
G01 X74.1380 Y23.6730
G01 X74.2669 Y23.7113
G01 X74.4003 Y23.7326
G01 X74.5351 Y23.7370
G00 Z2.0000
G00 X75.5511 Y22.6827
G01 F60.00
G01 Z-0.0500
G01 F120.00
G01 X75.5461 Y22.5823
G01 X75.5310 Y22.4803
G01 X75.5060 Y22.3804
G01 X75.4713 Y22.2834
G01 X75.4272 Y22.1902
G01 X75.3742 Y22.1018
G01 X75.3128 Y22.0191
G01 X75.2436 Y21.9427
G01 X75.1673 Y21.8735
G01 X75.0845 Y21.8121
G01 X74.9962 Y21.7592
G01 X74.9030 Y21.7151
G01 X74.8060 Y21.6804
G01 X74.7060 Y21.6554
G01 X74.6041 Y21.6402
G01 X74.5012 Y21.6352
G01 X74.3983 Y21.6402
G01 X74.2963 Y21.6554
G01 X74.1964 Y21.6804
G01 X74.0994 Y21.7151
G01 X74.0062 Y21.7592
G01 X73.9178 Y21.8121
G01 X73.8351 Y21.8735
G01 X73.7587 Y21.9427
G01 X73.6895 Y22.0191
G01 X73.6281 Y22.1018
G01 X73.5752 Y22.1902
G01 X73.5311 Y22.2834
G01 X73.4964 Y22.3804
G01 X73.4714 Y22.4803
G01 X73.4562 Y22.5823
G01 X73.4512 Y22.6852
G01 X73.4562 Y22.7881
G01 X73.4714 Y22.8900
G01 X73.4964 Y22.9900
G01 X73.5311 Y23.0870
G01 X73.5752 Y23.1802
G01 X73.6281 Y23.2685
G01 X73.6895 Y23.3513
G01 X73.7587 Y23.4277
G01 X73.8351 Y23.4969
G01 X73.9178 Y23.5582
G01 X74.0062 Y23.6112
G01 X74.0994 Y23.6553
G01 X74.1964 Y23.6900
G01 X74.2963 Y23.7150
G01 X74.3983 Y23.7301
G01 X74.5012 Y23.7352
G01 X74.6041 Y23.7301
G01 X74.7060 Y23.7150
G01 X74.8060 Y23.6900
G01 X74.9030 Y23.6553
G01 X74.9962 Y23.6112
G01 X75.0845 Y23.5582
G01 X75.1673 Y23.4969
G01 X75.2436 Y23.4277
G01 X75.3128 Y23.3513
G01 X75.3742 Y23.2685
G01 X75.4272 Y23.1802
G01 X75.4713 Y23.0870
G01 X75.5060 Y22.9900
G01 X75.5310 Y22.8900
G01 X75.5461 Y22.7881
G01 X75.5511 Y22.6827
G00 Z2.0000
G00 X77.0751 Y23.7370
G01 F60.00
G01 Z-0.0500
G01 F120.00
G01 X77.2089 Y23.7239
G01 X77.3404 Y23.6938
G01 X77.4670 Y23.6472
G01 X77.5868 Y23.5852
G01 X77.6973 Y23.5081
G01 X77.7971 Y23.4174
G01 X77.8844 Y23.3146
G01 X77.9581 Y23.2017
G01 X78.0163 Y23.0799
G01 X78.0590 Y22.9519
G01 X78.0847 Y22.8200
G01 X78.0934 Y22.6852
G01 X78.0847 Y22.5504
G01 X78.0590 Y22.4185
G01 X78.0163 Y22.2904
G01 X77.9581 Y22.1687
G01 X77.8844 Y22.0558
G01 X77.7971 Y21.9529
G01 X77.6973 Y21.8623
G01 X77.5868 Y21.7852
G01 X77.4670 Y21.7232
G01 X77.3404 Y21.6766
G01 X77.2089 Y21.6465
G01 X77.0751 Y21.6334
G01 X76.9403 Y21.6378
G01 X76.8069 Y21.6591
G01 X76.6780 Y21.6974
G01 X76.5543 Y21.7522
G01 X76.4390 Y21.8220
G01 X76.3337 Y21.9064
G01 X76.2401 Y22.0030
G01 X76.1591 Y22.1111
G01 X76.0932 Y22.2284
G01 X76.0423 Y22.3535
G01 X76.0083 Y22.4839
G01 X75.9909 Y22.6178
G01 X75.9909 Y22.7526
G01 X76.0083 Y22.8865
G01 X76.0423 Y23.0169
G01 X76.0932 Y23.1420
G01 X76.1591 Y23.2593
G01 X76.2401 Y23.3674
G01 X76.3337 Y23.4640
G01 X76.4390 Y23.5484
G01 X76.5543 Y23.6182
G01 X76.6780 Y23.6730
G01 X76.8069 Y23.7113
G01 X76.9403 Y23.7326
G01 X77.0751 Y23.7370
G00 Z2.0000
G00 X78.0911 Y22.6827
G01 F60.00
G01 Z-0.0500
G01 F120.00
G01 X78.0861 Y22.5823
G01 X78.0710 Y22.4803
G01 X78.0460 Y22.3804
G01 X78.0113 Y22.2834
G01 X77.9672 Y22.1902
G01 X77.9142 Y22.1018
G01 X77.8528 Y22.0191
G01 X77.7836 Y21.9427
G01 X77.7073 Y21.8735
G01 X77.6245 Y21.8121
G01 X77.5362 Y21.7592
G01 X77.4430 Y21.7151
G01 X77.3460 Y21.6804
G01 X77.2460 Y21.6554
G01 X77.1441 Y21.6402
G01 X77.0412 Y21.6352
G01 X76.9383 Y21.6402
G01 X76.8363 Y21.6554
G01 X76.7364 Y21.6804
G01 X76.6394 Y21.7151
G01 X76.5462 Y21.7592
G01 X76.4578 Y21.8121
G01 X76.3751 Y21.8735
G01 X76.2987 Y21.9427
G01 X76.2295 Y22.0191
G01 X76.1681 Y22.1018
G01 X76.1152 Y22.1902
G01 X76.0711 Y22.2834
G01 X76.0364 Y22.3804
G01 X76.0114 Y22.4803
G01 X75.9962 Y22.5823
G01 X75.9912 Y22.6852
G01 X75.9962 Y22.7881
G01 X76.0114 Y22.8900
G01 X76.0364 Y22.9900
G01 X76.0711 Y23.0870
G01 X76.1152 Y23.1802
G01 X76.1681 Y23.2685
G01 X76.2295 Y23.3513
G01 X76.2987 Y23.4277
G01 X76.3751 Y23.4969
G01 X76.4578 Y23.5582
G01 X76.5462 Y23.6112
G01 X76.6394 Y23.6553
G01 X76.7364 Y23.6900
G01 X76.8363 Y23.7150
G01 X76.9383 Y23.7301
G01 X77.0412 Y23.7352
G01 X77.1441 Y23.7301
G01 X77.2460 Y23.7150
G01 X77.3460 Y23.6900
G01 X77.4430 Y23.6553
G01 X77.5362 Y23.6112
G01 X77.6245 Y23.5582
G01 X77.7073 Y23.4969
G01 X77.7836 Y23.4277
G01 X77.8528 Y23.3513
G01 X77.9142 Y23.2685
G01 X77.9672 Y23.1802
G01 X78.0113 Y23.0870
G01 X78.0460 Y22.9900
G01 X78.0710 Y22.8900
G01 X78.0861 Y22.7881
G01 X78.0911 Y22.6827
G00 Z2.0000
G00 X79.6151 Y23.7370
G01 F60.00
G01 Z-0.0500
G01 F120.00
G01 X79.7489 Y23.7239
G01 X79.8804 Y23.6938
G01 X80.0070 Y23.6472
G01 X80.1268 Y23.5852
G01 X80.2373 Y23.5081
G01 X80.3371 Y23.4174
G01 X80.4244 Y23.3146
G01 X80.4981 Y23.2017
G01 X80.5563 Y23.0799
G01 X80.5990 Y22.9519
G01 X80.6247 Y22.8200
G01 X80.6334 Y22.6852
G01 X80.6247 Y22.5504
G01 X80.5990 Y22.4185
G01 X80.5563 Y22.2904
G01 X80.4981 Y22.1687
G01 X80.4244 Y22.0558
G01 X80.3371 Y21.9529
G01 X80.2373 Y21.8623
G01 X80.1268 Y21.7852
G01 X80.0070 Y21.7232
G01 X79.8804 Y21.6766
G01 X79.7489 Y21.6465
G01 X79.6151 Y21.6334
G01 X79.4803 Y21.6378
G01 X79.3469 Y21.6591
G01 X79.2180 Y21.6974
G01 X79.0943 Y21.7522
G01 X78.9790 Y21.8220
G01 X78.8737 Y21.9064
G01 X78.7801 Y22.0030
G01 X78.6991 Y22.1111
G01 X78.6332 Y22.2284
G01 X78.5823 Y22.3535
G01 X78.5483 Y22.4839
G01 X78.5309 Y22.6178
G01 X78.5309 Y22.7526
G01 X78.5483 Y22.8865
G01 X78.5823 Y23.0169
G01 X78.6332 Y23.1420
G01 X78.6991 Y23.2593
G01 X78.7801 Y23.3674
G01 X78.8737 Y23.4640
G01 X78.9790 Y23.5484
G01 X79.0943 Y23.6182
G01 X79.2180 Y23.6730
G01 X79.3469 Y23.7113
G01 X79.4803 Y23.7326
G01 X79.6151 Y23.7370
G00 Z2.0000
G00 X80.6311 Y22.6827
G01 F60.00
G01 Z-0.0500
G01 F120.00
G01 X80.6261 Y22.5823
G01 X80.6110 Y22.4803
G01 X80.5860 Y22.3804
G01 X80.5513 Y22.2834
G01 X80.5072 Y22.1902
G01 X80.4542 Y22.1018
G01 X80.3928 Y22.0191
G01 X80.3236 Y21.9427
G01 X80.2473 Y21.8735
G01 X80.1645 Y21.8121
G01 X80.0762 Y21.7592
G01 X79.9830 Y21.7151
G01 X79.8860 Y21.6804
G01 X79.7860 Y21.6554
G01 X79.6841 Y21.6402
G01 X79.5812 Y21.6352
G01 X79.4783 Y21.6402
G01 X79.3763 Y21.6554
G01 X79.2764 Y21.6804
G01 X79.1794 Y21.7151
G01 X79.0862 Y21.7592
G01 X78.9978 Y21.8121
G01 X78.9151 Y21.8735
G01 X78.8387 Y21.9427
G01 X78.7695 Y22.0191
G01 X78.7081 Y22.1018
G01 X78.6552 Y22.1902
G01 X78.6111 Y22.2834
G01 X78.5764 Y22.3804
G01 X78.5514 Y22.4803
G01 X78.5362 Y22.5823
G01 X78.5312 Y22.6852
G01 X78.5362 Y22.7881
G01 X78.5514 Y22.8900
G01 X78.5764 Y22.9900
G01 X78.6111 Y23.0870
G01 X78.6552 Y23.1802
G01 X78.7081 Y23.2685
G01 X78.7695 Y23.3513
G01 X78.8387 Y23.4277
G01 X78.9151 Y23.4969
G01 X78.9978 Y23.5582
G01 X79.0862 Y23.6112
G01 X79.1794 Y23.6553
G01 X79.2764 Y23.6900
G01 X79.3763 Y23.7150
G01 X79.4783 Y23.7301
G01 X79.5812 Y23.7352
G01 X79.6841 Y23.7301
G01 X79.7860 Y23.7150
G01 X79.8860 Y23.6900
G01 X79.9830 Y23.6553
G01 X80.0762 Y23.6112
G01 X80.1645 Y23.5582
G01 X80.2473 Y23.4969
G01 X80.3236 Y23.4277
G01 X80.3928 Y23.3513
G01 X80.4542 Y23.2685
G01 X80.5072 Y23.1802
G01 X80.5513 Y23.0870
G01 X80.5860 Y22.9900
G01 X80.6110 Y22.8900
G01 X80.6261 Y22.7881
G01 X80.6311 Y22.6827
G00 Z2.0000
G00 X82.1551 Y23.7370
G01 F60.00
G01 Z-0.0500
G01 F120.00
G01 X82.2889 Y23.7239
G01 X82.4204 Y23.6938
G01 X82.5470 Y23.6472
G01 X82.6668 Y23.5852
G01 X82.7773 Y23.5081
G01 X82.8771 Y23.4174
G01 X82.9644 Y23.3146
G01 X83.0381 Y23.2017
G01 X83.0963 Y23.0799
G01 X83.1390 Y22.9519
G01 X83.1647 Y22.8200
G01 X83.1734 Y22.6852
G01 X83.1647 Y22.5504
G01 X83.1390 Y22.4185
G01 X83.0963 Y22.2904
G01 X83.0381 Y22.1687
G01 X82.9644 Y22.0558
G01 X82.8771 Y21.9529
G01 X82.7773 Y21.8623
G01 X82.6668 Y21.7852
G01 X82.5470 Y21.7232
G01 X82.4204 Y21.6766
G01 X82.2889 Y21.6465
G01 X82.1551 Y21.6334
G01 X82.0203 Y21.6378
G01 X81.8869 Y21.6591
G01 X81.7580 Y21.6974
G01 X81.6343 Y21.7522
G01 X81.5190 Y21.8220
G01 X81.4137 Y21.9064
G01 X81.3201 Y22.0030
G01 X81.2391 Y22.1111
G01 X81.1732 Y22.2284
G01 X81.1223 Y22.3535
G01 X81.0883 Y22.4839
G01 X81.0709 Y22.6178
G01 X81.0709 Y22.7526
G01 X81.0883 Y22.8865
G01 X81.1223 Y23.0169
G01 X81.1732 Y23.1420
G01 X81.2391 Y23.2593
G01 X81.3201 Y23.3674
G01 X81.4137 Y23.4640
G01 X81.5190 Y23.5484
G01 X81.6343 Y23.6182
G01 X81.7580 Y23.6730
G01 X81.8869 Y23.7113
G01 X82.0203 Y23.7326
G01 X82.1551 Y23.7370
G00 Z2.0000
G00 X83.1711 Y22.6827
G01 F60.00
G01 Z-0.0500
G01 F120.00
G01 X83.1661 Y22.5823
G01 X83.1510 Y22.4803
G01 X83.1260 Y22.3804
G01 X83.0913 Y22.2834
G01 X83.0472 Y22.1902
G01 X82.9942 Y22.1018
G01 X82.9328 Y22.0191
G01 X82.8636 Y21.9427
G01 X82.7873 Y21.8735
G01 X82.7045 Y21.8121
G01 X82.6162 Y21.7592
G01 X82.5230 Y21.7151
G01 X82.4260 Y21.6804
G01 X82.3260 Y21.6554
G01 X82.2241 Y21.6402
G01 X82.1212 Y21.6352
G01 X82.0183 Y21.6402
G01 X81.9163 Y21.6554
G01 X81.8164 Y21.6804
G01 X81.7194 Y21.7151
G01 X81.6262 Y21.7592
G01 X81.5378 Y21.8121
G01 X81.4551 Y21.8735
G01 X81.3787 Y21.9427
G01 X81.3095 Y22.0191
G01 X81.2481 Y22.1018
G01 X81.1952 Y22.1902
G01 X81.1511 Y22.2834
G01 X81.1164 Y22.3804
G01 X81.0914 Y22.4803
G01 X81.0762 Y22.5823
G01 X81.0712 Y22.6852
G01 X81.0762 Y22.7881
G01 X81.0914 Y22.8900
G01 X81.1164 Y22.9900
G01 X81.1511 Y23.0870
G01 X81.1952 Y23.1802
G01 X81.2481 Y23.2685
G01 X81.3095 Y23.3513
G01 X81.3787 Y23.4277
G01 X81.4551 Y23.4969
G01 X81.5378 Y23.5582
G01 X81.6262 Y23.6112
G01 X81.7194 Y23.6553
G01 X81.8164 Y23.6900
G01 X81.9163 Y23.7150
G01 X82.0183 Y23.7301
G01 X82.1212 Y23.7352
G01 X82.2241 Y23.7301
G01 X82.3260 Y23.7150
G01 X82.4260 Y23.6900
G01 X82.5230 Y23.6553
G01 X82.6162 Y23.6112
G01 X82.7045 Y23.5582
G01 X82.7873 Y23.4969
G01 X82.8636 Y23.4277
G01 X82.9328 Y23.3513
G01 X82.9942 Y23.2685
G01 X83.0472 Y23.1802
G01 X83.0913 Y23.0870
G01 X83.1260 Y22.9900
G01 X83.1510 Y22.8900
G01 X83.1661 Y22.7881
G01 X83.1711 Y22.6827
G00 Z2.0000
G00 X84.6951 Y23.7370
G01 F60.00
G01 Z-0.0500
G01 F120.00
G01 X84.8289 Y23.7239
G01 X84.9604 Y23.6938
G01 X85.0870 Y23.6472
G01 X85.2068 Y23.5852
G01 X85.3173 Y23.5081
G01 X85.4171 Y23.4174
G01 X85.5044 Y23.3146
G01 X85.5781 Y23.2017
G01 X85.6363 Y23.0799
G01 X85.6790 Y22.9519
G01 X85.7047 Y22.8200
G01 X85.7134 Y22.6852
G01 X85.7047 Y22.5504
G01 X85.6790 Y22.4185
G01 X85.6363 Y22.2904
G01 X85.5781 Y22.1687
G01 X85.5044 Y22.0558
G01 X85.4171 Y21.9529
G01 X85.3173 Y21.8623
G01 X85.2068 Y21.7852
G01 X85.0870 Y21.7232
G01 X84.9604 Y21.6766
G01 X84.8289 Y21.6465
G01 X84.6951 Y21.6334
G01 X84.5603 Y21.6378
G01 X84.4269 Y21.6591
G01 X84.2980 Y21.6974
G01 X84.1743 Y21.7522
G01 X84.0590 Y21.8220
G01 X83.9537 Y21.9064
G01 X83.8601 Y22.0030
G01 X83.7791 Y22.1111
G01 X83.7132 Y22.2284
G01 X83.6623 Y22.3535
G01 X83.6283 Y22.4839
G01 X83.6109 Y22.6178
G01 X83.6109 Y22.7526
G01 X83.6283 Y22.8865
G01 X83.6623 Y23.0169
G01 X83.7132 Y23.1420
G01 X83.7791 Y23.2593
G01 X83.8601 Y23.3674
G01 X83.9537 Y23.4640
G01 X84.0590 Y23.5484
G01 X84.1743 Y23.6182
G01 X84.2980 Y23.6730
G01 X84.4269 Y23.7113
G01 X84.5603 Y23.7326
G01 X84.6951 Y23.7370
G00 Z2.0000
G00 X85.7111 Y22.6827
G01 F60.00
G01 Z-0.0500
G01 F120.00
G01 X85.7061 Y22.5823
G01 X85.6910 Y22.4803
G01 X85.6660 Y22.3804
G01 X85.6313 Y22.2834
G01 X85.5872 Y22.1902
G01 X85.5342 Y22.1018
G01 X85.4728 Y22.0191
G01 X85.4036 Y21.9427
G01 X85.3273 Y21.8735
G01 X85.2445 Y21.8121
G01 X85.1562 Y21.7592
G01 X85.0630 Y21.7151
G01 X84.9660 Y21.6804
G01 X84.8660 Y21.6554
G01 X84.7641 Y21.6402
G01 X84.6612 Y21.6352
G01 X84.5583 Y21.6402
G01 X84.4563 Y21.6554
G01 X84.3564 Y21.6804
G01 X84.2594 Y21.7151
G01 X84.1662 Y21.7592
G01 X84.0778 Y21.8121
G01 X83.9951 Y21.8735
G01 X83.9187 Y21.9427
G01 X83.8495 Y22.0191
G01 X83.7881 Y22.1018
G01 X83.7352 Y22.1902
G01 X83.6911 Y22.2834
G01 X83.6564 Y22.3804
G01 X83.6314 Y22.4803
G01 X83.6162 Y22.5823
G01 X83.6112 Y22.6852
G01 X83.6162 Y22.7881
G01 X83.6314 Y22.8900
G01 X83.6564 Y22.9900
G01 X83.6911 Y23.0870
G01 X83.7352 Y23.1802
G01 X83.7881 Y23.2685
G01 X83.8495 Y23.3513
G01 X83.9187 Y23.4277
G01 X83.9951 Y23.4969
G01 X84.0778 Y23.5582
G01 X84.1662 Y23.6112
G01 X84.2594 Y23.6553
G01 X84.3564 Y23.6900
G01 X84.4563 Y23.7150
G01 X84.5583 Y23.7301
G01 X84.6612 Y23.7352
G01 X84.7641 Y23.7301
G01 X84.8660 Y23.7150
G01 X84.9660 Y23.6900
G01 X85.0630 Y23.6553
G01 X85.1562 Y23.6112
G01 X85.2445 Y23.5582
G01 X85.3273 Y23.4969
G01 X85.4036 Y23.4277
G01 X85.4728 Y23.3513
G01 X85.5342 Y23.2685
G01 X85.5872 Y23.1802
G01 X85.6313 Y23.0870
G01 X85.6660 Y22.9900
G01 X85.6910 Y22.8900
G01 X85.7061 Y22.7881
G01 X85.7111 Y22.6827
G00 Z2.0000
G00 X87.2351 Y23.7370
G01 F60.00
G01 Z-0.0500
G01 F120.00
G01 X87.3689 Y23.7239
G01 X87.5004 Y23.6938
G01 X87.6270 Y23.6472
G01 X87.7468 Y23.5852
G01 X87.8573 Y23.5081
G01 X87.9571 Y23.4174
G01 X88.0444 Y23.3146
G01 X88.1181 Y23.2017
G01 X88.1763 Y23.0799
G01 X88.2190 Y22.9519
G01 X88.2447 Y22.8200
G01 X88.2534 Y22.6852
G01 X88.2447 Y22.5504
G01 X88.2190 Y22.4185
G01 X88.1763 Y22.2904
G01 X88.1181 Y22.1687
G01 X88.0444 Y22.0558
G01 X87.9571 Y21.9529
G01 X87.8573 Y21.8623
G01 X87.7468 Y21.7852
G01 X87.6270 Y21.7232
G01 X87.5004 Y21.6766
G01 X87.3689 Y21.6465
G01 X87.2351 Y21.6334
G01 X87.1003 Y21.6378
G01 X86.9669 Y21.6591
G01 X86.8380 Y21.6974
G01 X86.7143 Y21.7522
G01 X86.5990 Y21.8220
G01 X86.4937 Y21.9064
G01 X86.4001 Y22.0030
G01 X86.3191 Y22.1111
G01 X86.2532 Y22.2284
G01 X86.2023 Y22.3535
G01 X86.1683 Y22.4839
G01 X86.1509 Y22.6178
G01 X86.1509 Y22.7526
G01 X86.1683 Y22.8865
G01 X86.2023 Y23.0169
G01 X86.2532 Y23.1420
G01 X86.3191 Y23.2593
G01 X86.4001 Y23.3674
G01 X86.4937 Y23.4640
G01 X86.5990 Y23.5484
G01 X86.7143 Y23.6182
G01 X86.8380 Y23.6730
G01 X86.9669 Y23.7113
G01 X87.1003 Y23.7326
G01 X87.2351 Y23.7370
G00 Z2.0000
G00 X88.2511 Y22.6827
G01 F60.00
G01 Z-0.0500
G01 F120.00
G01 X88.2461 Y22.5823
G01 X88.2310 Y22.4803
G01 X88.2060 Y22.3804
G01 X88.1713 Y22.2834
G01 X88.1272 Y22.1902
G01 X88.0742 Y22.1018
G01 X88.0128 Y22.0191
G01 X87.9436 Y21.9427
G01 X87.8673 Y21.8735
G01 X87.7845 Y21.8121
G01 X87.6962 Y21.7592
G01 X87.6030 Y21.7151
G01 X87.5060 Y21.6804
G01 X87.4060 Y21.6554
G01 X87.3041 Y21.6402
G01 X87.2012 Y21.6352
G01 X87.0983 Y21.6402
G01 X86.9963 Y21.6554
G01 X86.8964 Y21.6804
G01 X86.7994 Y21.7151
G01 X86.7062 Y21.7592
G01 X86.6178 Y21.8121
G01 X86.5351 Y21.8735
G01 X86.4587 Y21.9427
G01 X86.3895 Y22.0191
G01 X86.3281 Y22.1018
G01 X86.2752 Y22.1902
G01 X86.2311 Y22.2834
G01 X86.1964 Y22.3804
G01 X86.1714 Y22.4803
G01 X86.1562 Y22.5823
G01 X86.1512 Y22.6852
G01 X86.1562 Y22.7881
G01 X86.1714 Y22.8900
G01 X86.1964 Y22.9900
G01 X86.2311 Y23.0870
G01 X86.2752 Y23.1802
G01 X86.3281 Y23.2685
G01 X86.3895 Y23.3513
G01 X86.4587 Y23.4277
G01 X86.5351 Y23.4969
G01 X86.6178 Y23.5582
G01 X86.7062 Y23.6112
G01 X86.7994 Y23.6553
G01 X86.8964 Y23.6900
G01 X86.9963 Y23.7150
G01 X87.0983 Y23.7301
G01 X87.2012 Y23.7352
G01 X87.3041 Y23.7301
G01 X87.4060 Y23.7150
G01 X87.5060 Y23.6900
G01 X87.6030 Y23.6553
G01 X87.6962 Y23.6112
G01 X87.7845 Y23.5582
G01 X87.8673 Y23.4969
G01 X87.9436 Y23.4277
G01 X88.0128 Y23.3513
G01 X88.0742 Y23.2685
G01 X88.1272 Y23.1802
G01 X88.1713 Y23.0870
G01 X88.2060 Y22.9900
G01 X88.2310 Y22.8900
G01 X88.2461 Y22.7881
G01 X88.2511 Y22.6827
G00 Z2.0000
G00 X88.2521 Y26.4927
G01 F60.00
G01 Z-0.0500
G01 F120.00
G01 X88.2471 Y26.3923
G01 X88.2320 Y26.2903
G01 X88.2070 Y26.1904
G01 X88.1723 Y26.0934
G01 X88.1282 Y26.0002
G01 X88.0752 Y25.9118
G01 X88.0139 Y25.8291
G01 X87.9447 Y25.7527
G01 X87.8683 Y25.6835
G01 X87.7855 Y25.6221
G01 X87.6972 Y25.5692
G01 X87.6040 Y25.5251
G01 X87.5070 Y25.4904
G01 X87.4070 Y25.4654
G01 X87.3051 Y25.4502
G01 X87.2022 Y25.4452
G01 X87.0993 Y25.4502
G01 X86.9974 Y25.4654
G01 X86.8974 Y25.4904
G01 X86.8004 Y25.5251
G01 X86.7072 Y25.5692
G01 X86.6188 Y25.6221
G01 X86.5361 Y25.6835
G01 X86.4597 Y25.7527
G01 X86.3905 Y25.8291
G01 X86.3292 Y25.9118
G01 X86.2762 Y26.0002
G01 X86.2321 Y26.0934
G01 X86.1974 Y26.1904
G01 X86.1724 Y26.2903
G01 X86.1573 Y26.3923
G01 X86.1522 Y26.4952
G01 X86.1573 Y26.5981
G01 X86.1724 Y26.7000
G01 X86.1974 Y26.8000
G01 X86.2321 Y26.8970
G01 X86.2762 Y26.9902
G01 X86.3292 Y27.0785
G01 X86.3905 Y27.1613
G01 X86.4597 Y27.2377
G01 X86.5361 Y27.3069
G01 X86.6188 Y27.3682
G01 X86.7072 Y27.4212
G01 X86.8004 Y27.4653
G01 X86.8974 Y27.5000
G01 X86.9974 Y27.5250
G01 X87.0993 Y27.5401
G01 X87.2022 Y27.5452
G01 X87.3051 Y27.5401
G01 X87.4070 Y27.5250
G01 X87.5070 Y27.5000
G01 X87.6040 Y27.4653
G01 X87.6972 Y27.4212
G01 X87.7855 Y27.3682
G01 X87.8683 Y27.3069
G01 X87.9447 Y27.2377
G01 X88.0139 Y27.1613
G01 X88.0752 Y27.0785
G01 X88.1282 Y26.9902
G01 X88.1723 Y26.8970
G01 X88.2070 Y26.8000
G01 X88.2320 Y26.7000
G01 X88.2471 Y26.5981
G01 X88.2521 Y26.4927
G00 Z2.0000
G00 X87.1348 Y27.5455
G01 F60.00
G01 Z-0.0500
G01 F120.00
G01 X87.2696 Y27.5455
G01 X87.4035 Y27.5281
G01 X87.5339 Y27.4941
G01 X87.6590 Y27.4432
G01 X87.7763 Y27.3773
G01 X87.8844 Y27.2963
G01 X87.9810 Y27.2026
G01 X88.0654 Y27.0974
G01 X88.1352 Y26.9821
G01 X88.1900 Y26.8584
G01 X88.2283 Y26.7294
G01 X88.2496 Y26.5961
G01 X88.2540 Y26.4613
G01 X88.2409 Y26.3275
G01 X88.2108 Y26.1960
G01 X88.1642 Y26.0694
G01 X88.1022 Y25.9496
G01 X88.0251 Y25.8391
G01 X87.9344 Y25.7392
G01 X87.8316 Y25.6519
G01 X87.7187 Y25.5782
G01 X87.5969 Y25.5201
G01 X87.4689 Y25.4773
G01 X87.3370 Y25.4517
G01 X87.2022 Y25.4429
G01 X87.0674 Y25.4517
G01 X86.9355 Y25.4773
G01 X86.8074 Y25.5201
G01 X86.6857 Y25.5782
G01 X86.5728 Y25.6519
G01 X86.4700 Y25.7392
G01 X86.3793 Y25.8391
G01 X86.3022 Y25.9496
G01 X86.2402 Y26.0694
G01 X86.1936 Y26.1960
G01 X86.1635 Y26.3275
G01 X86.1504 Y26.4613
G01 X86.1548 Y26.5961
G01 X86.1761 Y26.7294
G01 X86.2144 Y26.8584
G01 X86.2692 Y26.9821
G01 X86.3390 Y27.0974
G01 X86.4234 Y27.2026
G01 X86.5200 Y27.2963
G01 X86.6281 Y27.3773
G01 X86.7454 Y27.4432
G01 X86.8705 Y27.4941
G01 X87.0009 Y27.5281
G01 X87.1348 Y27.5455
G00 Z2.0000
G00 X85.7121 Y26.4927
G01 F60.00
G01 Z-0.0500
G01 F120.00
G01 X85.7071 Y26.3923
G01 X85.6920 Y26.2903
G01 X85.6670 Y26.1904
G01 X85.6323 Y26.0934
G01 X85.5882 Y26.0002
G01 X85.5352 Y25.9118
G01 X85.4739 Y25.8291
G01 X85.4047 Y25.7527
G01 X85.3283 Y25.6835
G01 X85.2455 Y25.6221
G01 X85.1572 Y25.5692
G01 X85.0640 Y25.5251
G01 X84.9670 Y25.4904
G01 X84.8670 Y25.4654
G01 X84.7651 Y25.4502
G01 X84.6622 Y25.4452
G01 X84.5593 Y25.4502
G01 X84.4574 Y25.4654
G01 X84.3574 Y25.4904
G01 X84.2604 Y25.5251
G01 X84.1672 Y25.5692
G01 X84.0788 Y25.6221
G01 X83.9961 Y25.6835
G01 X83.9197 Y25.7527
G01 X83.8505 Y25.8291
G01 X83.7892 Y25.9118
G01 X83.7362 Y26.0002
G01 X83.6921 Y26.0934
G01 X83.6574 Y26.1904
G01 X83.6324 Y26.2903
G01 X83.6173 Y26.3923
G01 X83.6122 Y26.4952
G01 X83.6173 Y26.5981
G01 X83.6324 Y26.7000
G01 X83.6574 Y26.8000
G01 X83.6921 Y26.8970
G01 X83.7362 Y26.9902
G01 X83.7892 Y27.0785
G01 X83.8505 Y27.1613
G01 X83.9197 Y27.2377
G01 X83.9961 Y27.3069
G01 X84.0788 Y27.3682
G01 X84.1672 Y27.4212
G01 X84.2604 Y27.4653
G01 X84.3574 Y27.5000
G01 X84.4574 Y27.5250
G01 X84.5593 Y27.5401
G01 X84.6622 Y27.5452
G01 X84.7651 Y27.5401
G01 X84.8670 Y27.5250
G01 X84.9670 Y27.5000
G01 X85.0640 Y27.4653
G01 X85.1572 Y27.4212
G01 X85.2455 Y27.3682
G01 X85.3283 Y27.3069
G01 X85.4047 Y27.2377
G01 X85.4739 Y27.1613
G01 X85.5352 Y27.0785
G01 X85.5882 Y26.9902
G01 X85.6323 Y26.8970
G01 X85.6670 Y26.8000
G01 X85.6920 Y26.7000
G01 X85.7071 Y26.5981
G01 X85.7121 Y26.4927
G00 Z2.0000
G00 X84.5948 Y27.5455
G01 F60.00
G01 Z-0.0500
G01 F120.00
G01 X84.7296 Y27.5455
G01 X84.8635 Y27.5281
G01 X84.9939 Y27.4941
G01 X85.1190 Y27.4432
G01 X85.2363 Y27.3773
G01 X85.3444 Y27.2963
G01 X85.4410 Y27.2026
G01 X85.5254 Y27.0974
G01 X85.5952 Y26.9821
G01 X85.6500 Y26.8584
G01 X85.6883 Y26.7294
G01 X85.7096 Y26.5961
G01 X85.7140 Y26.4613
G01 X85.7009 Y26.3275
G01 X85.6708 Y26.1960
G01 X85.6242 Y26.0694
G01 X85.5622 Y25.9496
G01 X85.4851 Y25.8391
G01 X85.3944 Y25.7392
G01 X85.2916 Y25.6519
G01 X85.1787 Y25.5782
G01 X85.0569 Y25.5201
G01 X84.9289 Y25.4773
G01 X84.7970 Y25.4517
G01 X84.6622 Y25.4429
G01 X84.5274 Y25.4517
G01 X84.3955 Y25.4773
G01 X84.2674 Y25.5201
G01 X84.1457 Y25.5782
G01 X84.0328 Y25.6519
G01 X83.9300 Y25.7392
G01 X83.8393 Y25.8391
G01 X83.7622 Y25.9496
G01 X83.7002 Y26.0694
G01 X83.6536 Y26.1960
G01 X83.6235 Y26.3275
G01 X83.6104 Y26.4613
G01 X83.6148 Y26.5961
G01 X83.6361 Y26.7294
G01 X83.6744 Y26.8584
G01 X83.7292 Y26.9821
G01 X83.7990 Y27.0974
G01 X83.8834 Y27.2026
G01 X83.9800 Y27.2963
G01 X84.0881 Y27.3773
G01 X84.2054 Y27.4432
G01 X84.3305 Y27.4941
G01 X84.4609 Y27.5281
G01 X84.5948 Y27.5455
G00 Z2.0000
G00 X83.1721 Y26.4927
G01 F60.00
G01 Z-0.0500
G01 F120.00
G01 X83.1671 Y26.3923
G01 X83.1520 Y26.2903
G01 X83.1270 Y26.1904
G01 X83.0923 Y26.0934
G01 X83.0482 Y26.0002
G01 X82.9952 Y25.9118
G01 X82.9339 Y25.8291
G01 X82.8647 Y25.7527
G01 X82.7883 Y25.6835
G01 X82.7055 Y25.6221
G01 X82.6172 Y25.5692
G01 X82.5240 Y25.5251
G01 X82.4270 Y25.4904
G01 X82.3270 Y25.4654
G01 X82.2251 Y25.4502
G01 X82.1222 Y25.4452
G01 X82.0193 Y25.4502
G01 X81.9174 Y25.4654
G01 X81.8174 Y25.4904
G01 X81.7204 Y25.5251
G01 X81.6272 Y25.5692
G01 X81.5388 Y25.6221
G01 X81.4561 Y25.6835
G01 X81.3797 Y25.7527
G01 X81.3105 Y25.8291
G01 X81.2492 Y25.9118
G01 X81.1962 Y26.0002
G01 X81.1521 Y26.0934
G01 X81.1174 Y26.1904
G01 X81.0924 Y26.2903
G01 X81.0773 Y26.3923
G01 X81.0722 Y26.4952
G01 X81.0773 Y26.5981
G01 X81.0924 Y26.7000
G01 X81.1174 Y26.8000
G01 X81.1521 Y26.8970
G01 X81.1962 Y26.9902
G01 X81.2492 Y27.0785
G01 X81.3105 Y27.1613
G01 X81.3797 Y27.2377
G01 X81.4561 Y27.3069
G01 X81.5388 Y27.3682
G01 X81.6272 Y27.4212
G01 X81.7204 Y27.4653
G01 X81.8174 Y27.5000
G01 X81.9174 Y27.5250
G01 X82.0193 Y27.5401
G01 X82.1222 Y27.5452
G01 X82.2251 Y27.5401
G01 X82.3270 Y27.5250
G01 X82.4270 Y27.5000
G01 X82.5240 Y27.4653
G01 X82.6172 Y27.4212
G01 X82.7055 Y27.3682
G01 X82.7883 Y27.3069
G01 X82.8647 Y27.2377
G01 X82.9339 Y27.1613
G01 X82.9952 Y27.0785
G01 X83.0482 Y26.9902
G01 X83.0923 Y26.8970
G01 X83.1270 Y26.8000
G01 X83.1520 Y26.7000
G01 X83.1671 Y26.5981
G01 X83.1721 Y26.4927
G00 Z2.0000
G00 X82.0548 Y27.5455
G01 F60.00
G01 Z-0.0500
G01 F120.00
G01 X82.1896 Y27.5455
G01 X82.3235 Y27.5281
G01 X82.4539 Y27.4941
G01 X82.5790 Y27.4432
G01 X82.6963 Y27.3773
G01 X82.8044 Y27.2963
G01 X82.9010 Y27.2026
G01 X82.9854 Y27.0974
G01 X83.0552 Y26.9821
G01 X83.1100 Y26.8584
G01 X83.1483 Y26.7294
G01 X83.1696 Y26.5961
G01 X83.1740 Y26.4613
G01 X83.1609 Y26.3275
G01 X83.1308 Y26.1960
G01 X83.0842 Y26.0694
G01 X83.0222 Y25.9496
G01 X82.9451 Y25.8391
G01 X82.8544 Y25.7392
G01 X82.7516 Y25.6519
G01 X82.6387 Y25.5782
G01 X82.5169 Y25.5201
G01 X82.3889 Y25.4773
G01 X82.2570 Y25.4517
G01 X82.1222 Y25.4429
G01 X81.9874 Y25.4517
G01 X81.8555 Y25.4773
G01 X81.7274 Y25.5201
G01 X81.6057 Y25.5782
G01 X81.4928 Y25.6519
G01 X81.3900 Y25.7392
G01 X81.2993 Y25.8391
G01 X81.2222 Y25.9496
G01 X81.1602 Y26.0694
G01 X81.1136 Y26.1960
G01 X81.0835 Y26.3275
G01 X81.0704 Y26.4613
G01 X81.0748 Y26.5961
G01 X81.0961 Y26.7294
G01 X81.1344 Y26.8584
G01 X81.1892 Y26.9821
G01 X81.2590 Y27.0974
G01 X81.3434 Y27.2026
G01 X81.4400 Y27.2963
G01 X81.5481 Y27.3773
G01 X81.6654 Y27.4432
G01 X81.7905 Y27.4941
G01 X81.9209 Y27.5281
G01 X82.0548 Y27.5455
G00 Z2.0000
G00 X80.6321 Y26.4927
G01 F60.00
G01 Z-0.0500
G01 F120.00
G01 X80.6271 Y26.3923
G01 X80.6120 Y26.2903
G01 X80.5870 Y26.1904
G01 X80.5523 Y26.0934
G01 X80.5082 Y26.0002
G01 X80.4552 Y25.9118
G01 X80.3939 Y25.8291
G01 X80.3247 Y25.7527
G01 X80.2483 Y25.6835
G01 X80.1655 Y25.6221
G01 X80.0772 Y25.5692
G01 X79.9840 Y25.5251
G01 X79.8870 Y25.4904
G01 X79.7870 Y25.4654
G01 X79.6851 Y25.4502
G01 X79.5822 Y25.4452
G01 X79.4793 Y25.4502
G01 X79.3774 Y25.4654
G01 X79.2774 Y25.4904
G01 X79.1804 Y25.5251
G01 X79.0872 Y25.5692
G01 X78.9988 Y25.6221
G01 X78.9161 Y25.6835
G01 X78.8397 Y25.7527
G01 X78.7705 Y25.8291
G01 X78.7092 Y25.9118
G01 X78.6562 Y26.0002
G01 X78.6121 Y26.0934
G01 X78.5774 Y26.1904
G01 X78.5524 Y26.2903
G01 X78.5373 Y26.3923
G01 X78.5322 Y26.4952
G01 X78.5373 Y26.5981
G01 X78.5524 Y26.7000
G01 X78.5774 Y26.8000
G01 X78.6121 Y26.8970
G01 X78.6562 Y26.9902
G01 X78.7092 Y27.0785
G01 X78.7705 Y27.1613
G01 X78.8397 Y27.2377
G01 X78.9161 Y27.3069
G01 X78.9988 Y27.3682
G01 X79.0872 Y27.4212
G01 X79.1804 Y27.4653
G01 X79.2774 Y27.5000
G01 X79.3774 Y27.5250
G01 X79.4793 Y27.5401
G01 X79.5822 Y27.5452
G01 X79.6851 Y27.5401
G01 X79.7870 Y27.5250
G01 X79.8870 Y27.5000
G01 X79.9840 Y27.4653
G01 X80.0772 Y27.4212
G01 X80.1655 Y27.3682
G01 X80.2483 Y27.3069
G01 X80.3247 Y27.2377
G01 X80.3939 Y27.1613
G01 X80.4552 Y27.0785
G01 X80.5082 Y26.9902
G01 X80.5523 Y26.8970
G01 X80.5870 Y26.8000
G01 X80.6120 Y26.7000
G01 X80.6271 Y26.5981
G01 X80.6321 Y26.4927
G00 Z2.0000
G00 X79.5148 Y27.5455
G01 F60.00
G01 Z-0.0500
G01 F120.00
G01 X79.6496 Y27.5455
G01 X79.7835 Y27.5281
G01 X79.9139 Y27.4941
G01 X80.0390 Y27.4432
G01 X80.1563 Y27.3773
G01 X80.2644 Y27.2963
G01 X80.3610 Y27.2026
G01 X80.4454 Y27.0974
G01 X80.5152 Y26.9821
G01 X80.5700 Y26.8584
G01 X80.6083 Y26.7294
G01 X80.6296 Y26.5961
G01 X80.6340 Y26.4613
G01 X80.6209 Y26.3275
G01 X80.5908 Y26.1960
G01 X80.5442 Y26.0694
G01 X80.4822 Y25.9496
G01 X80.4051 Y25.8391
G01 X80.3144 Y25.7392
G01 X80.2116 Y25.6519
G01 X80.0987 Y25.5782
G01 X79.9769 Y25.5201
G01 X79.8489 Y25.4773
G01 X79.7170 Y25.4517
G01 X79.5822 Y25.4429
G01 X79.4474 Y25.4517
G01 X79.3155 Y25.4773
G01 X79.1874 Y25.5201
G01 X79.0657 Y25.5782
G01 X78.9528 Y25.6519
G01 X78.8500 Y25.7392
G01 X78.7593 Y25.8391
G01 X78.6822 Y25.9496
G01 X78.6202 Y26.0694
G01 X78.5736 Y26.1960
G01 X78.5435 Y26.3275
G01 X78.5304 Y26.4613
G01 X78.5348 Y26.5961
G01 X78.5561 Y26.7294
G01 X78.5944 Y26.8584
G01 X78.6492 Y26.9821
G01 X78.7190 Y27.0974
G01 X78.8034 Y27.2026
G01 X78.9000 Y27.2963
G01 X79.0081 Y27.3773
G01 X79.1254 Y27.4432
G01 X79.2505 Y27.4941
G01 X79.3809 Y27.5281
G01 X79.5148 Y27.5455
G00 Z2.0000
G00 X78.0921 Y26.4927
G01 F60.00
G01 Z-0.0500
G01 F120.00
G01 X78.0871 Y26.3923
G01 X78.0720 Y26.2903
G01 X78.0470 Y26.1904
G01 X78.0123 Y26.0934
G01 X77.9682 Y26.0002
G01 X77.9152 Y25.9118
G01 X77.8539 Y25.8291
G01 X77.7847 Y25.7527
G01 X77.7083 Y25.6835
G01 X77.6255 Y25.6221
G01 X77.5372 Y25.5692
G01 X77.4440 Y25.5251
G01 X77.3470 Y25.4904
G01 X77.2470 Y25.4654
G01 X77.1451 Y25.4502
G01 X77.0422 Y25.4452
G01 X76.9393 Y25.4502
G01 X76.8374 Y25.4654
G01 X76.7374 Y25.4904
G01 X76.6404 Y25.5251
G01 X76.5472 Y25.5692
G01 X76.4588 Y25.6221
G01 X76.3761 Y25.6835
G01 X76.2997 Y25.7527
G01 X76.2305 Y25.8291
G01 X76.1692 Y25.9118
G01 X76.1162 Y26.0002
G01 X76.0721 Y26.0934
G01 X76.0374 Y26.1904
G01 X76.0124 Y26.2903
G01 X75.9973 Y26.3923
G01 X75.9922 Y26.4952
G01 X75.9973 Y26.5981
G01 X76.0124 Y26.7000
G01 X76.0374 Y26.8000
G01 X76.0721 Y26.8970
G01 X76.1162 Y26.9902
G01 X76.1692 Y27.0785
G01 X76.2305 Y27.1613
G01 X76.2997 Y27.2377
G01 X76.3761 Y27.3069
G01 X76.4588 Y27.3682
G01 X76.5472 Y27.4212
G01 X76.6404 Y27.4653
G01 X76.7374 Y27.5000
G01 X76.8374 Y27.5250
G01 X76.9393 Y27.5401
G01 X77.0422 Y27.5452
G01 X77.1451 Y27.5401
G01 X77.2470 Y27.5250
G01 X77.3470 Y27.5000
G01 X77.4440 Y27.4653
G01 X77.5372 Y27.4212
G01 X77.6255 Y27.3682
G01 X77.7083 Y27.3069
G01 X77.7847 Y27.2377
G01 X77.8539 Y27.1613
G01 X77.9152 Y27.0785
G01 X77.9682 Y26.9902
G01 X78.0123 Y26.8970
G01 X78.0470 Y26.8000
G01 X78.0720 Y26.7000
G01 X78.0871 Y26.5981
G01 X78.0921 Y26.4927
G00 Z2.0000
G00 X76.9748 Y27.5455
G01 F60.00
G01 Z-0.0500
G01 F120.00
G01 X77.1096 Y27.5455
G01 X77.2435 Y27.5281
G01 X77.3739 Y27.4941
G01 X77.4990 Y27.4432
G01 X77.6163 Y27.3773
G01 X77.7244 Y27.2963
G01 X77.8210 Y27.2026
G01 X77.9054 Y27.0974
G01 X77.9752 Y26.9821
G01 X78.0300 Y26.8584
G01 X78.0683 Y26.7294
G01 X78.0896 Y26.5961
G01 X78.0940 Y26.4613
G01 X78.0809 Y26.3275
G01 X78.0508 Y26.1960
G01 X78.0042 Y26.0694
G01 X77.9422 Y25.9496
G01 X77.8651 Y25.8391
G01 X77.7744 Y25.7392
G01 X77.6716 Y25.6519
G01 X77.5587 Y25.5782
G01 X77.4369 Y25.5201
G01 X77.3089 Y25.4773
G01 X77.1770 Y25.4517
G01 X77.0422 Y25.4429
G01 X76.9074 Y25.4517
G01 X76.7755 Y25.4773
G01 X76.6474 Y25.5201
G01 X76.5257 Y25.5782
G01 X76.4128 Y25.6519
G01 X76.3100 Y25.7392
G01 X76.2193 Y25.8391
G01 X76.1422 Y25.9496
G01 X76.0802 Y26.0694
G01 X76.0336 Y26.1960
G01 X76.0035 Y26.3275
G01 X75.9904 Y26.4613
G01 X75.9948 Y26.5961
G01 X76.0161 Y26.7294
G01 X76.0544 Y26.8584
G01 X76.1092 Y26.9821
G01 X76.1790 Y27.0974
G01 X76.2634 Y27.2026
G01 X76.3600 Y27.2963
G01 X76.4681 Y27.3773
G01 X76.5854 Y27.4432
G01 X76.7105 Y27.4941
G01 X76.8409 Y27.5281
G01 X76.9748 Y27.5455
G00 Z2.0000
G00 X75.5521 Y26.4927
G01 F60.00
G01 Z-0.0500
G01 F120.00
G01 X75.5471 Y26.3923
G01 X75.5320 Y26.2903
G01 X75.5070 Y26.1904
G01 X75.4723 Y26.0934
G01 X75.4282 Y26.0002
G01 X75.3752 Y25.9118
G01 X75.3139 Y25.8291
G01 X75.2447 Y25.7527
G01 X75.1683 Y25.6835
G01 X75.0855 Y25.6221
G01 X74.9972 Y25.5692
G01 X74.9040 Y25.5251
G01 X74.8070 Y25.4904
G01 X74.7070 Y25.4654
G01 X74.6051 Y25.4502
G01 X74.5022 Y25.4452
G01 X74.3993 Y25.4502
G01 X74.2974 Y25.4654
G01 X74.1974 Y25.4904
G01 X74.1004 Y25.5251
G01 X74.0072 Y25.5692
G01 X73.9188 Y25.6221
G01 X73.8361 Y25.6835
G01 X73.7597 Y25.7527
G01 X73.6905 Y25.8291
G01 X73.6292 Y25.9118
G01 X73.5762 Y26.0002
G01 X73.5321 Y26.0934
G01 X73.4974 Y26.1904
G01 X73.4724 Y26.2903
G01 X73.4573 Y26.3923
G01 X73.4522 Y26.4952
G01 X73.4573 Y26.5981
G01 X73.4724 Y26.7000
G01 X73.4974 Y26.8000
G01 X73.5321 Y26.8970
G01 X73.5762 Y26.9902
G01 X73.6292 Y27.0785
G01 X73.6905 Y27.1613
G01 X73.7597 Y27.2377
G01 X73.8361 Y27.3069
G01 X73.9188 Y27.3682
G01 X74.0072 Y27.4212
G01 X74.1004 Y27.4653
G01 X74.1974 Y27.5000
G01 X74.2974 Y27.5250
G01 X74.3993 Y27.5401
G01 X74.5022 Y27.5452
G01 X74.6051 Y27.5401
G01 X74.7070 Y27.5250
G01 X74.8070 Y27.5000
G01 X74.9040 Y27.4653
G01 X74.9972 Y27.4212
G01 X75.0855 Y27.3682
G01 X75.1683 Y27.3069
G01 X75.2447 Y27.2377
G01 X75.3139 Y27.1613
G01 X75.3752 Y27.0785
G01 X75.4282 Y26.9902
G01 X75.4723 Y26.8970
G01 X75.5070 Y26.8000
G01 X75.5320 Y26.7000
G01 X75.5471 Y26.5981
G01 X75.5521 Y26.4927
G00 Z2.0000
G00 X74.4348 Y27.5455
G01 F60.00
G01 Z-0.0500
G01 F120.00
G01 X74.5696 Y27.5455
G01 X74.7035 Y27.5281
G01 X74.8339 Y27.4941
G01 X74.9590 Y27.4432
G01 X75.0763 Y27.3773
G01 X75.1844 Y27.2963
G01 X75.2810 Y27.2026
G01 X75.3654 Y27.0974
G01 X75.4352 Y26.9821
G01 X75.4900 Y26.8584
G01 X75.5283 Y26.7294
G01 X75.5496 Y26.5961
G01 X75.5540 Y26.4613
G01 X75.5409 Y26.3275
G01 X75.5108 Y26.1960
G01 X75.4642 Y26.0694
G01 X75.4022 Y25.9496
G01 X75.3251 Y25.8391
G01 X75.2344 Y25.7392
G01 X75.1316 Y25.6519
G01 X75.0187 Y25.5782
G01 X74.8969 Y25.5201
G01 X74.7689 Y25.4773
G01 X74.6370 Y25.4517
G01 X74.5022 Y25.4429
G01 X74.3674 Y25.4517
G01 X74.2355 Y25.4773
G01 X74.1074 Y25.5201
G01 X73.9857 Y25.5782
G01 X73.8728 Y25.6519
G01 X73.7700 Y25.7392
G01 X73.6793 Y25.8391
G01 X73.6022 Y25.9496
G01 X73.5402 Y26.0694
G01 X73.4936 Y26.1960
G01 X73.4635 Y26.3275
G01 X73.4504 Y26.4613
G01 X73.4548 Y26.5961
G01 X73.4761 Y26.7294
G01 X73.5144 Y26.8584
G01 X73.5692 Y26.9821
G01 X73.6390 Y27.0974
G01 X73.7234 Y27.2026
G01 X73.8200 Y27.2963
G01 X73.9281 Y27.3773
G01 X74.0454 Y27.4432
G01 X74.1705 Y27.4941
G01 X74.3009 Y27.5281
G01 X74.4348 Y27.5455
G00 Z2.0000
G00 X73.0121 Y26.4927
G01 F60.00
G01 Z-0.0500
G01 F120.00
G01 X73.0071 Y26.3923
G01 X72.9920 Y26.2903
G01 X72.9670 Y26.1904
G01 X72.9323 Y26.0934
G01 X72.8882 Y26.0002
G01 X72.8352 Y25.9118
G01 X72.7739 Y25.8291
G01 X72.7047 Y25.7527
G01 X72.6283 Y25.6835
G01 X72.5455 Y25.6221
G01 X72.4572 Y25.5692
G01 X72.3640 Y25.5251
G01 X72.2670 Y25.4904
G01 X72.1670 Y25.4654
G01 X72.0651 Y25.4502
G01 X71.9622 Y25.4452
G01 X71.8593 Y25.4502
G01 X71.7574 Y25.4654
G01 X71.6574 Y25.4904
G01 X71.5604 Y25.5251
G01 X71.4672 Y25.5692
G01 X71.3788 Y25.6221
G01 X71.2961 Y25.6835
G01 X71.2197 Y25.7527
G01 X71.1505 Y25.8291
G01 X71.0892 Y25.9118
G01 X71.0362 Y26.0002
G01 X70.9921 Y26.0934
G01 X70.9574 Y26.1904
G01 X70.9324 Y26.2903
G01 X70.9173 Y26.3923
G01 X70.9122 Y26.4952
G01 X70.9173 Y26.5981
G01 X70.9324 Y26.7000
G01 X70.9574 Y26.8000
G01 X70.9921 Y26.8970
G01 X71.0362 Y26.9902
G01 X71.0892 Y27.0785
G01 X71.1505 Y27.1613
G01 X71.2197 Y27.2377
G01 X71.2961 Y27.3069
G01 X71.3788 Y27.3682
G01 X71.4672 Y27.4212
G01 X71.5604 Y27.4653
G01 X71.6574 Y27.5000
G01 X71.7574 Y27.5250
G01 X71.8593 Y27.5401
G01 X71.9622 Y27.5452
G01 X72.0651 Y27.5401
G01 X72.1670 Y27.5250
G01 X72.2670 Y27.5000
G01 X72.3640 Y27.4653
G01 X72.4572 Y27.4212
G01 X72.5455 Y27.3682
G01 X72.6283 Y27.3069
G01 X72.7047 Y27.2377
G01 X72.7739 Y27.1613
G01 X72.8352 Y27.0785
G01 X72.8882 Y26.9902
G01 X72.9323 Y26.8970
G01 X72.9670 Y26.8000
G01 X72.9920 Y26.7000
G01 X73.0071 Y26.5981
G01 X73.0121 Y26.4927
G00 Z2.0000
G00 X71.8948 Y27.5455
G01 F60.00
G01 Z-0.0500
G01 F120.00
G01 X72.0296 Y27.5455
G01 X72.1635 Y27.5281
G01 X72.2939 Y27.4941
G01 X72.4190 Y27.4432
G01 X72.5363 Y27.3773
G01 X72.6444 Y27.2963
G01 X72.7410 Y27.2026
G01 X72.8254 Y27.0974
G01 X72.8952 Y26.9821
G01 X72.9500 Y26.8584
G01 X72.9883 Y26.7294
G01 X73.0096 Y26.5961
G01 X73.0140 Y26.4613
G01 X73.0009 Y26.3275
G01 X72.9708 Y26.1960
G01 X72.9242 Y26.0694
G01 X72.8622 Y25.9496
G01 X72.7851 Y25.8391
G01 X72.6944 Y25.7392
G01 X72.5916 Y25.6519
G01 X72.4787 Y25.5782
G01 X72.3569 Y25.5201
G01 X72.2289 Y25.4773
G01 X72.0970 Y25.4517
G01 X71.9622 Y25.4429
G01 X71.8274 Y25.4517
G01 X71.6955 Y25.4773
G01 X71.5674 Y25.5201
G01 X71.4457 Y25.5782
G01 X71.3328 Y25.6519
G01 X71.2300 Y25.7392
G01 X71.1393 Y25.8391
G01 X71.0622 Y25.9496
G01 X71.0002 Y26.0694
G01 X70.9536 Y26.1960
G01 X70.9235 Y26.3275
G01 X70.9104 Y26.4613
G01 X70.9148 Y26.5961
G01 X70.9361 Y26.7294
G01 X70.9744 Y26.8584
G01 X71.0292 Y26.9821
G01 X71.0990 Y27.0974
G01 X71.1834 Y27.2026
G01 X71.2800 Y27.2963
G01 X71.3881 Y27.3773
G01 X71.5054 Y27.4432
G01 X71.6305 Y27.4941
G01 X71.7609 Y27.5281
G01 X71.8948 Y27.5455
G00 Z2.0000
G00 X70.4721 Y26.4927
G01 F60.00
G01 Z-0.0500
G01 F120.00
G01 X70.4671 Y26.3923
G01 X70.4520 Y26.2903
G01 X70.4270 Y26.1904
G01 X70.3923 Y26.0934
G01 X70.3482 Y26.0002
G01 X70.2952 Y25.9118
G01 X70.2339 Y25.8291
G01 X70.1647 Y25.7527
G01 X70.0883 Y25.6835
G01 X70.0055 Y25.6221
G01 X69.9172 Y25.5692
G01 X69.8240 Y25.5251
G01 X69.7270 Y25.4904
G01 X69.6270 Y25.4654
G01 X69.5251 Y25.4502
G01 X69.4222 Y25.4452
G01 X69.3193 Y25.4502
G01 X69.2174 Y25.4654
G01 X69.1174 Y25.4904
G01 X69.0204 Y25.5251
G01 X68.9272 Y25.5692
G01 X68.8388 Y25.6221
G01 X68.7561 Y25.6835
G01 X68.6797 Y25.7527
G01 X68.6105 Y25.8291
G01 X68.5492 Y25.9118
G01 X68.4962 Y26.0002
G01 X68.4521 Y26.0934
G01 X68.4174 Y26.1904
G01 X68.3924 Y26.2903
G01 X68.3773 Y26.3923
G01 X68.3722 Y26.4952
G01 X68.3773 Y26.5981
G01 X68.3924 Y26.7000
G01 X68.4174 Y26.8000
G01 X68.4521 Y26.8970
G01 X68.4962 Y26.9902
G01 X68.5492 Y27.0785
G01 X68.6105 Y27.1613
G01 X68.6797 Y27.2377
G01 X68.7561 Y27.3069
G01 X68.8388 Y27.3682
G01 X68.9272 Y27.4212
G01 X69.0204 Y27.4653
G01 X69.1174 Y27.5000
G01 X69.2174 Y27.5250
G01 X69.3193 Y27.5401
G01 X69.4222 Y27.5452
G01 X69.5251 Y27.5401
G01 X69.6270 Y27.5250
G01 X69.7270 Y27.5000
G01 X69.8240 Y27.4653
G01 X69.9172 Y27.4212
G01 X70.0055 Y27.3682
G01 X70.0883 Y27.3069
G01 X70.1647 Y27.2377
G01 X70.2339 Y27.1613
G01 X70.2952 Y27.0785
G01 X70.3482 Y26.9902
G01 X70.3923 Y26.8970
G01 X70.4270 Y26.8000
G01 X70.4520 Y26.7000
G01 X70.4671 Y26.5981
G01 X70.4721 Y26.4927
G00 Z2.0000
G00 X69.3548 Y27.5455
G01 F60.00
G01 Z-0.0500
G01 F120.00
G01 X69.4896 Y27.5455
G01 X69.6235 Y27.5281
G01 X69.7539 Y27.4941
G01 X69.8790 Y27.4432
G01 X69.9963 Y27.3773
G01 X70.1044 Y27.2963
G01 X70.2010 Y27.2026
G01 X70.2854 Y27.0974
G01 X70.3552 Y26.9821
G01 X70.4100 Y26.8584
G01 X70.4483 Y26.7294
G01 X70.4696 Y26.5961
G01 X70.4740 Y26.4613
G01 X70.4609 Y26.3275
G01 X70.4308 Y26.1960
G01 X70.3842 Y26.0694
G01 X70.3222 Y25.9496
G01 X70.2451 Y25.8391
G01 X70.1544 Y25.7392
G01 X70.0516 Y25.6519
G01 X69.9387 Y25.5782
G01 X69.8169 Y25.5201
G01 X69.6889 Y25.4773
G01 X69.5570 Y25.4517
G01 X69.4222 Y25.4429
G01 X69.2874 Y25.4517
G01 X69.1555 Y25.4773
G01 X69.0274 Y25.5201
G01 X68.9057 Y25.5782
G01 X68.7928 Y25.6519
G01 X68.6900 Y25.7392
G01 X68.5993 Y25.8391
G01 X68.5222 Y25.9496
G01 X68.4602 Y26.0694
G01 X68.4136 Y26.1960
G01 X68.3835 Y26.3275
G01 X68.3704 Y26.4613
G01 X68.3748 Y26.5961
G01 X68.3961 Y26.7294
G01 X68.4344 Y26.8584
G01 X68.4892 Y26.9821
G01 X68.5590 Y27.0974
G01 X68.6434 Y27.2026
G01 X68.7400 Y27.2963
G01 X68.8481 Y27.3773
G01 X68.9654 Y27.4432
G01 X69.0905 Y27.4941
G01 X69.2209 Y27.5281
G01 X69.3548 Y27.5455
G00 Z2.0000
G00 X65.3921 Y26.4927
G01 F60.00
G01 Z-0.0500
G01 F120.00
G01 X65.3871 Y26.3923
G01 X65.3720 Y26.2903
G01 X65.3470 Y26.1904
G01 X65.3123 Y26.0934
G01 X65.2682 Y26.0002
G01 X65.2152 Y25.9118
G01 X65.1539 Y25.8291
G01 X65.0847 Y25.7527
G01 X65.0083 Y25.6835
G01 X64.9255 Y25.6221
G01 X64.8372 Y25.5692
G01 X64.7440 Y25.5251
G01 X64.6470 Y25.4904
G01 X64.5470 Y25.4654
G01 X64.4451 Y25.4502
G01 X64.3422 Y25.4452
G01 X64.2393 Y25.4502
G01 X64.1374 Y25.4654
G01 X64.0374 Y25.4904
G01 X63.9404 Y25.5251
G01 X63.8472 Y25.5692
G01 X63.7588 Y25.6221
G01 X63.6761 Y25.6835
G01 X63.5997 Y25.7527
G01 X63.5305 Y25.8291
G01 X63.4692 Y25.9118
G01 X63.4162 Y26.0002
G01 X63.3721 Y26.0934
G01 X63.3374 Y26.1904
G01 X63.3124 Y26.2903
G01 X63.2973 Y26.3923
G01 X63.2922 Y26.4952
G01 X63.2973 Y26.5981
G01 X63.3124 Y26.7000
G01 X63.3374 Y26.8000
G01 X63.3721 Y26.8970
G01 X63.4162 Y26.9902
G01 X63.4692 Y27.0785
G01 X63.5305 Y27.1613
G01 X63.5997 Y27.2377
G01 X63.6761 Y27.3069
G01 X63.7588 Y27.3682
G01 X63.8472 Y27.4212
G01 X63.9404 Y27.4653
G01 X64.0374 Y27.5000
G01 X64.1374 Y27.5250
G01 X64.2393 Y27.5401
G01 X64.3422 Y27.5452
G01 X64.4451 Y27.5401
G01 X64.5470 Y27.5250
G01 X64.6470 Y27.5000
G01 X64.7440 Y27.4653
G01 X64.8372 Y27.4212
G01 X64.9255 Y27.3682
G01 X65.0083 Y27.3069
G01 X65.0847 Y27.2377
G01 X65.1539 Y27.1613
G01 X65.2152 Y27.0785
G01 X65.2682 Y26.9902
G01 X65.3123 Y26.8970
G01 X65.3470 Y26.8000
G01 X65.3720 Y26.7000
G01 X65.3871 Y26.5981
G01 X65.3921 Y26.4927
G00 Z2.0000
G00 X64.2748 Y27.5455
G01 F60.00
G01 Z-0.0500
G01 F120.00
G01 X64.4096 Y27.5455
G01 X64.5435 Y27.5281
G01 X64.6739 Y27.4941
G01 X64.7990 Y27.4432
G01 X64.9163 Y27.3773
G01 X65.0244 Y27.2963
G01 X65.1210 Y27.2026
G01 X65.2054 Y27.0974
G01 X65.2752 Y26.9821
G01 X65.3300 Y26.8584
G01 X65.3683 Y26.7294
G01 X65.3896 Y26.5961
G01 X65.3940 Y26.4613
G01 X65.3809 Y26.3275
G01 X65.3508 Y26.1960
G01 X65.3042 Y26.0694
G01 X65.2422 Y25.9496
G01 X65.1651 Y25.8391
G01 X65.0744 Y25.7392
G01 X64.9716 Y25.6519
G01 X64.8587 Y25.5782
G01 X64.7369 Y25.5201
G01 X64.6089 Y25.4773
G01 X64.4770 Y25.4517
G01 X64.3422 Y25.4429
G01 X64.2074 Y25.4517
G01 X64.0755 Y25.4773
G01 X63.9474 Y25.5201
G01 X63.8257 Y25.5782
G01 X63.7128 Y25.6519
G01 X63.6100 Y25.7392
G01 X63.5193 Y25.8391
G01 X63.4422 Y25.9496
G01 X63.3802 Y26.0694
G01 X63.3336 Y26.1960
G01 X63.3035 Y26.3275
G01 X63.2904 Y26.4613
G01 X63.2948 Y26.5961
G01 X63.3161 Y26.7294
G01 X63.3544 Y26.8584
G01 X63.4092 Y26.9821
G01 X63.4790 Y27.0974
G01 X63.5634 Y27.2026
G01 X63.6600 Y27.2963
G01 X63.7681 Y27.3773
G01 X63.8854 Y27.4432
G01 X64.0105 Y27.4941
G01 X64.1409 Y27.5281
G01 X64.2748 Y27.5455
G00 Z2.0000
G00 X62.8521 Y26.4927
G01 F60.00
G01 Z-0.0500
G01 F120.00
G01 X62.8471 Y26.3923
G01 X62.8320 Y26.2903
G01 X62.8070 Y26.1904
G01 X62.7723 Y26.0934
G01 X62.7282 Y26.0002
G01 X62.6752 Y25.9118
G01 X62.6139 Y25.8291
G01 X62.5447 Y25.7527
G01 X62.4683 Y25.6835
G01 X62.3855 Y25.6221
G01 X62.2972 Y25.5692
G01 X62.2040 Y25.5251
G01 X62.1070 Y25.4904
G01 X62.0070 Y25.4654
G01 X61.9051 Y25.4502
G01 X61.8022 Y25.4452
G01 X61.6993 Y25.4502
G01 X61.5974 Y25.4654
G01 X61.4974 Y25.4904
G01 X61.4004 Y25.5251
G01 X61.3072 Y25.5692
G01 X61.2188 Y25.6221
G01 X61.1361 Y25.6835
G01 X61.0597 Y25.7527
G01 X60.9905 Y25.8291
G01 X60.9292 Y25.9118
G01 X60.8762 Y26.0002
G01 X60.8321 Y26.0934
G01 X60.7974 Y26.1904
G01 X60.7724 Y26.2903
G01 X60.7573 Y26.3923
G01 X60.7522 Y26.4952
G01 X60.7573 Y26.5981
G01 X60.7724 Y26.7000
G01 X60.7974 Y26.8000
G01 X60.8321 Y26.8970
G01 X60.8762 Y26.9902
G01 X60.9292 Y27.0785
G01 X60.9905 Y27.1613
G01 X61.0597 Y27.2377
G01 X61.1361 Y27.3069
G01 X61.2188 Y27.3682
G01 X61.3072 Y27.4212
G01 X61.4004 Y27.4653
G01 X61.4974 Y27.5000
G01 X61.5974 Y27.5250
G01 X61.6993 Y27.5401
G01 X61.8022 Y27.5452
G01 X61.9051 Y27.5401
G01 X62.0070 Y27.5250
G01 X62.1070 Y27.5000
G01 X62.2040 Y27.4653
G01 X62.2972 Y27.4212
G01 X62.3855 Y27.3682
G01 X62.4683 Y27.3069
G01 X62.5447 Y27.2377
G01 X62.6139 Y27.1613
G01 X62.6752 Y27.0785
G01 X62.7282 Y26.9902
G01 X62.7723 Y26.8970
G01 X62.8070 Y26.8000
G01 X62.8320 Y26.7000
G01 X62.8471 Y26.5981
G01 X62.8521 Y26.4927
G00 Z2.0000
G00 X61.7348 Y27.5455
G01 F60.00
G01 Z-0.0500
G01 F120.00
G01 X61.8696 Y27.5455
G01 X62.0035 Y27.5281
G01 X62.1339 Y27.4941
G01 X62.2590 Y27.4432
G01 X62.3763 Y27.3773
G01 X62.4844 Y27.2963
G01 X62.5810 Y27.2026
G01 X62.6654 Y27.0974
G01 X62.7352 Y26.9821
G01 X62.7900 Y26.8584
G01 X62.8283 Y26.7294
G01 X62.8496 Y26.5961
G01 X62.8540 Y26.4613
G01 X62.8409 Y26.3275
G01 X62.8108 Y26.1960
G01 X62.7642 Y26.0694
G01 X62.7022 Y25.9496
G01 X62.6251 Y25.8391
G01 X62.5344 Y25.7392
G01 X62.4316 Y25.6519
G01 X62.3187 Y25.5782
G01 X62.1969 Y25.5201
G01 X62.0689 Y25.4773
G01 X61.9370 Y25.4517
G01 X61.8022 Y25.4429
G01 X61.6674 Y25.4517
G01 X61.5355 Y25.4773
G01 X61.4074 Y25.5201
G01 X61.2857 Y25.5782
G01 X61.1728 Y25.6519
G01 X61.0700 Y25.7392
G01 X60.9793 Y25.8391
G01 X60.9022 Y25.9496
G01 X60.8402 Y26.0694
G01 X60.7936 Y26.1960
G01 X60.7635 Y26.3275
G01 X60.7504 Y26.4613
G01 X60.7548 Y26.5961
G01 X60.7761 Y26.7294
G01 X60.8144 Y26.8584
G01 X60.8692 Y26.9821
G01 X60.9390 Y27.0974
G01 X61.0234 Y27.2026
G01 X61.1200 Y27.2963
G01 X61.2281 Y27.3773
G01 X61.3454 Y27.4432
G01 X61.4705 Y27.4941
G01 X61.6009 Y27.5281
G01 X61.7348 Y27.5455
G00 Z2.0000
G00 X60.3121 Y26.4927
G01 F60.00
G01 Z-0.0500
G01 F120.00
G01 X60.3071 Y26.3923
G01 X60.2920 Y26.2903
G01 X60.2670 Y26.1904
G01 X60.2323 Y26.0934
G01 X60.1882 Y26.0002
G01 X60.1352 Y25.9118
G01 X60.0739 Y25.8291
G01 X60.0047 Y25.7527
G01 X59.9283 Y25.6835
G01 X59.8455 Y25.6221
G01 X59.7572 Y25.5692
G01 X59.6640 Y25.5251
G01 X59.5670 Y25.4904
G01 X59.4670 Y25.4654
G01 X59.3651 Y25.4502
G01 X59.2622 Y25.4452
G01 X59.1593 Y25.4502
G01 X59.0574 Y25.4654
G01 X58.9574 Y25.4904
G01 X58.8604 Y25.5251
G01 X58.7672 Y25.5692
G01 X58.6788 Y25.6221
G01 X58.5961 Y25.6835
G01 X58.5197 Y25.7527
G01 X58.4505 Y25.8291
G01 X58.3892 Y25.9118
G01 X58.3362 Y26.0002
G01 X58.2921 Y26.0934
G01 X58.2574 Y26.1904
G01 X58.2324 Y26.2903
G01 X58.2173 Y26.3923
G01 X58.2122 Y26.4952
G01 X58.2173 Y26.5981
G01 X58.2324 Y26.7000
G01 X58.2574 Y26.8000
G01 X58.2921 Y26.8970
G01 X58.3362 Y26.9902
G01 X58.3892 Y27.0785
G01 X58.4505 Y27.1613
G01 X58.5197 Y27.2377
G01 X58.5961 Y27.3069
G01 X58.6788 Y27.3682
G01 X58.7672 Y27.4212
G01 X58.8604 Y27.4653
G01 X58.9574 Y27.5000
G01 X59.0574 Y27.5250
G01 X59.1593 Y27.5401
G01 X59.2622 Y27.5452
G01 X59.3651 Y27.5401
G01 X59.4670 Y27.5250
G01 X59.5670 Y27.5000
G01 X59.6640 Y27.4653
G01 X59.7572 Y27.4212
G01 X59.8455 Y27.3682
G01 X59.9283 Y27.3069
G01 X60.0047 Y27.2377
G01 X60.0739 Y27.1613
G01 X60.1352 Y27.0785
G01 X60.1882 Y26.9902
G01 X60.2323 Y26.8970
G01 X60.2670 Y26.8000
G01 X60.2920 Y26.7000
G01 X60.3071 Y26.5981
G01 X60.3121 Y26.4927
G00 Z2.0000
G00 X59.1948 Y27.5455
G01 F60.00
G01 Z-0.0500
G01 F120.00
G01 X59.3296 Y27.5455
G01 X59.4635 Y27.5281
G01 X59.5939 Y27.4941
G01 X59.7190 Y27.4432
G01 X59.8363 Y27.3773
G01 X59.9444 Y27.2963
G01 X60.0410 Y27.2026
G01 X60.1254 Y27.0974
G01 X60.1952 Y26.9821
G01 X60.2500 Y26.8584
G01 X60.2883 Y26.7294
G01 X60.3096 Y26.5961
G01 X60.3140 Y26.4613
G01 X60.3009 Y26.3275
G01 X60.2708 Y26.1960
G01 X60.2242 Y26.0694
G01 X60.1622 Y25.9496
G01 X60.0851 Y25.8391
G01 X59.9944 Y25.7392
G01 X59.8916 Y25.6519
G01 X59.7787 Y25.5782
G01 X59.6569 Y25.5201
G01 X59.5289 Y25.4773
G01 X59.3970 Y25.4517
G01 X59.2622 Y25.4429
G01 X59.1274 Y25.4517
G01 X58.9955 Y25.4773
G01 X58.8674 Y25.5201
G01 X58.7457 Y25.5782
G01 X58.6328 Y25.6519
G01 X58.5300 Y25.7392
G01 X58.4393 Y25.8391
G01 X58.3622 Y25.9496
G01 X58.3002 Y26.0694
G01 X58.2536 Y26.1960
G01 X58.2235 Y26.3275
G01 X58.2104 Y26.4613
G01 X58.2148 Y26.5961
G01 X58.2361 Y26.7294
G01 X58.2744 Y26.8584
G01 X58.3292 Y26.9821
G01 X58.3990 Y27.0974
G01 X58.4834 Y27.2026
G01 X58.5800 Y27.2963
G01 X58.6881 Y27.3773
G01 X58.8054 Y27.4432
G01 X58.9305 Y27.4941
G01 X59.0609 Y27.5281
G01 X59.1948 Y27.5455
G00 Z2.0000
G00 X57.7721 Y26.4927
G01 F60.00
G01 Z-0.0500
G01 F120.00
G01 X57.7671 Y26.3923
G01 X57.7520 Y26.2903
G01 X57.7270 Y26.1904
G01 X57.6923 Y26.0934
G01 X57.6482 Y26.0002
G01 X57.5952 Y25.9118
G01 X57.5339 Y25.8291
G01 X57.4647 Y25.7527
G01 X57.3883 Y25.6835
G01 X57.3055 Y25.6221
G01 X57.2172 Y25.5692
G01 X57.1240 Y25.5251
G01 X57.0270 Y25.4904
G01 X56.9270 Y25.4654
G01 X56.8251 Y25.4502
G01 X56.7222 Y25.4452
G01 X56.6193 Y25.4502
G01 X56.5174 Y25.4654
G01 X56.4174 Y25.4904
G01 X56.3204 Y25.5251
G01 X56.2272 Y25.5692
G01 X56.1388 Y25.6221
G01 X56.0561 Y25.6835
G01 X55.9797 Y25.7527
G01 X55.9105 Y25.8291
G01 X55.8492 Y25.9118
G01 X55.7962 Y26.0002
G01 X55.7521 Y26.0934
G01 X55.7174 Y26.1904
G01 X55.6924 Y26.2903
G01 X55.6773 Y26.3923
G01 X55.6722 Y26.4952
G01 X55.6773 Y26.5981
G01 X55.6924 Y26.7000
G01 X55.7174 Y26.8000
G01 X55.7521 Y26.8970
G01 X55.7962 Y26.9902
G01 X55.8492 Y27.0785
G01 X55.9105 Y27.1613
G01 X55.9797 Y27.2377
G01 X56.0561 Y27.3069
G01 X56.1388 Y27.3682
G01 X56.2272 Y27.4212
G01 X56.3204 Y27.4653
G01 X56.4174 Y27.5000
G01 X56.5174 Y27.5250
G01 X56.6193 Y27.5401
G01 X56.7222 Y27.5452
G01 X56.8251 Y27.5401
G01 X56.9270 Y27.5250
G01 X57.0270 Y27.5000
G01 X57.1240 Y27.4653
G01 X57.2172 Y27.4212
G01 X57.3055 Y27.3682
G01 X57.3883 Y27.3069
G01 X57.4647 Y27.2377
G01 X57.5339 Y27.1613
G01 X57.5952 Y27.0785
G01 X57.6482 Y26.9902
G01 X57.6923 Y26.8970
G01 X57.7270 Y26.8000
G01 X57.7520 Y26.7000
G01 X57.7671 Y26.5981
G01 X57.7721 Y26.4927
G00 Z2.0000
G00 X56.6548 Y27.5455
G01 F60.00
G01 Z-0.0500
G01 F120.00
G01 X56.7896 Y27.5455
G01 X56.9235 Y27.5281
G01 X57.0539 Y27.4941
G01 X57.1790 Y27.4432
G01 X57.2963 Y27.3773
G01 X57.4044 Y27.2963
G01 X57.5010 Y27.2026
G01 X57.5854 Y27.0974
G01 X57.6552 Y26.9821
G01 X57.7100 Y26.8584
G01 X57.7483 Y26.7294
G01 X57.7696 Y26.5961
G01 X57.7740 Y26.4613
G01 X57.7609 Y26.3275
G01 X57.7308 Y26.1960
G01 X57.6842 Y26.0694
G01 X57.6222 Y25.9496
G01 X57.5451 Y25.8391
G01 X57.4544 Y25.7392
G01 X57.3516 Y25.6519
G01 X57.2387 Y25.5782
G01 X57.1169 Y25.5201
G01 X56.9889 Y25.4773
G01 X56.8570 Y25.4517
G01 X56.7222 Y25.4429
G01 X56.5874 Y25.4517
G01 X56.4555 Y25.4773
G01 X56.3274 Y25.5201
G01 X56.2057 Y25.5782
G01 X56.0928 Y25.6519
G01 X55.9900 Y25.7392
G01 X55.8993 Y25.8391
