(G-CODE GENERATED BY FLATCAM v8.993 - www.flatcam.org - Version Date: 2020/06/05)

(Name: holes)
(Type: G-code from Geometry)
(Units: MM)

(Created on Monday, 29 March 2021 at 19:43)

(This preprocessor is the default preprocessor used by FlatCAM.)
(It is made to work with MACH3 compatible motion controllers.)

(TOOL DIAMETER: 0.1 mm)
(Feedrate_XY: 100.0 mm/min)
(Feedrate_Z: 60.0 mm/min)
(Feedrate rapids 1500.0 mm/min)

(Z_Cut: -0.1 mm)
(Z_Move: 2.0 mm)
(Z Start: None mm)
(Z End: 15.0 mm)
(Steps per circle: 64)
(Preprocessor Geometry: default)

(X range:   27.7289 ...   39.9940  mm)
(Y range:   73.7029 ...   79.8710  mm)

(Spindle Speed: None RPM)
G21
G90
G94



G01 F100.00
G00 Z2.0000

M03
G00 X32.3721 Y74.7527
G01 F60.00
G01 Z-0.1000
G01 F100.00
G01 X32.3671 Y74.8581
G01 X32.3520 Y74.9600
G01 X32.3270 Y75.0600
G01 X32.2923 Y75.1570
G01 X32.2482 Y75.2502
G01 X32.1952 Y75.3385
G01 X32.1339 Y75.4213
G01 X32.0647 Y75.4977
G01 X31.9883 Y75.5669
G01 X31.9055 Y75.6282
G01 X31.8172 Y75.6812
G01 X31.7240 Y75.7253
G01 X31.6270 Y75.7600
G01 X31.5270 Y75.7850
G01 X31.4251 Y75.8001
G01 X31.3222 Y75.8052
G01 X31.2193 Y75.8001
G01 X31.1174 Y75.7850
G01 X31.0174 Y75.7600
G01 X30.9204 Y75.7253
G01 X30.8272 Y75.6812
G01 X30.7388 Y75.6282
G01 X30.6561 Y75.5669
G01 X30.5797 Y75.4977
G01 X30.5105 Y75.4213
G01 X30.4492 Y75.3385
G01 X30.3962 Y75.2502
G01 X30.3521 Y75.1570
G01 X30.3174 Y75.0600
G01 X30.2924 Y74.9600
G01 X30.2773 Y74.8581
G01 X30.2722 Y74.7552
G01 X30.2773 Y74.6523
G01 X30.2924 Y74.5503
G01 X30.3174 Y74.4504
G01 X30.3521 Y74.3534
G01 X30.3962 Y74.2602
G01 X30.4492 Y74.1718
G01 X30.5105 Y74.0891
G01 X30.5797 Y74.0127
G01 X30.6561 Y73.9435
G01 X30.7388 Y73.8821
G01 X30.8272 Y73.8292
G01 X30.9204 Y73.7851
G01 X31.0174 Y73.7504
G01 X31.1174 Y73.7254
G01 X31.2193 Y73.7102
G01 X31.3222 Y73.7052
G01 X31.4251 Y73.7102
G01 X31.5270 Y73.7254
G01 X31.6270 Y73.7504
G01 X31.7240 Y73.7851
G01 X31.8172 Y73.8292
G01 X31.9055 Y73.8821
G01 X31.9883 Y73.9435
G01 X32.0647 Y74.0127
G01 X32.1339 Y74.0891
G01 X32.1952 Y74.1718
G01 X32.2482 Y74.2602
G01 X32.2923 Y74.3534
G01 X32.3270 Y74.4504
G01 X32.3520 Y74.5503
G01 X32.3671 Y74.6523
G01 X32.3721 Y74.7527
G00 Z2.0000
G00 X31.2548 Y75.8055
G01 F60.00
G01 Z-0.1000
G01 F100.00
G01 X31.3896 Y75.8055
G01 X31.5235 Y75.7881
G01 X31.6539 Y75.7541
G01 X31.7790 Y75.7032
G01 X31.8963 Y75.6373
G01 X32.0044 Y75.5563
G01 X32.1010 Y75.4626
G01 X32.1854 Y75.3574
G01 X32.2552 Y75.2421
G01 X32.3100 Y75.1184
G01 X32.3483 Y74.9894
G01 X32.3696 Y74.8561
G01 X32.3740 Y74.7213
G01 X32.3609 Y74.5875
G01 X32.3308 Y74.4560
G01 X32.2842 Y74.3294
G01 X32.2222 Y74.2096
G01 X32.1451 Y74.0991
G01 X32.0544 Y73.9992
G01 X31.9516 Y73.9119
G01 X31.8387 Y73.8382
G01 X31.7169 Y73.7801
G01 X31.5889 Y73.7373
G01 X31.4570 Y73.7117
G01 X31.3222 Y73.7029
G01 X31.1874 Y73.7117
G01 X31.0555 Y73.7373
G01 X30.9274 Y73.7801
G01 X30.8057 Y73.8382
G01 X30.6928 Y73.9119
G01 X30.5900 Y73.9992
G01 X30.4993 Y74.0991
G01 X30.4222 Y74.2096
G01 X30.3602 Y74.3294
G01 X30.3136 Y74.4560
G01 X30.2835 Y74.5875
G01 X30.2704 Y74.7213
G01 X30.2748 Y74.8561
G01 X30.2961 Y74.9894
G01 X30.3344 Y75.1184
G01 X30.3892 Y75.2421
G01 X30.4590 Y75.3574
G01 X30.5434 Y75.4626
G01 X30.6400 Y75.5563
G01 X30.7481 Y75.6373
G01 X30.8654 Y75.7032
G01 X30.9905 Y75.7541
G01 X31.1209 Y75.7881
G01 X31.2548 Y75.8055
G00 Z2.0000
G00 X33.7948 Y75.8055
G01 F60.00
G01 Z-0.1000
G01 F100.00
G01 X33.9296 Y75.8055
G01 X34.0635 Y75.7881
G01 X34.1939 Y75.7541
G01 X34.3190 Y75.7032
G01 X34.4363 Y75.6373
G01 X34.5444 Y75.5563
G01 X34.6410 Y75.4626
G01 X34.7254 Y75.3574
G01 X34.7952 Y75.2421
G01 X34.8500 Y75.1184
G01 X34.8883 Y74.9894
G01 X34.9096 Y74.8561
G01 X34.9140 Y74.7213
G01 X34.9009 Y74.5875
G01 X34.8708 Y74.4560
G01 X34.8242 Y74.3294
G01 X34.7622 Y74.2096
G01 X34.6851 Y74.0991
G01 X34.5944 Y73.9992
G01 X34.4916 Y73.9119
G01 X34.3787 Y73.8382
G01 X34.2569 Y73.7801
G01 X34.1289 Y73.7373
G01 X33.9970 Y73.7117
G01 X33.8622 Y73.7029
G01 X33.7274 Y73.7117
G01 X33.5955 Y73.7373
G01 X33.4674 Y73.7801
G01 X33.3457 Y73.8382
G01 X33.2328 Y73.9119
G01 X33.1300 Y73.9992
G01 X33.0393 Y74.0991
G01 X32.9622 Y74.2096
G01 X32.9002 Y74.3294
G01 X32.8536 Y74.4560
G01 X32.8235 Y74.5875
G01 X32.8104 Y74.7213
G01 X32.8148 Y74.8561
G01 X32.8361 Y74.9894
G01 X32.8744 Y75.1184
G01 X32.9292 Y75.2421
G01 X32.9990 Y75.3574
G01 X33.0834 Y75.4626
G01 X33.1800 Y75.5563
G01 X33.2881 Y75.6373
G01 X33.4054 Y75.7032
G01 X33.5305 Y75.7541
G01 X33.6609 Y75.7881
G01 X33.7948 Y75.8055
G00 Z2.0000
G00 X34.9121 Y74.7527
G01 F60.00
G01 Z-0.1000
G01 F100.00
G01 X34.9071 Y74.8581
G01 X34.8920 Y74.9600
G01 X34.8670 Y75.0600
G01 X34.8323 Y75.1570
G01 X34.7882 Y75.2502
G01 X34.7352 Y75.3385
G01 X34.6739 Y75.4213
G01 X34.6047 Y75.4977
G01 X34.5283 Y75.5669
G01 X34.4455 Y75.6282
G01 X34.3572 Y75.6812
G01 X34.2640 Y75.7253
G01 X34.1670 Y75.7600
G01 X34.0670 Y75.7850
G01 X33.9651 Y75.8001
G01 X33.8622 Y75.8052
G01 X33.7593 Y75.8001
G01 X33.6574 Y75.7850
G01 X33.5574 Y75.7600
G01 X33.4604 Y75.7253
G01 X33.3672 Y75.6812
G01 X33.2788 Y75.6282
G01 X33.1961 Y75.5669
G01 X33.1197 Y75.4977
G01 X33.0505 Y75.4213
G01 X32.9892 Y75.3385
G01 X32.9362 Y75.2502
G01 X32.8921 Y75.1570
G01 X32.8574 Y75.0600
G01 X32.8324 Y74.9600
G01 X32.8173 Y74.8581
G01 X32.8122 Y74.7552
G01 X32.8173 Y74.6523
G01 X32.8324 Y74.5503
G01 X32.8574 Y74.4504
G01 X32.8921 Y74.3534
G01 X32.9362 Y74.2602
G01 X32.9892 Y74.1718
G01 X33.0505 Y74.0891
G01 X33.1197 Y74.0127
G01 X33.1961 Y73.9435
G01 X33.2788 Y73.8821
G01 X33.3672 Y73.8292
G01 X33.4604 Y73.7851
G01 X33.5574 Y73.7504
G01 X33.6574 Y73.7254
G01 X33.7593 Y73.7102
G01 X33.8622 Y73.7052
G01 X33.9651 Y73.7102
G01 X34.0670 Y73.7254
G01 X34.1670 Y73.7504
G01 X34.2640 Y73.7851
G01 X34.3572 Y73.8292
G01 X34.4455 Y73.8821
G01 X34.5283 Y73.9435
G01 X34.6047 Y74.0127
G01 X34.6739 Y74.0891
G01 X34.7352 Y74.1718
G01 X34.7882 Y74.2602
G01 X34.8323 Y74.3534
G01 X34.8670 Y74.4504
G01 X34.8920 Y74.5503
G01 X34.9071 Y74.6523
G01 X34.9121 Y74.7527
G00 Z2.0000
G00 X36.3348 Y75.8055
G01 F60.00
G01 Z-0.1000
G01 F100.00
G01 X36.4696 Y75.8055
G01 X36.6035 Y75.7881
G01 X36.7339 Y75.7541
G01 X36.8590 Y75.7032
G01 X36.9763 Y75.6373
G01 X37.0844 Y75.5563
G01 X37.1810 Y75.4626
G01 X37.2654 Y75.3574
G01 X37.3352 Y75.2421
G01 X37.3900 Y75.1184
G01 X37.4283 Y74.9894
G01 X37.4496 Y74.8561
G01 X37.4540 Y74.7213
G01 X37.4409 Y74.5875
G01 X37.4108 Y74.4560
G01 X37.3642 Y74.3294
G01 X37.3022 Y74.2096
G01 X37.2251 Y74.0991
G01 X37.1344 Y73.9992
G01 X37.0316 Y73.9119
G01 X36.9187 Y73.8382
G01 X36.7969 Y73.7801
G01 X36.6689 Y73.7373
G01 X36.5370 Y73.7117
G01 X36.4022 Y73.7029
G01 X36.2674 Y73.7117
G01 X36.1355 Y73.7373
G01 X36.0074 Y73.7801
G01 X35.8857 Y73.8382
G01 X35.7728 Y73.9119
G01 X35.6700 Y73.9992
G01 X35.5793 Y74.0991
G01 X35.5022 Y74.2096
G01 X35.4402 Y74.3294
G01 X35.3936 Y74.4560
G01 X35.3635 Y74.5875
G01 X35.3504 Y74.7213
G01 X35.3548 Y74.8561
G01 X35.3761 Y74.9894
G01 X35.4144 Y75.1184
G01 X35.4692 Y75.2421
G01 X35.5390 Y75.3574
G01 X35.6234 Y75.4626
G01 X35.7200 Y75.5563
G01 X35.8281 Y75.6373
G01 X35.9454 Y75.7032
G01 X36.0705 Y75.7541
G01 X36.2009 Y75.7881
G01 X36.3348 Y75.8055
G00 Z2.0000
G00 X37.4521 Y74.7527
G01 F60.00
G01 Z-0.1000
G01 F100.00
G01 X37.4471 Y74.8581
G01 X37.4320 Y74.9600
G01 X37.4070 Y75.0600
G01 X37.3723 Y75.1570
G01 X37.3282 Y75.2502
G01 X37.2752 Y75.3385
G01 X37.2139 Y75.4213
G01 X37.1447 Y75.4977
G01 X37.0683 Y75.5669
G01 X36.9855 Y75.6282
G01 X36.8972 Y75.6812
G01 X36.8040 Y75.7253
G01 X36.7070 Y75.7600
G01 X36.6070 Y75.7850
G01 X36.5051 Y75.8001
G01 X36.4022 Y75.8052
G01 X36.2993 Y75.8001
G01 X36.1974 Y75.7850
G01 X36.0974 Y75.7600
G01 X36.0004 Y75.7253
G01 X35.9072 Y75.6812
G01 X35.8188 Y75.6282
G01 X35.7361 Y75.5669
G01 X35.6597 Y75.4977
G01 X35.5905 Y75.4213
G01 X35.5292 Y75.3385
G01 X35.4762 Y75.2502
G01 X35.4321 Y75.1570
G01 X35.3974 Y75.0600
G01 X35.3724 Y74.9600
G01 X35.3573 Y74.8581
G01 X35.3522 Y74.7552
G01 X35.3573 Y74.6523
G01 X35.3724 Y74.5503
G01 X35.3974 Y74.4504
G01 X35.4321 Y74.3534
G01 X35.4762 Y74.2602
G01 X35.5292 Y74.1718
G01 X35.5905 Y74.0891
G01 X35.6597 Y74.0127
G01 X35.7361 Y73.9435
G01 X35.8188 Y73.8821
G01 X35.9072 Y73.8292
G01 X36.0004 Y73.7851
G01 X36.0974 Y73.7504
G01 X36.1974 Y73.7254
G01 X36.2993 Y73.7102
G01 X36.4022 Y73.7052
G01 X36.5051 Y73.7102
G01 X36.6070 Y73.7254
G01 X36.7070 Y73.7504
G01 X36.8040 Y73.7851
G01 X36.8972 Y73.8292
G01 X36.9855 Y73.8821
G01 X37.0683 Y73.9435
G01 X37.1447 Y74.0127
G01 X37.2139 Y74.0891
G01 X37.2752 Y74.1718
G01 X37.3282 Y74.2602
G01 X37.3723 Y74.3534
G01 X37.4070 Y74.4504
G01 X37.4320 Y74.5503
G01 X37.4471 Y74.6523
G01 X37.4521 Y74.7527
G00 Z2.0000
G00 X38.8748 Y75.8055
G01 F60.00
G01 Z-0.1000
G01 F100.00
G01 X39.0096 Y75.8055
G01 X39.1435 Y75.7881
G01 X39.2739 Y75.7541
G01 X39.3990 Y75.7032
G01 X39.5163 Y75.6373
G01 X39.6244 Y75.5563
G01 X39.7210 Y75.4626
G01 X39.8054 Y75.3574
G01 X39.8752 Y75.2421
G01 X39.9300 Y75.1184
G01 X39.9683 Y74.9894
G01 X39.9896 Y74.8561
G01 X39.9940 Y74.7213
G01 X39.9809 Y74.5875
G01 X39.9508 Y74.4560
G01 X39.9042 Y74.3294
G01 X39.8422 Y74.2096
G01 X39.7651 Y74.0991
G01 X39.6744 Y73.9992
G01 X39.5716 Y73.9119
G01 X39.4587 Y73.8382
G01 X39.3369 Y73.7801
G01 X39.2089 Y73.7373
G01 X39.0770 Y73.7117
G01 X38.9422 Y73.7029
G01 X38.8074 Y73.7117
G01 X38.6755 Y73.7373
G01 X38.5474 Y73.7801
G01 X38.4257 Y73.8382
G01 X38.3128 Y73.9119
G01 X38.2100 Y73.9992
G01 X38.1193 Y74.0991
G01 X38.0422 Y74.2096
G01 X37.9802 Y74.3294
G01 X37.9336 Y74.4560
G01 X37.9035 Y74.5875
G01 X37.8904 Y74.7213
G01 X37.8948 Y74.8561
G01 X37.9161 Y74.9894
G01 X37.9544 Y75.1184
G01 X38.0092 Y75.2421
G01 X38.0790 Y75.3574
G01 X38.1634 Y75.4626
G01 X38.2600 Y75.5563
G01 X38.3681 Y75.6373
G01 X38.4854 Y75.7032
G01 X38.6105 Y75.7541
G01 X38.7409 Y75.7881
G01 X38.8748 Y75.8055
G00 Z2.0000
G00 X39.9921 Y74.7527
G01 F60.00
G01 Z-0.1000
G01 F100.00
G01 X39.9871 Y74.8581
G01 X39.9720 Y74.9600
G01 X39.9470 Y75.0600
G01 X39.9123 Y75.1570
G01 X39.8682 Y75.2502
G01 X39.8152 Y75.3385
G01 X39.7539 Y75.4213
G01 X39.6847 Y75.4977
G01 X39.6083 Y75.5669
G01 X39.5255 Y75.6282
G01 X39.4372 Y75.6812
G01 X39.3440 Y75.7253
G01 X39.2470 Y75.7600
G01 X39.1470 Y75.7850
G01 X39.0451 Y75.8001
G01 X38.9422 Y75.8052
G01 X38.8393 Y75.8001
G01 X38.7374 Y75.7850
G01 X38.6374 Y75.7600
G01 X38.5404 Y75.7253
G01 X38.4472 Y75.6812
G01 X38.3588 Y75.6282
G01 X38.2761 Y75.5669
G01 X38.1997 Y75.4977
G01 X38.1305 Y75.4213
G01 X38.0692 Y75.3385
G01 X38.0162 Y75.2502
G01 X37.9721 Y75.1570
G01 X37.9374 Y75.0600
G01 X37.9124 Y74.9600
G01 X37.8973 Y74.8581
G01 X37.8922 Y74.7552
G01 X37.8973 Y74.6523
G01 X37.9124 Y74.5503
G01 X37.9374 Y74.4504
G01 X37.9721 Y74.3534
G01 X38.0162 Y74.2602
G01 X38.0692 Y74.1718
G01 X38.1305 Y74.0891
G01 X38.1997 Y74.0127
G01 X38.2761 Y73.9435
G01 X38.3588 Y73.8821
G01 X38.4472 Y73.8292
G01 X38.5404 Y73.7851
G01 X38.6374 Y73.7504
G01 X38.7374 Y73.7254
G01 X38.8393 Y73.7102
G01 X38.9422 Y73.7052
G01 X39.0451 Y73.7102
G01 X39.1470 Y73.7254
G01 X39.2470 Y73.7504
G01 X39.3440 Y73.7851
G01 X39.4372 Y73.8292
G01 X39.5255 Y73.8821
G01 X39.6083 Y73.9435
G01 X39.6847 Y74.0127
G01 X39.7539 Y74.0891
G01 X39.8152 Y74.1718
G01 X39.8682 Y74.2602
G01 X39.9123 Y74.3534
G01 X39.9470 Y74.4504
G01 X39.9720 Y74.5503
G01 X39.9871 Y74.6523
G01 X39.9921 Y74.7527
G00 Z2.0000
G00 X39.9911 Y78.8167
G01 F60.00
G01 Z-0.1000
G01 F100.00
G01 X39.9861 Y78.9221
G01 X39.9710 Y79.0240
G01 X39.9460 Y79.1240
G01 X39.9113 Y79.2210
G01 X39.8672 Y79.3142
G01 X39.8142 Y79.4025
G01 X39.7528 Y79.4853
G01 X39.6836 Y79.5617
G01 X39.6073 Y79.6309
G01 X39.5245 Y79.6922
G01 X39.4362 Y79.7452
G01 X39.3430 Y79.7893
G01 X39.2460 Y79.8240
G01 X39.1460 Y79.8490
G01 X39.0441 Y79.8641
G01 X38.9412 Y79.8692
G01 X38.8383 Y79.8641
G01 X38.7363 Y79.8490
G01 X38.6364 Y79.8240
G01 X38.5394 Y79.7893
G01 X38.4462 Y79.7452
G01 X38.3578 Y79.6922
G01 X38.2751 Y79.6309
G01 X38.1987 Y79.5617
G01 X38.1295 Y79.4853
G01 X38.0681 Y79.4025
G01 X38.0152 Y79.3142
G01 X37.9711 Y79.2210
G01 X37.9364 Y79.1240
G01 X37.9114 Y79.0240
G01 X37.8962 Y78.9221
G01 X37.8912 Y78.8192
G01 X37.8962 Y78.7163
G01 X37.9114 Y78.6143
G01 X37.9364 Y78.5144
G01 X37.9711 Y78.4174
G01 X38.0152 Y78.3242
G01 X38.0681 Y78.2358
G01 X38.1295 Y78.1531
G01 X38.1987 Y78.0767
G01 X38.2751 Y78.0075
G01 X38.3578 Y77.9461
G01 X38.4462 Y77.8932
G01 X38.5394 Y77.8491
G01 X38.6364 Y77.8144
G01 X38.7363 Y77.7894
G01 X38.8383 Y77.7742
G01 X38.9412 Y77.7692
G01 X39.0441 Y77.7742
G01 X39.1460 Y77.7894
G01 X39.2460 Y77.8144
G01 X39.3430 Y77.8491
G01 X39.4362 Y77.8932
G01 X39.5245 Y77.9461
G01 X39.6073 Y78.0075
G01 X39.6836 Y78.0767
G01 X39.7528 Y78.1531
G01 X39.8142 Y78.2358
G01 X39.8672 Y78.3242
G01 X39.9113 Y78.4174
G01 X39.9460 Y78.5144
G01 X39.9710 Y78.6143
G01 X39.9861 Y78.7163
G01 X39.9911 Y78.8167
G00 Z2.0000
G00 X38.9073 Y79.8710
G01 F60.00
G01 Z-0.1000
G01 F100.00
G01 X39.0421 Y79.8666
G01 X39.1754 Y79.8453
G01 X39.3044 Y79.8070
G01 X39.4281 Y79.7522
G01 X39.5434 Y79.6824
G01 X39.6486 Y79.5980
G01 X39.7423 Y79.5014
G01 X39.8233 Y79.3933
G01 X39.8892 Y79.2760
G01 X39.9401 Y79.1509
G01 X39.9740 Y79.0204
G01 X39.9915 Y78.8866
G01 X39.9915 Y78.7518
G01 X39.9740 Y78.6179
G01 X39.9401 Y78.4875
G01 X39.8892 Y78.3624
G01 X39.8233 Y78.2451
G01 X39.7423 Y78.1370
G01 X39.6486 Y78.0404
G01 X39.5434 Y77.9560
G01 X39.4281 Y77.8862
G01 X39.3044 Y77.8314
G01 X39.1754 Y77.7931
G01 X39.0421 Y77.7718
G01 X38.9073 Y77.7674
G01 X38.7735 Y77.7805
G01 X38.6420 Y77.8106
G01 X38.5154 Y77.8572
G01 X38.3956 Y77.9192
G01 X38.2851 Y77.9963
G01 X38.1852 Y78.0869
G01 X38.0979 Y78.1898
G01 X38.0242 Y78.3027
G01 X37.9660 Y78.4244
G01 X37.9233 Y78.5525
G01 X37.8977 Y78.6844
G01 X37.8889 Y78.8192
G01 X37.8977 Y78.9540
G01 X37.9233 Y79.0858
G01 X37.9660 Y79.2139
G01 X38.0242 Y79.3357
G01 X38.0979 Y79.4486
G01 X38.1852 Y79.5514
G01 X38.2851 Y79.6421
G01 X38.3956 Y79.7191
G01 X38.5154 Y79.7812
G01 X38.6420 Y79.8278
G01 X38.7735 Y79.8579
G01 X38.9073 Y79.8710
G00 Z2.0000
G00 X37.4511 Y78.8167
G01 F60.00
G01 Z-0.1000
G01 F100.00
G01 X37.4461 Y78.9221
G01 X37.4310 Y79.0240
G01 X37.4060 Y79.1240
G01 X37.3713 Y79.2210
G01 X37.3272 Y79.3142
G01 X37.2742 Y79.4025
G01 X37.2128 Y79.4853
G01 X37.1436 Y79.5617
G01 X37.0673 Y79.6309
G01 X36.9845 Y79.6922
G01 X36.8962 Y79.7452
G01 X36.8030 Y79.7893
G01 X36.7060 Y79.8240
G01 X36.6060 Y79.8490
G01 X36.5041 Y79.8641
G01 X36.4012 Y79.8692
G01 X36.2983 Y79.8641
G01 X36.1963 Y79.8490
G01 X36.0964 Y79.8240
G01 X35.9994 Y79.7893
G01 X35.9062 Y79.7452
G01 X35.8178 Y79.6922
G01 X35.7351 Y79.6309
G01 X35.6587 Y79.5617
G01 X35.5895 Y79.4853
G01 X35.5281 Y79.4025
G01 X35.4752 Y79.3142
G01 X35.4311 Y79.2210
G01 X35.3964 Y79.1240
G01 X35.3714 Y79.0240
G01 X35.3562 Y78.9221
G01 X35.3512 Y78.8192
G01 X35.3562 Y78.7163
G01 X35.3714 Y78.6143
G01 X35.3964 Y78.5144
G01 X35.4311 Y78.4174
G01 X35.4752 Y78.3242
G01 X35.5281 Y78.2358
G01 X35.5895 Y78.1531
G01 X35.6587 Y78.0767
G01 X35.7351 Y78.0075
G01 X35.8178 Y77.9461
G01 X35.9062 Y77.8932
G01 X35.9994 Y77.8491
G01 X36.0964 Y77.8144
G01 X36.1963 Y77.7894
G01 X36.2983 Y77.7742
G01 X36.4012 Y77.7692
G01 X36.5041 Y77.7742
G01 X36.6060 Y77.7894
G01 X36.7060 Y77.8144
G01 X36.8030 Y77.8491
G01 X36.8962 Y77.8932
G01 X36.9845 Y77.9461
G01 X37.0673 Y78.0075
G01 X37.1436 Y78.0767
G01 X37.2128 Y78.1531
G01 X37.2742 Y78.2358
G01 X37.3272 Y78.3242
G01 X37.3713 Y78.4174
G01 X37.4060 Y78.5144
G01 X37.4310 Y78.6143
G01 X37.4461 Y78.7163
G01 X37.4511 Y78.8167
G00 Z2.0000
G00 X36.3673 Y79.8710
G01 F60.00
G01 Z-0.1000
G01 F100.00
G01 X36.5021 Y79.8666
G01 X36.6354 Y79.8453
G01 X36.7644 Y79.8070
G01 X36.8881 Y79.7522
G01 X37.0034 Y79.6824
G01 X37.1086 Y79.5980
G01 X37.2023 Y79.5014
G01 X37.2833 Y79.3933
G01 X37.3492 Y79.2760
G01 X37.4001 Y79.1509
G01 X37.4340 Y79.0204
G01 X37.4515 Y78.8866
G01 X37.4515 Y78.7518
G01 X37.4340 Y78.6179
G01 X37.4001 Y78.4875
G01 X37.3492 Y78.3624
G01 X37.2833 Y78.2451
G01 X37.2023 Y78.1370
G01 X37.1086 Y78.0404
G01 X37.0034 Y77.9560
G01 X36.8881 Y77.8862
G01 X36.7644 Y77.8314
G01 X36.6354 Y77.7931
G01 X36.5021 Y77.7718
G01 X36.3673 Y77.7674
G01 X36.2335 Y77.7805
G01 X36.1020 Y77.8106
G01 X35.9754 Y77.8572
G01 X35.8556 Y77.9192
G01 X35.7451 Y77.9963
G01 X35.6452 Y78.0869
G01 X35.5579 Y78.1898
G01 X35.4842 Y78.3027
G01 X35.4260 Y78.4244
G01 X35.3833 Y78.5525
G01 X35.3577 Y78.6844
G01 X35.3489 Y78.8192
G01 X35.3577 Y78.9540
G01 X35.3833 Y79.0858
G01 X35.4260 Y79.2139
G01 X35.4842 Y79.3357
G01 X35.5579 Y79.4486
G01 X35.6452 Y79.5514
G01 X35.7451 Y79.6421
G01 X35.8556 Y79.7191
G01 X35.9754 Y79.7812
G01 X36.1020 Y79.8278
G01 X36.2335 Y79.8579
G01 X36.3673 Y79.8710
G00 Z2.0000
G00 X34.9111 Y78.8167
G01 F60.00
G01 Z-0.1000
G01 F100.00
G01 X34.9061 Y78.9221
G01 X34.8910 Y79.0240
G01 X34.8660 Y79.1240
G01 X34.8313 Y79.2210
G01 X34.7872 Y79.3142
G01 X34.7342 Y79.4025
G01 X34.6728 Y79.4853
G01 X34.6036 Y79.5617
G01 X34.5273 Y79.6309
G01 X34.4445 Y79.6922
G01 X34.3562 Y79.7452
G01 X34.2630 Y79.7893
G01 X34.1660 Y79.8240
G01 X34.0660 Y79.8490
G01 X33.9641 Y79.8641
G01 X33.8612 Y79.8692
G01 X33.7583 Y79.8641
G01 X33.6563 Y79.8490
G01 X33.5564 Y79.8240
G01 X33.4594 Y79.7893
G01 X33.3662 Y79.7452
G01 X33.2778 Y79.6922
G01 X33.1951 Y79.6309
G01 X33.1187 Y79.5617
G01 X33.0495 Y79.4853
G01 X32.9881 Y79.4025
G01 X32.9352 Y79.3142
G01 X32.8911 Y79.2210
G01 X32.8564 Y79.1240
G01 X32.8314 Y79.0240
G01 X32.8162 Y78.9221
G01 X32.8112 Y78.8192
G01 X32.8162 Y78.7163
G01 X32.8314 Y78.6143
G01 X32.8564 Y78.5144
G01 X32.8911 Y78.4174
G01 X32.9352 Y78.3242
G01 X32.9881 Y78.2358
G01 X33.0495 Y78.1531
G01 X33.1187 Y78.0767
G01 X33.1951 Y78.0075
G01 X33.2778 Y77.9461
G01 X33.3662 Y77.8932
G01 X33.4594 Y77.8491
G01 X33.5564 Y77.8144
G01 X33.6563 Y77.7894
G01 X33.7583 Y77.7742
G01 X33.8612 Y77.7692
G01 X33.9641 Y77.7742
G01 X34.0660 Y77.7894
G01 X34.1660 Y77.8144
G01 X34.2630 Y77.8491
G01 X34.3562 Y77.8932
G01 X34.4445 Y77.9461
G01 X34.5273 Y78.0075
G01 X34.6036 Y78.0767
G01 X34.6728 Y78.1531
G01 X34.7342 Y78.2358
G01 X34.7872 Y78.3242
G01 X34.8313 Y78.4174
G01 X34.8660 Y78.5144
G01 X34.8910 Y78.6143
G01 X34.9061 Y78.7163
G01 X34.9111 Y78.8167
G00 Z2.0000
G00 X33.8273 Y79.8710
G01 F60.00
G01 Z-0.1000
G01 F100.00
G01 X33.9621 Y79.8666
G01 X34.0954 Y79.8453
G01 X34.2244 Y79.8070
G01 X34.3481 Y79.7522
G01 X34.4634 Y79.6824
G01 X34.5686 Y79.5980
G01 X34.6623 Y79.5014
G01 X34.7433 Y79.3933
G01 X34.8092 Y79.2760
G01 X34.8601 Y79.1509
G01 X34.8940 Y79.0204
G01 X34.9115 Y78.8866
G01 X34.9115 Y78.7518
G01 X34.8940 Y78.6179
G01 X34.8601 Y78.4875
G01 X34.8092 Y78.3624
G01 X34.7433 Y78.2451
G01 X34.6623 Y78.1370
G01 X34.5686 Y78.0404
G01 X34.4634 Y77.9560
G01 X34.3481 Y77.8862
G01 X34.2244 Y77.8314
G01 X34.0954 Y77.7931
G01 X33.9621 Y77.7718
G01 X33.8273 Y77.7674
G01 X33.6935 Y77.7805
G01 X33.5620 Y77.8106
G01 X33.4354 Y77.8572
G01 X33.3156 Y77.9192
G01 X33.2051 Y77.9963
G01 X33.1052 Y78.0869
G01 X33.0179 Y78.1898
G01 X32.9442 Y78.3027
G01 X32.8860 Y78.4244
G01 X32.8433 Y78.5525
G01 X32.8177 Y78.6844
G01 X32.8089 Y78.8192
G01 X32.8177 Y78.9540
G01 X32.8433 Y79.0858
G01 X32.8860 Y79.2139
G01 X32.9442 Y79.3357
G01 X33.0179 Y79.4486
G01 X33.1052 Y79.5514
G01 X33.2051 Y79.6421
G01 X33.3156 Y79.7191
G01 X33.4354 Y79.7812
G01 X33.5620 Y79.8278
G01 X33.6935 Y79.8579
G01 X33.8273 Y79.8710
G00 Z2.0000
G00 X32.3711 Y78.8167
G01 F60.00
G01 Z-0.1000
G01 F100.00
G01 X32.3661 Y78.9221
G01 X32.3510 Y79.0240
G01 X32.3260 Y79.1240
G01 X32.2913 Y79.2210
G01 X32.2472 Y79.3142
G01 X32.1942 Y79.4025
G01 X32.1328 Y79.4853
G01 X32.0636 Y79.5617
G01 X31.9873 Y79.6309
G01 X31.9045 Y79.6922
G01 X31.8162 Y79.7452
G01 X31.7230 Y79.7893
G01 X31.6260 Y79.8240
G01 X31.5260 Y79.8490
G01 X31.4241 Y79.8641
G01 X31.3212 Y79.8692
G01 X31.2183 Y79.8641
G01 X31.1163 Y79.8490
G01 X31.0164 Y79.8240
G01 X30.9194 Y79.7893
G01 X30.8262 Y79.7452
G01 X30.7378 Y79.6922
G01 X30.6551 Y79.6309
G01 X30.5787 Y79.5617
G01 X30.5095 Y79.4853
G01 X30.4481 Y79.4025
G01 X30.3952 Y79.3142
G01 X30.3511 Y79.2210
G01 X30.3164 Y79.1240
G01 X30.2914 Y79.0240
G01 X30.2762 Y78.9221
G01 X30.2712 Y78.8192
G01 X30.2762 Y78.7163
G01 X30.2914 Y78.6143
G01 X30.3164 Y78.5144
G01 X30.3511 Y78.4174
G01 X30.3952 Y78.3242
G01 X30.4481 Y78.2358
G01 X30.5095 Y78.1531
G01 X30.5787 Y78.0767
G01 X30.6551 Y78.0075
G01 X30.7378 Y77.9461
G01 X30.8262 Y77.8932
G01 X30.9194 Y77.8491
G01 X31.0164 Y77.8144
G01 X31.1163 Y77.7894
G01 X31.2183 Y77.7742
G01 X31.3212 Y77.7692
G01 X31.4241 Y77.7742
G01 X31.5260 Y77.7894
G01 X31.6260 Y77.8144
G01 X31.7230 Y77.8491
G01 X31.8162 Y77.8932
G01 X31.9045 Y77.9461
G01 X31.9873 Y78.0075
G01 X32.0636 Y78.0767
G01 X32.1328 Y78.1531
G01 X32.1942 Y78.2358
G01 X32.2472 Y78.3242
G01 X32.2913 Y78.4174
G01 X32.3260 Y78.5144
G01 X32.3510 Y78.6143
G01 X32.3661 Y78.7163
G01 X32.3711 Y78.8167
G00 Z2.0000
G00 X31.2873 Y79.8710
G01 F60.00
G01 Z-0.1000
G01 F100.00
G01 X31.4221 Y79.8666
G01 X31.5554 Y79.8453
G01 X31.6844 Y79.8070
G01 X31.8081 Y79.7522
G01 X31.9234 Y79.6824
G01 X32.0286 Y79.5980
G01 X32.1223 Y79.5014
G01 X32.2033 Y79.3933
G01 X32.2692 Y79.2760
G01 X32.3201 Y79.1509
G01 X32.3540 Y79.0204
G01 X32.3715 Y78.8866
G01 X32.3715 Y78.7518
G01 X32.3540 Y78.6179
G01 X32.3201 Y78.4875
G01 X32.2692 Y78.3624
G01 X32.2033 Y78.2451
G01 X32.1223 Y78.1370
G01 X32.0286 Y78.0404
G01 X31.9234 Y77.9560
G01 X31.8081 Y77.8862
G01 X31.6844 Y77.8314
G01 X31.5554 Y77.7931
G01 X31.4221 Y77.7718
G01 X31.2873 Y77.7674
G01 X31.1535 Y77.7805
G01 X31.0220 Y77.8106
G01 X30.8954 Y77.8572
G01 X30.7756 Y77.9192
G01 X30.6651 Y77.9963
G01 X30.5652 Y78.0869
G01 X30.4779 Y78.1898
G01 X30.4042 Y78.3027
G01 X30.3460 Y78.4244
G01 X30.3033 Y78.5525
G01 X30.2777 Y78.6844
G01 X30.2689 Y78.8192
G01 X30.2777 Y78.9540
G01 X30.3033 Y79.0858
G01 X30.3460 Y79.2139
G01 X30.4042 Y79.3357
G01 X30.4779 Y79.4486
G01 X30.5652 Y79.5514
G01 X30.6651 Y79.6421
G01 X30.7756 Y79.7191
G01 X30.8954 Y79.7812
G01 X31.0220 Y79.8278
G01 X31.1535 Y79.8579
G01 X31.2873 Y79.8710
G00 Z2.0000
G00 X29.8311 Y78.8167
G01 F60.00
G01 Z-0.1000
G01 F100.00
G01 X29.8261 Y78.9221
G01 X29.8110 Y79.0240
G01 X29.7860 Y79.1240
G01 X29.7513 Y79.2210
G01 X29.7072 Y79.3142
G01 X29.6542 Y79.4025
G01 X29.5928 Y79.4853
G01 X29.5236 Y79.5617
G01 X29.4473 Y79.6309
G01 X29.3645 Y79.6922
G01 X29.2762 Y79.7452
G01 X29.1830 Y79.7893
G01 X29.0860 Y79.8240
G01 X28.9860 Y79.8490
G01 X28.8841 Y79.8641
G01 X28.7812 Y79.8692
G01 X28.6783 Y79.8641
G01 X28.5763 Y79.8490
G01 X28.4764 Y79.8240
G01 X28.3794 Y79.7893
G01 X28.2862 Y79.7452
G01 X28.1978 Y79.6922
G01 X28.1151 Y79.6309
G01 X28.0387 Y79.5617
G01 X27.9695 Y79.4853
G01 X27.9081 Y79.4025
G01 X27.8552 Y79.3142
G01 X27.8111 Y79.2210
G01 X27.7764 Y79.1240
G01 X27.7514 Y79.0240
G01 X27.7362 Y78.9221
G01 X27.7312 Y78.8192
G01 X27.7362 Y78.7163
G01 X27.7514 Y78.6143
G01 X27.7764 Y78.5144
G01 X27.8111 Y78.4174
G01 X27.8552 Y78.3242
G01 X27.9081 Y78.2358
G01 X27.9695 Y78.1531
G01 X28.0387 Y78.0767
G01 X28.1151 Y78.0075
G01 X28.1978 Y77.9461
G01 X28.2862 Y77.8932
G01 X28.3794 Y77.8491
G01 X28.4764 Y77.8144
G01 X28.5763 Y77.7894
G01 X28.6783 Y77.7742
G01 X28.7812 Y77.7692
G01 X28.8841 Y77.7742
G01 X28.9860 Y77.7894
G01 X29.0860 Y77.8144
G01 X29.1830 Y77.8491
G01 X29.2762 Y77.8932
G01 X29.3645 Y77.9461
G01 X29.4473 Y78.0075
G01 X29.5236 Y78.0767
G01 X29.5928 Y78.1531
G01 X29.6542 Y78.2358
G01 X29.7072 Y78.3242
G01 X29.7513 Y78.4174
G01 X29.7860 Y78.5144
G01 X29.8110 Y78.6143
G01 X29.8261 Y78.7163
G01 X29.8311 Y78.8167
G00 Z2.0000
G00 X28.7473 Y79.8710
G01 F60.00
G01 Z-0.1000
G01 F100.00
G01 X28.8821 Y79.8666
G01 X29.0154 Y79.8453
G01 X29.1444 Y79.8070
G01 X29.2681 Y79.7522
G01 X29.3834 Y79.6824
G01 X29.4886 Y79.5980
G01 X29.5823 Y79.5014
G01 X29.6633 Y79.3933
G01 X29.7292 Y79.2760
G01 X29.7801 Y79.1509
G01 X29.8140 Y79.0204
G01 X29.8315 Y78.8866
G01 X29.8315 Y78.7518
G01 X29.8140 Y78.6179
G01 X29.7801 Y78.4875
G01 X29.7292 Y78.3624
G01 X29.6633 Y78.2451
G01 X29.5823 Y78.1370
G01 X29.4886 Y78.0404
G01 X29.3834 Y77.9560
G01 X29.2681 Y77.8862
G01 X29.1444 Y77.8314
G01 X29.0154 Y77.7931
G01 X28.8821 Y77.7718
G01 X28.7473 Y77.7674
G01 X28.6135 Y77.7805
G01 X28.4820 Y77.8106
G01 X28.3554 Y77.8572
G01 X28.2356 Y77.9192
G01 X28.1251 Y77.9963
G01 X28.0252 Y78.0869
G01 X27.9379 Y78.1898
G01 X27.8642 Y78.3027
G01 X27.8060 Y78.4244
G01 X27.7633 Y78.5525
G01 X27.7377 Y78.6844
G01 X27.7289 Y78.8192
G01 X27.7377 Y78.9540
G01 X27.7633 Y79.0858
G01 X27.8060 Y79.2139
G01 X27.8642 Y79.3357
G01 X27.9379 Y79.4486
G01 X28.0252 Y79.5514
G01 X28.1251 Y79.6421
G01 X28.2356 Y79.7191
G01 X28.3554 Y79.7812
G01 X28.4820 Y79.8278
G01 X28.6135 Y79.8579
G01 X28.7473 Y79.8710
G00 Z2.0000
M05
G00 Z2.0000
G00 Z15.00

