(G-CODE GENERATED BY FLATCAM v8.993 - www.flatcam.org - Version Date: 2020/06/05)

(Name: Top_recorte)
(Type: G-code from Geometry)
(Units: MM)

(Created on Monday, 29 March 2021 at 22:45)

(This preprocessor is the default preprocessor used by FlatCAM.)
(It is made to work with MACH3 compatible motion controllers.)

(TOOL DIAMETER: 0.1 mm)
(Feedrate_XY: 120.0 mm/min)
(Feedrate_Z: 60.0 mm/min)
(Feedrate rapids 1500.0 mm/min)

(Z_Cut: -0.15 mm)
(Z_Move: 2.0 mm)
(Z Start: None mm)
(Z End: 15.0 mm)
(Steps per circle: 64)
(Preprocessor Geometry: default)

(X range:    5.6412 ...   50.1522  mm)
(Y range:   38.3998 ...   79.8698  mm)

(Spindle Speed: None RPM)
G21
G90
G94



G01 F120.00
G00 Z2.0000

M03
G00 X8.7412 Y42.2450
G01 F60.00
G01 Z-0.1500
G01 F120.00
G01 X8.7337 Y42.3957
G01 X8.7114 Y42.5462
G01 X8.6744 Y42.6937
G01 X8.6232 Y42.8369
G01 X8.5582 Y42.9744
G01 X8.4800 Y43.1049
G01 X8.3894 Y43.2271
G01 X8.2872 Y43.3398
G01 X8.1745 Y43.4419
G01 X8.0523 Y43.5325
G01 X7.9219 Y43.6107
G01 X7.7843 Y43.6758
G01 X7.6411 Y43.7270
G01 X7.4936 Y43.7640
G01 X7.3431 Y43.7863
G01 X7.1912 Y43.7938
G01 X7.0393 Y43.7863
G01 X6.8888 Y43.7640
G01 X6.7412 Y43.7270
G01 X6.5980 Y43.6758
G01 X6.4605 Y43.6107
G01 X6.3301 Y43.5325
G01 X6.2079 Y43.4419
G01 X6.0952 Y43.3398
G01 X5.9930 Y43.2271
G01 X5.9024 Y43.1049
G01 X5.8242 Y42.9744
G01 X5.7592 Y42.8369
G01 X5.7079 Y42.6937
G01 X5.6710 Y42.5462
G01 X5.6486 Y42.3957
G01 X5.6412 Y42.2438
G01 X5.6486 Y42.0918
G01 X5.6710 Y41.9414
G01 X5.7079 Y41.7938
G01 X5.7592 Y41.6506
G01 X5.8242 Y41.5131
G01 X5.9024 Y41.3826
G01 X5.9930 Y41.2605
G01 X6.0952 Y41.1478
G01 X6.2079 Y41.0456
G01 X6.3301 Y40.9550
G01 X6.4605 Y40.8768
G01 X6.5980 Y40.8118
G01 X6.7412 Y40.7605
G01 X6.8888 Y40.7236
G01 X7.0393 Y40.7012
G01 X7.1912 Y40.6938
G01 X7.3431 Y40.7012
G01 X7.4936 Y40.7236
G01 X7.6411 Y40.7605
G01 X7.7843 Y40.8118
G01 X7.9219 Y40.8768
G01 X8.0523 Y40.9550
G01 X8.1745 Y41.0456
G01 X8.2872 Y41.1478
G01 X8.3894 Y41.2605
G01 X8.4800 Y41.3826
G01 X8.5582 Y41.5131
G01 X8.6232 Y41.6506
G01 X8.6744 Y41.7938
G01 X8.7114 Y41.9414
G01 X8.7337 Y42.0918
G01 X8.7412 Y42.2450
G00 Z2.0000
G00 X8.7412 Y47.3250
G01 F60.00
G01 Z-0.1500
G01 F120.00
G01 X8.7337 Y47.4757
G01 X8.7114 Y47.6262
G01 X8.6744 Y47.7737
G01 X8.6232 Y47.9169
G01 X8.5582 Y48.0544
G01 X8.4800 Y48.1849
G01 X8.3894 Y48.3071
G01 X8.2872 Y48.4198
G01 X8.1745 Y48.5219
G01 X8.0523 Y48.6125
G01 X7.9219 Y48.6907
G01 X7.7843 Y48.7558
G01 X7.6411 Y48.8070
G01 X7.4936 Y48.8440
G01 X7.3431 Y48.8663
G01 X7.1912 Y48.8738
G01 X7.0393 Y48.8663
G01 X6.8888 Y48.8440
G01 X6.7412 Y48.8070
G01 X6.5980 Y48.7558
G01 X6.4605 Y48.6907
G01 X6.3301 Y48.6125
G01 X6.2079 Y48.5219
G01 X6.0952 Y48.4198
G01 X5.9930 Y48.3071
G01 X5.9024 Y48.1849
G01 X5.8242 Y48.0544
G01 X5.7592 Y47.9169
G01 X5.7079 Y47.7737
G01 X5.6710 Y47.6262
G01 X5.6486 Y47.4757
G01 X5.6412 Y47.3238
G01 X5.6486 Y47.1718
G01 X5.6710 Y47.0214
G01 X5.7079 Y46.8738
G01 X5.7592 Y46.7306
G01 X5.8242 Y46.5931
G01 X5.9024 Y46.4626
G01 X5.9930 Y46.3405
G01 X6.0952 Y46.2278
G01 X6.2079 Y46.1256
G01 X6.3301 Y46.0350
G01 X6.4605 Y45.9568
G01 X6.5980 Y45.8918
G01 X6.7412 Y45.8405
G01 X6.8888 Y45.8036
G01 X7.0393 Y45.7812
G01 X7.1912 Y45.7738
G01 X7.3431 Y45.7812
G01 X7.4936 Y45.8036
G01 X7.6411 Y45.8405
G01 X7.7843 Y45.8918
G01 X7.9219 Y45.9568
G01 X8.0523 Y46.0350
G01 X8.1745 Y46.1256
G01 X8.2872 Y46.2278
G01 X8.3894 Y46.3405
G01 X8.4800 Y46.4626
G01 X8.5582 Y46.5931
G01 X8.6232 Y46.7306
G01 X8.6744 Y46.8738
G01 X8.7114 Y47.0214
G01 X8.7337 Y47.1718
G01 X8.7412 Y47.3250
G00 Z2.0000
G00 X11.0687 Y54.2420
G01 F60.00
G01 Z-0.1500
G01 F120.00
G01 X13.4712 Y54.2419
G01 X13.4809 Y54.2429
G01 X13.4903 Y54.2457
G01 X13.4990 Y54.2503
G01 X13.5065 Y54.2566
G01 X13.5128 Y54.2641
G01 X13.5174 Y54.2728
G01 X13.5202 Y54.2822
G01 X13.5212 Y54.2919
G01 X13.5212 Y56.6919
G01 X13.5202 Y56.7017
G01 X13.5174 Y56.7110
G01 X13.5128 Y56.7197
G01 X13.5065 Y56.7273
G01 X13.4990 Y56.7335
G01 X13.4903 Y56.7381
G01 X13.4809 Y56.7409
G01 X13.4712 Y56.7419
G01 X11.0712 Y56.7419
G01 X11.0614 Y56.7409
G01 X11.0521 Y56.7381
G01 X11.0434 Y56.7335
G01 X11.0358 Y56.7273
G01 X11.0296 Y56.7197
G01 X11.0250 Y56.7110
G01 X11.0221 Y56.7017
G01 X11.0212 Y56.6919
G01 X11.0212 Y54.2907
G01 X11.0221 Y54.2822
G01 X11.0250 Y54.2728
G01 X11.0296 Y54.2641
G01 X11.0350 Y54.2574
G01 X11.0414 Y54.2518
G01 X11.0498 Y54.2467
G01 X11.0590 Y54.2434
G01 X11.0687 Y54.2420
G00 Z2.0000
G00 X13.5212 Y60.4929
G01 F60.00
G01 Z-0.1500
G01 F120.00
G01 X13.5152 Y60.6142
G01 X13.4972 Y60.7355
G01 X13.4674 Y60.8545
G01 X13.4260 Y60.9700
G01 X13.3736 Y61.0809
G01 X13.3105 Y61.1861
G01 X13.2374 Y61.2846
G01 X13.1551 Y61.3755
G01 X13.0642 Y61.4579
G01 X12.9656 Y61.5310
G01 X12.8604 Y61.5940
G01 X12.7495 Y61.6465
G01 X12.6340 Y61.6878
G01 X12.5150 Y61.7176
G01 X12.3937 Y61.7356
G01 X12.2712 Y61.7416
G01 X12.1487 Y61.7356
G01 X12.0273 Y61.7176
G01 X11.9083 Y61.6878
G01 X11.7928 Y61.6465
G01 X11.6819 Y61.5940
G01 X11.5767 Y61.5310
G01 X11.4782 Y61.4579
G01 X11.3873 Y61.3755
G01 X11.3049 Y61.2846
G01 X11.2318 Y61.1861
G01 X11.1688 Y61.0809
G01 X11.1163 Y60.9700
G01 X11.0750 Y60.8545
G01 X11.0452 Y60.7355
G01 X11.0272 Y60.6142
G01 X11.0212 Y60.4916
G01 X11.0272 Y60.3691
G01 X11.0452 Y60.2478
G01 X11.0750 Y60.1288
G01 X11.1163 Y60.0133
G01 X11.1688 Y59.9024
G01 X11.2318 Y59.7972
G01 X11.3049 Y59.6986
G01 X11.3873 Y59.6078
G01 X11.4782 Y59.5254
G01 X11.5767 Y59.4523
G01 X11.6819 Y59.3892
G01 X11.7928 Y59.3368
G01 X11.9083 Y59.2955
G01 X12.0273 Y59.2657
G01 X12.1487 Y59.2477
G01 X12.2712 Y59.2416
G01 X12.3937 Y59.2477
G01 X12.5150 Y59.2657
G01 X12.6340 Y59.2955
G01 X12.7495 Y59.3368
G01 X12.8604 Y59.3892
G01 X12.9656 Y59.4523
G01 X13.0642 Y59.5254
G01 X13.1551 Y59.6078
G01 X13.2374 Y59.6986
G01 X13.3105 Y59.7972
G01 X13.3736 Y59.9024
G01 X13.4260 Y60.0133
G01 X13.4674 Y60.1288
G01 X13.4972 Y60.2478
G01 X13.5152 Y60.3691
G01 X13.5212 Y60.4929
G00 Z2.0000
G00 X23.7352 Y59.7710
G01 F60.00
G01 Z-0.1500
G01 F120.00
G01 X23.7301 Y59.8727
G01 X23.7150 Y59.9746
G01 X23.6900 Y60.0746
G01 X23.6553 Y60.1716
G01 X23.6112 Y60.2647
G01 X23.5582 Y60.3531
G01 X23.4968 Y60.4359
G01 X23.4276 Y60.5122
G01 X23.3513 Y60.5814
G01 X23.2685 Y60.6428
G01 X23.1802 Y60.6958
G01 X23.0870 Y60.7398
G01 X22.9900 Y60.7746
G01 X22.8900 Y60.7996
G01 X22.7881 Y60.8147
G01 X22.6852 Y60.8198
G01 X22.5823 Y60.8147
G01 X22.4803 Y60.7996
G01 X22.3804 Y60.7746
G01 X22.2834 Y60.7398
G01 X22.1902 Y60.6958
G01 X22.1018 Y60.6428
G01 X22.0191 Y60.5814
G01 X21.9427 Y60.5122
G01 X21.8735 Y60.4359
G01 X21.8121 Y60.3531
G01 X21.7592 Y60.2647
G01 X21.7151 Y60.1716
G01 X21.6804 Y60.0746
G01 X21.6554 Y59.9746
G01 X21.6402 Y59.8727
G01 X21.6352 Y59.7698
G01 X21.6402 Y59.6669
G01 X21.6554 Y59.5649
G01 X21.6804 Y59.4650
G01 X21.7151 Y59.3680
G01 X21.7592 Y59.2748
G01 X21.8121 Y59.1864
G01 X21.8735 Y59.1037
G01 X21.9427 Y59.0273
G01 X22.0191 Y58.9581
G01 X22.1018 Y58.8967
G01 X22.1902 Y58.8438
G01 X22.2834 Y58.7997
G01 X22.3804 Y58.7650
G01 X22.4803 Y58.7399
G01 X22.5823 Y58.7248
G01 X22.6852 Y58.7198
G01 X22.7881 Y58.7248
G01 X22.8900 Y58.7399
G01 X22.9900 Y58.7650
G01 X23.0870 Y58.7997
G01 X23.1802 Y58.8438
G01 X23.2685 Y58.8967
G01 X23.3513 Y58.9581
G01 X23.4276 Y59.0273
G01 X23.4968 Y59.1037
G01 X23.5582 Y59.1864
G01 X23.6112 Y59.2748
G01 X23.6553 Y59.3680
G01 X23.6900 Y59.4650
G01 X23.7150 Y59.5649
G01 X23.7301 Y59.6669
G01 X23.7352 Y59.7710
G00 Z2.0000
G00 X23.7351 Y57.2322
G01 F60.00
G01 Z-0.1500
G01 F120.00
G01 X23.7301 Y57.3327
G01 X23.7150 Y57.4346
G01 X23.6900 Y57.5346
G01 X23.6553 Y57.6316
G01 X23.6112 Y57.7247
G01 X23.5582 Y57.8131
G01 X23.4968 Y57.8959
G01 X23.4276 Y57.9722
G01 X23.3513 Y58.0414
G01 X23.2685 Y58.1028
G01 X23.1802 Y58.1558
G01 X23.0870 Y58.1998
G01 X22.9900 Y58.2346
G01 X22.8900 Y58.2596
G01 X22.7881 Y58.2747
G01 X22.6852 Y58.2798
G01 X22.5823 Y58.2747
G01 X22.4803 Y58.2596
G01 X22.3804 Y58.2346
G01 X22.2834 Y58.1998
G01 X22.1902 Y58.1558
G01 X22.1018 Y58.1028
G01 X22.0191 Y58.0414
G01 X21.9427 Y57.9722
G01 X21.8735 Y57.8959
G01 X21.8121 Y57.8131
G01 X21.7592 Y57.7247
G01 X21.7151 Y57.6316
G01 X21.6804 Y57.5346
G01 X21.6554 Y57.4346
G01 X21.6402 Y57.3327
G01 X21.6352 Y57.2298
G01 X21.6402 Y57.1269
G01 X21.6554 Y57.0249
G01 X21.6804 Y56.9250
G01 X21.7151 Y56.8280
G01 X21.7592 Y56.7348
G01 X21.8121 Y56.6464
G01 X21.8735 Y56.5637
G01 X21.9427 Y56.4873
G01 X22.0191 Y56.4181
G01 X22.1018 Y56.3567
G01 X22.1902 Y56.3038
G01 X22.2834 Y56.2597
G01 X22.3804 Y56.2250
G01 X22.4803 Y56.1999
G01 X22.5823 Y56.1848
G01 X22.6852 Y56.1798
G01 X22.7881 Y56.1848
G01 X22.8900 Y56.1999
G01 X22.9900 Y56.2250
G01 X23.0870 Y56.2597
G01 X23.1802 Y56.3038
G01 X23.2685 Y56.3567
G01 X23.3513 Y56.4181
G01 X23.4276 Y56.4873
G01 X23.4968 Y56.5637
G01 X23.5582 Y56.6464
G01 X23.6112 Y56.7348
G01 X23.6553 Y56.8280
G01 X23.6900 Y56.9250
G01 X23.7150 Y57.0249
G01 X23.7301 Y57.1269
G01 X23.7351 Y57.2322
G00 Z2.0000
G00 X23.7352 Y54.6910
G01 F60.00
G01 Z-0.1500
G01 F120.00
G01 X23.7301 Y54.7927
G01 X23.7150 Y54.8946
G01 X23.6900 Y54.9946
G01 X23.6553 Y55.0916
G01 X23.6112 Y55.1847
G01 X23.5582 Y55.2731
G01 X23.4968 Y55.3559
G01 X23.4276 Y55.4322
G01 X23.3513 Y55.5014
G01 X23.2685 Y55.5628
G01 X23.1802 Y55.6158
G01 X23.0870 Y55.6598
G01 X22.9900 Y55.6946
G01 X22.8900 Y55.7196
G01 X22.7881 Y55.7347
G01 X22.6852 Y55.7398
G01 X22.5823 Y55.7347
G01 X22.4803 Y55.7196
G01 X22.3804 Y55.6946
G01 X22.2834 Y55.6598
G01 X22.1902 Y55.6158
G01 X22.1018 Y55.5628
G01 X22.0191 Y55.5014
G01 X21.9427 Y55.4322
G01 X21.8735 Y55.3559
G01 X21.8121 Y55.2731
G01 X21.7592 Y55.1847
G01 X21.7151 Y55.0916
G01 X21.6804 Y54.9946
G01 X21.6554 Y54.8946
G01 X21.6402 Y54.7927
G01 X21.6352 Y54.6898
G01 X21.6402 Y54.5869
G01 X21.6554 Y54.4849
G01 X21.6804 Y54.3850
G01 X21.7151 Y54.2880
G01 X21.7592 Y54.1948
G01 X21.8121 Y54.1064
G01 X21.8735 Y54.0237
G01 X21.9427 Y53.9473
G01 X22.0191 Y53.8781
G01 X22.1018 Y53.8167
G01 X22.1902 Y53.7638
G01 X22.2834 Y53.7197
G01 X22.3804 Y53.6850
G01 X22.4803 Y53.6599
G01 X22.5823 Y53.6448
G01 X22.6852 Y53.6398
G01 X22.7881 Y53.6448
G01 X22.8900 Y53.6599
G01 X22.9900 Y53.6850
G01 X23.0870 Y53.7197
G01 X23.1802 Y53.7638
G01 X23.2685 Y53.8167
G01 X23.3513 Y53.8781
G01 X23.4276 Y53.9473
G01 X23.4968 Y54.0237
G01 X23.5582 Y54.1064
G01 X23.6112 Y54.1948
G01 X23.6553 Y54.2880
G01 X23.6900 Y54.3850
G01 X23.7150 Y54.4849
G01 X23.7301 Y54.5869
G01 X23.7352 Y54.6910
G00 Z2.0000
G00 X23.7352 Y52.1510
G01 F60.00
G01 Z-0.1500
G01 F120.00
G01 X23.7301 Y52.2527
G01 X23.7150 Y52.3546
G01 X23.6900 Y52.4546
G01 X23.6553 Y52.5516
G01 X23.6112 Y52.6447
G01 X23.5582 Y52.7331
G01 X23.4968 Y52.8159
G01 X23.4276 Y52.8922
G01 X23.3513 Y52.9614
G01 X23.2685 Y53.0228
G01 X23.1802 Y53.0758
G01 X23.0870 Y53.1198
G01 X22.9900 Y53.1546
G01 X22.8900 Y53.1796
G01 X22.7881 Y53.1947
G01 X22.6852 Y53.1998
G01 X22.5823 Y53.1947
G01 X22.4803 Y53.1796
G01 X22.3804 Y53.1546
G01 X22.2834 Y53.1198
G01 X22.1902 Y53.0758
G01 X22.1018 Y53.0228
G01 X22.0191 Y52.9614
G01 X21.9427 Y52.8922
G01 X21.8735 Y52.8159
G01 X21.8121 Y52.7331
G01 X21.7592 Y52.6447
G01 X21.7151 Y52.5516
G01 X21.6804 Y52.4546
G01 X21.6554 Y52.3546
G01 X21.6402 Y52.2527
G01 X21.6352 Y52.1498
G01 X21.6402 Y52.0469
G01 X21.6554 Y51.9449
G01 X21.6804 Y51.8450
G01 X21.7151 Y51.7480
G01 X21.7592 Y51.6548
G01 X21.8121 Y51.5664
G01 X21.8735 Y51.4837
G01 X21.9427 Y51.4073
G01 X22.0191 Y51.3381
G01 X22.1018 Y51.2767
G01 X22.1902 Y51.2238
G01 X22.2834 Y51.1797
G01 X22.3804 Y51.1450
G01 X22.4803 Y51.1199
G01 X22.5823 Y51.1048
G01 X22.6852 Y51.0998
G01 X22.7881 Y51.1048
G01 X22.8900 Y51.1199
G01 X22.9900 Y51.1450
G01 X23.0870 Y51.1797
G01 X23.1802 Y51.2238
G01 X23.2685 Y51.2767
G01 X23.3513 Y51.3381
G01 X23.4276 Y51.4073
G01 X23.4968 Y51.4837
G01 X23.5582 Y51.5664
G01 X23.6112 Y51.6548
G01 X23.6553 Y51.7480
G01 X23.6900 Y51.8450
G01 X23.7150 Y51.9449
G01 X23.7301 Y52.0469
G01 X23.7352 Y52.1510
G00 Z2.0000
G00 X23.7352 Y49.6110
G01 F60.00
G01 Z-0.1500
G01 F120.00
G01 X23.7301 Y49.7127
G01 X23.7150 Y49.8146
G01 X23.6900 Y49.9146
G01 X23.6553 Y50.0116
G01 X23.6112 Y50.1047
G01 X23.5582 Y50.1931
G01 X23.4968 Y50.2759
G01 X23.4276 Y50.3522
G01 X23.3513 Y50.4214
G01 X23.2685 Y50.4828
G01 X23.1802 Y50.5358
G01 X23.0870 Y50.5798
G01 X22.9900 Y50.6146
G01 X22.8900 Y50.6396
G01 X22.7881 Y50.6547
G01 X22.6852 Y50.6598
G01 X22.5823 Y50.6547
G01 X22.4803 Y50.6396
G01 X22.3804 Y50.6146
G01 X22.2834 Y50.5798
G01 X22.1902 Y50.5358
G01 X22.1018 Y50.4828
G01 X22.0191 Y50.4214
G01 X21.9427 Y50.3522
G01 X21.8735 Y50.2759
G01 X21.8121 Y50.1931
G01 X21.7592 Y50.1047
G01 X21.7151 Y50.0116
G01 X21.6804 Y49.9146
G01 X21.6554 Y49.8146
G01 X21.6402 Y49.7127
G01 X21.6352 Y49.6098
G01 X21.6402 Y49.5069
G01 X21.6554 Y49.4049
G01 X21.6804 Y49.3050
G01 X21.7151 Y49.2080
G01 X21.7592 Y49.1148
G01 X21.8121 Y49.0264
G01 X21.8735 Y48.9437
G01 X21.9427 Y48.8673
G01 X22.0191 Y48.7981
G01 X22.1018 Y48.7367
G01 X22.1902 Y48.6838
G01 X22.2834 Y48.6397
G01 X22.3804 Y48.6050
G01 X22.4803 Y48.5799
G01 X22.5823 Y48.5648
G01 X22.6852 Y48.5598
G01 X22.7881 Y48.5648
G01 X22.8900 Y48.5799
G01 X22.9900 Y48.6050
G01 X23.0870 Y48.6397
G01 X23.1802 Y48.6838
G01 X23.2685 Y48.7367
G01 X23.3513 Y48.7981
G01 X23.4276 Y48.8673
G01 X23.4968 Y48.9437
G01 X23.5582 Y49.0264
G01 X23.6112 Y49.1148
G01 X23.6553 Y49.2080
G01 X23.6900 Y49.3050
G01 X23.7150 Y49.4049
G01 X23.7301 Y49.5069
G01 X23.7352 Y49.6110
G00 Z2.0000
G00 X23.7352 Y47.0710
G01 F60.00
G01 Z-0.1500
G01 F120.00
G01 X23.7301 Y47.1727
G01 X23.7150 Y47.2746
G01 X23.6900 Y47.3746
G01 X23.6553 Y47.4716
G01 X23.6112 Y47.5647
G01 X23.5582 Y47.6531
G01 X23.4968 Y47.7359
G01 X23.4276 Y47.8122
G01 X23.3513 Y47.8814
G01 X23.2685 Y47.9428
G01 X23.1802 Y47.9958
G01 X23.0870 Y48.0398
G01 X22.9900 Y48.0746
G01 X22.8900 Y48.0996
G01 X22.7881 Y48.1147
G01 X22.6852 Y48.1198
G01 X22.5823 Y48.1147
G01 X22.4803 Y48.0996
G01 X22.3804 Y48.0746
G01 X22.2834 Y48.0398
G01 X22.1902 Y47.9958
G01 X22.1018 Y47.9428
G01 X22.0191 Y47.8814
G01 X21.9427 Y47.8122
G01 X21.8735 Y47.7359
G01 X21.8121 Y47.6531
G01 X21.7592 Y47.5647
G01 X21.7151 Y47.4716
G01 X21.6804 Y47.3746
G01 X21.6554 Y47.2746
G01 X21.6402 Y47.1727
G01 X21.6352 Y47.0698
G01 X21.6402 Y46.9669
G01 X21.6554 Y46.8649
G01 X21.6804 Y46.7650
G01 X21.7151 Y46.6680
G01 X21.7592 Y46.5748
G01 X21.8121 Y46.4864
G01 X21.8735 Y46.4037
G01 X21.9427 Y46.3273
G01 X22.0191 Y46.2581
G01 X22.1018 Y46.1967
G01 X22.1902 Y46.1438
G01 X22.2834 Y46.0997
G01 X22.3804 Y46.0650
G01 X22.4803 Y46.0399
G01 X22.5823 Y46.0248
G01 X22.6852 Y46.0198
G01 X22.7881 Y46.0248
G01 X22.8900 Y46.0399
G01 X22.9900 Y46.0650
G01 X23.0870 Y46.0997
G01 X23.1802 Y46.1438
G01 X23.2685 Y46.1967
G01 X23.3513 Y46.2581
G01 X23.4276 Y46.3273
G01 X23.4968 Y46.4037
G01 X23.5582 Y46.4864
G01 X23.6112 Y46.5748
G01 X23.6553 Y46.6680
G01 X23.6900 Y46.7650
G01 X23.7150 Y46.8649
G01 X23.7301 Y46.9669
G01 X23.7352 Y47.0710
G00 Z2.0000
G00 X23.7351 Y44.5322
G01 F60.00
G01 Z-0.1500
G01 F120.00
G01 X23.7301 Y44.6327
G01 X23.7150 Y44.7346
G01 X23.6900 Y44.8346
G01 X23.6553 Y44.9316
G01 X23.6112 Y45.0247
G01 X23.5582 Y45.1131
G01 X23.4968 Y45.1959
G01 X23.4276 Y45.2722
G01 X23.3513 Y45.3414
G01 X23.2685 Y45.4028
G01 X23.1802 Y45.4558
G01 X23.0870 Y45.4998
G01 X22.9900 Y45.5346
G01 X22.8900 Y45.5596
G01 X22.7881 Y45.5747
G01 X22.6852 Y45.5798
G01 X22.5823 Y45.5747
G01 X22.4803 Y45.5596
G01 X22.3804 Y45.5346
G01 X22.2834 Y45.4998
G01 X22.1902 Y45.4558
G01 X22.1018 Y45.4028
G01 X22.0191 Y45.3414
G01 X21.9427 Y45.2722
G01 X21.8735 Y45.1959
G01 X21.8121 Y45.1131
G01 X21.7592 Y45.0247
G01 X21.7151 Y44.9316
G01 X21.6804 Y44.8346
G01 X21.6554 Y44.7346
G01 X21.6402 Y44.6327
G01 X21.6352 Y44.5298
G01 X21.6402 Y44.4269
G01 X21.6554 Y44.3249
G01 X21.6804 Y44.2250
G01 X21.7151 Y44.1280
G01 X21.7592 Y44.0348
G01 X21.8121 Y43.9464
G01 X21.8735 Y43.8637
G01 X21.9427 Y43.7873
G01 X22.0191 Y43.7181
G01 X22.1018 Y43.6567
G01 X22.1902 Y43.6038
G01 X22.2834 Y43.5597
G01 X22.3804 Y43.5250
G01 X22.4803 Y43.4999
G01 X22.5823 Y43.4848
G01 X22.6852 Y43.4798
G01 X22.7881 Y43.4848
G01 X22.8900 Y43.4999
G01 X22.9900 Y43.5250
G01 X23.0870 Y43.5597
G01 X23.1802 Y43.6038
G01 X23.2685 Y43.6567
G01 X23.3513 Y43.7181
G01 X23.4276 Y43.7873
G01 X23.4968 Y43.8637
G01 X23.5582 Y43.9464
G01 X23.6112 Y44.0348
G01 X23.6553 Y44.1280
G01 X23.6900 Y44.2250
G01 X23.7150 Y44.3249
G01 X23.7301 Y44.4269
G01 X23.7351 Y44.5322
G00 Z2.0000
G00 X23.7352 Y41.9910
G01 F60.00
G01 Z-0.1500
G01 F120.00
G01 X23.7301 Y42.0927
G01 X23.7150 Y42.1946
G01 X23.6900 Y42.2946
G01 X23.6553 Y42.3916
G01 X23.6112 Y42.4847
G01 X23.5582 Y42.5731
G01 X23.4968 Y42.6559
G01 X23.4276 Y42.7322
G01 X23.3513 Y42.8014
G01 X23.2685 Y42.8628
G01 X23.1802 Y42.9158
G01 X23.0870 Y42.9598
G01 X22.9900 Y42.9946
G01 X22.8900 Y43.0196
G01 X22.7881 Y43.0347
G01 X22.6852 Y43.0398
G01 X22.5823 Y43.0347
G01 X22.4803 Y43.0196
G01 X22.3804 Y42.9946
G01 X22.2834 Y42.9598
G01 X22.1902 Y42.9158
G01 X22.1018 Y42.8628
G01 X22.0191 Y42.8014
G01 X21.9427 Y42.7322
G01 X21.8735 Y42.6559
G01 X21.8121 Y42.5731
G01 X21.7592 Y42.4847
G01 X21.7151 Y42.3916
G01 X21.6804 Y42.2946
G01 X21.6554 Y42.1946
G01 X21.6402 Y42.0927
G01 X21.6352 Y41.9898
G01 X21.6402 Y41.8869
G01 X21.6554 Y41.7849
G01 X21.6804 Y41.6850
G01 X21.7151 Y41.5880
G01 X21.7592 Y41.4948
G01 X21.8121 Y41.4064
G01 X21.8735 Y41.3237
G01 X21.9427 Y41.2473
G01 X22.0191 Y41.1781
G01 X22.1018 Y41.1167
G01 X22.1902 Y41.0638
G01 X22.2834 Y41.0197
G01 X22.3804 Y40.9850
G01 X22.4803 Y40.9599
G01 X22.5823 Y40.9448
G01 X22.6852 Y40.9398
G01 X22.7881 Y40.9448
G01 X22.8900 Y40.9599
G01 X22.9900 Y40.9850
G01 X23.0870 Y41.0197
G01 X23.1802 Y41.0638
G01 X23.2685 Y41.1167
G01 X23.3513 Y41.1781
G01 X23.4276 Y41.2473
G01 X23.4968 Y41.3237
G01 X23.5582 Y41.4064
G01 X23.6112 Y41.4948
G01 X23.6553 Y41.5880
G01 X23.6900 Y41.6850
G01 X23.7150 Y41.7849
G01 X23.7301 Y41.8869
G01 X23.7352 Y41.9910
G00 Z2.0000
G00 X27.7992 Y41.9910
G01 F60.00
G01 Z-0.1500
G01 F120.00
G01 X27.7941 Y42.0927
G01 X27.7790 Y42.1946
G01 X27.7540 Y42.2946
G01 X27.7193 Y42.3916
G01 X27.6752 Y42.4847
G01 X27.6222 Y42.5731
G01 X27.5608 Y42.6559
G01 X27.4916 Y42.7322
G01 X27.4153 Y42.8014
G01 X27.3325 Y42.8628
G01 X27.2442 Y42.9158
G01 X27.1510 Y42.9598
G01 X27.0540 Y42.9946
G01 X26.9540 Y43.0196
G01 X26.8521 Y43.0347
G01 X26.7492 Y43.0398
G01 X26.6463 Y43.0347
G01 X26.5443 Y43.0196
G01 X26.4444 Y42.9946
G01 X26.3474 Y42.9598
G01 X26.2542 Y42.9158
G01 X26.1658 Y42.8628
G01 X26.0831 Y42.8014
G01 X26.0067 Y42.7322
G01 X25.9375 Y42.6559
G01 X25.8761 Y42.5731
G01 X25.8232 Y42.4847
G01 X25.7791 Y42.3916
G01 X25.7444 Y42.2946
G01 X25.7194 Y42.1946
G01 X25.7042 Y42.0927
G01 X25.6992 Y41.9898
G01 X25.7042 Y41.8869
G01 X25.7194 Y41.7849
G01 X25.7444 Y41.6850
G01 X25.7791 Y41.5880
G01 X25.8232 Y41.4948
G01 X25.8761 Y41.4064
G01 X25.9375 Y41.3237
G01 X26.0067 Y41.2473
G01 X26.0831 Y41.1781
G01 X26.1658 Y41.1167
G01 X26.2542 Y41.0638
G01 X26.3474 Y41.0197
G01 X26.4444 Y40.9850
G01 X26.5443 Y40.9599
G01 X26.6463 Y40.9448
G01 X26.7492 Y40.9398
G01 X26.8521 Y40.9448
G01 X26.9540 Y40.9599
G01 X27.0540 Y40.9850
G01 X27.1510 Y41.0197
G01 X27.2442 Y41.0638
G01 X27.3325 Y41.1167
G01 X27.4153 Y41.1781
G01 X27.4916 Y41.2473
G01 X27.5608 Y41.3237
G01 X27.6222 Y41.4064
G01 X27.6752 Y41.4948
G01 X27.7193 Y41.5880
G01 X27.7540 Y41.6850
G01 X27.7790 Y41.7849
G01 X27.7941 Y41.8869
G01 X27.7992 Y41.9910
G00 Z2.0000
G00 X27.7991 Y44.5322
G01 F60.00
G01 Z-0.1500
G01 F120.00
G01 X27.7941 Y44.6327
G01 X27.7790 Y44.7346
G01 X27.7540 Y44.8346
G01 X27.7193 Y44.9316
G01 X27.6752 Y45.0247
G01 X27.6222 Y45.1131
G01 X27.5608 Y45.1959
G01 X27.4916 Y45.2722
G01 X27.4153 Y45.3414
G01 X27.3325 Y45.4028
G01 X27.2442 Y45.4558
G01 X27.1510 Y45.4998
G01 X27.0540 Y45.5346
G01 X26.9540 Y45.5596
G01 X26.8521 Y45.5747
G01 X26.7492 Y45.5798
G01 X26.6463 Y45.5747
G01 X26.5443 Y45.5596
G01 X26.4444 Y45.5346
G01 X26.3474 Y45.4998
G01 X26.2542 Y45.4558
G01 X26.1658 Y45.4028
G01 X26.0831 Y45.3414
G01 X26.0067 Y45.2722
G01 X25.9375 Y45.1959
G01 X25.8761 Y45.1131
G01 X25.8232 Y45.0247
G01 X25.7791 Y44.9316
G01 X25.7444 Y44.8346
G01 X25.7194 Y44.7346
G01 X25.7042 Y44.6327
G01 X25.6992 Y44.5298
G01 X25.7042 Y44.4269
G01 X25.7194 Y44.3249
G01 X25.7444 Y44.2250
G01 X25.7791 Y44.1280
G01 X25.8232 Y44.0348
G01 X25.8761 Y43.9464
G01 X25.9375 Y43.8637
G01 X26.0067 Y43.7873
G01 X26.0831 Y43.7181
G01 X26.1658 Y43.6567
G01 X26.2542 Y43.6038
G01 X26.3474 Y43.5597
G01 X26.4444 Y43.5250
G01 X26.5443 Y43.4999
G01 X26.6463 Y43.4848
G01 X26.7492 Y43.4798
G01 X26.8521 Y43.4848
G01 X26.9540 Y43.4999
G01 X27.0540 Y43.5250
G01 X27.1510 Y43.5597
G01 X27.2442 Y43.6038
G01 X27.3325 Y43.6567
G01 X27.4153 Y43.7181
G01 X27.4916 Y43.7873
G01 X27.5608 Y43.8637
G01 X27.6222 Y43.9464
G01 X27.6752 Y44.0348
G01 X27.7193 Y44.1280
G01 X27.7540 Y44.2250
G01 X27.7790 Y44.3249
G01 X27.7941 Y44.4269
G01 X27.7991 Y44.5322
G00 Z2.0000
G00 X27.7992 Y47.0710
G01 F60.00
G01 Z-0.1500
G01 F120.00
G01 X27.7941 Y47.1727
G01 X27.7790 Y47.2746
G01 X27.7540 Y47.3746
G01 X27.7193 Y47.4716
G01 X27.6752 Y47.5647
G01 X27.6222 Y47.6531
G01 X27.5608 Y47.7359
G01 X27.4916 Y47.8122
G01 X27.4153 Y47.8814
G01 X27.3325 Y47.9428
G01 X27.2442 Y47.9958
G01 X27.1510 Y48.0398
G01 X27.0540 Y48.0746
G01 X26.9540 Y48.0996
G01 X26.8521 Y48.1147
G01 X26.7492 Y48.1198
G01 X26.6463 Y48.1147
G01 X26.5443 Y48.0996
G01 X26.4444 Y48.0746
G01 X26.3474 Y48.0398
G01 X26.2542 Y47.9958
G01 X26.1658 Y47.9428
G01 X26.0831 Y47.8814
G01 X26.0067 Y47.8122
G01 X25.9375 Y47.7359
G01 X25.8761 Y47.6531
G01 X25.8232 Y47.5647
G01 X25.7791 Y47.4716
G01 X25.7444 Y47.3746
G01 X25.7194 Y47.2746
G01 X25.7042 Y47.1727
G01 X25.6992 Y47.0698
G01 X25.7042 Y46.9669
G01 X25.7194 Y46.8649
G01 X25.7444 Y46.7650
G01 X25.7791 Y46.6680
G01 X25.8232 Y46.5748
G01 X25.8761 Y46.4864
G01 X25.9375 Y46.4037
G01 X26.0067 Y46.3273
G01 X26.0831 Y46.2581
G01 X26.1658 Y46.1967
G01 X26.2542 Y46.1438
G01 X26.3474 Y46.0997
G01 X26.4444 Y46.0650
G01 X26.5443 Y46.0399
G01 X26.6463 Y46.0248
G01 X26.7492 Y46.0198
G01 X26.8521 Y46.0248
G01 X26.9540 Y46.0399
G01 X27.0540 Y46.0650
G01 X27.1510 Y46.0997
G01 X27.2442 Y46.1438
G01 X27.3325 Y46.1967
G01 X27.4153 Y46.2581
G01 X27.4916 Y46.3273
G01 X27.5608 Y46.4037
G01 X27.6222 Y46.4864
G01 X27.6752 Y46.5748
G01 X27.7193 Y46.6680
G01 X27.7540 Y46.7650
G01 X27.7790 Y46.8649
G01 X27.7941 Y46.9669
G01 X27.7992 Y47.0710
G00 Z2.0000
G00 X27.7992 Y49.6110
G01 F60.00
G01 Z-0.1500
G01 F120.00
G01 X27.7941 Y49.7127
G01 X27.7790 Y49.8146
G01 X27.7540 Y49.9146
G01 X27.7193 Y50.0116
G01 X27.6752 Y50.1047
G01 X27.6222 Y50.1931
G01 X27.5608 Y50.2759
G01 X27.4916 Y50.3522
G01 X27.4153 Y50.4214
G01 X27.3325 Y50.4828
G01 X27.2442 Y50.5358
G01 X27.1510 Y50.5798
G01 X27.0540 Y50.6146
G01 X26.9540 Y50.6396
G01 X26.8521 Y50.6547
G01 X26.7492 Y50.6598
G01 X26.6463 Y50.6547
G01 X26.5443 Y50.6396
G01 X26.4444 Y50.6146
G01 X26.3474 Y50.5798
G01 X26.2542 Y50.5358
G01 X26.1658 Y50.4828
G01 X26.0831 Y50.4214
G01 X26.0067 Y50.3522
G01 X25.9375 Y50.2759
G01 X25.8761 Y50.1931
G01 X25.8232 Y50.1047
G01 X25.7791 Y50.0116
G01 X25.7444 Y49.9146
G01 X25.7194 Y49.8146
G01 X25.7042 Y49.7127
G01 X25.6992 Y49.6098
G01 X25.7042 Y49.5069
G01 X25.7194 Y49.4049
G01 X25.7444 Y49.3050
G01 X25.7791 Y49.2080
G01 X25.8232 Y49.1148
G01 X25.8761 Y49.0264
G01 X25.9375 Y48.9437
G01 X26.0067 Y48.8673
G01 X26.0831 Y48.7981
G01 X26.1658 Y48.7367
G01 X26.2542 Y48.6838
G01 X26.3474 Y48.6397
G01 X26.4444 Y48.6050
G01 X26.5443 Y48.5799
G01 X26.6463 Y48.5648
G01 X26.7492 Y48.5598
G01 X26.8521 Y48.5648
G01 X26.9540 Y48.5799
G01 X27.0540 Y48.6050
G01 X27.1510 Y48.6397
G01 X27.2442 Y48.6838
G01 X27.3325 Y48.7367
G01 X27.4153 Y48.7981
G01 X27.4916 Y48.8673
G01 X27.5608 Y48.9437
G01 X27.6222 Y49.0264
G01 X27.6752 Y49.1148
G01 X27.7193 Y49.2080
G01 X27.7540 Y49.3050
G01 X27.7790 Y49.4049
G01 X27.7941 Y49.5069
G01 X27.7992 Y49.6110
G00 Z2.0000
G00 X27.7992 Y52.1510
G01 F60.00
G01 Z-0.1500
G01 F120.00
G01 X27.7941 Y52.2527
G01 X27.7790 Y52.3546
G01 X27.7540 Y52.4546
G01 X27.7193 Y52.5516
G01 X27.6752 Y52.6447
G01 X27.6222 Y52.7331
G01 X27.5608 Y52.8159
G01 X27.4916 Y52.8922
G01 X27.4153 Y52.9614
G01 X27.3325 Y53.0228
G01 X27.2442 Y53.0758
G01 X27.1510 Y53.1198
G01 X27.0540 Y53.1546
G01 X26.9540 Y53.1796
G01 X26.8521 Y53.1947
G01 X26.7492 Y53.1998
G01 X26.6463 Y53.1947
G01 X26.5443 Y53.1796
G01 X26.4444 Y53.1546
G01 X26.3474 Y53.1198
G01 X26.2542 Y53.0758
G01 X26.1658 Y53.0228
G01 X26.0831 Y52.9614
G01 X26.0067 Y52.8922
G01 X25.9375 Y52.8159
G01 X25.8761 Y52.7331
G01 X25.8232 Y52.6447
G01 X25.7791 Y52.5516
G01 X25.7444 Y52.4546
G01 X25.7194 Y52.3546
G01 X25.7042 Y52.2527
G01 X25.6992 Y52.1498
G01 X25.7042 Y52.0469
G01 X25.7194 Y51.9449
G01 X25.7444 Y51.8450
G01 X25.7791 Y51.7480
G01 X25.8232 Y51.6548
G01 X25.8761 Y51.5664
G01 X25.9375 Y51.4837
G01 X26.0067 Y51.4073
G01 X26.0831 Y51.3381
G01 X26.1658 Y51.2767
G01 X26.2542 Y51.2238
G01 X26.3474 Y51.1797
G01 X26.4444 Y51.1450
G01 X26.5443 Y51.1199
G01 X26.6463 Y51.1048
G01 X26.7492 Y51.0998
G01 X26.8521 Y51.1048
G01 X26.9540 Y51.1199
G01 X27.0540 Y51.1450
G01 X27.1510 Y51.1797
G01 X27.2442 Y51.2238
G01 X27.3325 Y51.2767
G01 X27.4153 Y51.3381
G01 X27.4916 Y51.4073
G01 X27.5608 Y51.4837
G01 X27.6222 Y51.5664
G01 X27.6752 Y51.6548
G01 X27.7193 Y51.7480
G01 X27.7540 Y51.8450
G01 X27.7790 Y51.9449
G01 X27.7941 Y52.0469
G01 X27.7992 Y52.1510
G00 Z2.0000
G00 X27.7992 Y54.6910
G01 F60.00
G01 Z-0.1500
G01 F120.00
G01 X27.7941 Y54.7927
G01 X27.7790 Y54.8946
G01 X27.7540 Y54.9946
G01 X27.7193 Y55.0916
G01 X27.6752 Y55.1847
G01 X27.6222 Y55.2731
G01 X27.5608 Y55.3559
G01 X27.4916 Y55.4322
G01 X27.4153 Y55.5014
G01 X27.3325 Y55.5628
G01 X27.2442 Y55.6158
G01 X27.1510 Y55.6598
G01 X27.0540 Y55.6946
G01 X26.9540 Y55.7196
G01 X26.8521 Y55.7347
G01 X26.7492 Y55.7398
G01 X26.6463 Y55.7347
G01 X26.5443 Y55.7196
G01 X26.4444 Y55.6946
G01 X26.3474 Y55.6598
G01 X26.2542 Y55.6158
G01 X26.1658 Y55.5628
G01 X26.0831 Y55.5014
G01 X26.0067 Y55.4322
G01 X25.9375 Y55.3559
G01 X25.8761 Y55.2731
G01 X25.8232 Y55.1847
G01 X25.7791 Y55.0916
G01 X25.7444 Y54.9946
G01 X25.7194 Y54.8946
G01 X25.7042 Y54.7927
G01 X25.6992 Y54.6898
G01 X25.7042 Y54.5869
G01 X25.7194 Y54.4849
G01 X25.7444 Y54.3850
G01 X25.7791 Y54.2880
G01 X25.8232 Y54.1948
G01 X25.8761 Y54.1064
G01 X25.9375 Y54.0237
G01 X26.0067 Y53.9473
G01 X26.0831 Y53.8781
G01 X26.1658 Y53.8167
G01 X26.2542 Y53.7638
G01 X26.3474 Y53.7197
G01 X26.4444 Y53.6850
G01 X26.5443 Y53.6599
G01 X26.6463 Y53.6448
G01 X26.7492 Y53.6398
G01 X26.8521 Y53.6448
G01 X26.9540 Y53.6599
G01 X27.0540 Y53.6850
G01 X27.1510 Y53.7197
G01 X27.2442 Y53.7638
G01 X27.3325 Y53.8167
G01 X27.4153 Y53.8781
G01 X27.4916 Y53.9473
G01 X27.5608 Y54.0237
G01 X27.6222 Y54.1064
G01 X27.6752 Y54.1948
G01 X27.7193 Y54.2880
G01 X27.7540 Y54.3850
G01 X27.7790 Y54.4849
G01 X27.7941 Y54.5869
G01 X27.7992 Y54.6910
G00 Z2.0000
G00 X27.7991 Y57.2322
G01 F60.00
G01 Z-0.1500
G01 F120.00
G01 X27.7941 Y57.3327
G01 X27.7790 Y57.4346
G01 X27.7540 Y57.5346
G01 X27.7193 Y57.6316
G01 X27.6752 Y57.7247
G01 X27.6222 Y57.8131
G01 X27.5608 Y57.8959
G01 X27.4916 Y57.9722
G01 X27.4153 Y58.0414
G01 X27.3325 Y58.1028
G01 X27.2442 Y58.1558
G01 X27.1510 Y58.1998
G01 X27.0540 Y58.2346
G01 X26.9540 Y58.2596
G01 X26.8521 Y58.2747
G01 X26.7492 Y58.2798
G01 X26.6463 Y58.2747
G01 X26.5443 Y58.2596
G01 X26.4444 Y58.2346
G01 X26.3474 Y58.1998
G01 X26.2542 Y58.1558
G01 X26.1658 Y58.1028
G01 X26.0831 Y58.0414
G01 X26.0067 Y57.9722
G01 X25.9375 Y57.8959
G01 X25.8761 Y57.8131
G01 X25.8232 Y57.7247
G01 X25.7791 Y57.6316
G01 X25.7444 Y57.5346
G01 X25.7194 Y57.4346
G01 X25.7042 Y57.3327
G01 X25.6992 Y57.2298
G01 X25.7042 Y57.1269
G01 X25.7194 Y57.0249
G01 X25.7444 Y56.9250
G01 X25.7791 Y56.8280
G01 X25.8232 Y56.7348
G01 X25.8761 Y56.6464
G01 X25.9375 Y56.5637
G01 X26.0067 Y56.4873
G01 X26.0831 Y56.4181
G01 X26.1658 Y56.3567
G01 X26.2542 Y56.3038
G01 X26.3474 Y56.2597
G01 X26.4444 Y56.2250
G01 X26.5443 Y56.1999
G01 X26.6463 Y56.1848
G01 X26.7492 Y56.1798
G01 X26.8521 Y56.1848
G01 X26.9540 Y56.1999
G01 X27.0540 Y56.2250
G01 X27.1510 Y56.2597
G01 X27.2442 Y56.3038
G01 X27.3325 Y56.3567
G01 X27.4153 Y56.4181
G01 X27.4916 Y56.4873
G01 X27.5608 Y56.5637
G01 X27.6222 Y56.6464
G01 X27.6752 Y56.7348
G01 X27.7193 Y56.8280
G01 X27.7540 Y56.9250
G01 X27.7790 Y57.0249
G01 X27.7941 Y57.1269
G01 X27.7991 Y57.2322
G00 Z2.0000
G00 X27.7992 Y59.7710
G01 F60.00
G01 Z-0.1500
G01 F120.00
G01 X27.7941 Y59.8727
G01 X27.7790 Y59.9746
G01 X27.7540 Y60.0746
G01 X27.7193 Y60.1716
G01 X27.6752 Y60.2647
G01 X27.6222 Y60.3531
G01 X27.5608 Y60.4359
G01 X27.4916 Y60.5122
G01 X27.4153 Y60.5814
G01 X27.3325 Y60.6428
G01 X27.2442 Y60.6958
G01 X27.1510 Y60.7398
G01 X27.0540 Y60.7746
G01 X26.9540 Y60.7996
G01 X26.8521 Y60.8147
G01 X26.7492 Y60.8198
G01 X26.6463 Y60.8147
G01 X26.5443 Y60.7996
G01 X26.4444 Y60.7746
G01 X26.3474 Y60.7398
G01 X26.2542 Y60.6958
G01 X26.1658 Y60.6428
G01 X26.0831 Y60.5814
G01 X26.0067 Y60.5122
G01 X25.9375 Y60.4359
G01 X25.8761 Y60.3531
G01 X25.8232 Y60.2647
G01 X25.7791 Y60.1716
G01 X25.7444 Y60.0746
G01 X25.7194 Y59.9746
G01 X25.7042 Y59.8727
G01 X25.6992 Y59.7698
G01 X25.7042 Y59.6669
G01 X25.7194 Y59.5649
G01 X25.7444 Y59.4650
G01 X25.7791 Y59.3680
G01 X25.8232 Y59.2748
G01 X25.8761 Y59.1864
G01 X25.9375 Y59.1037
G01 X26.0067 Y59.0273
G01 X26.0831 Y58.9581
G01 X26.1658 Y58.8967
G01 X26.2542 Y58.8438
G01 X26.3474 Y58.7997
G01 X26.4444 Y58.7650
G01 X26.5443 Y58.7399
G01 X26.6463 Y58.7248
G01 X26.7492 Y58.7198
G01 X26.8521 Y58.7248
G01 X26.9540 Y58.7399
G01 X27.0540 Y58.7650
G01 X27.1510 Y58.7997
G01 X27.2442 Y58.8438
G01 X27.3325 Y58.8967
G01 X27.4153 Y58.9581
G01 X27.4916 Y59.0273
G01 X27.5608 Y59.1037
G01 X27.6222 Y59.1864
G01 X27.6752 Y59.2748
G01 X27.7193 Y59.3680
G01 X27.7540 Y59.4650
G01 X27.7790 Y59.5649
G01 X27.7941 Y59.6669
G01 X27.7992 Y59.7710
G00 Z2.0000
G00 X27.7992 Y62.3110
G01 F60.00
G01 Z-0.1500
G01 F120.00
G01 X27.7941 Y62.4127
G01 X27.7790 Y62.5146
G01 X27.7540 Y62.6146
G01 X27.7193 Y62.7116
G01 X27.6752 Y62.8047
G01 X27.6222 Y62.8931
G01 X27.5608 Y62.9759
G01 X27.4916 Y63.0522
G01 X27.4153 Y63.1214
G01 X27.3325 Y63.1828
G01 X27.2442 Y63.2358
G01 X27.1510 Y63.2798
G01 X27.0540 Y63.3146
G01 X26.9540 Y63.3396
G01 X26.8521 Y63.3547
G01 X26.7492 Y63.3598
G01 X26.6463 Y63.3547
G01 X26.5443 Y63.3396
G01 X26.4444 Y63.3146
G01 X26.3474 Y63.2798
G01 X26.2542 Y63.2358
G01 X26.1658 Y63.1828
G01 X26.0831 Y63.1214
G01 X26.0067 Y63.0522
G01 X25.9375 Y62.9759
G01 X25.8761 Y62.8931
G01 X25.8232 Y62.8047
G01 X25.7791 Y62.7116
G01 X25.7444 Y62.6146
G01 X25.7194 Y62.5146
G01 X25.7042 Y62.4127
G01 X25.6992 Y62.3098
G01 X25.7042 Y62.2069
G01 X25.7194 Y62.1049
G01 X25.7444 Y62.0050
G01 X25.7791 Y61.9080
G01 X25.8232 Y61.8148
G01 X25.8761 Y61.7264
G01 X25.9375 Y61.6437
G01 X26.0067 Y61.5673
G01 X26.0831 Y61.4981
G01 X26.1658 Y61.4367
G01 X26.2542 Y61.3838
G01 X26.3474 Y61.3397
G01 X26.4444 Y61.3050
G01 X26.5443 Y61.2799
G01 X26.6463 Y61.2648
G01 X26.7492 Y61.2598
G01 X26.8521 Y61.2648
G01 X26.9540 Y61.2799
G01 X27.0540 Y61.3050
G01 X27.1510 Y61.3397
G01 X27.2442 Y61.3838
G01 X27.3325 Y61.4367
G01 X27.4153 Y61.4981
G01 X27.4916 Y61.5673
G01 X27.5608 Y61.6437
G01 X27.6222 Y61.7264
G01 X27.6752 Y61.8148
G01 X27.7193 Y61.9080
G01 X27.7540 Y62.0050
G01 X27.7790 Y62.1049
G01 X27.7941 Y62.2069
G01 X27.7992 Y62.3110
G00 Z2.0000
G00 X23.7352 Y62.3110
G01 F60.00
G01 Z-0.1500
G01 F120.00
G01 X23.7301 Y62.4127
G01 X23.7150 Y62.5146
G01 X23.6900 Y62.6146
G01 X23.6553 Y62.7116
G01 X23.6112 Y62.8047
G01 X23.5582 Y62.8931
G01 X23.4968 Y62.9759
G01 X23.4276 Y63.0522
G01 X23.3513 Y63.1214
G01 X23.2685 Y63.1828
G01 X23.1802 Y63.2358
G01 X23.0870 Y63.2798
G01 X22.9900 Y63.3146
G01 X22.8900 Y63.3396
G01 X22.7881 Y63.3547
G01 X22.6852 Y63.3598
G01 X22.5823 Y63.3547
G01 X22.4803 Y63.3396
G01 X22.3804 Y63.3146
G01 X22.2834 Y63.2798
G01 X22.1902 Y63.2358
G01 X22.1018 Y63.1828
G01 X22.0191 Y63.1214
G01 X21.9427 Y63.0522
G01 X21.8735 Y62.9759
G01 X21.8121 Y62.8931
G01 X21.7592 Y62.8047
G01 X21.7151 Y62.7116
G01 X21.6804 Y62.6146
G01 X21.6554 Y62.5146
G01 X21.6402 Y62.4127
G01 X21.6352 Y62.3098
G01 X21.6402 Y62.2069
G01 X21.6554 Y62.1049
G01 X21.6804 Y62.0050
G01 X21.7151 Y61.9080
G01 X21.7592 Y61.8148
G01 X21.8121 Y61.7264
G01 X21.8735 Y61.6437
G01 X21.9427 Y61.5673
G01 X22.0191 Y61.4981
G01 X22.1018 Y61.4367
G01 X22.1902 Y61.3838
G01 X22.2834 Y61.3397
G01 X22.3804 Y61.3050
G01 X22.4803 Y61.2799
G01 X22.5823 Y61.2648
G01 X22.6852 Y61.2598
G01 X22.7881 Y61.2648
G01 X22.8900 Y61.2799
G01 X22.9900 Y61.3050
G01 X23.0870 Y61.3397
G01 X23.1802 Y61.3838
G01 X23.2685 Y61.4367
G01 X23.3513 Y61.4981
G01 X23.4276 Y61.5673
G01 X23.4968 Y61.6437
G01 X23.5582 Y61.7264
G01 X23.6112 Y61.8148
G01 X23.6553 Y61.9080
G01 X23.6900 Y62.0050
G01 X23.7150 Y62.1049
G01 X23.7301 Y62.2069
G01 X23.7352 Y62.3110
G00 Z2.0000
G00 X34.4032 Y62.3110
G01 F60.00
G01 Z-0.1500
G01 F120.00
G01 X34.3981 Y62.4127
G01 X34.3830 Y62.5146
G01 X34.3580 Y62.6146
G01 X34.3233 Y62.7116
G01 X34.2792 Y62.8047
G01 X34.2262 Y62.8931
G01 X34.1648 Y62.9759
G01 X34.0956 Y63.0522
G01 X34.0193 Y63.1214
G01 X33.9365 Y63.1828
G01 X33.8482 Y63.2358
G01 X33.7550 Y63.2798
G01 X33.6580 Y63.3146
G01 X33.5580 Y63.3396
G01 X33.4561 Y63.3547
G01 X33.3532 Y63.3598
G01 X33.2503 Y63.3547
G01 X33.1483 Y63.3396
G01 X33.0484 Y63.3146
G01 X32.9514 Y63.2798
G01 X32.8582 Y63.2358
G01 X32.7698 Y63.1828
G01 X32.6871 Y63.1214
G01 X32.6107 Y63.0522
G01 X32.5415 Y62.9759
G01 X32.4801 Y62.8931
G01 X32.4272 Y62.8047
G01 X32.3831 Y62.7116
G01 X32.3484 Y62.6146
G01 X32.3234 Y62.5146
G01 X32.3082 Y62.4127
G01 X32.3032 Y62.3098
G01 X32.3082 Y62.2069
G01 X32.3234 Y62.1049
G01 X32.3484 Y62.0050
G01 X32.3831 Y61.9080
G01 X32.4272 Y61.8148
G01 X32.4801 Y61.7264
G01 X32.5415 Y61.6437
G01 X32.6107 Y61.5673
G01 X32.6871 Y61.4981
G01 X32.7698 Y61.4367
G01 X32.8582 Y61.3838
G01 X32.9514 Y61.3397
G01 X33.0484 Y61.3050
G01 X33.1483 Y61.2799
G01 X33.2503 Y61.2648
G01 X33.3532 Y61.2598
G01 X33.4561 Y61.2648
G01 X33.5580 Y61.2799
G01 X33.6580 Y61.3050
G01 X33.7550 Y61.3397
G01 X33.8482 Y61.3838
G01 X33.9365 Y61.4367
G01 X34.0193 Y61.4981
G01 X34.0956 Y61.5673
G01 X34.1648 Y61.6437
G01 X34.2262 Y61.7264
G01 X34.2792 Y61.8148
G01 X34.3233 Y61.9080
G01 X34.3580 Y62.0050
G01 X34.3830 Y62.1049
G01 X34.3981 Y62.2069
G01 X34.4032 Y62.3110
G00 Z2.0000
G00 X34.4032 Y59.7710
G01 F60.00
G01 Z-0.1500
G01 F120.00
G01 X34.3981 Y59.8727
G01 X34.3830 Y59.9746
G01 X34.3580 Y60.0746
G01 X34.3233 Y60.1716
G01 X34.2792 Y60.2647
G01 X34.2262 Y60.3531
G01 X34.1648 Y60.4359
G01 X34.0956 Y60.5122
G01 X34.0193 Y60.5814
G01 X33.9365 Y60.6428
G01 X33.8482 Y60.6958
G01 X33.7550 Y60.7398
G01 X33.6580 Y60.7746
G01 X33.5580 Y60.7996
G01 X33.4561 Y60.8147
G01 X33.3532 Y60.8198
G01 X33.2503 Y60.8147
G01 X33.1483 Y60.7996
G01 X33.0484 Y60.7746
G01 X32.9514 Y60.7398
G01 X32.8582 Y60.6958
G01 X32.7698 Y60.6428
G01 X32.6871 Y60.5814
G01 X32.6107 Y60.5122
G01 X32.5415 Y60.4359
G01 X32.4801 Y60.3531
G01 X32.4272 Y60.2647
G01 X32.3831 Y60.1716
G01 X32.3484 Y60.0746
G01 X32.3234 Y59.9746
G01 X32.3082 Y59.8727
G01 X32.3032 Y59.7698
G01 X32.3082 Y59.6669
G01 X32.3234 Y59.5649
G01 X32.3484 Y59.4650
G01 X32.3831 Y59.3680
G01 X32.4272 Y59.2748
G01 X32.4801 Y59.1864
G01 X32.5415 Y59.1037
G01 X32.6107 Y59.0273
G01 X32.6871 Y58.9581
G01 X32.7698 Y58.8967
G01 X32.8582 Y58.8438
G01 X32.9514 Y58.7997
G01 X33.0484 Y58.7650
G01 X33.1483 Y58.7399
G01 X33.2503 Y58.7248
G01 X33.3532 Y58.7198
G01 X33.4561 Y58.7248
G01 X33.5580 Y58.7399
G01 X33.6580 Y58.7650
G01 X33.7550 Y58.7997
G01 X33.8482 Y58.8438
G01 X33.9365 Y58.8967
G01 X34.0193 Y58.9581
G01 X34.0956 Y59.0273
G01 X34.1648 Y59.1037
G01 X34.2262 Y59.1864
G01 X34.2792 Y59.2748
G01 X34.3233 Y59.3680
G01 X34.3580 Y59.4650
G01 X34.3830 Y59.5649
G01 X34.3981 Y59.6669
G01 X34.4032 Y59.7710
G00 Z2.0000
G00 X34.4031 Y57.2322
G01 F60.00
G01 Z-0.1500
G01 F120.00
G01 X34.3981 Y57.3327
G01 X34.3830 Y57.4346
G01 X34.3580 Y57.5346
G01 X34.3233 Y57.6316
G01 X34.2792 Y57.7247
G01 X34.2262 Y57.8131
G01 X34.1648 Y57.8959
G01 X34.0956 Y57.9722
G01 X34.0193 Y58.0414
G01 X33.9365 Y58.1028
G01 X33.8482 Y58.1558
G01 X33.7550 Y58.1998
G01 X33.6580 Y58.2346
G01 X33.5580 Y58.2596
G01 X33.4561 Y58.2747
G01 X33.3532 Y58.2798
G01 X33.2503 Y58.2747
G01 X33.1483 Y58.2596
G01 X33.0484 Y58.2346
G01 X32.9514 Y58.1998
G01 X32.8582 Y58.1558
G01 X32.7698 Y58.1028
G01 X32.6871 Y58.0414
G01 X32.6107 Y57.9722
G01 X32.5415 Y57.8959
G01 X32.4801 Y57.8131
G01 X32.4272 Y57.7247
G01 X32.3831 Y57.6316
G01 X32.3484 Y57.5346
G01 X32.3234 Y57.4346
G01 X32.3082 Y57.3327
G01 X32.3032 Y57.2298
G01 X32.3082 Y57.1269
G01 X32.3234 Y57.0249
G01 X32.3484 Y56.9250
G01 X32.3831 Y56.8280
G01 X32.4272 Y56.7348
G01 X32.4801 Y56.6464
G01 X32.5415 Y56.5637
G01 X32.6107 Y56.4873
G01 X32.6871 Y56.4181
G01 X32.7698 Y56.3567
G01 X32.8582 Y56.3038
G01 X32.9514 Y56.2597
G01 X33.0484 Y56.2250
G01 X33.1483 Y56.1999
G01 X33.2503 Y56.1848
G01 X33.3532 Y56.1798
G01 X33.4561 Y56.1848
G01 X33.5580 Y56.1999
G01 X33.6580 Y56.2250
G01 X33.7550 Y56.2597
G01 X33.8482 Y56.3038
G01 X33.9365 Y56.3567
G01 X34.0193 Y56.4181
G01 X34.0956 Y56.4873
G01 X34.1648 Y56.5637
G01 X34.2262 Y56.6464
G01 X34.2792 Y56.7348
G01 X34.3233 Y56.8280
G01 X34.3580 Y56.9250
G01 X34.3830 Y57.0249
G01 X34.3981 Y57.1269
G01 X34.4031 Y57.2322
G00 Z2.0000
G00 X34.4032 Y54.6910
G01 F60.00
G01 Z-0.1500
G01 F120.00
G01 X34.3981 Y54.7927
G01 X34.3830 Y54.8946
G01 X34.3580 Y54.9946
G01 X34.3233 Y55.0916
G01 X34.2792 Y55.1847
G01 X34.2262 Y55.2731
G01 X34.1648 Y55.3559
G01 X34.0956 Y55.4322
G01 X34.0193 Y55.5014
G01 X33.9365 Y55.5628
G01 X33.8482 Y55.6158
G01 X33.7550 Y55.6598
G01 X33.6580 Y55.6946
G01 X33.5580 Y55.7196
G01 X33.4561 Y55.7347
G01 X33.3532 Y55.7398
G01 X33.2503 Y55.7347
G01 X33.1483 Y55.7196
G01 X33.0484 Y55.6946
G01 X32.9514 Y55.6598
G01 X32.8582 Y55.6158
G01 X32.7698 Y55.5628
G01 X32.6871 Y55.5014
G01 X32.6107 Y55.4322
G01 X32.5415 Y55.3559
G01 X32.4801 Y55.2731
G01 X32.4272 Y55.1847
G01 X32.3831 Y55.0916
G01 X32.3484 Y54.9946
G01 X32.3234 Y54.8946
G01 X32.3082 Y54.7927
G01 X32.3032 Y54.6898
G01 X32.3082 Y54.5869
G01 X32.3234 Y54.4849
G01 X32.3484 Y54.3850
G01 X32.3831 Y54.2880
G01 X32.4272 Y54.1948
G01 X32.4801 Y54.1064
G01 X32.5415 Y54.0237
G01 X32.6107 Y53.9473
G01 X32.6871 Y53.8781
G01 X32.7698 Y53.8167
G01 X32.8582 Y53.7638
G01 X32.9514 Y53.7197
G01 X33.0484 Y53.6850
G01 X33.1483 Y53.6599
G01 X33.2503 Y53.6448
G01 X33.3532 Y53.6398
G01 X33.4561 Y53.6448
G01 X33.5580 Y53.6599
G01 X33.6580 Y53.6850
G01 X33.7550 Y53.7197
G01 X33.8482 Y53.7638
G01 X33.9365 Y53.8167
G01 X34.0193 Y53.8781
G01 X34.0956 Y53.9473
G01 X34.1648 Y54.0237
G01 X34.2262 Y54.1064
G01 X34.2792 Y54.1948
G01 X34.3233 Y54.2880
G01 X34.3580 Y54.3850
G01 X34.3830 Y54.4849
G01 X34.3981 Y54.5869
G01 X34.4032 Y54.6910
G00 Z2.0000
G00 X34.4032 Y52.1510
G01 F60.00
G01 Z-0.1500
G01 F120.00
G01 X34.3981 Y52.2527
G01 X34.3830 Y52.3546
G01 X34.3580 Y52.4546
G01 X34.3233 Y52.5516
G01 X34.2792 Y52.6447
G01 X34.2262 Y52.7331
G01 X34.1648 Y52.8159
G01 X34.0956 Y52.8922
G01 X34.0193 Y52.9614
G01 X33.9365 Y53.0228
G01 X33.8482 Y53.0758
G01 X33.7550 Y53.1198
G01 X33.6580 Y53.1546
G01 X33.5580 Y53.1796
G01 X33.4561 Y53.1947
G01 X33.3532 Y53.1998
G01 X33.2503 Y53.1947
G01 X33.1483 Y53.1796
G01 X33.0484 Y53.1546
G01 X32.9514 Y53.1198
G01 X32.8582 Y53.0758
G01 X32.7698 Y53.0228
G01 X32.6871 Y52.9614
G01 X32.6107 Y52.8922
G01 X32.5415 Y52.8159
G01 X32.4801 Y52.7331
G01 X32.4272 Y52.6447
G01 X32.3831 Y52.5516
G01 X32.3484 Y52.4546
G01 X32.3234 Y52.3546
G01 X32.3082 Y52.2527
G01 X32.3032 Y52.1498
G01 X32.3082 Y52.0469
G01 X32.3234 Y51.9449
G01 X32.3484 Y51.8450
G01 X32.3831 Y51.7480
G01 X32.4272 Y51.6548
G01 X32.4801 Y51.5664
G01 X32.5415 Y51.4837
G01 X32.6107 Y51.4073
G01 X32.6871 Y51.3381
G01 X32.7698 Y51.2767
G01 X32.8582 Y51.2238
G01 X32.9514 Y51.1797
G01 X33.0484 Y51.1450
G01 X33.1483 Y51.1199
G01 X33.2503 Y51.1048
G01 X33.3532 Y51.0998
G01 X33.4561 Y51.1048
G01 X33.5580 Y51.1199
G01 X33.6580 Y51.1450
G01 X33.7550 Y51.1797
G01 X33.8482 Y51.2238
G01 X33.9365 Y51.2767
G01 X34.0193 Y51.3381
G01 X34.0956 Y51.4073
G01 X34.1648 Y51.4837
G01 X34.2262 Y51.5664
G01 X34.2792 Y51.6548
G01 X34.3233 Y51.7480
G01 X34.3580 Y51.8450
G01 X34.3830 Y51.9449
G01 X34.3981 Y52.0469
G01 X34.4032 Y52.1510
G00 Z2.0000
G00 X34.4032 Y49.6110
G01 F60.00
G01 Z-0.1500
G01 F120.00
G01 X34.3981 Y49.7127
G01 X34.3830 Y49.8146
G01 X34.3580 Y49.9146
G01 X34.3233 Y50.0116
G01 X34.2792 Y50.1047
G01 X34.2262 Y50.1931
G01 X34.1648 Y50.2759
G01 X34.0956 Y50.3522
G01 X34.0193 Y50.4214
G01 X33.9365 Y50.4828
G01 X33.8482 Y50.5358
G01 X33.7550 Y50.5798
G01 X33.6580 Y50.6146
G01 X33.5580 Y50.6396
G01 X33.4561 Y50.6547
G01 X33.3532 Y50.6598
G01 X33.2503 Y50.6547
G01 X33.1483 Y50.6396
G01 X33.0484 Y50.6146
G01 X32.9514 Y50.5798
G01 X32.8582 Y50.5358
G01 X32.7698 Y50.4828
G01 X32.6871 Y50.4214
G01 X32.6107 Y50.3522
G01 X32.5415 Y50.2759
G01 X32.4801 Y50.1931
G01 X32.4272 Y50.1047
G01 X32.3831 Y50.0116
G01 X32.3484 Y49.9146
G01 X32.3234 Y49.8146
G01 X32.3082 Y49.7127
G01 X32.3032 Y49.6098
G01 X32.3082 Y49.5069
G01 X32.3234 Y49.4049
G01 X32.3484 Y49.3050
G01 X32.3831 Y49.2080
G01 X32.4272 Y49.1148
G01 X32.4801 Y49.0264
G01 X32.5415 Y48.9437
G01 X32.6107 Y48.8673
G01 X32.6871 Y48.7981
G01 X32.7698 Y48.7367
G01 X32.8582 Y48.6838
G01 X32.9514 Y48.6397
G01 X33.0484 Y48.6050
G01 X33.1483 Y48.5799
G01 X33.2503 Y48.5648
G01 X33.3532 Y48.5598
G01 X33.4561 Y48.5648
G01 X33.5580 Y48.5799
G01 X33.6580 Y48.6050
G01 X33.7550 Y48.6397
G01 X33.8482 Y48.6838
G01 X33.9365 Y48.7367
G01 X34.0193 Y48.7981
G01 X34.0956 Y48.8673
G01 X34.1648 Y48.9437
G01 X34.2262 Y49.0264
G01 X34.2792 Y49.1148
G01 X34.3233 Y49.2080
G01 X34.3580 Y49.3050
G01 X34.3830 Y49.4049
G01 X34.3981 Y49.5069
G01 X34.4032 Y49.6110
G00 Z2.0000
G00 X34.4032 Y47.0710
G01 F60.00
G01 Z-0.1500
G01 F120.00
G01 X34.3981 Y47.1727
G01 X34.3830 Y47.2746
G01 X34.3580 Y47.3746
G01 X34.3233 Y47.4716
G01 X34.2792 Y47.5647
G01 X34.2262 Y47.6531
G01 X34.1648 Y47.7359
G01 X34.0956 Y47.8122
G01 X34.0193 Y47.8814
G01 X33.9365 Y47.9428
G01 X33.8482 Y47.9958
G01 X33.7550 Y48.0398
G01 X33.6580 Y48.0746
G01 X33.5580 Y48.0996
G01 X33.4561 Y48.1147
G01 X33.3532 Y48.1198
G01 X33.2503 Y48.1147
G01 X33.1483 Y48.0996
G01 X33.0484 Y48.0746
G01 X32.9514 Y48.0398
G01 X32.8582 Y47.9958
G01 X32.7698 Y47.9428
G01 X32.6871 Y47.8814
G01 X32.6107 Y47.8122
G01 X32.5415 Y47.7359
G01 X32.4801 Y47.6531
G01 X32.4272 Y47.5647
G01 X32.3831 Y47.4716
G01 X32.3484 Y47.3746
G01 X32.3234 Y47.2746
G01 X32.3082 Y47.1727
G01 X32.3032 Y47.0698
G01 X32.3082 Y46.9669
G01 X32.3234 Y46.8649
G01 X32.3484 Y46.7650
G01 X32.3831 Y46.6680
G01 X32.4272 Y46.5748
G01 X32.4801 Y46.4864
G01 X32.5415 Y46.4037
G01 X32.6107 Y46.3273
G01 X32.6871 Y46.2581
G01 X32.7698 Y46.1967
G01 X32.8582 Y46.1438
G01 X32.9514 Y46.0997
G01 X33.0484 Y46.0650
G01 X33.1483 Y46.0399
G01 X33.2503 Y46.0248
G01 X33.3532 Y46.0198
G01 X33.4561 Y46.0248
G01 X33.5580 Y46.0399
G01 X33.6580 Y46.0650
G01 X33.7550 Y46.0997
G01 X33.8482 Y46.1438
G01 X33.9365 Y46.1967
G01 X34.0193 Y46.2581
G01 X34.0956 Y46.3273
G01 X34.1648 Y46.4037
G01 X34.2262 Y46.4864
G01 X34.2792 Y46.5748
G01 X34.3233 Y46.6680
G01 X34.3580 Y46.7650
G01 X34.3830 Y46.8649
G01 X34.3981 Y46.9669
G01 X34.4032 Y47.0710
G00 Z2.0000
G00 X34.4031 Y44.5322
G01 F60.00
G01 Z-0.1500
G01 F120.00
G01 X34.3981 Y44.6327
G01 X34.3830 Y44.7346
G01 X34.3580 Y44.8346
G01 X34.3233 Y44.9316
G01 X34.2792 Y45.0247
G01 X34.2262 Y45.1131
G01 X34.1648 Y45.1959
G01 X34.0956 Y45.2722
G01 X34.0193 Y45.3414
G01 X33.9365 Y45.4028
G01 X33.8482 Y45.4558
G01 X33.7550 Y45.4998
G01 X33.6580 Y45.5346
G01 X33.5580 Y45.5596
G01 X33.4561 Y45.5747
G01 X33.3532 Y45.5798
G01 X33.2503 Y45.5747
G01 X33.1483 Y45.5596
G01 X33.0484 Y45.5346
G01 X32.9514 Y45.4998
G01 X32.8582 Y45.4558
G01 X32.7698 Y45.4028
G01 X32.6871 Y45.3414
G01 X32.6107 Y45.2722
G01 X32.5415 Y45.1959
G01 X32.4801 Y45.1131
G01 X32.4272 Y45.0247
G01 X32.3831 Y44.9316
G01 X32.3484 Y44.8346
G01 X32.3234 Y44.7346
G01 X32.3082 Y44.6327
G01 X32.3032 Y44.5298
G01 X32.3082 Y44.4269
G01 X32.3234 Y44.3249
G01 X32.3484 Y44.2250
G01 X32.3831 Y44.1280
G01 X32.4272 Y44.0348
G01 X32.4801 Y43.9464
G01 X32.5415 Y43.8637
G01 X32.6107 Y43.7873
G01 X32.6871 Y43.7181
G01 X32.7698 Y43.6567
G01 X32.8582 Y43.6038
G01 X32.9514 Y43.5597
G01 X33.0484 Y43.5250
G01 X33.1483 Y43.4999
G01 X33.2503 Y43.4848
G01 X33.3532 Y43.4798
G01 X33.4561 Y43.4848
G01 X33.5580 Y43.4999
G01 X33.6580 Y43.5250
G01 X33.7550 Y43.5597
G01 X33.8482 Y43.6038
G01 X33.9365 Y43.6567
G01 X34.0193 Y43.7181
G01 X34.0956 Y43.7873
G01 X34.1648 Y43.8637
G01 X34.2262 Y43.9464
G01 X34.2792 Y44.0348
G01 X34.3233 Y44.1280
G01 X34.3580 Y44.2250
G01 X34.3830 Y44.3249
G01 X34.3981 Y44.4269
G01 X34.4031 Y44.5322
G00 Z2.0000
G00 X34.4032 Y41.9910
G01 F60.00
G01 Z-0.1500
G01 F120.00
G01 X34.3981 Y42.0927
G01 X34.3830 Y42.1946
G01 X34.3580 Y42.2946
G01 X34.3233 Y42.3916
G01 X34.2792 Y42.4847
G01 X34.2262 Y42.5731
G01 X34.1648 Y42.6559
G01 X34.0956 Y42.7322
G01 X34.0193 Y42.8014
G01 X33.9365 Y42.8628
G01 X33.8482 Y42.9158
G01 X33.7550 Y42.9598
G01 X33.6580 Y42.9946
G01 X33.5580 Y43.0196
G01 X33.4561 Y43.0347
G01 X33.3532 Y43.0398
G01 X33.2503 Y43.0347
G01 X33.1483 Y43.0196
G01 X33.0484 Y42.9946
G01 X32.9514 Y42.9598
G01 X32.8582 Y42.9158
G01 X32.7698 Y42.8628
G01 X32.6871 Y42.8014
G01 X32.6107 Y42.7322
G01 X32.5415 Y42.6559
G01 X32.4801 Y42.5731
G01 X32.4272 Y42.4847
G01 X32.3831 Y42.3916
G01 X32.3484 Y42.2946
G01 X32.3234 Y42.1946
G01 X32.3082 Y42.0927
G01 X32.3032 Y41.9898
G01 X32.3082 Y41.8869
G01 X32.3234 Y41.7849
G01 X32.3484 Y41.6850
G01 X32.3831 Y41.5880
G01 X32.4272 Y41.4948
G01 X32.4801 Y41.4064
G01 X32.5415 Y41.3237
G01 X32.6107 Y41.2473
G01 X32.6871 Y41.1781
G01 X32.7698 Y41.1167
G01 X32.8582 Y41.0638
G01 X32.9514 Y41.0197
G01 X33.0484 Y40.9850
G01 X33.1483 Y40.9599
G01 X33.2503 Y40.9448
G01 X33.3532 Y40.9398
G01 X33.4561 Y40.9448
G01 X33.5580 Y40.9599
G01 X33.6580 Y40.9850
G01 X33.7550 Y41.0197
G01 X33.8482 Y41.0638
G01 X33.9365 Y41.1167
G01 X34.0193 Y41.1781
G01 X34.0956 Y41.2473
G01 X34.1648 Y41.3237
G01 X34.2262 Y41.4064
G01 X34.2792 Y41.4948
G01 X34.3233 Y41.5880
G01 X34.3580 Y41.6850
G01 X34.3830 Y41.7849
G01 X34.3981 Y41.8869
G01 X34.4032 Y41.9910
G00 Z2.0000
G00 X38.2132 Y41.9910
G01 F60.00
G01 Z-0.1500
G01 F120.00
G01 X38.2081 Y42.0927
G01 X38.1930 Y42.1946
G01 X38.1680 Y42.2946
G01 X38.1333 Y42.3916
G01 X38.0892 Y42.4847
G01 X38.0362 Y42.5731
G01 X37.9748 Y42.6559
G01 X37.9056 Y42.7322
G01 X37.8293 Y42.8014
G01 X37.7465 Y42.8628
G01 X37.6582 Y42.9158
G01 X37.5650 Y42.9598
G01 X37.4680 Y42.9946
G01 X37.3680 Y43.0196
G01 X37.2661 Y43.0347
G01 X37.1632 Y43.0398
G01 X37.0603 Y43.0347
G01 X36.9583 Y43.0196
G01 X36.8584 Y42.9946
G01 X36.7614 Y42.9598
G01 X36.6682 Y42.9158
G01 X36.5798 Y42.8628
G01 X36.4971 Y42.8014
G01 X36.4207 Y42.7322
G01 X36.3515 Y42.6559
G01 X36.2901 Y42.5731
G01 X36.2372 Y42.4847
G01 X36.1931 Y42.3916
G01 X36.1584 Y42.2946
G01 X36.1334 Y42.1946
G01 X36.1182 Y42.0927
G01 X36.1132 Y41.9898
G01 X36.1182 Y41.8869
G01 X36.1334 Y41.7849
G01 X36.1584 Y41.6850
G01 X36.1931 Y41.5880
G01 X36.2372 Y41.4948
G01 X36.2901 Y41.4064
G01 X36.3515 Y41.3237
G01 X36.4207 Y41.2473
G01 X36.4971 Y41.1781
G01 X36.5798 Y41.1167
G01 X36.6682 Y41.0638
G01 X36.7614 Y41.0197
G01 X36.8584 Y40.9850
G01 X36.9583 Y40.9599
G01 X37.0603 Y40.9448
G01 X37.1632 Y40.9398
G01 X37.2661 Y40.9448
G01 X37.3680 Y40.9599
G01 X37.4680 Y40.9850
G01 X37.5650 Y41.0197
G01 X37.6582 Y41.0638
G01 X37.7465 Y41.1167
G01 X37.8293 Y41.1781
G01 X37.9056 Y41.2473
G01 X37.9748 Y41.3237
G01 X38.0362 Y41.4064
G01 X38.0892 Y41.4948
G01 X38.1333 Y41.5880
G01 X38.1680 Y41.6850
G01 X38.1930 Y41.7849
G01 X38.2081 Y41.8869
G01 X38.2132 Y41.9910
G00 Z2.0000
G00 X38.2131 Y44.5322
G01 F60.00
G01 Z-0.1500
G01 F120.00
G01 X38.2081 Y44.6327
G01 X38.1930 Y44.7346
G01 X38.1680 Y44.8346
G01 X38.1333 Y44.9316
G01 X38.0892 Y45.0247
G01 X38.0362 Y45.1131
G01 X37.9748 Y45.1959
G01 X37.9056 Y45.2722
G01 X37.8293 Y45.3414
G01 X37.7465 Y45.4028
G01 X37.6582 Y45.4558
G01 X37.5650 Y45.4998
G01 X37.4680 Y45.5346
G01 X37.3680 Y45.5596
G01 X37.2661 Y45.5747
G01 X37.1632 Y45.5798
G01 X37.0603 Y45.5747
G01 X36.9583 Y45.5596
G01 X36.8584 Y45.5346
G01 X36.7614 Y45.4998
G01 X36.6682 Y45.4558
G01 X36.5798 Y45.4028
G01 X36.4971 Y45.3414
G01 X36.4207 Y45.2722
G01 X36.3515 Y45.1959
G01 X36.2901 Y45.1131
G01 X36.2372 Y45.0247
G01 X36.1931 Y44.9316
G01 X36.1584 Y44.8346
G01 X36.1334 Y44.7346
G01 X36.1182 Y44.6327
G01 X36.1132 Y44.5298
G01 X36.1182 Y44.4269
G01 X36.1334 Y44.3249
G01 X36.1584 Y44.2250
G01 X36.1931 Y44.1280
G01 X36.2372 Y44.0348
G01 X36.2901 Y43.9464
G01 X36.3515 Y43.8637
G01 X36.4207 Y43.7873
G01 X36.4971 Y43.7181
G01 X36.5798 Y43.6567
G01 X36.6682 Y43.6038
G01 X36.7614 Y43.5597
G01 X36.8584 Y43.5250
G01 X36.9583 Y43.4999
G01 X37.0603 Y43.4848
G01 X37.1632 Y43.4798
G01 X37.2661 Y43.4848
G01 X37.3680 Y43.4999
G01 X37.4680 Y43.5250
G01 X37.5650 Y43.5597
G01 X37.6582 Y43.6038
G01 X37.7465 Y43.6567
G01 X37.8293 Y43.7181
G01 X37.9056 Y43.7873
G01 X37.9748 Y43.8637
G01 X38.0362 Y43.9464
G01 X38.0892 Y44.0348
G01 X38.1333 Y44.1280
G01 X38.1680 Y44.2250
G01 X38.1930 Y44.3249
G01 X38.2081 Y44.4269
G01 X38.2131 Y44.5322
G00 Z2.0000
G00 X38.2132 Y47.0710
G01 F60.00
G01 Z-0.1500
G01 F120.00
G01 X38.2081 Y47.1727
G01 X38.1930 Y47.2746
G01 X38.1680 Y47.3746
G01 X38.1333 Y47.4716
G01 X38.0892 Y47.5647
G01 X38.0362 Y47.6531
G01 X37.9748 Y47.7359
G01 X37.9056 Y47.8122
G01 X37.8293 Y47.8814
G01 X37.7465 Y47.9428
G01 X37.6582 Y47.9958
G01 X37.5650 Y48.0398
G01 X37.4680 Y48.0746
G01 X37.3680 Y48.0996
G01 X37.2661 Y48.1147
G01 X37.1632 Y48.1198
G01 X37.0603 Y48.1147
G01 X36.9583 Y48.0996
G01 X36.8584 Y48.0746
G01 X36.7614 Y48.0398
G01 X36.6682 Y47.9958
G01 X36.5798 Y47.9428
G01 X36.4971 Y47.8814
G01 X36.4207 Y47.8122
G01 X36.3515 Y47.7359
G01 X36.2901 Y47.6531
G01 X36.2372 Y47.5647
G01 X36.1931 Y47.4716
G01 X36.1584 Y47.3746
G01 X36.1334 Y47.2746
G01 X36.1182 Y47.1727
G01 X36.1132 Y47.0698
G01 X36.1182 Y46.9669
G01 X36.1334 Y46.8649
G01 X36.1584 Y46.7650
G01 X36.1931 Y46.6680
G01 X36.2372 Y46.5748
G01 X36.2901 Y46.4864
G01 X36.3515 Y46.4037
G01 X36.4207 Y46.3273
G01 X36.4971 Y46.2581
G01 X36.5798 Y46.1967
G01 X36.6682 Y46.1438
G01 X36.7614 Y46.0997
G01 X36.8584 Y46.0650
G01 X36.9583 Y46.0399
G01 X37.0603 Y46.0248
G01 X37.1632 Y46.0198
G01 X37.2661 Y46.0248
G01 X37.3680 Y46.0399
G01 X37.4680 Y46.0650
G01 X37.5650 Y46.0997
G01 X37.6582 Y46.1438
G01 X37.7465 Y46.1967
G01 X37.8293 Y46.2581
G01 X37.9056 Y46.3273
G01 X37.9748 Y46.4037
G01 X38.0362 Y46.4864
G01 X38.0892 Y46.5748
G01 X38.1333 Y46.6680
G01 X38.1680 Y46.7650
G01 X38.1930 Y46.8649
G01 X38.2081 Y46.9669
G01 X38.2132 Y47.0710
G00 Z2.0000
G00 X38.2132 Y49.6110
G01 F60.00
G01 Z-0.1500
G01 F120.00
G01 X38.2081 Y49.7127
G01 X38.1930 Y49.8146
G01 X38.1680 Y49.9146
G01 X38.1333 Y50.0116
G01 X38.0892 Y50.1047
G01 X38.0362 Y50.1931
G01 X37.9748 Y50.2759
G01 X37.9056 Y50.3522
G01 X37.8293 Y50.4214
G01 X37.7465 Y50.4828
G01 X37.6582 Y50.5358
G01 X37.5650 Y50.5798
G01 X37.4680 Y50.6146
G01 X37.3680 Y50.6396
G01 X37.2661 Y50.6547
G01 X37.1632 Y50.6598
G01 X37.0603 Y50.6547
G01 X36.9583 Y50.6396
G01 X36.8584 Y50.6146
G01 X36.7614 Y50.5798
G01 X36.6682 Y50.5358
G01 X36.5798 Y50.4828
G01 X36.4971 Y50.4214
G01 X36.4207 Y50.3522
G01 X36.3515 Y50.2759
G01 X36.2901 Y50.1931
G01 X36.2372 Y50.1047
G01 X36.1931 Y50.0116
G01 X36.1584 Y49.9146
G01 X36.1334 Y49.8146
G01 X36.1182 Y49.7127
G01 X36.1132 Y49.6098
G01 X36.1182 Y49.5069
G01 X36.1334 Y49.4049
G01 X36.1584 Y49.3050
G01 X36.1931 Y49.2080
G01 X36.2372 Y49.1148
G01 X36.2901 Y49.0264
G01 X36.3515 Y48.9437
G01 X36.4207 Y48.8673
G01 X36.4971 Y48.7981
G01 X36.5798 Y48.7367
G01 X36.6682 Y48.6838
G01 X36.7614 Y48.6397
G01 X36.8584 Y48.6050
G01 X36.9583 Y48.5799
G01 X37.0603 Y48.5648
G01 X37.1632 Y48.5598
G01 X37.2661 Y48.5648
G01 X37.3680 Y48.5799
G01 X37.4680 Y48.6050
G01 X37.5650 Y48.6397
G01 X37.6582 Y48.6838
G01 X37.7465 Y48.7367
G01 X37.8293 Y48.7981
G01 X37.9056 Y48.8673
G01 X37.9748 Y48.9437
G01 X38.0362 Y49.0264
G01 X38.0892 Y49.1148
G01 X38.1333 Y49.2080
G01 X38.1680 Y49.3050
G01 X38.1930 Y49.4049
G01 X38.2081 Y49.5069
G01 X38.2132 Y49.6110
G00 Z2.0000
G00 X38.2132 Y52.1510
G01 F60.00
G01 Z-0.1500
G01 F120.00
G01 X38.2081 Y52.2527
G01 X38.1930 Y52.3546
G01 X38.1680 Y52.4546
G01 X38.1333 Y52.5516
G01 X38.0892 Y52.6447
G01 X38.0362 Y52.7331
G01 X37.9748 Y52.8159
G01 X37.9056 Y52.8922
G01 X37.8293 Y52.9614
G01 X37.7465 Y53.0228
G01 X37.6582 Y53.0758
G01 X37.5650 Y53.1198
G01 X37.4680 Y53.1546
G01 X37.3680 Y53.1796
G01 X37.2661 Y53.1947
G01 X37.1632 Y53.1998
G01 X37.0603 Y53.1947
G01 X36.9583 Y53.1796
G01 X36.8584 Y53.1546
G01 X36.7614 Y53.1198
G01 X36.6682 Y53.0758
G01 X36.5798 Y53.0228
G01 X36.4971 Y52.9614
G01 X36.4207 Y52.8922
G01 X36.3515 Y52.8159
G01 X36.2901 Y52.7331
G01 X36.2372 Y52.6447
G01 X36.1931 Y52.5516
G01 X36.1584 Y52.4546
G01 X36.1334 Y52.3546
G01 X36.1182 Y52.2527
G01 X36.1132 Y52.1498
G01 X36.1182 Y52.0469
G01 X36.1334 Y51.9449
G01 X36.1584 Y51.8450
G01 X36.1931 Y51.7480
G01 X36.2372 Y51.6548
G01 X36.2901 Y51.5664
G01 X36.3515 Y51.4837
G01 X36.4207 Y51.4073
G01 X36.4971 Y51.3381
G01 X36.5798 Y51.2767
G01 X36.6682 Y51.2238
G01 X36.7614 Y51.1797
G01 X36.8584 Y51.1450
G01 X36.9583 Y51.1199
G01 X37.0603 Y51.1048
G01 X37.1632 Y51.0998
G01 X37.2661 Y51.1048
G01 X37.3680 Y51.1199
G01 X37.4680 Y51.1450
G01 X37.5650 Y51.1797
G01 X37.6582 Y51.2238
G01 X37.7465 Y51.2767
G01 X37.8293 Y51.3381
G01 X37.9056 Y51.4073
G01 X37.9748 Y51.4837
G01 X38.0362 Y51.5664
G01 X38.0892 Y51.6548
G01 X38.1333 Y51.7480
G01 X38.1680 Y51.8450
G01 X38.1930 Y51.9449
G01 X38.2081 Y52.0469
G01 X38.2132 Y52.1510
G00 Z2.0000
G00 X38.2132 Y54.6910
G01 F60.00
G01 Z-0.1500
G01 F120.00
G01 X38.2081 Y54.7927
G01 X38.1930 Y54.8946
G01 X38.1680 Y54.9946
G01 X38.1333 Y55.0916
G01 X38.0892 Y55.1847
G01 X38.0362 Y55.2731
G01 X37.9748 Y55.3559
G01 X37.9056 Y55.4322
G01 X37.8293 Y55.5014
G01 X37.7465 Y55.5628
G01 X37.6582 Y55.6158
G01 X37.5650 Y55.6598
G01 X37.4680 Y55.6946
G01 X37.3680 Y55.7196
G01 X37.2661 Y55.7347
G01 X37.1632 Y55.7398
G01 X37.0603 Y55.7347
G01 X36.9583 Y55.7196
G01 X36.8584 Y55.6946
G01 X36.7614 Y55.6598
G01 X36.6682 Y55.6158
G01 X36.5798 Y55.5628
G01 X36.4971 Y55.5014
G01 X36.4207 Y55.4322
G01 X36.3515 Y55.3559
G01 X36.2901 Y55.2731
G01 X36.2372 Y55.1847
G01 X36.1931 Y55.0916
G01 X36.1584 Y54.9946
G01 X36.1334 Y54.8946
G01 X36.1182 Y54.7927
G01 X36.1132 Y54.6898
G01 X36.1182 Y54.5869
G01 X36.1334 Y54.4849
G01 X36.1584 Y54.3850
G01 X36.1931 Y54.2880
G01 X36.2372 Y54.1948
G01 X36.2901 Y54.1064
G01 X36.3515 Y54.0237
G01 X36.4207 Y53.9473
G01 X36.4971 Y53.8781
G01 X36.5798 Y53.8167
G01 X36.6682 Y53.7638
G01 X36.7614 Y53.7197
G01 X36.8584 Y53.6850
G01 X36.9583 Y53.6599
G01 X37.0603 Y53.6448
G01 X37.1632 Y53.6398
G01 X37.2661 Y53.6448
G01 X37.3680 Y53.6599
G01 X37.4680 Y53.6850
G01 X37.5650 Y53.7197
G01 X37.6582 Y53.7638
G01 X37.7465 Y53.8167
G01 X37.8293 Y53.8781
G01 X37.9056 Y53.9473
G01 X37.9748 Y54.0237
G01 X38.0362 Y54.1064
G01 X38.0892 Y54.1948
G01 X38.1333 Y54.2880
G01 X38.1680 Y54.3850
G01 X38.1930 Y54.4849
G01 X38.2081 Y54.5869
G01 X38.2132 Y54.6910
G00 Z2.0000
G00 X38.2131 Y57.2322
G01 F60.00
G01 Z-0.1500
G01 F120.00
G01 X38.2081 Y57.3327
G01 X38.1930 Y57.4346
G01 X38.1680 Y57.5346
G01 X38.1333 Y57.6316
G01 X38.0892 Y57.7247
G01 X38.0362 Y57.8131
G01 X37.9748 Y57.8959
G01 X37.9056 Y57.9722
G01 X37.8293 Y58.0414
G01 X37.7465 Y58.1028
G01 X37.6582 Y58.1558
G01 X37.5650 Y58.1998
G01 X37.4680 Y58.2346
G01 X37.3680 Y58.2596
G01 X37.2661 Y58.2747
G01 X37.1632 Y58.2798
G01 X37.0603 Y58.2747
G01 X36.9583 Y58.2596
G01 X36.8584 Y58.2346
G01 X36.7614 Y58.1998
G01 X36.6682 Y58.1558
G01 X36.5798 Y58.1028
G01 X36.4971 Y58.0414
G01 X36.4207 Y57.9722
G01 X36.3515 Y57.8959
G01 X36.2901 Y57.8131
G01 X36.2372 Y57.7247
G01 X36.1931 Y57.6316
G01 X36.1584 Y57.5346
G01 X36.1334 Y57.4346
G01 X36.1182 Y57.3327
G01 X36.1132 Y57.2298
G01 X36.1182 Y57.1269
G01 X36.1334 Y57.0249
G01 X36.1584 Y56.9250
G01 X36.1931 Y56.8280
G01 X36.2372 Y56.7348
G01 X36.2901 Y56.6464
G01 X36.3515 Y56.5637
G01 X36.4207 Y56.4873
G01 X36.4971 Y56.4181
G01 X36.5798 Y56.3567
G01 X36.6682 Y56.3038
G01 X36.7614 Y56.2597
G01 X36.8584 Y56.2250
G01 X36.9583 Y56.1999
G01 X37.0603 Y56.1848
G01 X37.1632 Y56.1798
G01 X37.2661 Y56.1848
G01 X37.3680 Y56.1999
G01 X37.4680 Y56.2250
G01 X37.5650 Y56.2597
G01 X37.6582 Y56.3038
G01 X37.7465 Y56.3567
G01 X37.8293 Y56.4181
G01 X37.9056 Y56.4873
G01 X37.9748 Y56.5637
G01 X38.0362 Y56.6464
G01 X38.0892 Y56.7348
G01 X38.1333 Y56.8280
G01 X38.1680 Y56.9250
G01 X38.1930 Y57.0249
G01 X38.2081 Y57.1269
G01 X38.2131 Y57.2322
G00 Z2.0000
G00 X38.2132 Y59.7710
G01 F60.00
G01 Z-0.1500
G01 F120.00
G01 X38.2081 Y59.8727
G01 X38.1930 Y59.9746
G01 X38.1680 Y60.0746
G01 X38.1333 Y60.1716
G01 X38.0892 Y60.2647
G01 X38.0362 Y60.3531
G01 X37.9748 Y60.4359
G01 X37.9056 Y60.5122
G01 X37.8293 Y60.5814
G01 X37.7465 Y60.6428
G01 X37.6582 Y60.6958
G01 X37.5650 Y60.7398
G01 X37.4680 Y60.7746
G01 X37.3680 Y60.7996
G01 X37.2661 Y60.8147
G01 X37.1632 Y60.8198
G01 X37.0603 Y60.8147
G01 X36.9583 Y60.7996
G01 X36.8584 Y60.7746
G01 X36.7614 Y60.7398
G01 X36.6682 Y60.6958
G01 X36.5798 Y60.6428
G01 X36.4971 Y60.5814
G01 X36.4207 Y60.5122
G01 X36.3515 Y60.4359
G01 X36.2901 Y60.3531
G01 X36.2372 Y60.2647
G01 X36.1931 Y60.1716
G01 X36.1584 Y60.0746
G01 X36.1334 Y59.9746
G01 X36.1182 Y59.8727
G01 X36.1132 Y59.7698
G01 X36.1182 Y59.6669
G01 X36.1334 Y59.5649
G01 X36.1584 Y59.4650
G01 X36.1931 Y59.3680
G01 X36.2372 Y59.2748
G01 X36.2901 Y59.1864
G01 X36.3515 Y59.1037
G01 X36.4207 Y59.0273
G01 X36.4971 Y58.9581
G01 X36.5798 Y58.8967
G01 X36.6682 Y58.8438
G01 X36.7614 Y58.7997
G01 X36.8584 Y58.7650
G01 X36.9583 Y58.7399
G01 X37.0603 Y58.7248
G01 X37.1632 Y58.7198
G01 X37.2661 Y58.7248
G01 X37.3680 Y58.7399
G01 X37.4680 Y58.7650
G01 X37.5650 Y58.7997
G01 X37.6582 Y58.8438
G01 X37.7465 Y58.8967
G01 X37.8293 Y58.9581
G01 X37.9056 Y59.0273
G01 X37.9748 Y59.1037
G01 X38.0362 Y59.1864
G01 X38.0892 Y59.2748
G01 X38.1333 Y59.3680
G01 X38.1680 Y59.4650
G01 X38.1930 Y59.5649
G01 X38.2081 Y59.6669
G01 X38.2132 Y59.7710
G00 Z2.0000
G00 X38.2132 Y62.3110
G01 F60.00
G01 Z-0.1500
G01 F120.00
G01 X38.2081 Y62.4127
G01 X38.1930 Y62.5146
G01 X38.1680 Y62.6146
G01 X38.1333 Y62.7116
G01 X38.0892 Y62.8047
G01 X38.0362 Y62.8931
G01 X37.9748 Y62.9759
G01 X37.9056 Y63.0522
G01 X37.8293 Y63.1214
G01 X37.7465 Y63.1828
G01 X37.6582 Y63.2358
G01 X37.5650 Y63.2798
G01 X37.4680 Y63.3146
G01 X37.3680 Y63.3396
G01 X37.2661 Y63.3547
G01 X37.1632 Y63.3598
G01 X37.0603 Y63.3547
G01 X36.9583 Y63.3396
G01 X36.8584 Y63.3146
G01 X36.7614 Y63.2798
G01 X36.6682 Y63.2358
G01 X36.5798 Y63.1828
G01 X36.4971 Y63.1214
G01 X36.4207 Y63.0522
G01 X36.3515 Y62.9759
G01 X36.2901 Y62.8931
G01 X36.2372 Y62.8047
G01 X36.1931 Y62.7116
G01 X36.1584 Y62.6146
G01 X36.1334 Y62.5146
G01 X36.1182 Y62.4127
G01 X36.1132 Y62.3098
G01 X36.1182 Y62.2069
G01 X36.1334 Y62.1049
G01 X36.1584 Y62.0050
G01 X36.1931 Y61.9080
G01 X36.2372 Y61.8148
G01 X36.2901 Y61.7264
G01 X36.3515 Y61.6437
G01 X36.4207 Y61.5673
G01 X36.4971 Y61.4981
G01 X36.5798 Y61.4367
G01 X36.6682 Y61.3838
G01 X36.7614 Y61.3397
G01 X36.8584 Y61.3050
G01 X36.9583 Y61.2799
G01 X37.0603 Y61.2648
G01 X37.1632 Y61.2598
G01 X37.2661 Y61.2648
G01 X37.3680 Y61.2799
G01 X37.4680 Y61.3050
G01 X37.5650 Y61.3397
G01 X37.6582 Y61.3838
G01 X37.7465 Y61.4367
G01 X37.8293 Y61.4981
G01 X37.9056 Y61.5673
G01 X37.9748 Y61.6437
G01 X38.0362 Y61.7264
G01 X38.0892 Y61.8148
G01 X38.1333 Y61.9080
G01 X38.1680 Y62.0050
G01 X38.1930 Y62.1049
G01 X38.2081 Y62.2069
G01 X38.2132 Y62.3110
G00 Z2.0000
G00 X39.3989 Y75.8973
G01 F60.00
G01 Z-0.1500
G01 F120.00
G01 X39.3738 Y75.8821
G01 X39.2930 Y75.8222
G01 X39.2166 Y75.7531
G01 X39.1465 Y75.6759
G01 X39.0858 Y75.5941
G01 X39.0322 Y75.5047
G01 X38.9881 Y75.4116
G01 X38.9534 Y75.3146
G01 X38.9286 Y75.2158
G01 X38.9133 Y75.1127
G01 X38.9082 Y75.0098
G01 X38.9133 Y74.9069
G01 X38.9284 Y74.8049
G01 X38.9534 Y74.7050
G01 X38.9881 Y74.6080
G01 X39.0322 Y74.5148
G01 X39.0845 Y74.4275
G01 X39.1465 Y74.3437
G01 X39.2157 Y74.2673
G01 X39.2921 Y74.1981
G01 X39.3748 Y74.1367
G01 X39.4632 Y74.0838
G01 X39.5564 Y74.0397
G01 X39.6534 Y74.0050
G01 X39.7534 Y73.9799
G01 X39.8553 Y73.9648
G01 X39.9582 Y73.9598
G01 X40.0611 Y73.9648
G01 X40.1630 Y73.9799
G01 X40.2630 Y74.0050
G01 X40.3600 Y74.0397
G01 X40.4532 Y74.0838
G01 X40.5405 Y74.1361
G01 X40.6243 Y74.1981
G01 X40.7023 Y74.2691
G01 X40.7699 Y74.3437
G01 X40.8298 Y74.4244
G01 X40.8842 Y74.5148
G01 X40.9292 Y74.6102
G01 X40.9630 Y74.7050
G01 X40.9875 Y74.8025
G01 X41.0031 Y74.9069
G01 X41.0082 Y75.0098
G01 X41.0028 Y75.1151
G01 X40.9880 Y75.2146
G01 X40.9636 Y75.3122
G01 X40.9283 Y75.4116
G01 X40.8836 Y75.5058
G01 X40.8298 Y75.5951
G01 X40.7699 Y75.6759
G01 X40.7015 Y75.7514
G01 X40.6234 Y75.8222
G01 X40.5426 Y75.8821
G01 X40.5154 Y75.8985
G01 X40.5154 Y77.9316
G01 X40.5415 Y77.9474
G01 X40.6223 Y78.0073
G01 X40.7005 Y78.0782
G01 X40.7688 Y78.1537
G01 X40.8288 Y78.2344
G01 X40.8838 Y78.3259
G01 X40.9273 Y78.4180
G01 X40.9612 Y78.5126
G01 X40.9870 Y78.6149
G01 X41.0023 Y78.7193
G01 X41.0072 Y78.8198
G01 X41.0022 Y78.9215
G01 X40.9865 Y79.0270
G01 X40.9620 Y79.1246
G01 X40.9273 Y79.2216
G01 X40.8832 Y79.3147
G01 X40.8315 Y79.4010
G01 X40.7672 Y79.4877
G01 X40.6996 Y79.5622
G01 X40.6233 Y79.6314
G01 X40.5405 Y79.6928
G01 X40.4543 Y79.7446
G01 X40.3567 Y79.7907
G01 X40.2620 Y79.8246
G01 X40.1620 Y79.8496
G01 X40.0601 Y79.8647
G01 X39.9572 Y79.8698
G01 X39.8543 Y79.8647
G01 X39.7523 Y79.8496
G01 X39.6524 Y79.8246
G01 X39.5554 Y79.7898
G01 X39.4622 Y79.7458
G01 X39.3738 Y79.6928
G01 X39.2911 Y79.6314
G01 X39.2147 Y79.5622
G01 X39.1455 Y79.4859
G01 X39.0841 Y79.4031
G01 X39.0312 Y79.3147
G01 X38.9871 Y79.2216
G01 X38.9524 Y79.1246
G01 X38.9274 Y79.0246
G01 X38.9122 Y78.9227
G01 X38.9072 Y78.8222
G01 X38.9122 Y78.7169
G01 X38.9274 Y78.6149
G01 X38.9517 Y78.5173
G01 X38.9876 Y78.4168
G01 X39.0312 Y78.3248
G01 X39.0828 Y78.2385
G01 X39.1463 Y78.1527
G01 X39.2147 Y78.0773
G01 X39.2901 Y78.0089
G01 X39.3728 Y77.9474
G01 X39.3989 Y77.9316
G01 X39.3989 Y75.8973
G00 Z2.0000
G00 X41.9389 Y75.8973
G01 F60.00
G01 Z-0.1500
G01 F120.00
G01 X41.9138 Y75.8821
G01 X41.8330 Y75.8222
G01 X41.7566 Y75.7531
G01 X41.6865 Y75.6759
G01 X41.6258 Y75.5941
G01 X41.5722 Y75.5047
G01 X41.5281 Y75.4116
G01 X41.4934 Y75.3146
G01 X41.4686 Y75.2158
G01 X41.4533 Y75.1127
G01 X41.4482 Y75.0098
G01 X41.4533 Y74.9069
G01 X41.4684 Y74.8049
G01 X41.4934 Y74.7050
G01 X41.5281 Y74.6080
G01 X41.5722 Y74.5148
G01 X41.6245 Y74.4275
G01 X41.6865 Y74.3437
G01 X41.7557 Y74.2673
G01 X41.8321 Y74.1981
G01 X41.9148 Y74.1367
G01 X42.0032 Y74.0838
G01 X42.0964 Y74.0397
G01 X42.1934 Y74.0050
G01 X42.2934 Y73.9799
G01 X42.3953 Y73.9648
G01 X42.4982 Y73.9598
G01 X42.6011 Y73.9648
G01 X42.7030 Y73.9799
G01 X42.8030 Y74.0050
G01 X42.9000 Y74.0397
G01 X42.9932 Y74.0838
G01 X43.0805 Y74.1361
G01 X43.1643 Y74.1981
G01 X43.2423 Y74.2691
G01 X43.3099 Y74.3437
G01 X43.3698 Y74.4244
G01 X43.4242 Y74.5148
G01 X43.4692 Y74.6102
G01 X43.5030 Y74.7050
G01 X43.5275 Y74.8025
G01 X43.5431 Y74.9069
G01 X43.5482 Y75.0098
G01 X43.5428 Y75.1151
G01 X43.5280 Y75.2146
G01 X43.5036 Y75.3122
G01 X43.4683 Y75.4116
G01 X43.4236 Y75.5058
G01 X43.3698 Y75.5951
G01 X43.3099 Y75.6759
G01 X43.2415 Y75.7514
G01 X43.1634 Y75.8222
G01 X43.0826 Y75.8821
G01 X43.0554 Y75.8985
G01 X43.0554 Y77.9316
G01 X43.0815 Y77.9474
G01 X43.1623 Y78.0073
G01 X43.2405 Y78.0782
G01 X43.3088 Y78.1537
G01 X43.3688 Y78.2344
G01 X43.4238 Y78.3259
G01 X43.4673 Y78.4180
G01 X43.5012 Y78.5126
G01 X43.5270 Y78.6149
G01 X43.5423 Y78.7193
G01 X43.5472 Y78.8198
G01 X43.5422 Y78.9215
G01 X43.5265 Y79.0270
G01 X43.5020 Y79.1246
G01 X43.4673 Y79.2216
G01 X43.4232 Y79.3147
G01 X43.3715 Y79.4010
G01 X43.3072 Y79.4877
G01 X43.2396 Y79.5622
G01 X43.1633 Y79.6314
G01 X43.0805 Y79.6928
G01 X42.9943 Y79.7446
G01 X42.8967 Y79.7907
G01 X42.8020 Y79.8246
G01 X42.7020 Y79.8496
G01 X42.6001 Y79.8647
G01 X42.4972 Y79.8698
G01 X42.3943 Y79.8647
G01 X42.2923 Y79.8496
G01 X42.1924 Y79.8246
G01 X42.0954 Y79.7898
G01 X42.0022 Y79.7458
G01 X41.9138 Y79.6928
G01 X41.8311 Y79.6314
G01 X41.7547 Y79.5622
G01 X41.6855 Y79.4859
G01 X41.6241 Y79.4031
G01 X41.5712 Y79.3147
G01 X41.5271 Y79.2216
G01 X41.4924 Y79.1246
G01 X41.4674 Y79.0246
G01 X41.4522 Y78.9227
G01 X41.4472 Y78.8222
G01 X41.4522 Y78.7169
G01 X41.4674 Y78.6149
G01 X41.4917 Y78.5173
G01 X41.5276 Y78.4168
G01 X41.5712 Y78.3248
G01 X41.6228 Y78.2385
G01 X41.6863 Y78.1527
G01 X41.7547 Y78.0773
G01 X41.8301 Y78.0089
G01 X41.9128 Y77.9474
G01 X41.9389 Y77.9316
G01 X41.9389 Y75.8973
G00 Z2.0000
G00 X36.8589 Y75.8973
G01 F60.00
G01 Z-0.1500
G01 F120.00
G01 X36.8338 Y75.8821
G01 X36.7530 Y75.8222
G01 X36.6766 Y75.7531
G01 X36.6065 Y75.6759
G01 X36.5458 Y75.5941
G01 X36.4922 Y75.5047
G01 X36.4481 Y75.4116
G01 X36.4134 Y75.3146
G01 X36.3886 Y75.2158
G01 X36.3733 Y75.1127
G01 X36.3682 Y75.0098
G01 X36.3733 Y74.9069
G01 X36.3884 Y74.8049
G01 X36.4134 Y74.7050
G01 X36.4481 Y74.6080
G01 X36.4922 Y74.5148
G01 X36.5445 Y74.4275
G01 X36.6065 Y74.3437
G01 X36.6757 Y74.2673
G01 X36.7521 Y74.1981
G01 X36.8348 Y74.1367
G01 X36.9232 Y74.0838
G01 X37.0164 Y74.0397
G01 X37.1134 Y74.0050
G01 X37.2134 Y73.9799
G01 X37.3153 Y73.9648
G01 X37.4182 Y73.9598
G01 X37.5211 Y73.9648
G01 X37.6230 Y73.9799
G01 X37.7230 Y74.0050
G01 X37.8200 Y74.0397
G01 X37.9132 Y74.0838
G01 X38.0005 Y74.1361
G01 X38.0843 Y74.1981
G01 X38.1623 Y74.2691
G01 X38.2299 Y74.3437
G01 X38.2898 Y74.4244
G01 X38.3442 Y74.5148
G01 X38.3892 Y74.6102
G01 X38.4230 Y74.7050
G01 X38.4475 Y74.8025
G01 X38.4631 Y74.9069
G01 X38.4682 Y75.0098
G01 X38.4628 Y75.1151
G01 X38.4480 Y75.2146
G01 X38.4236 Y75.3122
G01 X38.3883 Y75.4116
G01 X38.3436 Y75.5058
G01 X38.2898 Y75.5951
G01 X38.2299 Y75.6759
G01 X38.1615 Y75.7514
G01 X38.0834 Y75.8222
G01 X38.0026 Y75.8821
G01 X37.9754 Y75.8985
G01 X37.9754 Y77.9316
G01 X38.0015 Y77.9474
G01 X38.0823 Y78.0073
G01 X38.1605 Y78.0782
G01 X38.2288 Y78.1537
G01 X38.2888 Y78.2344
G01 X38.3438 Y78.3259
G01 X38.3873 Y78.4180
G01 X38.4212 Y78.5126
G01 X38.4470 Y78.6149
G01 X38.4623 Y78.7193
G01 X38.4672 Y78.8198
G01 X38.4622 Y78.9215
G01 X38.4465 Y79.0270
G01 X38.4220 Y79.1246
G01 X38.3873 Y79.2216
G01 X38.3432 Y79.3147
G01 X38.2915 Y79.4010
G01 X38.2272 Y79.4877
G01 X38.1596 Y79.5622
G01 X38.0833 Y79.6314
G01 X38.0005 Y79.6928
G01 X37.9143 Y79.7446
G01 X37.8167 Y79.7907
G01 X37.7220 Y79.8246
G01 X37.6220 Y79.8496
G01 X37.5201 Y79.8647
G01 X37.4172 Y79.8698
G01 X37.3143 Y79.8647
G01 X37.2123 Y79.8496
G01 X37.1124 Y79.8246
G01 X37.0154 Y79.7898
G01 X36.9222 Y79.7458
G01 X36.8338 Y79.6928
G01 X36.7511 Y79.6314
G01 X36.6747 Y79.5622
G01 X36.6055 Y79.4859
G01 X36.5441 Y79.4031
G01 X36.4912 Y79.3147
G01 X36.4471 Y79.2216
G01 X36.4124 Y79.1246
G01 X36.3874 Y79.0246
G01 X36.3722 Y78.9227
G01 X36.3672 Y78.8222
G01 X36.3722 Y78.7169
G01 X36.3874 Y78.6149
G01 X36.4117 Y78.5173
G01 X36.4476 Y78.4168
G01 X36.4912 Y78.3248
G01 X36.5428 Y78.2385
G01 X36.6063 Y78.1527
G01 X36.6747 Y78.0773
G01 X36.7501 Y78.0089
G01 X36.8328 Y77.9474
G01 X36.8589 Y77.9316
G01 X36.8589 Y75.8973
G00 Z2.0000
G00 X34.3189 Y75.8973
G01 F60.00
G01 Z-0.1500
G01 F120.00
G01 X34.2938 Y75.8821
G01 X34.2130 Y75.8222
G01 X34.1366 Y75.7531
G01 X34.0665 Y75.6759
G01 X34.0058 Y75.5941
G01 X33.9522 Y75.5047
G01 X33.9081 Y75.4116
G01 X33.8734 Y75.3146
G01 X33.8486 Y75.2158
G01 X33.8333 Y75.1127
G01 X33.8282 Y75.0098
G01 X33.8333 Y74.9069
G01 X33.8484 Y74.8049
G01 X33.8734 Y74.7050
G01 X33.9081 Y74.6080
G01 X33.9522 Y74.5148
G01 X34.0045 Y74.4275
G01 X34.0665 Y74.3437
G01 X34.1357 Y74.2673
G01 X34.2121 Y74.1981
G01 X34.2948 Y74.1367
G01 X34.3832 Y74.0838
G01 X34.4764 Y74.0397
G01 X34.5734 Y74.0050
G01 X34.6734 Y73.9799
G01 X34.7753 Y73.9648
G01 X34.8782 Y73.9598
G01 X34.9811 Y73.9648
G01 X35.0830 Y73.9799
G01 X35.1830 Y74.0050
G01 X35.2800 Y74.0397
G01 X35.3732 Y74.0838
G01 X35.4605 Y74.1361
G01 X35.5443 Y74.1981
G01 X35.6223 Y74.2691
G01 X35.6899 Y74.3437
G01 X35.7498 Y74.4244
G01 X35.8042 Y74.5148
G01 X35.8492 Y74.6102
G01 X35.8830 Y74.7050
G01 X35.9075 Y74.8025
G01 X35.9231 Y74.9069
G01 X35.9282 Y75.0098
G01 X35.9228 Y75.1151
G01 X35.9080 Y75.2146
G01 X35.8836 Y75.3122
G01 X35.8483 Y75.4116
G01 X35.8036 Y75.5058
G01 X35.7498 Y75.5951
G01 X35.6899 Y75.6759
G01 X35.6215 Y75.7514
G01 X35.5434 Y75.8222
G01 X35.4626 Y75.8821
G01 X35.4354 Y75.8985
G01 X35.4354 Y77.9316
G01 X35.4615 Y77.9474
G01 X35.5423 Y78.0073
G01 X35.6205 Y78.0782
G01 X35.6888 Y78.1537
G01 X35.7488 Y78.2344
G01 X35.8038 Y78.3259
G01 X35.8473 Y78.4180
G01 X35.8812 Y78.5126
G01 X35.9070 Y78.6149
G01 X35.9223 Y78.7193
G01 X35.9272 Y78.8198
G01 X35.9222 Y78.9215
G01 X35.9065 Y79.0270
G01 X35.8820 Y79.1246
G01 X35.8473 Y79.2216
G01 X35.8032 Y79.3147
G01 X35.7515 Y79.4010
G01 X35.6872 Y79.4877
G01 X35.6196 Y79.5622
G01 X35.5433 Y79.6314
G01 X35.4605 Y79.6928
G01 X35.3743 Y79.7446
G01 X35.2767 Y79.7907
G01 X35.1820 Y79.8246
G01 X35.0820 Y79.8496
G01 X34.9801 Y79.8647
G01 X34.8772 Y79.8698
G01 X34.7743 Y79.8647
G01 X34.6723 Y79.8496
G01 X34.5724 Y79.8246
G01 X34.4754 Y79.7898
G01 X34.3822 Y79.7458
G01 X34.2938 Y79.6928
G01 X34.2111 Y79.6314
G01 X34.1347 Y79.5622
G01 X34.0655 Y79.4859
G01 X34.0041 Y79.4031
G01 X33.9512 Y79.3147
G01 X33.9071 Y79.2216
G01 X33.8724 Y79.1246
G01 X33.8474 Y79.0246
G01 X33.8322 Y78.9227
G01 X33.8272 Y78.8222
G01 X33.8322 Y78.7169
G01 X33.8474 Y78.6149
G01 X33.8717 Y78.5173
G01 X33.9076 Y78.4168
G01 X33.9512 Y78.3248
G01 X34.0028 Y78.2385
G01 X34.0663 Y78.1527
G01 X34.1347 Y78.0773
G01 X34.2101 Y78.0089
G01 X34.2928 Y77.9474
G01 X34.3189 Y77.9316
G01 X34.3189 Y75.8973
G00 Z2.0000
G00 X31.7789 Y75.8973
G01 F60.00
G01 Z-0.1500
G01 F120.00
G01 X31.7538 Y75.8821
G01 X31.6730 Y75.8222
G01 X31.5966 Y75.7531
G01 X31.5265 Y75.6759
G01 X31.4658 Y75.5941
G01 X31.4122 Y75.5047
G01 X31.3681 Y75.4116
G01 X31.3334 Y75.3146
G01 X31.3086 Y75.2158
G01 X31.2933 Y75.1127
G01 X31.2882 Y75.0098
G01 X31.2933 Y74.9069
G01 X31.3084 Y74.8049
G01 X31.3334 Y74.7050
G01 X31.3681 Y74.6080
G01 X31.4122 Y74.5148
G01 X31.4645 Y74.4275
G01 X31.5265 Y74.3437
G01 X31.5957 Y74.2673
G01 X31.6721 Y74.1981
G01 X31.7548 Y74.1367
G01 X31.8432 Y74.0838
G01 X31.9364 Y74.0397
G01 X32.0334 Y74.0050
G01 X32.1334 Y73.9799
G01 X32.2353 Y73.9648
G01 X32.3382 Y73.9598
G01 X32.4411 Y73.9648
G01 X32.5430 Y73.9799
G01 X32.6430 Y74.0050
G01 X32.7400 Y74.0397
G01 X32.8332 Y74.0838
G01 X32.9205 Y74.1361
G01 X33.0043 Y74.1981
G01 X33.0823 Y74.2691
G01 X33.1499 Y74.3437
G01 X33.2098 Y74.4244
G01 X33.2642 Y74.5148
G01 X33.3092 Y74.6102
G01 X33.3430 Y74.7050
G01 X33.3675 Y74.8025
G01 X33.3831 Y74.9069
G01 X33.3882 Y75.0098
G01 X33.3828 Y75.1151
G01 X33.3680 Y75.2146
G01 X33.3436 Y75.3122
G01 X33.3083 Y75.4116
G01 X33.2636 Y75.5058
G01 X33.2098 Y75.5951
G01 X33.1499 Y75.6759
G01 X33.0815 Y75.7514
G01 X33.0034 Y75.8222
G01 X32.9226 Y75.8821
G01 X32.8954 Y75.8985
G01 X32.8954 Y77.9316
G01 X32.9215 Y77.9474
G01 X33.0023 Y78.0073
G01 X33.0805 Y78.0782
G01 X33.1488 Y78.1537
G01 X33.2088 Y78.2344
G01 X33.2638 Y78.3259
G01 X33.3073 Y78.4180
G01 X33.3412 Y78.5126
G01 X33.3670 Y78.6149
G01 X33.3823 Y78.7193
G01 X33.3872 Y78.8198
G01 X33.3822 Y78.9215
G01 X33.3665 Y79.0270
G01 X33.3420 Y79.1246
G01 X33.3073 Y79.2216
G01 X33.2632 Y79.3147
G01 X33.2115 Y79.4010
G01 X33.1472 Y79.4877
G01 X33.0796 Y79.5622
G01 X33.0033 Y79.6314
G01 X32.9205 Y79.6928
G01 X32.8343 Y79.7446
G01 X32.7367 Y79.7907
G01 X32.6420 Y79.8246
G01 X32.5420 Y79.8496
G01 X32.4401 Y79.8647
G01 X32.3372 Y79.8698
G01 X32.2343 Y79.8647
G01 X32.1323 Y79.8496
G01 X32.0324 Y79.8246
G01 X31.9354 Y79.7898
G01 X31.8422 Y79.7458
G01 X31.7538 Y79.6928
G01 X31.6711 Y79.6314
G01 X31.5947 Y79.5622
G01 X31.5255 Y79.4859
G01 X31.4641 Y79.4031
G01 X31.4112 Y79.3147
G01 X31.3671 Y79.2216
G01 X31.3324 Y79.1246
G01 X31.3074 Y79.0246
G01 X31.2922 Y78.9227
G01 X31.2872 Y78.8222
G01 X31.2922 Y78.7169
G01 X31.3074 Y78.6149
G01 X31.3317 Y78.5173
G01 X31.3676 Y78.4168
G01 X31.4112 Y78.3248
G01 X31.4628 Y78.2385
G01 X31.5263 Y78.1527
G01 X31.5947 Y78.0773
G01 X31.6701 Y78.0089
G01 X31.7528 Y77.9474
G01 X31.7789 Y77.9316
G01 X31.7789 Y75.8973
G00 Z2.0000
G00 X29.2389 Y75.8973
G01 F60.00
G01 Z-0.1500
G01 F120.00
G01 X29.2138 Y75.8821
G01 X29.1330 Y75.8222
G01 X29.0566 Y75.7531
G01 X28.9865 Y75.6759
G01 X28.9258 Y75.5941
G01 X28.8722 Y75.5047
G01 X28.8281 Y75.4116
G01 X28.7934 Y75.3146
G01 X28.7686 Y75.2158
G01 X28.7533 Y75.1127
G01 X28.7482 Y75.0098
G01 X28.7533 Y74.9069
G01 X28.7684 Y74.8049
G01 X28.7934 Y74.7050
G01 X28.8281 Y74.6080
G01 X28.8722 Y74.5148
G01 X28.9245 Y74.4275
G01 X28.9865 Y74.3437
G01 X29.0557 Y74.2673
G01 X29.1321 Y74.1981
G01 X29.2148 Y74.1367
G01 X29.3032 Y74.0838
G01 X29.3964 Y74.0397
G01 X29.4934 Y74.0050
G01 X29.5934 Y73.9799
G01 X29.6953 Y73.9648
G01 X29.7982 Y73.9598
G01 X29.9011 Y73.9648
G01 X30.0030 Y73.9799
G01 X30.1030 Y74.0050
G01 X30.2000 Y74.0397
G01 X30.2932 Y74.0838
G01 X30.3805 Y74.1361
G01 X30.4643 Y74.1981
G01 X30.5423 Y74.2691
G01 X30.6099 Y74.3437
G01 X30.6698 Y74.4244
G01 X30.7242 Y74.5148
G01 X30.7692 Y74.6102
G01 X30.8030 Y74.7050
G01 X30.8275 Y74.8025
G01 X30.8431 Y74.9069
G01 X30.8482 Y75.0098
G01 X30.8428 Y75.1151
G01 X30.8280 Y75.2146
G01 X30.8036 Y75.3122
G01 X30.7683 Y75.4116
G01 X30.7236 Y75.5058
G01 X30.6698 Y75.5951
G01 X30.6099 Y75.6759
G01 X30.5415 Y75.7514
G01 X30.4634 Y75.8222
G01 X30.3826 Y75.8821
G01 X30.3554 Y75.8985
G01 X30.3554 Y77.9316
G01 X30.3815 Y77.9474
G01 X30.4623 Y78.0073
G01 X30.5405 Y78.0782
G01 X30.6088 Y78.1537
G01 X30.6688 Y78.2344
G01 X30.7238 Y78.3259
G01 X30.7673 Y78.4180
G01 X30.8012 Y78.5126
G01 X30.8270 Y78.6149
G01 X30.8423 Y78.7193
G01 X30.8472 Y78.8198
G01 X30.8422 Y78.9215
G01 X30.8265 Y79.0270
G01 X30.8020 Y79.1246
G01 X30.7673 Y79.2216
G01 X30.7232 Y79.3147
G01 X30.6715 Y79.4010
G01 X30.6072 Y79.4877
G01 X30.5396 Y79.5622
G01 X30.4633 Y79.6314
G01 X30.3805 Y79.6928
G01 X30.2943 Y79.7446
G01 X30.1967 Y79.7907
G01 X30.1020 Y79.8246
G01 X30.0020 Y79.8496
G01 X29.9001 Y79.8647
G01 X29.7972 Y79.8698
G01 X29.6943 Y79.8647
G01 X29.5923 Y79.8496
G01 X29.4924 Y79.8246
G01 X29.3954 Y79.7898
G01 X29.3022 Y79.7458
G01 X29.2138 Y79.6928
G01 X29.1311 Y79.6314
G01 X29.0547 Y79.5622
G01 X28.9855 Y79.4859
G01 X28.9241 Y79.4031
G01 X28.8712 Y79.3147
G01 X28.8271 Y79.2216
G01 X28.7924 Y79.1246
G01 X28.7674 Y79.0246
G01 X28.7522 Y78.9227
G01 X28.7472 Y78.8222
G01 X28.7522 Y78.7169
G01 X28.7674 Y78.6149
G01 X28.7917 Y78.5173
G01 X28.8276 Y78.4168
G01 X28.8712 Y78.3248
G01 X28.9228 Y78.2385
G01 X28.9863 Y78.1527
G01 X29.0547 Y78.0773
G01 X29.1301 Y78.0089
G01 X29.2128 Y77.9474
G01 X29.2389 Y77.9316
G01 X29.2389 Y75.8973
G00 Z2.0000
G00 X26.6989 Y75.8973
G01 F60.00
G01 Z-0.1500
G01 F120.00
G01 X26.6738 Y75.8821
G01 X26.5930 Y75.8222
G01 X26.5166 Y75.7531
G01 X26.4465 Y75.6759
G01 X26.3858 Y75.5941
G01 X26.3322 Y75.5047
G01 X26.2881 Y75.4116
G01 X26.2534 Y75.3146
G01 X26.2286 Y75.2158
G01 X26.2133 Y75.1127
G01 X26.2082 Y75.0098
G01 X26.2133 Y74.9069
G01 X26.2284 Y74.8049
G01 X26.2534 Y74.7050
G01 X26.2881 Y74.6080
G01 X26.3322 Y74.5148
G01 X26.3845 Y74.4275
G01 X26.4465 Y74.3437
G01 X26.5157 Y74.2673
G01 X26.5921 Y74.1981
G01 X26.6748 Y74.1367
G01 X26.7632 Y74.0838
G01 X26.8564 Y74.0397
G01 X26.9534 Y74.0050
G01 X27.0534 Y73.9799
G01 X27.1553 Y73.9648
G01 X27.2582 Y73.9598
G01 X27.3611 Y73.9648
G01 X27.4630 Y73.9799
G01 X27.5630 Y74.0050
G01 X27.6600 Y74.0397
G01 X27.7532 Y74.0838
G01 X27.8405 Y74.1361
G01 X27.9243 Y74.1981
G01 X28.0023 Y74.2691
G01 X28.0699 Y74.3437
G01 X28.1298 Y74.4244
G01 X28.1842 Y74.5148
G01 X28.2292 Y74.6102
G01 X28.2630 Y74.7050
G01 X28.2875 Y74.8025
G01 X28.3031 Y74.9069
G01 X28.3082 Y75.0098
G01 X28.3028 Y75.1151
G01 X28.2880 Y75.2146
G01 X28.2636 Y75.3122
G01 X28.2283 Y75.4116
G01 X28.1836 Y75.5058
G01 X28.1298 Y75.5951
G01 X28.0699 Y75.6759
G01 X28.0015 Y75.7514
G01 X27.9234 Y75.8222
G01 X27.8426 Y75.8821
G01 X27.8154 Y75.8985
G01 X27.8154 Y77.9316
G01 X27.8415 Y77.9474
G01 X27.9223 Y78.0073
G01 X28.0005 Y78.0782
G01 X28.0688 Y78.1537
G01 X28.1288 Y78.2344
G01 X28.1838 Y78.3259
G01 X28.2273 Y78.4180
G01 X28.2612 Y78.5126
G01 X28.2870 Y78.6149
G01 X28.3023 Y78.7193
G01 X28.3072 Y78.8198
G01 X28.3022 Y78.9215
G01 X28.2865 Y79.0270
G01 X28.2620 Y79.1246
G01 X28.2273 Y79.2216
G01 X28.1832 Y79.3147
G01 X28.1315 Y79.4010
G01 X28.0672 Y79.4877
G01 X27.9996 Y79.5622
G01 X27.9233 Y79.6314
G01 X27.8405 Y79.6928
G01 X27.7543 Y79.7446
G01 X27.6567 Y79.7907
G01 X27.5620 Y79.8246
G01 X27.4620 Y79.8496
G01 X27.3601 Y79.8647
G01 X27.2572 Y79.8698
G01 X27.1543 Y79.8647
G01 X27.0523 Y79.8496
G01 X26.9524 Y79.8246
G01 X26.8554 Y79.7898
G01 X26.7622 Y79.7458
G01 X26.6738 Y79.6928
G01 X26.5911 Y79.6314
G01 X26.5147 Y79.5622
G01 X26.4455 Y79.4859
G01 X26.3841 Y79.4031
G01 X26.3312 Y79.3147
G01 X26.2871 Y79.2216
G01 X26.2524 Y79.1246
G01 X26.2274 Y79.0246
G01 X26.2122 Y78.9227
G01 X26.2072 Y78.8222
G01 X26.2122 Y78.7169
G01 X26.2274 Y78.6149
G01 X26.2517 Y78.5173
G01 X26.2876 Y78.4168
G01 X26.3312 Y78.3248
G01 X26.3828 Y78.2385
G01 X26.4463 Y78.1527
G01 X26.5147 Y78.0773
G01 X26.5901 Y78.0089
G01 X26.6728 Y77.9474
G01 X26.6989 Y77.9316
G01 X26.6989 Y75.8973
G00 Z2.0000
G00 X24.1589 Y75.8973
G01 F60.00
G01 Z-0.1500
G01 F120.00
G01 X24.1338 Y75.8821
G01 X24.0530 Y75.8222
G01 X23.9766 Y75.7531
G01 X23.9065 Y75.6759
G01 X23.8458 Y75.5941
G01 X23.7922 Y75.5047
G01 X23.7481 Y75.4116
G01 X23.7134 Y75.3146
G01 X23.6886 Y75.2158
G01 X23.6733 Y75.1127
G01 X23.6682 Y75.0098
G01 X23.6733 Y74.9069
G01 X23.6884 Y74.8049
G01 X23.7134 Y74.7050
G01 X23.7481 Y74.6080
G01 X23.7922 Y74.5148
G01 X23.8445 Y74.4275
G01 X23.9065 Y74.3437
G01 X23.9757 Y74.2673
G01 X24.0521 Y74.1981
G01 X24.1348 Y74.1367
G01 X24.2232 Y74.0838
G01 X24.3164 Y74.0397
G01 X24.4134 Y74.0050
G01 X24.5134 Y73.9799
G01 X24.6153 Y73.9648
G01 X24.7182 Y73.9598
G01 X24.8211 Y73.9648
G01 X24.9230 Y73.9799
G01 X25.0230 Y74.0050
G01 X25.1200 Y74.0397
G01 X25.2132 Y74.0838
G01 X25.3005 Y74.1361
G01 X25.3843 Y74.1981
G01 X25.4623 Y74.2691
G01 X25.5299 Y74.3437
G01 X25.5898 Y74.4244
G01 X25.6442 Y74.5148
G01 X25.6892 Y74.6102
G01 X25.7230 Y74.7050
G01 X25.7475 Y74.8025
G01 X25.7631 Y74.9069
G01 X25.7682 Y75.0098
G01 X25.7628 Y75.1151
G01 X25.7480 Y75.2146
G01 X25.7236 Y75.3122
G01 X25.6883 Y75.4116
G01 X25.6436 Y75.5058
G01 X25.5898 Y75.5951
G01 X25.5299 Y75.6759
G01 X25.4615 Y75.7514
G01 X25.3834 Y75.8222
G01 X25.3026 Y75.8821
G01 X25.2754 Y75.8985
G01 X25.2754 Y77.9316
G01 X25.3015 Y77.9474
G01 X25.3823 Y78.0073
G01 X25.4605 Y78.0782
G01 X25.5288 Y78.1537
G01 X25.5888 Y78.2344
G01 X25.6438 Y78.3259
G01 X25.6873 Y78.4180
G01 X25.7212 Y78.5126
G01 X25.7470 Y78.6149
G01 X25.7623 Y78.7193
G01 X25.7672 Y78.8198
G01 X25.7622 Y78.9215
G01 X25.7465 Y79.0270
G01 X25.7220 Y79.1246
G01 X25.6873 Y79.2216
G01 X25.6432 Y79.3147
G01 X25.5915 Y79.4010
G01 X25.5272 Y79.4877
G01 X25.4596 Y79.5622
G01 X25.3833 Y79.6314
G01 X25.3005 Y79.6928
G01 X25.2143 Y79.7446
G01 X25.1167 Y79.7907
G01 X25.0220 Y79.8246
G01 X24.9220 Y79.8496
G01 X24.8201 Y79.8647
G01 X24.7172 Y79.8698
G01 X24.6143 Y79.8647
G01 X24.5123 Y79.8496
G01 X24.4124 Y79.8246
G01 X24.3154 Y79.7898
G01 X24.2222 Y79.7458
G01 X24.1338 Y79.6928
G01 X24.0511 Y79.6314
G01 X23.9747 Y79.5622
G01 X23.9055 Y79.4859
G01 X23.8441 Y79.4031
G01 X23.7912 Y79.3147
G01 X23.7471 Y79.2216
G01 X23.7124 Y79.1246
G01 X23.6874 Y79.0246
G01 X23.6722 Y78.9227
G01 X23.6672 Y78.8222
G01 X23.6722 Y78.7169
G01 X23.6874 Y78.6149
G01 X23.7117 Y78.5173
G01 X23.7476 Y78.4168
G01 X23.7912 Y78.3248
G01 X23.8428 Y78.2385
G01 X23.9063 Y78.1527
G01 X23.9747 Y78.0773
G01 X24.0501 Y78.0089
G01 X24.1328 Y77.9474
G01 X24.1589 Y77.9316
G01 X24.1589 Y75.8973
G00 Z2.0000
G00 X23.2271 Y78.8222
G01 F60.00
G01 Z-0.1500
G01 F120.00
G01 X23.2221 Y78.9227
G01 X23.2070 Y79.0246
G01 X23.1820 Y79.1246
G01 X23.1473 Y79.2216
G01 X23.1032 Y79.3147
G01 X23.0502 Y79.4031
G01 X22.9888 Y79.4859
G01 X22.9196 Y79.5622
G01 X22.8433 Y79.6314
G01 X22.7605 Y79.6928
G01 X22.6722 Y79.7458
G01 X22.5790 Y79.7898
G01 X22.4820 Y79.8246
G01 X22.3820 Y79.8496
G01 X22.2801 Y79.8647
G01 X22.1772 Y79.8698
G01 X22.0743 Y79.8647
G01 X21.9723 Y79.8496
G01 X21.8724 Y79.8246
G01 X21.7754 Y79.7898
G01 X21.6822 Y79.7458
G01 X21.5938 Y79.6928
G01 X21.5111 Y79.6314
G01 X21.4347 Y79.5622
G01 X21.3655 Y79.4859
G01 X21.3041 Y79.4031
G01 X21.2512 Y79.3147
G01 X21.2071 Y79.2216
G01 X21.1724 Y79.1246
G01 X21.1474 Y79.0246
G01 X21.1322 Y78.9227
G01 X21.1272 Y78.8198
G01 X21.1322 Y78.7169
G01 X21.1474 Y78.6149
G01 X21.1724 Y78.5150
G01 X21.2071 Y78.4180
G01 X21.2512 Y78.3248
G01 X21.3041 Y78.2364
G01 X21.3655 Y78.1537
G01 X21.4347 Y78.0773
G01 X21.5111 Y78.0081
G01 X21.5938 Y77.9467
G01 X21.6822 Y77.8938
G01 X21.7754 Y77.8497
G01 X21.8724 Y77.8150
G01 X21.9723 Y77.7899
G01 X22.0743 Y77.7748
G01 X22.1772 Y77.7698
G01 X22.2801 Y77.7748
G01 X22.3820 Y77.7899
G01 X22.4820 Y77.8150
G01 X22.5790 Y77.8497
G01 X22.6722 Y77.8938
G01 X22.7605 Y77.9467
G01 X22.8433 Y78.0081
G01 X22.9196 Y78.0773
G01 X22.9888 Y78.1537
G01 X23.0502 Y78.2364
G01 X23.1032 Y78.3248
G01 X23.1473 Y78.4180
G01 X23.1820 Y78.5150
G01 X23.2070 Y78.6149
G01 X23.2221 Y78.7169
G01 X23.2271 Y78.8222
G00 Z2.0000
G00 X18.5872 Y79.8198
G01 F60.00
G01 Z-0.1500
G01 F120.00
G01 X18.5872 Y77.8198
G01 X18.5881 Y77.8100
G01 X18.5910 Y77.8006
G01 X18.5956 Y77.7920
G01 X18.5993 Y77.7871
G01 X18.6027 Y77.7836
G01 X18.6104 Y77.7775
G01 X18.6192 Y77.7731
G01 X18.6286 Y77.7705
G01 X18.6372 Y77.7698
G01 X20.6372 Y77.7698
G01 X20.6469 Y77.7707
G01 X20.6563 Y77.7736
G01 X20.6650 Y77.7782
G01 X20.6698 Y77.7819
G01 X20.6734 Y77.7853
G01 X20.6794 Y77.7930
G01 X20.6838 Y77.8018
G01 X20.6864 Y77.8112
G01 X20.6872 Y77.8198
G01 X20.6872 Y79.8198
G01 X20.6862 Y79.8295
G01 X20.6834 Y79.8389
G01 X20.6787 Y79.8475
G01 X20.6750 Y79.8524
G01 X20.6717 Y79.8560
G01 X20.6639 Y79.8620
G01 X20.6552 Y79.8664
G01 X20.6457 Y79.8690
G01 X20.6372 Y79.8698
G01 X18.6360 Y79.8697
G01 X18.6274 Y79.8688
G01 X18.6180 Y79.8660
G01 X18.6094 Y79.8613
G01 X18.6018 Y79.8551
G01 X18.5956 Y79.8475
G01 X18.5910 Y79.8389
G01 X18.5881 Y79.8295
G01 X18.5872 Y79.8198
G00 Z2.0000
G00 X45.5112 Y79.8198
G01 F60.00
G01 Z-0.1500
G01 F120.00
G01 X45.5112 Y77.8198
G01 X45.5116 Y77.8137
G01 X45.5127 Y77.8076
G01 X45.5150 Y77.8006
G01 X45.5183 Y77.7941
G01 X45.5225 Y77.7881
G01 X45.5285 Y77.7819
G01 X45.5344 Y77.7775
G01 X45.5420 Y77.7736
G01 X45.5502 Y77.7710
G01 X45.5575 Y77.7699
G01 X46.0029 Y77.7698
G01 X46.0029 Y75.8973
G01 X45.9778 Y75.8821
G01 X45.8951 Y75.8206
G01 X45.8197 Y75.7522
G01 X45.7513 Y75.6768
G01 X45.6878 Y75.5910
G01 X45.6362 Y75.5047
G01 X45.5926 Y75.4127
G01 X45.5568 Y75.3122
G01 X45.5324 Y75.2146
G01 X45.5173 Y75.1127
G01 X45.5122 Y75.0098
G01 X45.5171 Y74.9093
G01 X45.5326 Y74.8037
G01 X45.5574 Y74.7050
G01 X45.5921 Y74.6080
G01 X45.6362 Y74.5148
G01 X45.6892 Y74.4264
G01 X45.7505 Y74.3437
G01 X45.8197 Y74.2673
G01 X45.8961 Y74.1981
G01 X45.9788 Y74.1367
G01 X46.0672 Y74.0838
G01 X46.1604 Y74.0397
G01 X46.2574 Y74.0050
G01 X46.3574 Y73.9799
G01 X46.4593 Y73.9648
G01 X46.5622 Y73.9598
G01 X46.6651 Y73.9648
G01 X46.7682 Y73.9802
G01 X46.8670 Y74.0050
G01 X46.9617 Y74.0388
G01 X47.0572 Y74.0838
G01 X47.1455 Y74.1367
G01 X47.2264 Y74.1966
G01 X47.3063 Y74.2691
G01 X47.3739 Y74.3437
G01 X47.4338 Y74.4244
G01 X47.4893 Y74.5170
G01 X47.5323 Y74.6080
G01 X47.5670 Y74.7050
G01 X47.5920 Y74.8049
G01 X47.6068 Y74.9044
G01 X47.6121 Y75.0122
G01 X47.6071 Y75.1127
G01 X47.5920 Y75.2146
G01 X47.5662 Y75.3169
G01 X47.5323 Y75.4116
G01 X47.4888 Y75.5036
G01 X47.4338 Y75.5951
G01 X47.3739 Y75.6759
G01 X47.3055 Y75.7514
G01 X47.2274 Y75.8222
G01 X47.1466 Y75.8821
G01 X47.1194 Y75.8985
G01 X47.1194 Y77.7698
G01 X47.5649 Y77.7699
G01 X47.5721 Y77.7710
G01 X47.5803 Y77.7736
G01 X47.5879 Y77.7775
G01 X47.5938 Y77.7819
G01 X47.5998 Y77.7881
G01 X47.6041 Y77.7941
G01 X47.6074 Y77.8006
G01 X47.6097 Y77.8076
G01 X47.6108 Y77.8137
G01 X47.6112 Y77.8198
G01 X47.6112 Y79.8198
G01 X47.6109 Y79.8247
G01 X47.6100 Y79.8307
G01 X47.6074 Y79.8389
G01 X47.6041 Y79.8455
G01 X47.5990 Y79.8524
G01 X47.5929 Y79.8584
G01 X47.5858 Y79.8633
G01 X47.5780 Y79.8668
G01 X47.5697 Y79.8690
G01 X47.5624 Y79.8697
G01 X45.5612 Y79.8698
G01 X45.5514 Y79.8688
G01 X45.5420 Y79.8660
G01 X45.5334 Y79.8613
G01 X45.5258 Y79.8551
G01 X45.5196 Y79.8475
G01 X45.5150 Y79.8389
G01 X45.5121 Y79.8295
G01 X45.5112 Y79.8198
G00 Z2.0000
G00 X48.5429 Y75.8973
G01 F60.00
G01 Z-0.1500
G01 F120.00
G01 X48.5178 Y75.8821
G01 X48.4370 Y75.8222
G01 X48.3606 Y75.7531
G01 X48.2905 Y75.6759
G01 X48.2298 Y75.5941
G01 X48.1762 Y75.5047
G01 X48.1321 Y75.4116
G01 X48.0974 Y75.3146
G01 X48.0726 Y75.2158
G01 X48.0573 Y75.1127
G01 X48.0522 Y75.0098
G01 X48.0573 Y74.9069
G01 X48.0724 Y74.8049
G01 X48.0974 Y74.7050
G01 X48.1321 Y74.6080
G01 X48.1762 Y74.5148
G01 X48.2285 Y74.4275
G01 X48.2905 Y74.3437
G01 X48.3597 Y74.2673
G01 X48.4361 Y74.1981
G01 X48.5188 Y74.1367
G01 X48.6072 Y74.0838
G01 X48.7004 Y74.0397
G01 X48.7974 Y74.0050
G01 X48.8974 Y73.9799
G01 X48.9993 Y73.9648
G01 X49.1022 Y73.9598
G01 X49.2051 Y73.9648
G01 X49.3070 Y73.9799
G01 X49.4070 Y74.0050
G01 X49.5040 Y74.0397
G01 X49.5972 Y74.0838
G01 X49.6845 Y74.1361
G01 X49.7683 Y74.1981
G01 X49.8463 Y74.2691
G01 X49.9139 Y74.3437
G01 X49.9738 Y74.4244
G01 X50.0282 Y74.5148
G01 X50.0732 Y74.6102
G01 X50.1070 Y74.7050
G01 X50.1315 Y74.8025
G01 X50.1471 Y74.9069
G01 X50.1522 Y75.0098
G01 X50.1468 Y75.1151
G01 X50.1320 Y75.2146
G01 X50.1076 Y75.3122
G01 X50.0723 Y75.4116
G01 X50.0276 Y75.5058
G01 X49.9738 Y75.5951
G01 X49.9139 Y75.6759
G01 X49.8455 Y75.7514
G01 X49.7674 Y75.8222
G01 X49.6866 Y75.8821
G01 X49.6594 Y75.8985
G01 X49.6594 Y77.9316
G01 X49.6855 Y77.9474
G01 X49.7663 Y78.0073
G01 X49.8445 Y78.0782
G01 X49.9128 Y78.1537
G01 X49.9728 Y78.2344
G01 X50.0278 Y78.3259
G01 X50.0713 Y78.4180
G01 X50.1052 Y78.5126
G01 X50.1310 Y78.6149
G01 X50.1463 Y78.7193
G01 X50.1512 Y78.8198
G01 X50.1462 Y78.9215
G01 X50.1305 Y79.0270
G01 X50.1060 Y79.1246
G01 X50.0713 Y79.2216
G01 X50.0272 Y79.3147
G01 X49.9755 Y79.4010
G01 X49.9112 Y79.4877
G01 X49.8436 Y79.5622
G01 X49.7673 Y79.6314
G01 X49.6845 Y79.6928
G01 X49.5983 Y79.7446
G01 X49.5007 Y79.7907
G01 X49.4060 Y79.8246
G01 X49.3060 Y79.8496
G01 X49.2041 Y79.8647
G01 X49.1012 Y79.8698
G01 X48.9983 Y79.8647
G01 X48.8963 Y79.8496
G01 X48.7964 Y79.8246
G01 X48.6994 Y79.7898
G01 X48.6062 Y79.7458
G01 X48.5178 Y79.6928
G01 X48.4351 Y79.6314
G01 X48.3587 Y79.5622
G01 X48.2895 Y79.4859
G01 X48.2281 Y79.4031
G01 X48.1752 Y79.3147
G01 X48.1311 Y79.2216
G01 X48.0964 Y79.1246
G01 X48.0714 Y79.0246
G01 X48.0562 Y78.9227
G01 X48.0512 Y78.8222
G01 X48.0562 Y78.7169
G01 X48.0714 Y78.6149
G01 X48.0957 Y78.5173
G01 X48.1316 Y78.4168
G01 X48.1752 Y78.3248
G01 X48.2268 Y78.2385
G01 X48.2903 Y78.1527
G01 X48.3587 Y78.0773
G01 X48.4341 Y78.0089
G01 X48.5168 Y77.9474
G01 X48.5429 Y77.9316
G01 X48.5429 Y75.8973
G00 Z2.0000
G00 X36.1607 Y38.3998
G01 F60.00
G01 Z-0.1500
G01 F120.00
G01 X38.1632 Y38.3998
G01 X38.1729 Y38.4007
G01 X38.1823 Y38.4036
G01 X38.1910 Y38.4082
G01 X38.1985 Y38.4144
G01 X38.2048 Y38.4220
G01 X38.2094 Y38.4306
G01 X38.2122 Y38.4400
G01 X38.2132 Y38.4498
G01 X38.2132 Y40.4498
G01 X38.2122 Y40.4595
G01 X38.2094 Y40.4689
G01 X38.2048 Y40.4775
G01 X38.1985 Y40.4851
G01 X38.1910 Y40.4913
G01 X38.1823 Y40.4960
G01 X38.1729 Y40.4988
G01 X38.1632 Y40.4998
G01 X36.1632 Y40.4998
G01 X36.1534 Y40.4988
G01 X36.1441 Y40.4960
G01 X36.1354 Y40.4913
G01 X36.1278 Y40.4851
G01 X36.1216 Y40.4775
G01 X36.1170 Y40.4689
G01 X36.1141 Y40.4595
G01 X36.1132 Y40.4498
G01 X36.1132 Y38.4485
G01 X36.1144 Y38.4388
G01 X36.1175 Y38.4295
G01 X36.1216 Y38.4220
G01 X36.1278 Y38.4144
G01 X36.1354 Y38.4082
G01 X36.1429 Y38.4041
G01 X36.1522 Y38.4010
G01 X36.1607 Y38.3998
G00 Z2.0000
G00 X32.3507 Y38.3998
G01 F60.00
G01 Z-0.1500
G01 F120.00
G01 X34.3532 Y38.3998
G01 X34.3629 Y38.4007
G01 X34.3723 Y38.4036
G01 X34.3810 Y38.4082
G01 X34.3885 Y38.4144
G01 X34.3948 Y38.4220
G01 X34.3994 Y38.4306
G01 X34.4022 Y38.4400
G01 X34.4032 Y38.4498
G01 X34.4032 Y40.4498
G01 X34.4022 Y40.4595
G01 X34.3994 Y40.4689
G01 X34.3948 Y40.4775
G01 X34.3885 Y40.4851
G01 X34.3810 Y40.4913
G01 X34.3723 Y40.4960
G01 X34.3629 Y40.4988
G01 X34.3532 Y40.4998
G01 X32.3532 Y40.4998
G01 X32.3434 Y40.4988
G01 X32.3341 Y40.4960
G01 X32.3254 Y40.4913
G01 X32.3178 Y40.4851
G01 X32.3116 Y40.4775
G01 X32.3070 Y40.4689
G01 X32.3041 Y40.4595
G01 X32.3032 Y40.4498
G01 X32.3032 Y38.4485
G01 X32.3044 Y38.4388
G01 X32.3075 Y38.4295
G01 X32.3116 Y38.4220
G01 X32.3178 Y38.4144
G01 X32.3254 Y38.4082
G01 X32.3329 Y38.4041
G01 X32.3422 Y38.4010
G01 X32.3507 Y38.3998
G00 Z2.0000
G00 X25.7467 Y38.3998
G01 F60.00
G01 Z-0.1500
G01 F120.00
G01 X27.7492 Y38.3998
G01 X27.7589 Y38.4007
G01 X27.7683 Y38.4036
G01 X27.7770 Y38.4082
G01 X27.7845 Y38.4144
G01 X27.7908 Y38.4220
G01 X27.7954 Y38.4306
G01 X27.7982 Y38.4400
G01 X27.7992 Y38.4498
G01 X27.7992 Y40.4498
G01 X27.7982 Y40.4595
G01 X27.7954 Y40.4689
G01 X27.7908 Y40.4775
G01 X27.7845 Y40.4851
G01 X27.7770 Y40.4913
G01 X27.7683 Y40.4960
G01 X27.7589 Y40.4988
G01 X27.7492 Y40.4998
G01 X25.7492 Y40.4998
G01 X25.7394 Y40.4988
G01 X25.7301 Y40.4960
G01 X25.7214 Y40.4913
G01 X25.7138 Y40.4851
G01 X25.7076 Y40.4775
G01 X25.7030 Y40.4689
G01 X25.7001 Y40.4595
G01 X25.6992 Y40.4498
G01 X25.6992 Y38.4485
G01 X25.7004 Y38.4388
G01 X25.7035 Y38.4295
G01 X25.7076 Y38.4220
G01 X25.7138 Y38.4144
G01 X25.7214 Y38.4082
G01 X25.7289 Y38.4041
G01 X25.7370 Y38.4013
G01 X25.7467 Y38.3998
G00 Z2.0000
G00 X21.6827 Y38.3998
G01 F60.00
G01 Z-0.1500
G01 F120.00
G01 X23.6852 Y38.3998
G01 X23.6949 Y38.4007
G01 X23.7043 Y38.4036
G01 X23.7130 Y38.4082
G01 X23.7205 Y38.4144
G01 X23.7268 Y38.4220
G01 X23.7314 Y38.4306
G01 X23.7342 Y38.4400
G01 X23.7352 Y38.4498
G01 X23.7352 Y40.4498
G01 X23.7342 Y40.4595
G01 X23.7314 Y40.4689
G01 X23.7268 Y40.4775
G01 X23.7205 Y40.4851
G01 X23.7130 Y40.4913
G01 X23.7043 Y40.4960
G01 X23.6949 Y40.4988
G01 X23.6852 Y40.4998
G01 X21.6852 Y40.4998
G01 X21.6754 Y40.4988
G01 X21.6661 Y40.4960
G01 X21.6574 Y40.4913
G01 X21.6498 Y40.4851
G01 X21.6436 Y40.4775
G01 X21.6390 Y40.4689
G01 X21.6361 Y40.4595
G01 X21.6352 Y40.4498
G01 X21.6352 Y38.4485
G01 X21.6364 Y38.4388
G01 X21.6395 Y38.4295
G01 X21.6436 Y38.4220
G01 X21.6498 Y38.4144
G01 X21.6574 Y38.4082
G01 X21.6649 Y38.4041
G01 X21.6730 Y38.4013
G01 X21.6827 Y38.3998
G00 Z2.0000
M05
G00 Z2.0000
G00 Z15.00

