(G-CODE GENERATED BY FLATCAM v8.993 - www.flatcam.org - Version Date: 2020/06/05)

(Name: TopLayer_0.06)
(Type: G-code from Geometry)
(Units: MM)

(Created on Thursday, 25 March 2021 at 19:36)

(This preprocessor is the default preprocessor used by FlatCAM.)
(It is made to work with MACH3 compatible motion controllers.)

(TOOL DIAMETER: 0.1 mm)
(Feedrate_XY: 120.0 mm/min)
(Feedrate_Z: 60.0 mm/min)
(Feedrate rapids 1500.0 mm/min)

(Z_Cut: -0.06 mm)
(Z_Move: 2.0 mm)
(Z Start: None mm)
(Z End: 15.0 mm)
(Steps per circle: 64)
(Preprocessor Geometry: default)

(X range:    3.5877 ...  179.4506  mm)
(Y range:    3.5878 ...   97.9172  mm)

(Spindle Speed: None RPM)
G21
G90
G94



G01 F120.00
G00 Z2.0000

M03
G00 X8.9728 Y3.5878
G01 F60.00
G01 Z-0.0600
G01 F120.00
G01 X80.9569 Y3.5909
G01 X80.9664 Y3.5918
G01 X81.0068 Y3.5996
G01 X81.0162 Y3.6028
G01 X81.0228 Y3.6063
G01 X81.0564 Y3.6288
G01 X81.0638 Y3.6350
G01 X97.7195 Y20.2901
G01 X97.7426 Y20.3103
G01 X97.7967 Y20.3399
G01 X97.8399 Y20.3519
G01 X97.8754 Y20.3549
G01 X174.0641 Y20.3523
G01 X174.3865 Y20.3617
G01 X174.6968 Y20.3892
G01 X175.0080 Y20.4351
G01 X175.3132 Y20.4984
G01 X175.6152 Y20.5795
G01 X175.9126 Y20.6779
G01 X176.2033 Y20.7938
G01 X176.4882 Y20.9268
G01 X176.7622 Y21.0748
G01 X177.0276 Y21.2386
G01 X177.2853 Y21.4189
G01 X177.5304 Y21.6132
G01 X177.7642 Y21.8214
G01 X177.9867 Y22.0440
G01 X178.1934 Y22.2773
G01 X178.3863 Y22.5217
G01 X178.5658 Y22.7780
G01 X178.7312 Y23.0458
G01 X178.8794 Y23.3212
G01 X179.0117 Y23.6053
G01 X179.1276 Y23.8975
G01 X179.2250 Y24.1934
G01 X179.3057 Y24.4940
G01 X179.3688 Y24.8007
G01 X179.4142 Y25.1118
G01 X179.4414 Y25.4240
G01 X179.4506 Y25.7386
G01 X179.1966 Y75.7644
G01 X179.1873 Y76.0866
G01 X179.1597 Y76.3974
G01 X179.1138 Y76.7080
G01 X179.0505 Y77.0132
G01 X178.9695 Y77.3157
G01 X178.8710 Y77.6126
G01 X178.7552 Y77.9033
G01 X178.6229 Y78.1874
G01 X178.4734 Y78.4641
G01 X178.3096 Y78.7289
G01 X178.1310 Y78.9841
G01 X177.9357 Y79.2309
G01 X177.7276 Y79.4642
G01 X177.5049 Y79.6868
G01 X177.2717 Y79.8934
G01 X177.0273 Y80.0868
G01 X176.7710 Y80.2664
G01 X176.5031 Y80.4313
G01 X176.2264 Y80.5801
G01 X175.9437 Y80.7118
G01 X175.6543 Y80.8266
G01 X175.3569 Y80.9251
G01 X175.0535 Y81.0061
G01 X174.7469 Y81.0697
G01 X174.4372 Y81.1148
G01 X174.1234 Y81.1420
G01 X173.8101 Y81.1507
G01 X97.6213 Y81.1532
G01 X97.5907 Y81.1557
G01 X97.5308 Y81.1731
G01 X97.4916 Y81.1947
G01 X97.4654 Y81.2175
G01 X80.8098 Y97.8726
G01 X80.8039 Y97.8777
G01 X80.7703 Y97.9008
G01 X80.7619 Y97.9055
G01 X80.7527 Y97.9084
G01 X80.7089 Y97.9169
G01 X80.7029 Y97.9172
G01 X8.9743 Y97.9172
G01 X8.6518 Y97.9079
G01 X8.3415 Y97.8803
G01 X8.0304 Y97.8344
G01 X7.7252 Y97.7711
G01 X7.4232 Y97.6901
G01 X7.1258 Y97.5916
G01 X6.8351 Y97.4757
G01 X6.5502 Y97.3428
G01 X6.2762 Y97.1947
G01 X6.0108 Y97.0309
G01 X5.7531 Y96.8507
G01 X5.5080 Y96.6563
G01 X5.2742 Y96.4482
G01 X5.0517 Y96.2255
G01 X4.8450 Y95.9923
G01 X4.6521 Y95.7478
G01 X4.4726 Y95.4915
G01 X4.3072 Y95.2237
G01 X4.1590 Y94.9483
G01 X4.0267 Y94.6643
G01 X3.9108 Y94.3721
G01 X3.8133 Y94.0761
G01 X3.7327 Y93.7755
G01 X3.6695 Y93.4689
G01 X3.6241 Y93.1577
G01 X3.5969 Y92.8441
G01 X3.5877 Y92.5307
G01 X3.5878 Y8.9729
G01 X3.5971 Y8.6519
G01 X3.6247 Y8.3416
G01 X3.6703 Y8.0319
G01 X3.7339 Y7.7253
G01 X3.8145 Y7.4242
G01 X3.9139 Y7.1245
G01 X4.0292 Y6.8351
G01 X4.1609 Y6.5529
G01 X4.3110 Y6.2744
G01 X4.4748 Y6.0096
G01 X4.6543 Y5.7532
G01 X4.8486 Y5.5081
G01 X5.0578 Y5.2733
G01 X5.2794 Y5.0517
G01 X5.5127 Y4.8451
G01 X5.7595 Y4.6499
G01 X6.0146 Y4.4718
G01 X6.2813 Y4.3072
G01 X6.5566 Y4.1590
G01 X6.8407 Y4.0267
G01 X7.1314 Y3.9114
G01 X7.4274 Y3.8134
G01 X7.7323 Y3.7321
G01 X8.0375 Y3.6693
G01 X8.3472 Y3.6242
G01 X8.6595 Y3.5970
G01 X8.9728 Y3.5878
G00 Z2.0000
G00 X10.7127 Y8.6643
G01 F60.00
G01 Z-0.0600
G01 F120.00
G01 X10.8496 Y8.6686
G01 X10.9850 Y8.6905
G01 X11.1160 Y8.7293
G01 X11.2412 Y8.7846
G01 X11.3586 Y8.8554
G01 X11.4653 Y8.9408
G01 X11.5604 Y9.0393
G01 X11.6425 Y9.1491
G01 X11.7099 Y9.2684
G01 X11.7609 Y9.3950
G01 X11.7958 Y9.5275
G01 X11.8133 Y9.6634
G01 X11.8133 Y9.8002
G01 X11.7958 Y9.9360
G01 X11.7609 Y10.0686
G01 X11.7099 Y10.1952
G01 X11.6425 Y10.3145
G01 X11.5604 Y10.4242
G01 X11.4653 Y10.5228
G01 X11.3586 Y10.6081
G01 X11.2412 Y10.6789
G01 X11.1160 Y10.7343
G01 X10.9850 Y10.7731
G01 X10.8496 Y10.7949
G01 X10.7127 Y10.7993
G01 X10.5768 Y10.7862
G01 X10.4434 Y10.7561
G01 X10.3149 Y10.7086
G01 X10.1935 Y10.6455
G01 X10.0809 Y10.5668
G01 X9.9795 Y10.4752
G01 X9.8913 Y10.3709
G01 X9.8165 Y10.2558
G01 X9.7568 Y10.1325
G01 X9.7136 Y10.0025
G01 X9.6874 Y9.8686
G01 X9.6787 Y9.7318
G01 X9.6874 Y9.5949
G01 X9.7136 Y9.4610
G01 X9.7568 Y9.3310
G01 X9.8165 Y9.2077
G01 X9.8913 Y9.0926
G01 X9.9795 Y8.9884
G01 X10.0809 Y8.8967
G01 X10.1935 Y8.8181
G01 X10.3149 Y8.7550
G01 X10.4434 Y8.7074
G01 X10.5768 Y8.6774
G01 X10.7127 Y8.6643
G00 Z2.0000
G00 X11.1467 Y8.7608
G01 F60.00
G01 Z-0.0600
G01 F120.00
G01 X11.2422 Y8.8058
G01 X11.3305 Y8.8587
G01 X11.4133 Y8.9201
G01 X11.4897 Y8.9893
G01 X11.5589 Y9.0657
G01 X11.6202 Y9.1484
G01 X11.6732 Y9.2368
G01 X11.7173 Y9.3300
G01 X11.7520 Y9.4270
G01 X11.7770 Y9.5269
G01 X11.7921 Y9.6289
G01 X11.7972 Y9.7318
G01 X11.7921 Y9.8347
G01 X11.7770 Y9.9366
G01 X11.7520 Y10.0366
G01 X11.7173 Y10.1336
G01 X11.6732 Y10.2267
G01 X11.6202 Y10.3151
G01 X11.5589 Y10.3979
G01 X11.4897 Y10.4742
G01 X11.4133 Y10.5434
G01 X11.3305 Y10.6048
G01 X11.2422 Y10.6578
G01 X11.1490 Y10.7018
G01 X11.0520 Y10.7366
G01 X10.9520 Y10.7616
G01 X10.8501 Y10.7767
G01 X10.7472 Y10.7818
G01 X10.6443 Y10.7767
G01 X10.5423 Y10.7616
G01 X10.4424 Y10.7366
G01 X10.3454 Y10.7018
G01 X10.2522 Y10.6578
G01 X10.1638 Y10.6048
G01 X10.0811 Y10.5434
G01 X10.0047 Y10.4742
G01 X9.9355 Y10.3979
G01 X9.8741 Y10.3151
G01 X9.8212 Y10.2267
G01 X9.7771 Y10.1336
G01 X9.7424 Y10.0366
G01 X9.7174 Y9.9366
G01 X9.7022 Y9.8347
G01 X9.6972 Y9.7318
G01 X9.7022 Y9.6289
G01 X9.7174 Y9.5269
G01 X9.7424 Y9.4270
G01 X9.7771 Y9.3300
G01 X9.8212 Y9.2368
G01 X9.8741 Y9.1484
G01 X9.9355 Y9.0657
G01 X10.0047 Y8.9893
G01 X10.0811 Y8.9201
G01 X10.1638 Y8.8587
G01 X10.2522 Y8.8058
G01 X10.3454 Y8.7617
G01 X10.4424 Y8.7270
G01 X10.5423 Y8.7019
G01 X10.6443 Y8.6868
G01 X10.7472 Y8.6818
G01 X10.8501 Y8.6868
G01 X10.9520 Y8.7019
G01 X11.0520 Y8.7270
G01 X11.1467 Y8.7608
G00 Z2.0000
G00 X25.9527 Y8.6643
G01 F60.00
G01 Z-0.0600
G01 F120.00
G01 X26.0896 Y8.6686
G01 X26.2250 Y8.6905
G01 X26.3560 Y8.7293
G01 X26.4812 Y8.7846
G01 X26.5986 Y8.8554
G01 X26.7053 Y8.9408
G01 X26.8004 Y9.0393
G01 X26.8825 Y9.1491
G01 X26.9499 Y9.2684
G01 X27.0009 Y9.3950
G01 X27.0358 Y9.5275
G01 X27.0533 Y9.6634
G01 X27.0533 Y9.8002
G01 X27.0358 Y9.9360
G01 X27.0009 Y10.0686
G01 X26.9499 Y10.1952
G01 X26.8825 Y10.3145
G01 X26.8004 Y10.4242
G01 X26.7053 Y10.5228
G01 X26.5986 Y10.6081
G01 X26.4812 Y10.6789
G01 X26.3560 Y10.7343
G01 X26.2250 Y10.7731
G01 X26.0896 Y10.7949
G01 X25.9527 Y10.7993
G01 X25.8168 Y10.7862
G01 X25.6834 Y10.7561
G01 X25.5549 Y10.7086
G01 X25.4335 Y10.6455
G01 X25.3209 Y10.5668
G01 X25.2195 Y10.4752
G01 X25.1313 Y10.3709
G01 X25.0565 Y10.2558
G01 X24.9968 Y10.1325
G01 X24.9536 Y10.0025
G01 X24.9274 Y9.8686
G01 X24.9187 Y9.7318
G01 X24.9274 Y9.5949
G01 X24.9536 Y9.4610
G01 X24.9968 Y9.3310
G01 X25.0565 Y9.2077
G01 X25.1313 Y9.0926
G01 X25.2195 Y8.9884
G01 X25.3209 Y8.8967
G01 X25.4335 Y8.8181
G01 X25.5549 Y8.7550
G01 X25.6834 Y8.7074
G01 X25.8168 Y8.6774
G01 X25.9527 Y8.6643
G00 Z2.0000
G00 X26.3867 Y8.7608
G01 F60.00
G01 Z-0.0600
G01 F120.00
G01 X26.4822 Y8.8058
G01 X26.5705 Y8.8587
G01 X26.6533 Y8.9201
G01 X26.7297 Y8.9893
G01 X26.7989 Y9.0657
G01 X26.8602 Y9.1484
G01 X26.9132 Y9.2368
G01 X26.9573 Y9.3300
G01 X26.9920 Y9.4270
G01 X27.0170 Y9.5269
G01 X27.0321 Y9.6289
G01 X27.0372 Y9.7318
G01 X27.0321 Y9.8347
G01 X27.0170 Y9.9366
G01 X26.9920 Y10.0366
G01 X26.9573 Y10.1336
G01 X26.9132 Y10.2267
G01 X26.8602 Y10.3151
G01 X26.7989 Y10.3979
G01 X26.7297 Y10.4742
G01 X26.6533 Y10.5434
G01 X26.5705 Y10.6048
G01 X26.4822 Y10.6578
G01 X26.3890 Y10.7018
G01 X26.2920 Y10.7366
G01 X26.1920 Y10.7616
G01 X26.0901 Y10.7767
G01 X25.9872 Y10.7818
G01 X25.8843 Y10.7767
G01 X25.7823 Y10.7616
G01 X25.6824 Y10.7366
G01 X25.5854 Y10.7018
G01 X25.4922 Y10.6578
G01 X25.4038 Y10.6048
G01 X25.3211 Y10.5434
G01 X25.2447 Y10.4742
G01 X25.1755 Y10.3979
G01 X25.1141 Y10.3151
G01 X25.0612 Y10.2267
G01 X25.0171 Y10.1336
G01 X24.9824 Y10.0366
G01 X24.9574 Y9.9366
G01 X24.9422 Y9.8347
G01 X24.9372 Y9.7318
G01 X24.9422 Y9.6289
G01 X24.9574 Y9.5269
G01 X24.9824 Y9.4270
G01 X25.0171 Y9.3300
G01 X25.0612 Y9.2368
G01 X25.1141 Y9.1484
G01 X25.1755 Y9.0657
G01 X25.2447 Y8.9893
G01 X25.3211 Y8.9201
G01 X25.4038 Y8.8587
G01 X25.4922 Y8.8058
G01 X25.5854 Y8.7617
G01 X25.6824 Y8.7270
G01 X25.7823 Y8.7019
G01 X25.8843 Y8.6868
G01 X25.9872 Y8.6818
G01 X26.0901 Y8.6868
G01 X26.1920 Y8.7019
G01 X26.2920 Y8.7270
G01 X26.3867 Y8.7608
G00 Z2.0000
G00 X24.9420 Y24.7143
G01 F60.00
G01 Z-0.0600
G01 F120.00
G01 X24.9405 Y24.7182
G01 X24.9393 Y24.7224
G01 X24.9400 Y24.7182
G01 X24.9420 Y24.7143
G00 Z2.0000
G00 X24.9382 Y24.7287
G01 F60.00
G01 Z-0.0600
G01 F120.00
G01 X24.9380 Y24.7339
G01 X24.9382 Y26.7385
G01 X24.9353 Y26.7217
G01 X24.9353 Y24.7458
G01 X24.9382 Y24.7287
G00 Z2.0000
G00 X23.4143 Y24.6820
G01 F60.00
G01 Z-0.0600
G01 F120.00
G01 X23.5491 Y24.6864
G01 X23.6825 Y24.7077
G01 X23.8113 Y24.7460
G01 X23.9345 Y24.8008
G01 X24.0500 Y24.8706
G01 X24.1557 Y24.9550
G01 X24.2493 Y25.0515
G01 X24.3298 Y25.1597
G01 X24.3962 Y25.2770
G01 X24.4466 Y25.4021
G01 X24.4811 Y25.5325
G01 X24.4980 Y25.6663
G01 X24.4980 Y25.8012
G01 X24.4811 Y25.9350
G01 X24.4466 Y26.0655
G01 X24.3962 Y26.1906
G01 X24.3298 Y26.3079
G01 X24.2493 Y26.4161
G01 X24.1557 Y26.5125
G01 X24.0500 Y26.5969
G01 X23.9345 Y26.6668
G01 X23.8113 Y26.7216
G01 X23.6825 Y26.7598
G01 X23.5491 Y26.7812
G01 X23.4143 Y26.7856
G01 X23.2800 Y26.7725
G01 X23.1485 Y26.7424
G01 X23.0219 Y26.6958
G01 X22.9027 Y26.6338
G01 X22.7921 Y26.5567
G01 X22.6923 Y26.4660
G01 X22.6050 Y26.3632
G01 X22.5312 Y26.2502
G01 X22.4726 Y26.1285
G01 X22.4304 Y26.0004
G01 X22.4042 Y25.8686
G01 X22.3959 Y25.7338
G01 X22.4042 Y25.5990
G01 X22.4304 Y25.4671
G01 X22.4726 Y25.3390
G01 X22.5312 Y25.2174
G01 X22.6050 Y25.1043
G01 X22.6923 Y25.0015
G01 X22.7921 Y24.9109
G01 X22.9027 Y24.8338
G01 X23.0219 Y24.7717
G01 X23.1485 Y24.7252
G01 X23.2800 Y24.6951
G01 X23.4143 Y24.6820
G00 Z2.0000
G00 X22.3980 Y25.7362
G01 F60.00
G01 Z-0.0600
G01 F120.00
G01 X22.4030 Y25.6309
G01 X22.4181 Y25.5289
G01 X22.4432 Y25.4290
G01 X22.4779 Y25.3320
G01 X22.5219 Y25.2388
G01 X22.5749 Y25.1504
G01 X22.6363 Y25.0677
G01 X22.7055 Y24.9913
G01 X22.7818 Y24.9221
G01 X22.8646 Y24.8607
G01 X22.9530 Y24.8078
G01 X23.0461 Y24.7637
G01 X23.1432 Y24.7290
G01 X23.2431 Y24.7039
G01 X23.3450 Y24.6888
G01 X23.4480 Y24.6838
G01 X23.5509 Y24.6888
G01 X23.6528 Y24.7039
G01 X23.7528 Y24.7290
G01 X23.8498 Y24.7637
G01 X23.9429 Y24.8078
G01 X24.0313 Y24.8607
G01 X24.1141 Y24.9221
G01 X24.1904 Y24.9913
G01 X24.2596 Y25.0677
G01 X24.3210 Y25.1504
G01 X24.3740 Y25.2388
G01 X24.4180 Y25.3320
G01 X24.4527 Y25.4290
G01 X24.4778 Y25.5289
G01 X24.4929 Y25.6309
G01 X24.4980 Y25.7338
G01 X24.4929 Y25.8367
G01 X24.4778 Y25.9386
G01 X24.4527 Y26.0386
G01 X24.4180 Y26.1356
G01 X24.3740 Y26.2287
G01 X24.3210 Y26.3171
G01 X24.2596 Y26.3999
G01 X24.1904 Y26.4762
G01 X24.1141 Y26.5454
G01 X24.0313 Y26.6068
G01 X23.9429 Y26.6598
G01 X23.8498 Y26.7038
G01 X23.7528 Y26.7386
G01 X23.6528 Y26.7636
G01 X23.5509 Y26.7787
G01 X23.4480 Y26.7838
G01 X23.3450 Y26.7787
G01 X23.2431 Y26.7636
G01 X23.1432 Y26.7386
G01 X23.0461 Y26.7038
G01 X22.9530 Y26.6598
G01 X22.8646 Y26.6068
G01 X22.7818 Y26.5454
G01 X22.7055 Y26.4762
G01 X22.6363 Y26.3999
G01 X22.5749 Y26.3171
G01 X22.5219 Y26.2287
G01 X22.4779 Y26.1356
G01 X22.4432 Y26.0386
G01 X22.4181 Y25.9386
G01 X22.4030 Y25.8367
G01 X22.3980 Y25.7362
G00 Z2.0000
G00 X20.8743 Y24.6820
G01 F60.00
G01 Z-0.0600
G01 F120.00
G01 X21.0091 Y24.6864
G01 X21.1425 Y24.7077
G01 X21.2713 Y24.7460
G01 X21.3945 Y24.8008
G01 X21.5100 Y24.8706
G01 X21.6157 Y24.9550
G01 X21.7093 Y25.0515
G01 X21.7898 Y25.1597
G01 X21.8562 Y25.2770
G01 X21.9066 Y25.4021
G01 X21.9411 Y25.5325
G01 X21.9580 Y25.6663
G01 X21.9580 Y25.8012
G01 X21.9411 Y25.9350
G01 X21.9066 Y26.0655
G01 X21.8562 Y26.1906
G01 X21.7898 Y26.3079
G01 X21.7093 Y26.4161
G01 X21.6157 Y26.5125
G01 X21.5100 Y26.5969
G01 X21.3945 Y26.6668
G01 X21.2713 Y26.7216
G01 X21.1425 Y26.7598
G01 X21.0091 Y26.7812
G01 X20.8743 Y26.7856
G01 X20.7400 Y26.7725
G01 X20.6085 Y26.7424
G01 X20.4819 Y26.6958
G01 X20.3627 Y26.6338
G01 X20.2521 Y26.5567
G01 X20.1523 Y26.4660
G01 X20.0650 Y26.3632
G01 X19.9912 Y26.2502
G01 X19.9326 Y26.1285
G01 X19.8904 Y26.0004
G01 X19.8642 Y25.8686
G01 X19.8559 Y25.7338
G01 X19.8642 Y25.5990
G01 X19.8904 Y25.4671
G01 X19.9326 Y25.3390
G01 X19.9912 Y25.2174
G01 X20.0650 Y25.1043
G01 X20.1523 Y25.0015
G01 X20.2521 Y24.9109
G01 X20.3627 Y24.8338
G01 X20.4819 Y24.7717
G01 X20.6085 Y24.7252
G01 X20.7400 Y24.6951
G01 X20.8743 Y24.6820
G00 Z2.0000
G00 X19.8580 Y25.7362
G01 F60.00
G01 Z-0.0600
G01 F120.00
G01 X19.8630 Y25.6309
G01 X19.8781 Y25.5289
G01 X19.9032 Y25.4290
G01 X19.9379 Y25.3320
G01 X19.9819 Y25.2388
G01 X20.0349 Y25.1504
G01 X20.0963 Y25.0677
G01 X20.1655 Y24.9913
G01 X20.2418 Y24.9221
G01 X20.3246 Y24.8607
G01 X20.4130 Y24.8078
G01 X20.5061 Y24.7637
G01 X20.6032 Y24.7290
G01 X20.7031 Y24.7039
G01 X20.8050 Y24.6888
G01 X20.9080 Y24.6838
G01 X21.0109 Y24.6888
G01 X21.1128 Y24.7039
G01 X21.2128 Y24.7290
G01 X21.3098 Y24.7637
G01 X21.4029 Y24.8078
G01 X21.4913 Y24.8607
G01 X21.5741 Y24.9221
G01 X21.6504 Y24.9913
G01 X21.7196 Y25.0677
G01 X21.7810 Y25.1504
G01 X21.8340 Y25.2388
G01 X21.8780 Y25.3320
G01 X21.9127 Y25.4290
G01 X21.9378 Y25.5289
G01 X21.9529 Y25.6309
G01 X21.9580 Y25.7338
G01 X21.9529 Y25.8367
G01 X21.9378 Y25.9386
G01 X21.9127 Y26.0386
G01 X21.8780 Y26.1356
G01 X21.8340 Y26.2287
G01 X21.7810 Y26.3171
G01 X21.7196 Y26.3999
G01 X21.6504 Y26.4762
G01 X21.5741 Y26.5454
G01 X21.4913 Y26.6068
G01 X21.4029 Y26.6598
G01 X21.3098 Y26.7038
G01 X21.2128 Y26.7386
G01 X21.1128 Y26.7636
G01 X21.0109 Y26.7787
G01 X20.9080 Y26.7838
G01 X20.8050 Y26.7787
G01 X20.7031 Y26.7636
G01 X20.6032 Y26.7386
G01 X20.5061 Y26.7038
G01 X20.4130 Y26.6598
G01 X20.3246 Y26.6068
G01 X20.2418 Y26.5454
G01 X20.1655 Y26.4762
G01 X20.0963 Y26.3999
G01 X20.0349 Y26.3171
G01 X19.9819 Y26.2287
G01 X19.9379 Y26.1356
G01 X19.9032 Y26.0386
G01 X19.8781 Y25.9386
G01 X19.8630 Y25.8367
G01 X19.8580 Y25.7362
G00 Z2.0000
G00 X18.3343 Y24.6820
G01 F60.00
G01 Z-0.0600
G01 F120.00
G01 X18.4691 Y24.6864
G01 X18.6025 Y24.7077
G01 X18.7313 Y24.7460
G01 X18.8545 Y24.8008
G01 X18.9700 Y24.8706
G01 X19.0757 Y24.9550
G01 X19.1693 Y25.0515
G01 X19.2498 Y25.1597
G01 X19.3162 Y25.2770
G01 X19.3666 Y25.4021
G01 X19.4011 Y25.5325
G01 X19.4180 Y25.6663
G01 X19.4180 Y25.8012
G01 X19.4011 Y25.9350
G01 X19.3666 Y26.0655
G01 X19.3162 Y26.1906
G01 X19.2498 Y26.3079
G01 X19.1693 Y26.4161
G01 X19.0757 Y26.5125
G01 X18.9700 Y26.5969
G01 X18.8545 Y26.6668
G01 X18.7313 Y26.7216
G01 X18.6025 Y26.7598
G01 X18.4691 Y26.7812
G01 X18.3343 Y26.7856
G01 X18.2000 Y26.7725
G01 X18.0685 Y26.7424
G01 X17.9419 Y26.6958
G01 X17.8227 Y26.6338
G01 X17.7121 Y26.5567
G01 X17.6123 Y26.4660
G01 X17.5250 Y26.3632
G01 X17.4512 Y26.2502
G01 X17.3926 Y26.1285
G01 X17.3504 Y26.0004
G01 X17.3242 Y25.8686
G01 X17.3159 Y25.7338
G01 X17.3242 Y25.5990
G01 X17.3504 Y25.4671
G01 X17.3926 Y25.3390
G01 X17.4512 Y25.2174
G01 X17.5250 Y25.1043
G01 X17.6123 Y25.0015
G01 X17.7121 Y24.9109
G01 X17.8227 Y24.8338
G01 X17.9419 Y24.7717
G01 X18.0685 Y24.7252
G01 X18.2000 Y24.6951
G01 X18.3343 Y24.6820
G00 Z2.0000
G00 X17.3180 Y25.7362
G01 F60.00
G01 Z-0.0600
G01 F120.00
G01 X17.3230 Y25.6309
G01 X17.3381 Y25.5289
G01 X17.3632 Y25.4290
G01 X17.3979 Y25.3320
G01 X17.4419 Y25.2388
G01 X17.4949 Y25.1504
G01 X17.5563 Y25.0677
G01 X17.6255 Y24.9913
G01 X17.7018 Y24.9221
G01 X17.7846 Y24.8607
G01 X17.8730 Y24.8078
G01 X17.9661 Y24.7637
G01 X18.0632 Y24.7290
G01 X18.1631 Y24.7039
G01 X18.2650 Y24.6888
G01 X18.3680 Y24.6838
G01 X18.4709 Y24.6888
G01 X18.5728 Y24.7039
G01 X18.6728 Y24.7290
G01 X18.7698 Y24.7637
G01 X18.8629 Y24.8078
G01 X18.9513 Y24.8607
G01 X19.0341 Y24.9221
G01 X19.1104 Y24.9913
G01 X19.1796 Y25.0677
G01 X19.2410 Y25.1504
G01 X19.2940 Y25.2388
G01 X19.3380 Y25.3320
G01 X19.3727 Y25.4290
G01 X19.3978 Y25.5289
G01 X19.4129 Y25.6309
G01 X19.4180 Y25.7338
G01 X19.4129 Y25.8367
G01 X19.3978 Y25.9386
G01 X19.3727 Y26.0386
G01 X19.3380 Y26.1356
G01 X19.2940 Y26.2287
G01 X19.2410 Y26.3171
G01 X19.1796 Y26.3999
G01 X19.1104 Y26.4762
G01 X19.0341 Y26.5454
G01 X18.9513 Y26.6068
G01 X18.8629 Y26.6598
G01 X18.7698 Y26.7038
G01 X18.6728 Y26.7386
G01 X18.5728 Y26.7636
G01 X18.4709 Y26.7787
G01 X18.3680 Y26.7838
G01 X18.2650 Y26.7787
G01 X18.1631 Y26.7636
G01 X18.0632 Y26.7386
G01 X17.9661 Y26.7038
G01 X17.8730 Y26.6598
G01 X17.7846 Y26.6068
G01 X17.7018 Y26.5454
G01 X17.6255 Y26.4762
G01 X17.5563 Y26.3999
G01 X17.4949 Y26.3171
G01 X17.4419 Y26.2287
G01 X17.3979 Y26.1356
G01 X17.3632 Y26.0386
G01 X17.3381 Y25.9386
G01 X17.3230 Y25.8367
G01 X17.3180 Y25.7362
G00 Z2.0000
G00 X15.7943 Y24.6820
G01 F60.00
G01 Z-0.0600
G01 F120.00
G01 X15.9291 Y24.6864
G01 X16.0625 Y24.7077
G01 X16.1913 Y24.7460
G01 X16.3145 Y24.8008
G01 X16.4300 Y24.8706
G01 X16.5357 Y24.9550
G01 X16.6293 Y25.0515
G01 X16.7098 Y25.1597
G01 X16.7762 Y25.2770
G01 X16.8266 Y25.4021
G01 X16.8611 Y25.5325
G01 X16.8780 Y25.6663
G01 X16.8780 Y25.8012
G01 X16.8611 Y25.9350
G01 X16.8266 Y26.0655
G01 X16.7762 Y26.1906
G01 X16.7098 Y26.3079
G01 X16.6293 Y26.4161
G01 X16.5357 Y26.5125
G01 X16.4300 Y26.5969
G01 X16.3145 Y26.6668
G01 X16.1913 Y26.7216
G01 X16.0625 Y26.7598
G01 X15.9291 Y26.7812
G01 X15.7943 Y26.7856
G01 X15.6600 Y26.7725
G01 X15.5285 Y26.7424
G01 X15.4019 Y26.6958
G01 X15.2827 Y26.6338
G01 X15.1721 Y26.5567
G01 X15.0723 Y26.4660
G01 X14.9850 Y26.3632
G01 X14.9112 Y26.2502
G01 X14.8526 Y26.1285
G01 X14.8104 Y26.0004
G01 X14.7842 Y25.8686
G01 X14.7759 Y25.7338
G01 X14.7842 Y25.5990
G01 X14.8104 Y25.4671
G01 X14.8526 Y25.3390
G01 X14.9112 Y25.2174
G01 X14.9850 Y25.1043
G01 X15.0723 Y25.0015
G01 X15.1721 Y24.9109
G01 X15.2827 Y24.8338
G01 X15.4019 Y24.7717
G01 X15.5285 Y24.7252
G01 X15.6600 Y24.6951
G01 X15.7943 Y24.6820
G00 Z2.0000
G00 X14.7780 Y25.7362
G01 F60.00
G01 Z-0.0600
G01 F120.00
G01 X14.7830 Y25.6309
G01 X14.7981 Y25.5289
G01 X14.8232 Y25.4290
G01 X14.8579 Y25.3320
G01 X14.9019 Y25.2388
G01 X14.9549 Y25.1504
G01 X15.0163 Y25.0677
G01 X15.0855 Y24.9913
G01 X15.1618 Y24.9221
G01 X15.2446 Y24.8607
G01 X15.3330 Y24.8078
G01 X15.4261 Y24.7637
G01 X15.5232 Y24.7290
G01 X15.6231 Y24.7039
G01 X15.7250 Y24.6888
G01 X15.8280 Y24.6838
G01 X15.9309 Y24.6888
G01 X16.0328 Y24.7039
G01 X16.1328 Y24.7290
G01 X16.2298 Y24.7637
G01 X16.3229 Y24.8078
G01 X16.4113 Y24.8607
G01 X16.4941 Y24.9221
G01 X16.5704 Y24.9913
G01 X16.6396 Y25.0677
G01 X16.7010 Y25.1504
G01 X16.7540 Y25.2388
G01 X16.7980 Y25.3320
G01 X16.8327 Y25.4290
G01 X16.8578 Y25.5289
G01 X16.8729 Y25.6309
G01 X16.8780 Y25.7338
G01 X16.8729 Y25.8367
G01 X16.8578 Y25.9386
G01 X16.8327 Y26.0386
G01 X16.7980 Y26.1356
G01 X16.7540 Y26.2287
G01 X16.7010 Y26.3171
G01 X16.6396 Y26.3999
G01 X16.5704 Y26.4762
G01 X16.4941 Y26.5454
G01 X16.4113 Y26.6068
G01 X16.3229 Y26.6598
G01 X16.2298 Y26.7038
G01 X16.1328 Y26.7386
G01 X16.0328 Y26.7636
G01 X15.9309 Y26.7787
G01 X15.8280 Y26.7838
G01 X15.7250 Y26.7787
G01 X15.6231 Y26.7636
G01 X15.5232 Y26.7386
G01 X15.4261 Y26.7038
G01 X15.3330 Y26.6598
G01 X15.2446 Y26.6068
G01 X15.1618 Y26.5454
G01 X15.0855 Y26.4762
G01 X15.0163 Y26.3999
G01 X14.9549 Y26.3171
G01 X14.9019 Y26.2287
G01 X14.8579 Y26.1356
G01 X14.8232 Y26.0386
G01 X14.7981 Y25.9386
G01 X14.7830 Y25.8367
G01 X14.7780 Y25.7362
G00 Z2.0000
G00 X13.2543 Y24.6820
G01 F60.00
G01 Z-0.0600
G01 F120.00
G01 X13.3891 Y24.6864
G01 X13.5225 Y24.7077
G01 X13.6513 Y24.7460
G01 X13.7745 Y24.8008
G01 X13.8900 Y24.8706
G01 X13.9957 Y24.9550
G01 X14.0893 Y25.0515
G01 X14.1698 Y25.1597
G01 X14.2362 Y25.2770
G01 X14.2866 Y25.4021
G01 X14.3211 Y25.5325
G01 X14.3380 Y25.6663
G01 X14.3380 Y25.8012
G01 X14.3211 Y25.9350
G01 X14.2866 Y26.0655
G01 X14.2362 Y26.1906
G01 X14.1698 Y26.3079
G01 X14.0893 Y26.4161
G01 X13.9957 Y26.5125
G01 X13.8900 Y26.5969
G01 X13.7745 Y26.6668
G01 X13.6513 Y26.7216
G01 X13.5225 Y26.7598
G01 X13.3891 Y26.7812
G01 X13.2543 Y26.7856
G01 X13.1200 Y26.7725
G01 X12.9885 Y26.7424
G01 X12.8619 Y26.6958
G01 X12.7427 Y26.6338
G01 X12.6321 Y26.5567
G01 X12.5323 Y26.4660
G01 X12.4450 Y26.3632
G01 X12.3712 Y26.2502
G01 X12.3126 Y26.1285
G01 X12.2704 Y26.0004
G01 X12.2442 Y25.8686
G01 X12.2359 Y25.7338
G01 X12.2442 Y25.5990
G01 X12.2704 Y25.4671
G01 X12.3126 Y25.3390
G01 X12.3712 Y25.2174
G01 X12.4450 Y25.1043
G01 X12.5323 Y25.0015
G01 X12.6321 Y24.9109
G01 X12.7427 Y24.8338
G01 X12.8619 Y24.7717
G01 X12.9885 Y24.7252
G01 X13.1200 Y24.6951
G01 X13.2543 Y24.6820
G00 Z2.0000
G00 X12.2380 Y25.7362
G01 F60.00
G01 Z-0.0600
G01 F120.00
G01 X12.2430 Y25.6309
G01 X12.2581 Y25.5289
G01 X12.2832 Y25.4290
G01 X12.3179 Y25.3320
G01 X12.3619 Y25.2388
G01 X12.4149 Y25.1504
G01 X12.4763 Y25.0677
G01 X12.5455 Y24.9913
G01 X12.6218 Y24.9221
G01 X12.7046 Y24.8607
G01 X12.7930 Y24.8078
G01 X12.8861 Y24.7637
G01 X12.9832 Y24.7290
G01 X13.0831 Y24.7039
G01 X13.1850 Y24.6888
G01 X13.2880 Y24.6838
G01 X13.3909 Y24.6888
G01 X13.4928 Y24.7039
G01 X13.5928 Y24.7290
G01 X13.6898 Y24.7637
G01 X13.7829 Y24.8078
G01 X13.8713 Y24.8607
G01 X13.9541 Y24.9221
G01 X14.0304 Y24.9913
G01 X14.0996 Y25.0677
G01 X14.1610 Y25.1504
G01 X14.2140 Y25.2388
G01 X14.2580 Y25.3320
G01 X14.2927 Y25.4290
G01 X14.3178 Y25.5289
G01 X14.3329 Y25.6309
G01 X14.3380 Y25.7338
G01 X14.3329 Y25.8367
G01 X14.3178 Y25.9386
G01 X14.2927 Y26.0386
G01 X14.2580 Y26.1356
G01 X14.2140 Y26.2287
G01 X14.1610 Y26.3171
G01 X14.0996 Y26.3999
G01 X14.0304 Y26.4762
G01 X13.9541 Y26.5454
G01 X13.8713 Y26.6068
G01 X13.7829 Y26.6598
G01 X13.6898 Y26.7038
G01 X13.5928 Y26.7386
G01 X13.4928 Y26.7636
G01 X13.3909 Y26.7787
G01 X13.2880 Y26.7838
G01 X13.1850 Y26.7787
G01 X13.0831 Y26.7636
G01 X12.9832 Y26.7386
G01 X12.8861 Y26.7038
G01 X12.7930 Y26.6598
G01 X12.7046 Y26.6068
G01 X12.6218 Y26.5454
G01 X12.5455 Y26.4762
G01 X12.4763 Y26.3999
G01 X12.4149 Y26.3171
G01 X12.3619 Y26.2287
G01 X12.3179 Y26.1356
G01 X12.2832 Y26.0386
G01 X12.2581 Y25.9386
G01 X12.2430 Y25.8367
G01 X12.2380 Y25.7362
G00 Z2.0000
G00 X10.7143 Y24.6820
G01 F60.00
G01 Z-0.0600
G01 F120.00
G01 X10.8491 Y24.6864
G01 X10.9825 Y24.7077
G01 X11.1113 Y24.7460
G01 X11.2345 Y24.8008
G01 X11.3500 Y24.8706
G01 X11.4557 Y24.9550
G01 X11.5493 Y25.0515
G01 X11.6298 Y25.1597
G01 X11.6962 Y25.2770
G01 X11.7466 Y25.4021
G01 X11.7811 Y25.5325
G01 X11.7980 Y25.6663
G01 X11.7980 Y25.8012
G01 X11.7811 Y25.9350
G01 X11.7466 Y26.0655
G01 X11.6962 Y26.1906
G01 X11.6298 Y26.3079
G01 X11.5493 Y26.4161
G01 X11.4557 Y26.5125
G01 X11.3500 Y26.5969
G01 X11.2345 Y26.6668
G01 X11.1113 Y26.7216
G01 X10.9825 Y26.7598
G01 X10.8491 Y26.7812
G01 X10.7143 Y26.7856
G01 X10.5800 Y26.7725
G01 X10.4485 Y26.7424
G01 X10.3219 Y26.6958
G01 X10.2027 Y26.6338
G01 X10.0921 Y26.5567
G01 X9.9923 Y26.4660
G01 X9.9050 Y26.3632
G01 X9.8312 Y26.2502
G01 X9.7726 Y26.1285
G01 X9.7304 Y26.0004
G01 X9.7042 Y25.8686
G01 X9.6959 Y25.7338
G01 X9.7042 Y25.5990
G01 X9.7304 Y25.4671
G01 X9.7726 Y25.3390
G01 X9.8312 Y25.2174
G01 X9.9050 Y25.1043
G01 X9.9923 Y25.0015
G01 X10.0921 Y24.9109
G01 X10.2027 Y24.8338
G01 X10.3219 Y24.7717
G01 X10.4485 Y24.7252
G01 X10.5800 Y24.6951
G01 X10.7143 Y24.6820
G00 Z2.0000
G00 X9.6980 Y25.7362
G01 F60.00
G01 Z-0.0600
G01 F120.00
G01 X9.7030 Y25.6309
G01 X9.7181 Y25.5289
G01 X9.7432 Y25.4290
G01 X9.7779 Y25.3320
G01 X9.8219 Y25.2388
G01 X9.8749 Y25.1504
G01 X9.9363 Y25.0677
G01 X10.0055 Y24.9913
G01 X10.0818 Y24.9221
G01 X10.1646 Y24.8607
G01 X10.2530 Y24.8078
G01 X10.3461 Y24.7637
G01 X10.4432 Y24.7290
G01 X10.5431 Y24.7039
G01 X10.6450 Y24.6888
G01 X10.7480 Y24.6838
G01 X10.8509 Y24.6888
G01 X10.9528 Y24.7039
G01 X11.0528 Y24.7290
G01 X11.1498 Y24.7637
G01 X11.2429 Y24.8078
G01 X11.3313 Y24.8607
G01 X11.4141 Y24.9221
G01 X11.4904 Y24.9913
G01 X11.5596 Y25.0677
G01 X11.6210 Y25.1504
G01 X11.6740 Y25.2388
G01 X11.7180 Y25.3320
G01 X11.7527 Y25.4290
G01 X11.7778 Y25.5289
G01 X11.7929 Y25.6309
G01 X11.7980 Y25.7338
G01 X11.7929 Y25.8367
G01 X11.7778 Y25.9386
G01 X11.7527 Y26.0386
G01 X11.7180 Y26.1356
G01 X11.6740 Y26.2287
G01 X11.6210 Y26.3171
G01 X11.5596 Y26.3999
G01 X11.4904 Y26.4762
G01 X11.4141 Y26.5454
G01 X11.3313 Y26.6068
G01 X11.2429 Y26.6598
G01 X11.1498 Y26.7038
G01 X11.0528 Y26.7386
G01 X10.9528 Y26.7636
G01 X10.8509 Y26.7787
G01 X10.7480 Y26.7838
G01 X10.6450 Y26.7787
G01 X10.5431 Y26.7636
G01 X10.4432 Y26.7386
G01 X10.3461 Y26.7038
G01 X10.2530 Y26.6598
G01 X10.1646 Y26.6068
G01 X10.0818 Y26.5454
G01 X10.0055 Y26.4762
G01 X9.9363 Y26.3999
G01 X9.8749 Y26.3171
G01 X9.8219 Y26.2287
G01 X9.7779 Y26.1356
G01 X9.7432 Y26.0386
G01 X9.7181 Y25.9386
G01 X9.7030 Y25.8367
G01 X9.6980 Y25.7362
G00 Z2.0000
G00 X8.1743 Y24.6820
G01 F60.00
G01 Z-0.0600
G01 F120.00
G01 X8.3091 Y24.6864
G01 X8.4425 Y24.7077
G01 X8.5713 Y24.7460
G01 X8.6945 Y24.8008
G01 X8.8100 Y24.8706
G01 X8.9157 Y24.9550
G01 X9.0093 Y25.0515
G01 X9.0898 Y25.1597
G01 X9.1562 Y25.2770
G01 X9.2066 Y25.4021
G01 X9.2411 Y25.5325
G01 X9.2580 Y25.6663
G01 X9.2580 Y25.8012
G01 X9.2411 Y25.9350
G01 X9.2066 Y26.0655
G01 X9.1562 Y26.1906
G01 X9.0898 Y26.3079
G01 X9.0093 Y26.4161
G01 X8.9157 Y26.5125
G01 X8.8100 Y26.5969
G01 X8.6945 Y26.6668
G01 X8.5713 Y26.7216
G01 X8.4425 Y26.7598
G01 X8.3091 Y26.7812
G01 X8.1743 Y26.7856
G01 X8.0400 Y26.7725
G01 X7.9085 Y26.7424
G01 X7.7819 Y26.6958
G01 X7.6627 Y26.6338
G01 X7.5521 Y26.5567
G01 X7.4523 Y26.4660
G01 X7.3650 Y26.3632
G01 X7.2912 Y26.2502
G01 X7.2326 Y26.1285
G01 X7.1904 Y26.0004
G01 X7.1642 Y25.8686
G01 X7.1559 Y25.7338
G01 X7.1642 Y25.5990
G01 X7.1904 Y25.4671
G01 X7.2326 Y25.3390
G01 X7.2912 Y25.2174
G01 X7.3650 Y25.1043
G01 X7.4523 Y25.0015
G01 X7.5521 Y24.9109
G01 X7.6627 Y24.8338
G01 X7.7819 Y24.7717
G01 X7.9085 Y24.7252
G01 X8.0400 Y24.6951
G01 X8.1743 Y24.6820
G00 Z2.0000
G00 X7.1580 Y25.7362
G01 F60.00
G01 Z-0.0600
G01 F120.00
G01 X7.1630 Y25.6309
G01 X7.1781 Y25.5289
G01 X7.2032 Y25.4290
G01 X7.2379 Y25.3320
G01 X7.2819 Y25.2388
G01 X7.3349 Y25.1504
G01 X7.3963 Y25.0677
G01 X7.4655 Y24.9913
G01 X7.5418 Y24.9221
G01 X7.6246 Y24.8607
G01 X7.7130 Y24.8078
G01 X7.8061 Y24.7637
G01 X7.9032 Y24.7290
G01 X8.0031 Y24.7039
G01 X8.1050 Y24.6888
G01 X8.2080 Y24.6838
G01 X8.3109 Y24.6888
G01 X8.4128 Y24.7039
G01 X8.5128 Y24.7290
G01 X8.6098 Y24.7637
G01 X8.7029 Y24.8078
G01 X8.7913 Y24.8607
G01 X8.8741 Y24.9221
G01 X8.9504 Y24.9913
G01 X9.0196 Y25.0677
G01 X9.0810 Y25.1504
G01 X9.1340 Y25.2388
G01 X9.1780 Y25.3320
G01 X9.2127 Y25.4290
G01 X9.2378 Y25.5289
G01 X9.2529 Y25.6309
G01 X9.2580 Y25.7338
G01 X9.2529 Y25.8367
G01 X9.2378 Y25.9386
G01 X9.2127 Y26.0386
G01 X9.1780 Y26.1356
G01 X9.1340 Y26.2287
G01 X9.0810 Y26.3171
G01 X9.0196 Y26.3999
G01 X8.9504 Y26.4762
G01 X8.8741 Y26.5454
G01 X8.7913 Y26.6068
G01 X8.7029 Y26.6598
G01 X8.6098 Y26.7038
G01 X8.5128 Y26.7386
G01 X8.4128 Y26.7636
G01 X8.3109 Y26.7787
G01 X8.2080 Y26.7838
G01 X8.1050 Y26.7787
G01 X8.0031 Y26.7636
G01 X7.9032 Y26.7386
G01 X7.8061 Y26.7038
G01 X7.7130 Y26.6598
G01 X7.6246 Y26.6068
G01 X7.5418 Y26.5454
G01 X7.4655 Y26.4762
G01 X7.3963 Y26.3999
G01 X7.3349 Y26.3171
G01 X7.2819 Y26.2287
G01 X7.2379 Y26.1356
G01 X7.2032 Y26.0386
G01 X7.1781 Y25.9386
G01 X7.1630 Y25.8367
G01 X7.1580 Y25.7362
G00 Z2.0000
G00 X13.2533 Y33.0640
G01 F60.00
G01 Z-0.0600
G01 F120.00
G01 X13.3881 Y33.0684
G01 X13.5214 Y33.0897
G01 X13.6504 Y33.1280
G01 X13.7741 Y33.1828
G01 X13.8894 Y33.2526
G01 X13.9947 Y33.3370
G01 X14.0883 Y33.4335
G01 X14.1693 Y33.5417
G01 X14.2352 Y33.6590
G01 X14.2861 Y33.7841
G01 X14.3201 Y33.9145
G01 X14.3375 Y34.0484
G01 X14.3375 Y34.1831
G01 X14.3201 Y34.3170
G01 X14.2861 Y34.4475
G01 X14.2352 Y34.5726
G01 X14.1693 Y34.6899
G01 X14.0883 Y34.7980
G01 X13.9947 Y34.8946
G01 X13.8894 Y34.9789
G01 X13.7741 Y35.0487
G01 X13.6504 Y35.1036
G01 X13.5214 Y35.1418
G01 X13.3881 Y35.1632
G01 X13.2533 Y35.1676
G01 X13.1195 Y35.1545
G01 X12.9880 Y35.1244
G01 X12.8614 Y35.0778
G01 X12.7416 Y35.0157
G01 X12.6311 Y34.9387
G01 X12.5312 Y34.8480
G01 X12.4439 Y34.7452
G01 X12.3703 Y34.6322
G01 X12.3121 Y34.5105
G01 X12.2694 Y34.3824
G01 X12.2437 Y34.2506
G01 X12.2349 Y34.1158
G01 X12.2437 Y33.9810
G01 X12.2694 Y33.8491
G01 X12.3121 Y33.7210
G01 X12.3703 Y33.5993
G01 X12.4439 Y33.4863
G01 X12.5312 Y33.3835
G01 X12.6311 Y33.2929
G01 X12.7416 Y33.2158
G01 X12.8614 Y33.1537
G01 X12.9880 Y33.1072
G01 X13.1195 Y33.0771
G01 X13.2533 Y33.0640
G00 Z2.0000
G00 X12.2373 Y34.1182
G01 F60.00
G01 Z-0.0600
G01 F120.00
G01 X12.2422 Y34.0129
G01 X12.2574 Y33.9109
G01 X12.2824 Y33.8110
G01 X12.3171 Y33.7140
G01 X12.3612 Y33.6208
G01 X12.4141 Y33.5324
G01 X12.4755 Y33.4497
G01 X12.5447 Y33.3733
G01 X12.6211 Y33.3041
G01 X12.7038 Y33.2427
G01 X12.7922 Y33.1898
G01 X12.8854 Y33.1457
G01 X12.9824 Y33.1110
G01 X13.0823 Y33.0859
G01 X13.1843 Y33.0708
G01 X13.2872 Y33.0658
G01 X13.3901 Y33.0708
G01 X13.4920 Y33.0859
G01 X13.5920 Y33.1110
G01 X13.6890 Y33.1457
G01 X13.7822 Y33.1898
G01 X13.8705 Y33.2427
G01 X13.9533 Y33.3041
G01 X14.0297 Y33.3733
G01 X14.0989 Y33.4497
G01 X14.1602 Y33.5324
G01 X14.2132 Y33.6208
G01 X14.2573 Y33.7140
G01 X14.2920 Y33.8110
G01 X14.3170 Y33.9109
G01 X14.3321 Y34.0129
G01 X14.3372 Y34.1158
G01 X14.3321 Y34.2187
G01 X14.3170 Y34.3206
G01 X14.2920 Y34.4206
G01 X14.2573 Y34.5176
G01 X14.2132 Y34.6107
G01 X14.1602 Y34.6991
G01 X14.0989 Y34.7819
G01 X14.0297 Y34.8582
G01 X13.9533 Y34.9274
G01 X13.8705 Y34.9888
G01 X13.7822 Y35.0418
G01 X13.6890 Y35.0858
G01 X13.5920 Y35.1206
G01 X13.4920 Y35.1456
G01 X13.3901 Y35.1607
G01 X13.2872 Y35.1658
G01 X13.1843 Y35.1607
G01 X13.0823 Y35.1456
G01 X12.9824 Y35.1206
G01 X12.8854 Y35.0858
G01 X12.7922 Y35.0418
G01 X12.7038 Y34.9888
G01 X12.6211 Y34.9274
G01 X12.5447 Y34.8582
G01 X12.4755 Y34.7819
G01 X12.4141 Y34.6991
G01 X12.3612 Y34.6107
G01 X12.3171 Y34.5176
G01 X12.2824 Y34.4206
G01 X12.2574 Y34.3206
G01 X12.2422 Y34.2187
G01 X12.2373 Y34.1182
G00 Z2.0000
G00 X17.3173 Y34.1182
G01 F60.00
G01 Z-0.0600
G01 F120.00
G01 X17.3222 Y34.0129
G01 X17.3374 Y33.9109
G01 X17.3624 Y33.8110
G01 X17.3971 Y33.7140
G01 X17.4412 Y33.6208
G01 X17.4941 Y33.5324
G01 X17.5555 Y33.4497
G01 X17.6247 Y33.3733
G01 X17.7011 Y33.3041
G01 X17.7838 Y33.2427
G01 X17.8722 Y33.1898
G01 X17.9654 Y33.1457
G01 X18.0624 Y33.1110
G01 X18.1623 Y33.0859
G01 X18.2643 Y33.0708
G01 X18.3672 Y33.0658
G01 X18.4701 Y33.0708
G01 X18.5720 Y33.0859
G01 X18.6720 Y33.1110
G01 X18.7690 Y33.1457
G01 X18.8622 Y33.1898
G01 X18.9505 Y33.2427
G01 X19.0333 Y33.3041
G01 X19.1097 Y33.3733
G01 X19.1789 Y33.4497
G01 X19.2402 Y33.5324
G01 X19.2932 Y33.6208
G01 X19.3373 Y33.7140
G01 X19.3720 Y33.8110
G01 X19.3970 Y33.9109
G01 X19.4121 Y34.0129
G01 X19.4172 Y34.1158
G01 X19.4121 Y34.2187
G01 X19.3970 Y34.3206
G01 X19.3720 Y34.4206
G01 X19.3373 Y34.5176
G01 X19.2932 Y34.6107
G01 X19.2402 Y34.6991
G01 X19.1789 Y34.7819
G01 X19.1097 Y34.8582
G01 X19.0333 Y34.9274
G01 X18.9505 Y34.9888
G01 X18.8622 Y35.0418
G01 X18.7690 Y35.0858
G01 X18.6720 Y35.1206
G01 X18.5720 Y35.1456
G01 X18.4701 Y35.1607
G01 X18.3672 Y35.1658
G01 X18.2643 Y35.1607
G01 X18.1623 Y35.1456
G01 X18.0624 Y35.1206
G01 X17.9654 Y35.0858
G01 X17.8722 Y35.0418
G01 X17.7838 Y34.9888
G01 X17.7011 Y34.9274
G01 X17.6247 Y34.8582
G01 X17.5555 Y34.7819
G01 X17.4941 Y34.6991
G01 X17.4412 Y34.6107
G01 X17.3971 Y34.5176
G01 X17.3624 Y34.4206
G01 X17.3374 Y34.3206
G01 X17.3222 Y34.2187
G01 X17.3173 Y34.1182
G00 Z2.0000
G00 X18.3333 Y33.0640
G01 F60.00
G01 Z-0.0600
G01 F120.00
G01 X18.4681 Y33.0684
G01 X18.6014 Y33.0897
G01 X18.7304 Y33.1280
G01 X18.8541 Y33.1828
G01 X18.9694 Y33.2526
G01 X19.0747 Y33.3370
G01 X19.1683 Y33.4335
G01 X19.2493 Y33.5417
G01 X19.3152 Y33.6590
G01 X19.3661 Y33.7841
G01 X19.4001 Y33.9145
G01 X19.4175 Y34.0484
G01 X19.4175 Y34.1831
G01 X19.4001 Y34.3170
G01 X19.3661 Y34.4475
G01 X19.3152 Y34.5726
G01 X19.2493 Y34.6899
G01 X19.1683 Y34.7980
G01 X19.0747 Y34.8946
G01 X18.9694 Y34.9789
G01 X18.8541 Y35.0487
G01 X18.7304 Y35.1036
G01 X18.6014 Y35.1418
G01 X18.4681 Y35.1632
G01 X18.3333 Y35.1676
G01 X18.1995 Y35.1545
G01 X18.0680 Y35.1244
G01 X17.9414 Y35.0778
G01 X17.8216 Y35.0157
G01 X17.7111 Y34.9387
G01 X17.6112 Y34.8480
G01 X17.5239 Y34.7452
G01 X17.4503 Y34.6322
G01 X17.3921 Y34.5105
G01 X17.3494 Y34.3824
G01 X17.3237 Y34.2506
G01 X17.3149 Y34.1158
G01 X17.3237 Y33.9810
G01 X17.3494 Y33.8491
G01 X17.3921 Y33.7210
G01 X17.4503 Y33.5993
G01 X17.5239 Y33.4863
G01 X17.6112 Y33.3835
G01 X17.7111 Y33.2929
G01 X17.8216 Y33.2158
G01 X17.9414 Y33.1537
G01 X18.0680 Y33.1072
G01 X18.1995 Y33.0771
G01 X18.3333 Y33.0640
G00 Z2.0000
G00 X13.2533 Y39.6680
G01 F60.00
G01 Z-0.0600
G01 F120.00
G01 X13.3881 Y39.6724
G01 X13.5214 Y39.6937
G01 X13.6504 Y39.7320
G01 X13.7741 Y39.7868
G01 X13.8894 Y39.8566
G01 X13.9947 Y39.9410
G01 X14.0883 Y40.0375
G01 X14.1693 Y40.1457
G01 X14.2352 Y40.2630
G01 X14.2861 Y40.3881
G01 X14.3201 Y40.5185
G01 X14.3375 Y40.6524
G01 X14.3375 Y40.7871
G01 X14.3201 Y40.9210
G01 X14.2861 Y41.0515
G01 X14.2352 Y41.1766
G01 X14.1693 Y41.2939
G01 X14.0883 Y41.4020
G01 X13.9947 Y41.4986
G01 X13.8894 Y41.5829
G01 X13.7741 Y41.6527
G01 X13.6504 Y41.7076
G01 X13.5214 Y41.7458
G01 X13.3881 Y41.7672
G01 X13.2533 Y41.7716
G01 X13.1195 Y41.7585
G01 X12.9880 Y41.7284
G01 X12.8614 Y41.6818
G01 X12.7416 Y41.6197
G01 X12.6311 Y41.5427
G01 X12.5312 Y41.4520
G01 X12.4439 Y41.3492
G01 X12.3703 Y41.2362
G01 X12.3121 Y41.1145
G01 X12.2694 Y40.9864
G01 X12.2437 Y40.8546
G01 X12.2349 Y40.7198
G01 X12.2437 Y40.5850
G01 X12.2694 Y40.4531
G01 X12.3121 Y40.3250
G01 X12.3703 Y40.2033
G01 X12.4439 Y40.0903
G01 X12.5312 Y39.9875
G01 X12.6311 Y39.8969
G01 X12.7416 Y39.8198
G01 X12.8614 Y39.7577
G01 X12.9880 Y39.7112
G01 X13.1195 Y39.6811
G01 X13.2533 Y39.6680
G00 Z2.0000
G00 X12.2373 Y40.7222
G01 F60.00
G01 Z-0.0600
G01 F120.00
G01 X12.2422 Y40.6169
G01 X12.2574 Y40.5149
G01 X12.2824 Y40.4150
G01 X12.3171 Y40.3180
G01 X12.3612 Y40.2248
G01 X12.4141 Y40.1364
G01 X12.4755 Y40.0537
G01 X12.5447 Y39.9773
G01 X12.6211 Y39.9081
G01 X12.7038 Y39.8467
G01 X12.7922 Y39.7938
G01 X12.8854 Y39.7497
G01 X12.9824 Y39.7150
G01 X13.0823 Y39.6899
G01 X13.1843 Y39.6748
G01 X13.2872 Y39.6698
G01 X13.3901 Y39.6748
G01 X13.4920 Y39.6899
G01 X13.5920 Y39.7150
G01 X13.6890 Y39.7497
G01 X13.7822 Y39.7938
G01 X13.8705 Y39.8467
G01 X13.9533 Y39.9081
G01 X14.0297 Y39.9773
G01 X14.0989 Y40.0537
G01 X14.1602 Y40.1364
G01 X14.2132 Y40.2248
G01 X14.2573 Y40.3180
G01 X14.2920 Y40.4150
G01 X14.3170 Y40.5149
G01 X14.3321 Y40.6169
G01 X14.3372 Y40.7198
G01 X14.3321 Y40.8227
G01 X14.3170 Y40.9246
G01 X14.2920 Y41.0246
G01 X14.2573 Y41.1216
G01 X14.2132 Y41.2147
G01 X14.1602 Y41.3031
G01 X14.0989 Y41.3859
G01 X14.0297 Y41.4622
G01 X13.9533 Y41.5314
G01 X13.8705 Y41.5928
G01 X13.7822 Y41.6458
G01 X13.6890 Y41.6898
G01 X13.5920 Y41.7246
G01 X13.4920 Y41.7496
G01 X13.3901 Y41.7647
G01 X13.2872 Y41.7698
G01 X13.1843 Y41.7647
G01 X13.0823 Y41.7496
G01 X12.9824 Y41.7246
G01 X12.8854 Y41.6898
G01 X12.7922 Y41.6458
G01 X12.7038 Y41.5928
G01 X12.6211 Y41.5314
G01 X12.5447 Y41.4622
G01 X12.4755 Y41.3859
G01 X12.4141 Y41.3031
G01 X12.3612 Y41.2147
G01 X12.3171 Y41.1216
G01 X12.2824 Y41.0246
G01 X12.2574 Y40.9246
G01 X12.2422 Y40.8227
G01 X12.2373 Y40.7222
G00 Z2.0000
G00 X13.2533 Y46.0180
G01 F60.00
G01 Z-0.0600
G01 F120.00
G01 X13.3881 Y46.0224
G01 X13.5214 Y46.0437
G01 X13.6504 Y46.0820
G01 X13.7741 Y46.1368
G01 X13.8894 Y46.2066
G01 X13.9947 Y46.2910
G01 X14.0883 Y46.3875
G01 X14.1693 Y46.4957
G01 X14.2352 Y46.6130
G01 X14.2861 Y46.7381
G01 X14.3201 Y46.8685
G01 X14.3375 Y47.0024
G01 X14.3375 Y47.1371
G01 X14.3201 Y47.2710
G01 X14.2861 Y47.4015
G01 X14.2352 Y47.5266
G01 X14.1693 Y47.6439
G01 X14.0883 Y47.7520
G01 X13.9947 Y47.8486
G01 X13.8894 Y47.9329
G01 X13.7741 Y48.0027
G01 X13.6504 Y48.0576
G01 X13.5214 Y48.0958
G01 X13.3881 Y48.1172
G01 X13.2533 Y48.1216
G01 X13.1195 Y48.1085
G01 X12.9880 Y48.0784
G01 X12.8614 Y48.0318
G01 X12.7416 Y47.9697
G01 X12.6311 Y47.8927
G01 X12.5312 Y47.8020
G01 X12.4439 Y47.6992
G01 X12.3703 Y47.5862
G01 X12.3121 Y47.4645
G01 X12.2694 Y47.3364
G01 X12.2437 Y47.2046
G01 X12.2349 Y47.0698
G01 X12.2437 Y46.9350
G01 X12.2694 Y46.8031
G01 X12.3121 Y46.6750
G01 X12.3703 Y46.5533
G01 X12.4439 Y46.4403
G01 X12.5312 Y46.3375
G01 X12.6311 Y46.2469
G01 X12.7416 Y46.1698
G01 X12.8614 Y46.1077
G01 X12.9880 Y46.0612
G01 X13.1195 Y46.0311
G01 X13.2533 Y46.0180
G00 Z2.0000
G00 X12.2373 Y47.0722
G01 F60.00
G01 Z-0.0600
G01 F120.00
G01 X12.2422 Y46.9669
G01 X12.2574 Y46.8649
G01 X12.2824 Y46.7650
G01 X12.3171 Y46.6680
G01 X12.3612 Y46.5748
G01 X12.4141 Y46.4864
G01 X12.4755 Y46.4037
G01 X12.5447 Y46.3273
G01 X12.6211 Y46.2581
G01 X12.7038 Y46.1967
G01 X12.7922 Y46.1438
G01 X12.8854 Y46.0997
G01 X12.9824 Y46.0650
G01 X13.0823 Y46.0399
G01 X13.1843 Y46.0248
G01 X13.2872 Y46.0198
G01 X13.3901 Y46.0248
G01 X13.4920 Y46.0399
G01 X13.5920 Y46.0650
G01 X13.6890 Y46.0997
G01 X13.7822 Y46.1438
G01 X13.8705 Y46.1967
G01 X13.9533 Y46.2581
G01 X14.0297 Y46.3273
G01 X14.0989 Y46.4037
G01 X14.1602 Y46.4864
G01 X14.2132 Y46.5748
G01 X14.2573 Y46.6680
G01 X14.2920 Y46.7650
G01 X14.3170 Y46.8649
G01 X14.3321 Y46.9669
G01 X14.3372 Y47.0698
G01 X14.3321 Y47.1727
G01 X14.3170 Y47.2746
G01 X14.2920 Y47.3746
G01 X14.2573 Y47.4716
G01 X14.2132 Y47.5647
G01 X14.1602 Y47.6531
G01 X14.0989 Y47.7359
G01 X14.0297 Y47.8122
G01 X13.9533 Y47.8814
G01 X13.8705 Y47.9428
G01 X13.7822 Y47.9958
G01 X13.6890 Y48.0398
G01 X13.5920 Y48.0746
G01 X13.4920 Y48.0996
G01 X13.3901 Y48.1147
G01 X13.2872 Y48.1198
G01 X13.1843 Y48.1147
G01 X13.0823 Y48.0996
G01 X12.9824 Y48.0746
G01 X12.8854 Y48.0398
G01 X12.7922 Y47.9958
G01 X12.7038 Y47.9428
G01 X12.6211 Y47.8814
G01 X12.5447 Y47.8122
G01 X12.4755 Y47.7359
G01 X12.4141 Y47.6531
G01 X12.3612 Y47.5647
G01 X12.3171 Y47.4716
G01 X12.2824 Y47.3746
G01 X12.2574 Y47.2746
G01 X12.2422 Y47.1727
G01 X12.2373 Y47.0722
G00 Z2.0000
G00 X24.9691 Y26.7802
G01 F60.00
G01 Z-0.0600
G01 F120.00
G01 X24.9723 Y26.7814
G01 X24.9755 Y26.7823
G01 X24.9724 Y26.7818
G01 X24.9691 Y26.7802
G00 Z2.0000
G00 X24.9851 Y26.7838
G01 F60.00
G01 Z-0.0600
G01 F120.00
G01 X26.9880 Y26.7839
G01 X26.9917 Y26.7838
G01 X26.9765 Y26.7861
G01 X25.0000 Y26.7861
G01 X24.9851 Y26.7838
G00 Z2.0000
G00 X24.9542 Y26.7708
G01 F60.00
G01 Z-0.0600
G01 F120.00
G01 X24.9582 Y26.7741
G01 X24.9622 Y26.7767
G01 X24.9581 Y26.7747
G01 X24.9542 Y26.7708
G00 Z2.0000
G00 X24.9455 Y26.7602
G01 F60.00
G01 Z-0.0600
G01 F120.00
G01 X24.9478 Y26.7637
G01 X24.9511 Y26.7677
G01 X24.9473 Y26.7638
G01 X24.9455 Y26.7602
G00 Z2.0000
G00 X24.9394 Y26.7460
G01 F60.00
G01 Z-0.0600
G01 F120.00
G01 X24.9405 Y26.7496
G01 X24.9414 Y26.7521
G01 X24.9400 Y26.7493
G01 X24.9394 Y26.7460
G00 Z2.0000
G00 X27.0380 Y26.7339
G01 F60.00
G01 Z-0.0600
G01 F120.00
G01 X27.0380 Y24.7339
G01 X27.0370 Y24.7241
G01 X27.0341 Y24.7148
G01 X27.0315 Y24.7093
G01 X27.0288 Y24.7051
G01 X27.0224 Y24.6977
G01 X27.0147 Y24.6917
G01 X27.0059 Y24.6873
G01 X26.9977 Y24.6849
G01 X26.9880 Y24.6839
G01 X24.9880 Y24.6839
G01 X24.9806 Y24.6844
G01 X24.9746 Y24.6857
G01 X24.9688 Y24.6877
G01 X24.9633 Y24.6904
G01 X24.9582 Y24.6937
G01 X24.9526 Y24.6985
G01 X24.9485 Y24.7031
G01 X24.9447 Y24.7089
G01 X24.9473 Y24.7037
G01 X24.9581 Y24.6928
G01 X24.9726 Y24.6856
G01 X25.0003 Y24.6809
G01 X26.9761 Y24.6809
G01 X27.0038 Y24.6856
G01 X27.0183 Y24.6928
G01 X27.0292 Y24.7037
G01 X27.0363 Y24.7179
G01 X27.0406 Y24.7455
G01 X27.0406 Y26.7220
G01 X27.0363 Y26.7496
G01 X27.0292 Y26.7638
G01 X27.0183 Y26.7747
G01 X27.0041 Y26.7818
G01 X26.9995 Y26.7825
G01 X27.0071 Y26.7801
G01 X27.0147 Y26.7761
G01 X27.0215 Y26.7709
G01 X27.0274 Y26.7647
G01 X27.0320 Y26.7575
G01 X27.0350 Y26.7507
G01 X27.0372 Y26.7424
G01 X27.0380 Y26.7339
G00 Z2.0000
G00 X30.3171 Y26.7835
G01 F60.00
G01 Z-0.0600
G01 F120.00
G01 X30.3222 Y26.7838
G01 X32.3222 Y26.7838
G01 X32.3273 Y26.7835
G01 X32.3105 Y26.7861
G01 X30.3340 Y26.7861
G01 X30.3171 Y26.7835
G00 Z2.0000
G00 X32.3324 Y26.7827
G01 F60.00
G01 Z-0.0600
G01 F120.00
G01 X32.3391 Y26.7808
G01 X32.3458 Y26.7779
G01 X32.3520 Y26.7739
G01 X32.3576 Y26.7691
G01 X32.3624 Y26.7636
G01 X32.3663 Y26.7573
G01 X32.3693 Y26.7506
G01 X32.3711 Y26.7441
G01 X32.3703 Y26.7496
G01 X32.3632 Y26.7638
G01 X32.3523 Y26.7747
G01 X32.3381 Y26.7818
G01 X32.3324 Y26.7827
G00 Z2.0000
G00 X32.3720 Y26.7388
G01 F60.00
G01 Z-0.0600
G01 F120.00
G01 X32.3722 Y26.7338
G01 X32.3720 Y24.7288
G01 X32.3746 Y24.7455
G01 X32.3746 Y26.7220
G01 X32.3720 Y26.7388
G00 Z2.0000
G00 X32.8123 Y25.7360
G01 F60.00
G01 Z-0.0600
G01 F120.00
G01 X32.8173 Y25.8364
G01 X32.8324 Y25.9384
G01 X32.8574 Y26.0383
G01 X32.8921 Y26.1353
G01 X32.9362 Y26.2285
G01 X32.9892 Y26.3169
G01 X33.0505 Y26.3996
G01 X33.1197 Y26.4760
G01 X33.1961 Y26.5452
G01 X33.2789 Y26.6066
G01 X33.3672 Y26.6595
G01 X33.4604 Y26.7036
G01 X33.5574 Y26.7383
G01 X33.6574 Y26.7633
G01 X33.7593 Y26.7785
G01 X33.8622 Y26.7835
G01 X33.9651 Y26.7785
G01 X34.0646 Y26.7638
G01 X34.1693 Y26.7375
G01 X34.2640 Y26.7036
G01 X34.3572 Y26.6595
G01 X34.4456 Y26.6066
G01 X34.5264 Y26.5467
G01 X34.6064 Y26.4742
G01 X34.6739 Y26.3996
G01 X34.7353 Y26.3169
G01 X34.7882 Y26.2285
G01 X34.8313 Y26.1376
G01 X34.8677 Y26.0360
G01 X34.8920 Y25.9384
G01 X34.9072 Y25.8364
G01 X34.9122 Y25.7335
G01 X34.9073 Y25.6330
G01 X34.8915 Y25.5263
G01 X34.8670 Y25.4287
G01 X34.8323 Y25.3317
G01 X34.7882 Y25.2386
G01 X34.7366 Y25.1522
G01 X34.6723 Y25.0655
G01 X34.6047 Y24.9911
G01 X34.5283 Y24.9219
G01 X34.4456 Y24.8605
G01 X34.3589 Y24.8085
G01 X34.4078 Y24.8338
G01 X34.5183 Y24.9109
G01 X34.6182 Y25.0015
G01 X34.7055 Y25.1043
G01 X34.7792 Y25.2173
G01 X34.8373 Y25.3390
G01 X34.8800 Y25.4671
G01 X34.9057 Y25.5990
G01 X34.9145 Y25.7338
G01 X34.9057 Y25.8686
G01 X34.8800 Y26.0004
G01 X34.8373 Y26.1285
G01 X34.7792 Y26.2502
G01 X34.7055 Y26.3632
G01 X34.6182 Y26.4660
G01 X34.5183 Y26.5567
G01 X34.4078 Y26.6337
G01 X34.2880 Y26.6958
G01 X34.1614 Y26.7424
G01 X34.0299 Y26.7725
G01 X33.8956 Y26.7856
G01 X33.7608 Y26.7812
G01 X33.6280 Y26.7598
G01 X33.4985 Y26.7216
G01 X33.3754 Y26.6668
G01 X33.2600 Y26.5969
G01 X33.1547 Y26.5125
G01 X33.0606 Y26.4160
G01 X32.9802 Y26.3080
G01 X32.9142 Y26.1906
G01 X32.8633 Y26.0655
G01 X32.8293 Y25.9350
G01 X32.8119 Y25.8011
G01 X32.8119 Y25.6664
G01 X32.8293 Y25.5325
G01 X32.8633 Y25.4021
G01 X32.9142 Y25.2770
G01 X32.9802 Y25.1596
G01 X33.0606 Y25.0515
G01 X33.1547 Y24.9550
G01 X33.2600 Y24.8706
G01 X33.3754 Y24.8008
G01 X33.4985 Y24.7460
G01 X33.6280 Y24.7077
G01 X33.7608 Y24.6864
G01 X33.8956 Y24.6820
G01 X33.9598 Y24.6883
G01 X33.8622 Y24.6835
G01 X33.7617 Y24.6884
G01 X33.6598 Y24.7033
G01 X33.5574 Y24.7287
G01 X33.4615 Y24.7630
G01 X33.3672 Y24.8075
G01 X33.2789 Y24.8605
G01 X33.1961 Y24.9219
G01 X33.1206 Y24.9902
G01 X33.0505 Y25.0674
G01 X32.9892 Y25.1502
G01 X32.9362 Y25.2386
G01 X32.8921 Y25.3317
G01 X32.8574 Y25.4287
G01 X32.8324 Y25.5287
G01 X32.8173 Y25.6306
G01 X32.8123 Y25.7360
G00 Z2.0000
G00 X32.3222 Y24.6838
G01 F60.00
G01 Z-0.0600
G01 F120.00
G01 X30.3222 Y24.6838
G01 X30.3125 Y24.6847
G01 X30.3077 Y24.6859
G01 X30.3019 Y24.6881
G01 X30.2934 Y24.6929
G01 X30.2860 Y24.6993
G01 X30.2800 Y24.7070
G01 X30.2756 Y24.7158
G01 X30.2732 Y24.7240
G01 X30.2722 Y24.7338
G01 X30.2722 Y26.7350
G01 X30.2732 Y26.7435
G01 X30.2756 Y26.7518
G01 X30.2787 Y26.7584
G01 X30.2836 Y26.7655
G01 X30.2896 Y26.7716
G01 X30.2965 Y26.7767
G01 X30.3042 Y26.7804
G01 X30.3120 Y26.7827
G01 X30.3064 Y26.7818
G01 X30.2921 Y26.7747
G01 X30.2813 Y26.7638
G01 X30.2740 Y26.7493
G01 X30.2693 Y26.7217
G01 X30.2693 Y24.7458
G01 X30.2740 Y24.7182
G01 X30.2813 Y24.7037
G01 X30.2921 Y24.6928
G01 X30.3066 Y24.6856
G01 X30.3343 Y24.6809
G01 X32.3101 Y24.6809
G01 X32.3378 Y24.6856
G01 X32.3523 Y24.6928
G01 X32.3632 Y24.7037
G01 X32.3703 Y24.7179
G01 X32.3711 Y24.7234
G01 X32.3689 Y24.7158
G01 X32.3651 Y24.7081
G01 X32.3601 Y24.7011
G01 X32.3539 Y24.6951
G01 X32.3469 Y24.6903
G01 X32.3391 Y24.6867
G01 X32.3308 Y24.6845
G01 X32.3222 Y24.6838
G00 Z2.0000
G00 X34.3540 Y24.8059
G01 F60.00
G01 Z-0.0600
G01 F120.00
G01 X34.2640 Y24.7634
G01 X34.1670 Y24.7287
G01 X34.0671 Y24.7037
G01 X33.9702 Y24.6893
G01 X34.0299 Y24.6951
G01 X34.1614 Y24.7252
G01 X34.2880 Y24.7717
G01 X34.3540 Y24.8059
G00 Z2.0000
G00 X35.3523 Y25.7360
G01 F60.00
G01 Z-0.0600
G01 F120.00
G01 X35.3573 Y25.8364
G01 X35.3724 Y25.9384
G01 X35.3974 Y26.0383
G01 X35.4321 Y26.1353
G01 X35.4762 Y26.2285
G01 X35.5292 Y26.3169
G01 X35.5905 Y26.3996
G01 X35.6597 Y26.4760
G01 X35.7361 Y26.5452
G01 X35.8189 Y26.6066
G01 X35.9072 Y26.6595
G01 X36.0004 Y26.7036
G01 X36.0974 Y26.7383
G01 X36.1974 Y26.7633
G01 X36.2993 Y26.7785
G01 X36.4022 Y26.7835
G01 X36.5051 Y26.7785
G01 X36.6046 Y26.7638
G01 X36.7093 Y26.7375
G01 X36.8040 Y26.7036
G01 X36.8972 Y26.6595
G01 X36.9856 Y26.6066
G01 X37.0664 Y26.5467
G01 X37.1464 Y26.4742
G01 X37.2139 Y26.3996
G01 X37.2753 Y26.3169
G01 X37.3282 Y26.2285
G01 X37.3713 Y26.1376
G01 X37.4077 Y26.0360
G01 X37.4320 Y25.9384
G01 X37.4472 Y25.8364
G01 X37.4522 Y25.7335
G01 X37.4473 Y25.6330
G01 X37.4315 Y25.5263
G01 X37.4070 Y25.4287
G01 X37.3723 Y25.3317
G01 X37.3282 Y25.2386
G01 X37.2766 Y25.1522
G01 X37.2123 Y25.0655
G01 X37.1447 Y24.9911
G01 X37.0683 Y24.9219
G01 X36.9856 Y24.8605
G01 X36.8989 Y24.8085
G01 X36.9478 Y24.8338
G01 X37.0583 Y24.9109
G01 X37.1582 Y25.0015
G01 X37.2455 Y25.1043
G01 X37.3192 Y25.2173
G01 X37.3773 Y25.3390
G01 X37.4200 Y25.4671
G01 X37.4457 Y25.5990
G01 X37.4545 Y25.7338
G01 X37.4457 Y25.8686
G01 X37.4200 Y26.0004
G01 X37.3773 Y26.1285
G01 X37.3192 Y26.2502
G01 X37.2455 Y26.3632
G01 X37.1582 Y26.4660
G01 X37.0583 Y26.5567
G01 X36.9478 Y26.6337
G01 X36.8280 Y26.6958
G01 X36.7014 Y26.7424
G01 X36.5699 Y26.7725
G01 X36.4356 Y26.7856
G01 X36.3008 Y26.7812
G01 X36.1680 Y26.7598
G01 X36.0385 Y26.7216
G01 X35.9154 Y26.6668
G01 X35.8000 Y26.5969
G01 X35.6947 Y26.5125
G01 X35.6006 Y26.4160
G01 X35.5202 Y26.3080
G01 X35.4542 Y26.1906
G01 X35.4033 Y26.0655
G01 X35.3693 Y25.9350
G01 X35.3519 Y25.8011
G01 X35.3519 Y25.6664
G01 X35.3693 Y25.5325
G01 X35.4033 Y25.4021
G01 X35.4542 Y25.2770
G01 X35.5202 Y25.1596
G01 X35.6006 Y25.0515
G01 X35.6947 Y24.9550
G01 X35.8000 Y24.8706
G01 X35.9154 Y24.8008
G01 X36.0385 Y24.7460
G01 X36.1680 Y24.7077
G01 X36.3008 Y24.6864
G01 X36.4356 Y24.6820
G01 X36.4998 Y24.6883
G01 X36.4022 Y24.6835
G01 X36.3017 Y24.6884
G01 X36.1998 Y24.7033
G01 X36.0974 Y24.7287
G01 X36.0015 Y24.7630
G01 X35.9072 Y24.8075
G01 X35.8189 Y24.8605
G01 X35.7361 Y24.9219
G01 X35.6606 Y24.9902
G01 X35.5905 Y25.0674
G01 X35.5292 Y25.1502
G01 X35.4762 Y25.2386
G01 X35.4321 Y25.3317
G01 X35.3974 Y25.4287
G01 X35.3724 Y25.5287
G01 X35.3573 Y25.6306
G01 X35.3523 Y25.7360
G00 Z2.0000
G00 X36.8940 Y24.8059
G01 F60.00
G01 Z-0.0600
G01 F120.00
G01 X36.8040 Y24.7634
G01 X36.7070 Y24.7287
G01 X36.6071 Y24.7037
G01 X36.5102 Y24.6893
G01 X36.5699 Y24.6951
G01 X36.7014 Y24.7252
G01 X36.8280 Y24.7717
G01 X36.8940 Y24.8059
G00 Z2.0000
G00 X37.8923 Y25.7360
G01 F60.00
G01 Z-0.0600
G01 F120.00
G01 X37.8973 Y25.8364
G01 X37.9124 Y25.9384
G01 X37.9374 Y26.0383
G01 X37.9721 Y26.1353
G01 X38.0162 Y26.2285
G01 X38.0692 Y26.3169
G01 X38.1305 Y26.3996
G01 X38.1997 Y26.4760
G01 X38.2761 Y26.5452
G01 X38.3589 Y26.6066
G01 X38.4472 Y26.6595
G01 X38.5404 Y26.7036
G01 X38.6374 Y26.7383
G01 X38.7374 Y26.7633
G01 X38.8393 Y26.7785
G01 X38.9422 Y26.7835
G01 X39.0451 Y26.7785
G01 X39.1446 Y26.7638
G01 X39.2493 Y26.7375
G01 X39.3440 Y26.7036
G01 X39.4372 Y26.6595
G01 X39.5256 Y26.6066
G01 X39.6064 Y26.5467
G01 X39.6864 Y26.4742
G01 X39.7539 Y26.3996
G01 X39.8153 Y26.3169
G01 X39.8682 Y26.2285
G01 X39.9113 Y26.1376
G01 X39.9477 Y26.0360
G01 X39.9720 Y25.9384
G01 X39.9872 Y25.8364
G01 X39.9922 Y25.7335
G01 X39.9873 Y25.6330
G01 X39.9715 Y25.5263
G01 X39.9470 Y25.4287
G01 X39.9123 Y25.3317
G01 X39.8682 Y25.2386
G01 X39.8166 Y25.1522
G01 X39.7523 Y25.0655
G01 X39.6847 Y24.9911
G01 X39.6083 Y24.9219
G01 X39.5256 Y24.8605
G01 X39.4389 Y24.8085
G01 X39.4878 Y24.8338
G01 X39.5983 Y24.9109
G01 X39.6982 Y25.0015
G01 X39.7855 Y25.1043
G01 X39.8592 Y25.2173
G01 X39.9173 Y25.3390
G01 X39.9600 Y25.4671
G01 X39.9857 Y25.5990
G01 X39.9945 Y25.7338
G01 X39.9857 Y25.8686
G01 X39.9600 Y26.0004
G01 X39.9173 Y26.1285
G01 X39.8592 Y26.2502
G01 X39.7855 Y26.3632
G01 X39.6982 Y26.4660
G01 X39.5983 Y26.5567
G01 X39.4878 Y26.6337
G01 X39.3680 Y26.6958
G01 X39.2414 Y26.7424
G01 X39.1099 Y26.7725
G01 X38.9756 Y26.7856
G01 X38.8408 Y26.7812
G01 X38.7080 Y26.7598
G01 X38.5785 Y26.7216
G01 X38.4554 Y26.6668
G01 X38.3400 Y26.5969
G01 X38.2347 Y26.5125
G01 X38.1406 Y26.4160
G01 X38.0602 Y26.3080
G01 X37.9942 Y26.1906
G01 X37.9433 Y26.0655
G01 X37.9093 Y25.9350
G01 X37.8919 Y25.8011
G01 X37.8919 Y25.6664
G01 X37.9093 Y25.5325
G01 X37.9433 Y25.4021
G01 X37.9942 Y25.2770
G01 X38.0602 Y25.1596
G01 X38.1406 Y25.0515
G01 X38.2347 Y24.9550
G01 X38.3400 Y24.8706
G01 X38.4554 Y24.8008
G01 X38.5785 Y24.7460
G01 X38.7080 Y24.7077
G01 X38.8408 Y24.6864
G01 X38.9756 Y24.6820
G01 X39.0398 Y24.6883
G01 X38.9422 Y24.6835
G01 X38.8417 Y24.6884
G01 X38.7398 Y24.7033
G01 X38.6374 Y24.7287
G01 X38.5415 Y24.7630
G01 X38.4472 Y24.8075
G01 X38.3589 Y24.8605
G01 X38.2761 Y24.9219
G01 X38.2006 Y24.9902
G01 X38.1305 Y25.0674
G01 X38.0692 Y25.1502
G01 X38.0162 Y25.2386
G01 X37.9721 Y25.3317
G01 X37.9374 Y25.4287
G01 X37.9124 Y25.5287
G01 X37.8973 Y25.6306
G01 X37.8923 Y25.7360
G00 Z2.0000
G00 X39.4340 Y24.8059
G01 F60.00
G01 Z-0.0600
G01 F120.00
G01 X39.3440 Y24.7634
G01 X39.2470 Y24.7287
G01 X39.1471 Y24.7037
G01 X39.0502 Y24.6893
G01 X39.1099 Y24.6951
G01 X39.2414 Y24.7252
G01 X39.3680 Y24.7717
G01 X39.4340 Y24.8059
G00 Z2.0000
G00 X40.4323 Y25.7360
G01 F60.00
G01 Z-0.0600
G01 F120.00
G01 X40.4373 Y25.8364
G01 X40.4524 Y25.9384
G01 X40.4774 Y26.0383
G01 X40.5121 Y26.1353
G01 X40.5562 Y26.2285
G01 X40.6092 Y26.3169
G01 X40.6705 Y26.3996
G01 X40.7397 Y26.4760
G01 X40.8161 Y26.5452
G01 X40.8989 Y26.6066
G01 X40.9872 Y26.6595
G01 X41.0804 Y26.7036
G01 X41.1774 Y26.7383
G01 X41.2774 Y26.7633
G01 X41.3793 Y26.7785
G01 X41.4822 Y26.7835
G01 X41.5851 Y26.7785
G01 X41.6846 Y26.7638
G01 X41.7893 Y26.7375
G01 X41.8840 Y26.7036
G01 X41.9772 Y26.6595
G01 X42.0656 Y26.6066
G01 X42.1464 Y26.5467
G01 X42.2264 Y26.4742
G01 X42.2939 Y26.3996
G01 X42.3553 Y26.3169
G01 X42.4082 Y26.2285
G01 X42.4513 Y26.1376
G01 X42.4877 Y26.0360
G01 X42.5120 Y25.9384
G01 X42.5272 Y25.8364
G01 X42.5322 Y25.7335
G01 X42.5273 Y25.6330
G01 X42.5115 Y25.5263
G01 X42.4870 Y25.4287
G01 X42.4523 Y25.3317
G01 X42.4082 Y25.2386
G01 X42.3566 Y25.1522
G01 X42.2923 Y25.0655
G01 X42.2247 Y24.9911
G01 X42.1483 Y24.9219
G01 X42.0656 Y24.8605
G01 X41.9789 Y24.8085
G01 X42.0278 Y24.8338
G01 X42.1383 Y24.9109
G01 X42.2382 Y25.0015
G01 X42.3255 Y25.1043
G01 X42.3992 Y25.2173
G01 X42.4573 Y25.3390
G01 X42.5000 Y25.4671
G01 X42.5257 Y25.5990
G01 X42.5345 Y25.7338
G01 X42.5257 Y25.8686
G01 X42.5000 Y26.0004
G01 X42.4573 Y26.1285
G01 X42.3992 Y26.2502
G01 X42.3255 Y26.3632
G01 X42.2382 Y26.4660
G01 X42.1383 Y26.5567
G01 X42.0278 Y26.6337
G01 X41.9080 Y26.6958
G01 X41.7814 Y26.7424
G01 X41.6499 Y26.7725
G01 X41.5156 Y26.7856
G01 X41.3808 Y26.7812
G01 X41.2480 Y26.7598
G01 X41.1185 Y26.7216
G01 X40.9954 Y26.6668
G01 X40.8800 Y26.5969
G01 X40.7747 Y26.5125
G01 X40.6806 Y26.4160
G01 X40.6002 Y26.3080
G01 X40.5342 Y26.1906
G01 X40.4833 Y26.0655
G01 X40.4493 Y25.9350
G01 X40.4319 Y25.8011
G01 X40.4319 Y25.6664
G01 X40.4493 Y25.5325
G01 X40.4833 Y25.4021
G01 X40.5342 Y25.2770
G01 X40.6002 Y25.1596
G01 X40.6806 Y25.0515
G01 X40.7747 Y24.9550
G01 X40.8800 Y24.8706
G01 X40.9954 Y24.8008
G01 X41.1185 Y24.7460
G01 X41.2480 Y24.7077
G01 X41.3808 Y24.6864
G01 X41.5156 Y24.6820
G01 X41.5798 Y24.6883
G01 X41.4822 Y24.6835
G01 X41.3817 Y24.6884
G01 X41.2798 Y24.7033
G01 X41.1774 Y24.7287
G01 X41.0815 Y24.7630
G01 X40.9872 Y24.8075
G01 X40.8989 Y24.8605
G01 X40.8161 Y24.9219
G01 X40.7406 Y24.9902
G01 X40.6705 Y25.0674
G01 X40.6092 Y25.1502
G01 X40.5562 Y25.2386
G01 X40.5121 Y25.3317
G01 X40.4774 Y25.4287
G01 X40.4524 Y25.5287
G01 X40.4373 Y25.6306
G01 X40.4323 Y25.7360
G00 Z2.0000
G00 X41.9740 Y24.8059
G01 F60.00
G01 Z-0.0600
G01 F120.00
G01 X41.8840 Y24.7634
G01 X41.7870 Y24.7287
G01 X41.6871 Y24.7037
G01 X41.5902 Y24.6893
G01 X41.6499 Y24.6951
G01 X41.7814 Y24.7252
G01 X41.9080 Y24.7717
G01 X41.9740 Y24.8059
G00 Z2.0000
G00 X42.9723 Y25.7360
G01 F60.00
G01 Z-0.0600
G01 F120.00
G01 X42.9773 Y25.8364
G01 X42.9924 Y25.9384
G01 X43.0174 Y26.0383
G01 X43.0521 Y26.1353
G01 X43.0962 Y26.2285
G01 X43.1492 Y26.3169
G01 X43.2105 Y26.3996
G01 X43.2797 Y26.4760
G01 X43.3561 Y26.5452
G01 X43.4389 Y26.6066
G01 X43.5272 Y26.6595
G01 X43.6204 Y26.7036
G01 X43.7174 Y26.7383
G01 X43.8174 Y26.7633
G01 X43.9193 Y26.7785
G01 X44.0222 Y26.7835
G01 X44.1251 Y26.7785
G01 X44.2246 Y26.7638
G01 X44.3293 Y26.7375
G01 X44.4240 Y26.7036
G01 X44.5172 Y26.6595
G01 X44.6056 Y26.6066
G01 X44.6864 Y26.5467
G01 X44.7664 Y26.4742
G01 X44.8339 Y26.3996
G01 X44.8953 Y26.3169
G01 X44.9482 Y26.2285
G01 X44.9913 Y26.1376
G01 X45.0277 Y26.0360
G01 X45.0520 Y25.9384
G01 X45.0672 Y25.8364
G01 X45.0722 Y25.7335
G01 X45.0673 Y25.6330
G01 X45.0515 Y25.5263
G01 X45.0270 Y25.4287
G01 X44.9923 Y25.3317
G01 X44.9482 Y25.2386
G01 X44.8966 Y25.1522
G01 X44.8323 Y25.0655
G01 X44.7647 Y24.9911
G01 X44.6883 Y24.9219
G01 X44.6056 Y24.8605
G01 X44.5189 Y24.8085
G01 X44.5678 Y24.8338
G01 X44.6783 Y24.9109
G01 X44.7782 Y25.0015
G01 X44.8655 Y25.1043
G01 X44.9392 Y25.2173
G01 X44.9973 Y25.3390
G01 X45.0400 Y25.4671
G01 X45.0657 Y25.5990
G01 X45.0745 Y25.7338
G01 X45.0657 Y25.8686
G01 X45.0400 Y26.0004
G01 X44.9973 Y26.1285
G01 X44.9392 Y26.2502
G01 X44.8655 Y26.3632
G01 X44.7782 Y26.4660
G01 X44.6783 Y26.5567
G01 X44.5678 Y26.6337
G01 X44.4480 Y26.6958
G01 X44.3214 Y26.7424
G01 X44.1899 Y26.7725
G01 X44.0556 Y26.7856
G01 X43.9208 Y26.7812
G01 X43.7880 Y26.7598
G01 X43.6585 Y26.7216
G01 X43.5354 Y26.6668
G01 X43.4200 Y26.5969
G01 X43.3147 Y26.5125
G01 X43.2206 Y26.4160
G01 X43.1402 Y26.3080
G01 X43.0742 Y26.1906
G01 X43.0233 Y26.0655
G01 X42.9893 Y25.9350
G01 X42.9719 Y25.8011
G01 X42.9719 Y25.6664
G01 X42.9893 Y25.5325
G01 X43.0233 Y25.4021
G01 X43.0742 Y25.2770
G01 X43.1402 Y25.1596
G01 X43.2206 Y25.0515
G01 X43.3147 Y24.9550
G01 X43.4200 Y24.8706
G01 X43.5354 Y24.8008
G01 X43.6585 Y24.7460
G01 X43.7880 Y24.7077
G01 X43.9208 Y24.6864
G01 X44.0556 Y24.6820
G01 X44.1198 Y24.6883
G01 X44.0222 Y24.6835
G01 X43.9217 Y24.6884
G01 X43.8198 Y24.7033
G01 X43.7174 Y24.7287
G01 X43.6215 Y24.7630
G01 X43.5272 Y24.8075
G01 X43.4389 Y24.8605
G01 X43.3561 Y24.9219
G01 X43.2806 Y24.9902
G01 X43.2105 Y25.0674
G01 X43.1492 Y25.1502
G01 X43.0962 Y25.2386
G01 X43.0521 Y25.3317
G01 X43.0174 Y25.4287
G01 X42.9924 Y25.5287
G01 X42.9773 Y25.6306
G01 X42.9723 Y25.7360
G00 Z2.0000
G00 X44.5140 Y24.8059
G01 F60.00
G01 Z-0.0600
G01 F120.00
G01 X44.4240 Y24.7634
G01 X44.3270 Y24.7287
G01 X44.2271 Y24.7037
G01 X44.1302 Y24.6893
G01 X44.1899 Y24.6951
G01 X44.3214 Y24.7252
G01 X44.4480 Y24.7717
G01 X44.5140 Y24.8059
G00 Z2.0000
G00 X45.5123 Y25.7360
G01 F60.00
G01 Z-0.0600
G01 F120.00
G01 X45.5173 Y25.8364
G01 X45.5324 Y25.9384
G01 X45.5574 Y26.0383
G01 X45.5921 Y26.1353
G01 X45.6362 Y26.2285
G01 X45.6892 Y26.3169
G01 X45.7505 Y26.3996
G01 X45.8197 Y26.4760
G01 X45.8961 Y26.5452
G01 X45.9789 Y26.6066
G01 X46.0672 Y26.6595
G01 X46.1604 Y26.7036
G01 X46.2574 Y26.7383
G01 X46.3574 Y26.7633
G01 X46.4593 Y26.7785
G01 X46.5622 Y26.7835
G01 X46.6651 Y26.7785
G01 X46.7646 Y26.7638
G01 X46.8693 Y26.7375
G01 X46.9640 Y26.7036
G01 X47.0572 Y26.6595
G01 X47.1456 Y26.6066
G01 X47.2264 Y26.5467
G01 X47.3064 Y26.4742
G01 X47.3739 Y26.3996
G01 X47.4353 Y26.3169
G01 X47.4882 Y26.2285
G01 X47.5313 Y26.1376
G01 X47.5677 Y26.0360
G01 X47.5920 Y25.9384
G01 X47.6072 Y25.8364
G01 X47.6122 Y25.7335
G01 X47.6073 Y25.6330
G01 X47.5915 Y25.5263
G01 X47.5670 Y25.4287
G01 X47.5323 Y25.3317
G01 X47.4882 Y25.2386
G01 X47.4366 Y25.1522
G01 X47.3723 Y25.0655
G01 X47.3047 Y24.9911
G01 X47.2283 Y24.9219
G01 X47.1456 Y24.8605
G01 X47.0589 Y24.8085
G01 X47.1078 Y24.8338
G01 X47.2183 Y24.9109
G01 X47.3182 Y25.0015
G01 X47.4055 Y25.1043
G01 X47.4792 Y25.2173
G01 X47.5373 Y25.3390
G01 X47.5800 Y25.4671
G01 X47.6057 Y25.5990
G01 X47.6145 Y25.7338
G01 X47.6057 Y25.8686
G01 X47.5800 Y26.0004
G01 X47.5373 Y26.1285
G01 X47.4792 Y26.2502
G01 X47.4055 Y26.3632
G01 X47.3182 Y26.4660
G01 X47.2183 Y26.5567
G01 X47.1078 Y26.6337
G01 X46.9880 Y26.6958
G01 X46.8614 Y26.7424
G01 X46.7299 Y26.7725
G01 X46.5956 Y26.7856
G01 X46.4608 Y26.7812
G01 X46.3280 Y26.7598
G01 X46.1985 Y26.7216
G01 X46.0754 Y26.6668
G01 X45.9600 Y26.5969
G01 X45.8547 Y26.5125
G01 X45.7606 Y26.4160
G01 X45.6802 Y26.3080
G01 X45.6142 Y26.1906
G01 X45.5633 Y26.0655
G01 X45.5293 Y25.9350
G01 X45.5119 Y25.8011
G01 X45.5119 Y25.6664
G01 X45.5293 Y25.5325
G01 X45.5633 Y25.4021
G01 X45.6142 Y25.2770
G01 X45.6802 Y25.1596
G01 X45.7606 Y25.0515
G01 X45.8547 Y24.9550
G01 X45.9600 Y24.8706
G01 X46.0754 Y24.8008
G01 X46.1985 Y24.7460
G01 X46.3280 Y24.7077
G01 X46.4608 Y24.6864
G01 X46.5956 Y24.6820
G01 X46.6598 Y24.6883
G01 X46.5622 Y24.6835
G01 X46.4617 Y24.6884
G01 X46.3598 Y24.7033
G01 X46.2574 Y24.7287
G01 X46.1615 Y24.7630
G01 X46.0672 Y24.8075
G01 X45.9789 Y24.8605
G01 X45.8961 Y24.9219
G01 X45.8206 Y24.9902
G01 X45.7505 Y25.0674
G01 X45.6892 Y25.1502
G01 X45.6362 Y25.2386
G01 X45.5921 Y25.3317
G01 X45.5574 Y25.4287
G01 X45.5324 Y25.5287
G01 X45.5173 Y25.6306
G01 X45.5123 Y25.7360
G00 Z2.0000
G00 X47.0540 Y24.8059
G01 F60.00
G01 Z-0.0600
G01 F120.00
G01 X46.9640 Y24.7634
G01 X46.8670 Y24.7287
G01 X46.7671 Y24.7037
G01 X46.6702 Y24.6893
G01 X46.7299 Y24.6951
G01 X46.8614 Y24.7252
G01 X46.9880 Y24.7717
G01 X47.0540 Y24.8059
G00 Z2.0000
G00 X48.0523 Y25.7360
G01 F60.00
G01 Z-0.0600
G01 F120.00
G01 X48.0573 Y25.8364
G01 X48.0724 Y25.9384
G01 X48.0974 Y26.0383
G01 X48.1321 Y26.1353
G01 X48.1762 Y26.2285
G01 X48.2292 Y26.3169
G01 X48.2905 Y26.3996
G01 X48.3597 Y26.4760
G01 X48.4361 Y26.5452
G01 X48.5189 Y26.6066
G01 X48.6072 Y26.6595
G01 X48.7004 Y26.7036
G01 X48.7974 Y26.7383
G01 X48.8974 Y26.7633
G01 X48.9993 Y26.7785
G01 X49.1022 Y26.7835
G01 X49.2051 Y26.7785
G01 X49.3046 Y26.7638
G01 X49.4093 Y26.7375
G01 X49.5040 Y26.7036
G01 X49.5972 Y26.6595
G01 X49.6856 Y26.6066
G01 X49.7664 Y26.5467
G01 X49.8464 Y26.4742
G01 X49.9139 Y26.3996
G01 X49.9753 Y26.3169
G01 X50.0282 Y26.2285
G01 X50.0713 Y26.1376
G01 X50.1077 Y26.0360
G01 X50.1320 Y25.9384
G01 X50.1472 Y25.8364
G01 X50.1522 Y25.7335
G01 X50.1473 Y25.6330
G01 X50.1315 Y25.5263
G01 X50.1070 Y25.4287
G01 X50.0723 Y25.3317
G01 X50.0282 Y25.2386
G01 X49.9766 Y25.1522
G01 X49.9123 Y25.0655
G01 X49.8447 Y24.9911
G01 X49.7683 Y24.9219
G01 X49.6856 Y24.8605
G01 X49.5989 Y24.8085
G01 X49.6478 Y24.8338
G01 X49.7583 Y24.9109
G01 X49.8582 Y25.0015
G01 X49.9455 Y25.1043
G01 X50.0192 Y25.2173
G01 X50.0773 Y25.3390
G01 X50.1200 Y25.4671
G01 X50.1457 Y25.5990
G01 X50.1545 Y25.7338
G01 X50.1457 Y25.8686
G01 X50.1200 Y26.0004
G01 X50.0773 Y26.1285
G01 X50.0192 Y26.2502
G01 X49.9455 Y26.3632
G01 X49.8582 Y26.4660
G01 X49.7583 Y26.5567
G01 X49.6478 Y26.6337
G01 X49.5280 Y26.6958
G01 X49.4014 Y26.7424
G01 X49.2699 Y26.7725
G01 X49.1356 Y26.7856
G01 X49.0008 Y26.7812
G01 X48.8680 Y26.7598
G01 X48.7385 Y26.7216
G01 X48.6154 Y26.6668
G01 X48.5000 Y26.5969
G01 X48.3947 Y26.5125
G01 X48.3006 Y26.4160
G01 X48.2202 Y26.3080
G01 X48.1542 Y26.1906
G01 X48.1033 Y26.0655
G01 X48.0693 Y25.9350
G01 X48.0519 Y25.8011
G01 X48.0519 Y25.6664
G01 X48.0693 Y25.5325
G01 X48.1033 Y25.4021
G01 X48.1542 Y25.2770
G01 X48.2202 Y25.1596
G01 X48.3006 Y25.0515
G01 X48.3947 Y24.9550
G01 X48.5000 Y24.8706
G01 X48.6154 Y24.8008
G01 X48.7385 Y24.7460
G01 X48.8680 Y24.7077
G01 X49.0008 Y24.6864
G01 X49.1356 Y24.6820
G01 X49.1998 Y24.6883
G01 X49.1022 Y24.6835
G01 X49.0017 Y24.6884
G01 X48.8998 Y24.7033
G01 X48.7974 Y24.7287
G01 X48.7015 Y24.7630
G01 X48.6072 Y24.8075
G01 X48.5189 Y24.8605
G01 X48.4361 Y24.9219
G01 X48.3606 Y24.9902
G01 X48.2905 Y25.0674
G01 X48.2292 Y25.1502
G01 X48.1762 Y25.2386
G01 X48.1321 Y25.3317
G01 X48.0974 Y25.4287
G01 X48.0724 Y25.5287
G01 X48.0573 Y25.6306
G01 X48.0523 Y25.7360
G00 Z2.0000
G00 X49.5940 Y24.8059
G01 F60.00
G01 Z-0.0600
G01 F120.00
G01 X49.5040 Y24.7634
G01 X49.4070 Y24.7287
G01 X49.3071 Y24.7037
G01 X49.2102 Y24.6893
G01 X49.2699 Y24.6951
G01 X49.4014 Y24.7252
G01 X49.5280 Y24.7717
G01 X49.5940 Y24.8059
G00 Z2.0000
G00 X55.7161 Y26.7835
G01 F60.00
G01 Z-0.0600
G01 F120.00
G01 X55.7212 Y26.7838
G01 X57.7212 Y26.7838
G01 X57.7263 Y26.7835
G01 X57.7095 Y26.7861
G01 X55.7329 Y26.7861
G01 X55.7161 Y26.7835
G00 Z2.0000
G00 X57.7314 Y26.7827
G01 F60.00
G01 Z-0.0600
G01 F120.00
G01 X57.7380 Y26.7808
G01 X57.7448 Y26.7779
G01 X57.7510 Y26.7739
G01 X57.7565 Y26.7691
G01 X57.7614 Y26.7636
G01 X57.7653 Y26.7573
G01 X57.7683 Y26.7506
G01 X57.7701 Y26.7440
G01 X57.7693 Y26.7496
G01 X57.7621 Y26.7638
G01 X57.7513 Y26.7747
G01 X57.7370 Y26.7818
G01 X57.7314 Y26.7827
G00 Z2.0000
G00 X57.7709 Y26.7389
G01 F60.00
G01 Z-0.0600
G01 F120.00
G01 X57.7712 Y26.7338
G01 X57.7712 Y24.7338
G01 X57.7709 Y24.7287
G01 X57.7736 Y24.7455
G01 X57.7736 Y26.7220
G01 X57.7709 Y26.7389
G00 Z2.0000
G00 X58.2113 Y25.7360
G01 F60.00
G01 Z-0.0600
G01 F120.00
G01 X58.2162 Y25.8364
G01 X58.2314 Y25.9384
G01 X58.2564 Y26.0383
G01 X58.2911 Y26.1353
G01 X58.3352 Y26.2285
G01 X58.3881 Y26.3169
G01 X58.4495 Y26.3996
G01 X58.5187 Y26.4760
G01 X58.5951 Y26.5452
G01 X58.6778 Y26.6066
G01 X58.7662 Y26.6595
G01 X58.8594 Y26.7036
G01 X58.9564 Y26.7383
G01 X59.0563 Y26.7633
G01 X59.1583 Y26.7785
G01 X59.2612 Y26.7835
G01 X59.3641 Y26.7785
G01 X59.4636 Y26.7638
G01 X59.5683 Y26.7375
G01 X59.6630 Y26.7036
G01 X59.7562 Y26.6595
G01 X59.8445 Y26.6066
G01 X59.9254 Y26.5467
G01 X60.0053 Y26.4742
G01 X60.0729 Y26.3996
G01 X60.1342 Y26.3169
G01 X60.1872 Y26.2285
G01 X60.2303 Y26.1376
G01 X60.2666 Y26.0360
G01 X60.2910 Y25.9384
G01 X60.3061 Y25.8364
G01 X60.3112 Y25.7335
G01 X60.3063 Y25.6330
G01 X60.2905 Y25.5263
G01 X60.2660 Y25.4287
G01 X60.2313 Y25.3317
G01 X60.1872 Y25.2386
G01 X60.1355 Y25.1522
G01 X60.0712 Y25.0655
G01 X60.0037 Y24.9911
G01 X59.9273 Y24.9219
G01 X59.8445 Y24.8605
G01 X59.7579 Y24.8085
G01 X59.8068 Y24.8338
G01 X59.9173 Y24.9109
G01 X60.0172 Y25.0015
G01 X60.1045 Y25.1043
G01 X60.1781 Y25.2173
G01 X60.2363 Y25.3390
G01 X60.2790 Y25.4671
G01 X60.3047 Y25.5990
G01 X60.3134 Y25.7338
G01 X60.3047 Y25.8686
G01 X60.2790 Y26.0004
G01 X60.2363 Y26.1285
G01 X60.1781 Y26.2502
G01 X60.1045 Y26.3632
G01 X60.0172 Y26.4660
G01 X59.9173 Y26.5567
G01 X59.8068 Y26.6337
G01 X59.6870 Y26.6958
G01 X59.5604 Y26.7424
G01 X59.4289 Y26.7725
G01 X59.2951 Y26.7856
G01 X59.1603 Y26.7812
G01 X59.0269 Y26.7598
G01 X58.8980 Y26.7216
G01 X58.7743 Y26.6667
G01 X58.6590 Y26.5969
G01 X58.5537 Y26.5126
G01 X58.4601 Y26.4160
G01 X58.3791 Y26.3079
G01 X58.3132 Y26.1906
G01 X58.2623 Y26.0655
G01 X58.2283 Y25.9350
G01 X58.2109 Y25.8011
G01 X58.2109 Y25.6664
G01 X58.2283 Y25.5325
G01 X58.2623 Y25.4021
G01 X58.3132 Y25.2770
G01 X58.3791 Y25.1597
G01 X58.4601 Y25.0515
G01 X58.5172 Y24.9926
G01 X58.4495 Y25.0674
G01 X58.3881 Y25.1502
G01 X58.3352 Y25.2386
G01 X58.2911 Y25.3317
G01 X58.2564 Y25.4287
G01 X58.2314 Y25.5287
G01 X58.2162 Y25.6306
G01 X58.2113 Y25.7360
G00 Z2.0000
G00 X57.7212 Y24.6838
G01 F60.00
G01 Z-0.0600
G01 F120.00
G01 X55.7212 Y24.6838
G01 X55.7114 Y24.6847
G01 X55.7021 Y24.6876
G01 X55.6934 Y24.6922
G01 X55.6895 Y24.6951
G01 X55.6850 Y24.6993
G01 X55.6789 Y24.7070
G01 X55.6745 Y24.7158
G01 X55.6722 Y24.7240
G01 X55.6712 Y24.7338
G01 X55.6712 Y26.7350
G01 X55.6722 Y26.7435
G01 X55.6741 Y26.7506
G01 X55.6777 Y26.7584
G01 X55.6825 Y26.7655
G01 X55.6885 Y26.7716
G01 X55.6955 Y26.7767
G01 X55.7032 Y26.7804
G01 X55.7110 Y26.7827
G01 X55.7053 Y26.7818
G01 X55.6911 Y26.7747
G01 X55.6802 Y26.7638
G01 X55.6730 Y26.7493
G01 X55.6683 Y26.7217
G01 X55.6683 Y24.7458
G01 X55.6730 Y24.7182
G01 X55.6802 Y24.7037
G01 X55.6911 Y24.6928
G01 X55.7056 Y24.6856
G01 X55.7333 Y24.6809
G01 X57.7091 Y24.6809
G01 X57.7368 Y24.6856
G01 X57.7513 Y24.6928
G01 X57.7621 Y24.7037
G01 X57.7693 Y24.7179
G01 X57.7701 Y24.7235
G01 X57.7678 Y24.7158
G01 X57.7641 Y24.7081
G01 X57.7591 Y24.7011
G01 X57.7529 Y24.6951
G01 X57.7458 Y24.6903
G01 X57.7380 Y24.6867
G01 X57.7297 Y24.6845
G01 X57.7212 Y24.6838
G00 Z2.0000
G00 X59.3593 Y24.6883
G01 F60.00
G01 Z-0.0600
G01 F120.00
G01 X59.2612 Y24.6835
G01 X59.1607 Y24.6884
G01 X59.0588 Y24.7033
G01 X58.9564 Y24.7287
G01 X58.8617 Y24.7626
G01 X58.7662 Y24.8075
G01 X58.6778 Y24.8605
G01 X58.5951 Y24.9219
G01 X58.5191 Y24.9907
G01 X58.5537 Y24.9550
G01 X58.6590 Y24.8706
G01 X58.7743 Y24.8008
G01 X58.8980 Y24.7460
G01 X59.0269 Y24.7077
G01 X59.1603 Y24.6864
G01 X59.2951 Y24.6820
G01 X59.3593 Y24.6883
G00 Z2.0000
G00 X59.7530 Y24.8059
G01 F60.00
G01 Z-0.0600
G01 F120.00
G01 X59.6630 Y24.7634
G01 X59.5660 Y24.7287
G01 X59.4660 Y24.7037
G01 X59.3688 Y24.6892
G01 X59.4289 Y24.6951
G01 X59.5604 Y24.7252
G01 X59.6870 Y24.7717
G01 X59.7530 Y24.8059
G00 Z2.0000
G00 X60.7513 Y25.7360
G01 F60.00
G01 Z-0.0600
G01 F120.00
G01 X60.7562 Y25.8364
G01 X60.7714 Y25.9384
G01 X60.7964 Y26.0383
G01 X60.8311 Y26.1353
G01 X60.8752 Y26.2285
G01 X60.9281 Y26.3169
G01 X60.9895 Y26.3996
G01 X61.0587 Y26.4760
G01 X61.1351 Y26.5452
G01 X61.2178 Y26.6066
G01 X61.3062 Y26.6595
G01 X61.3994 Y26.7036
G01 X61.4964 Y26.7383
G01 X61.5963 Y26.7633
G01 X61.6983 Y26.7785
G01 X61.8012 Y26.7835
G01 X61.9041 Y26.7785
G01 X62.0036 Y26.7638
G01 X62.1083 Y26.7375
G01 X62.2030 Y26.7036
G01 X62.2962 Y26.6595
G01 X62.3845 Y26.6066
G01 X62.4654 Y26.5467
G01 X62.5453 Y26.4742
G01 X62.6129 Y26.3996
G01 X62.6742 Y26.3169
G01 X62.7272 Y26.2285
G01 X62.7703 Y26.1376
G01 X62.8066 Y26.0360
G01 X62.8310 Y25.9384
G01 X62.8461 Y25.8364
G01 X62.8512 Y25.7335
G01 X62.8463 Y25.6330
G01 X62.8305 Y25.5263
G01 X62.8060 Y25.4287
G01 X62.7713 Y25.3317
G01 X62.7272 Y25.2386
G01 X62.6755 Y25.1522
G01 X62.6112 Y25.0655
G01 X62.5437 Y24.9911
G01 X62.4673 Y24.9219
G01 X62.3845 Y24.8605
G01 X62.2979 Y24.8085
G01 X62.3468 Y24.8338
G01 X62.4573 Y24.9109
G01 X62.5572 Y25.0015
G01 X62.6445 Y25.1043
G01 X62.7181 Y25.2173
G01 X62.7763 Y25.3390
G01 X62.8190 Y25.4671
G01 X62.8447 Y25.5990
G01 X62.8534 Y25.7338
G01 X62.8447 Y25.8686
G01 X62.8190 Y26.0004
G01 X62.7763 Y26.1285
G01 X62.7181 Y26.2502
G01 X62.6445 Y26.3632
G01 X62.5572 Y26.4660
G01 X62.4573 Y26.5567
G01 X62.3468 Y26.6337
G01 X62.2270 Y26.6958
G01 X62.1004 Y26.7424
G01 X61.9689 Y26.7725
G01 X61.8351 Y26.7856
G01 X61.7003 Y26.7812
G01 X61.5669 Y26.7598
G01 X61.4380 Y26.7216
G01 X61.3143 Y26.6667
G01 X61.1990 Y26.5969
G01 X61.0937 Y26.5126
G01 X61.0001 Y26.4160
G01 X60.9191 Y26.3079
G01 X60.8532 Y26.1906
G01 X60.8023 Y26.0655
G01 X60.7683 Y25.9350
G01 X60.7509 Y25.8011
G01 X60.7509 Y25.6664
G01 X60.7683 Y25.5325
G01 X60.8023 Y25.4021
G01 X60.8532 Y25.2770
G01 X60.9191 Y25.1597
G01 X61.0001 Y25.0515
G01 X61.0572 Y24.9926
G01 X60.9895 Y25.0674
G01 X60.9281 Y25.1502
G01 X60.8752 Y25.2386
G01 X60.8311 Y25.3317
G01 X60.7964 Y25.4287
G01 X60.7714 Y25.5287
G01 X60.7562 Y25.6306
G01 X60.7513 Y25.7360
G00 Z2.0000
G00 X61.8993 Y24.6883
G01 F60.00
G01 Z-0.0600
G01 F120.00
G01 X61.8012 Y24.6835
G01 X61.7007 Y24.6884
G01 X61.5988 Y24.7033
G01 X61.4964 Y24.7287
G01 X61.4017 Y24.7626
G01 X61.3062 Y24.8075
G01 X61.2178 Y24.8605
G01 X61.1351 Y24.9219
G01 X61.0591 Y24.9907
G01 X61.0937 Y24.9550
G01 X61.1990 Y24.8706
G01 X61.3143 Y24.8008
G01 X61.4380 Y24.7460
G01 X61.5669 Y24.7077
G01 X61.7003 Y24.6864
G01 X61.8351 Y24.6820
G01 X61.8993 Y24.6883
G00 Z2.0000
G00 X62.2930 Y24.8059
G01 F60.00
G01 Z-0.0600
G01 F120.00
G01 X62.2030 Y24.7634
G01 X62.1060 Y24.7287
G01 X62.0060 Y24.7037
G01 X61.9088 Y24.6892
G01 X61.9689 Y24.6951
G01 X62.1004 Y24.7252
G01 X62.2270 Y24.7717
G01 X62.2930 Y24.8059
G00 Z2.0000
G00 X63.2913 Y25.7360
G01 F60.00
G01 Z-0.0600
G01 F120.00
G01 X63.2962 Y25.8364
G01 X63.3114 Y25.9384
G01 X63.3364 Y26.0383
G01 X63.3711 Y26.1353
G01 X63.4152 Y26.2285
G01 X63.4681 Y26.3169
G01 X63.5295 Y26.3996
G01 X63.5987 Y26.4760
G01 X63.6751 Y26.5452
G01 X63.7578 Y26.6066
G01 X63.8462 Y26.6595
G01 X63.9394 Y26.7036
G01 X64.0364 Y26.7383
G01 X64.1363 Y26.7633
G01 X64.2383 Y26.7785
G01 X64.3412 Y26.7835
G01 X64.4441 Y26.7785
G01 X64.5436 Y26.7638
G01 X64.6483 Y26.7375
G01 X64.7430 Y26.7036
G01 X64.8362 Y26.6595
G01 X64.9245 Y26.6066
G01 X65.0054 Y26.5467
G01 X65.0853 Y26.4742
G01 X65.1529 Y26.3996
G01 X65.2142 Y26.3169
G01 X65.2672 Y26.2285
G01 X65.3103 Y26.1376
G01 X65.3466 Y26.0360
G01 X65.3710 Y25.9384
G01 X65.3861 Y25.8364
G01 X65.3912 Y25.7335
G01 X65.3863 Y25.6330
G01 X65.3705 Y25.5263
G01 X65.3460 Y25.4287
G01 X65.3113 Y25.3317
G01 X65.2672 Y25.2386
G01 X65.2155 Y25.1522
G01 X65.1512 Y25.0655
G01 X65.0837 Y24.9911
G01 X65.0073 Y24.9219
G01 X64.9245 Y24.8605
G01 X64.8379 Y24.8085
G01 X64.8868 Y24.8338
G01 X64.9973 Y24.9109
G01 X65.0972 Y25.0015
G01 X65.1845 Y25.1043
G01 X65.2581 Y25.2173
G01 X65.3163 Y25.3390
G01 X65.3590 Y25.4671
G01 X65.3847 Y25.5990
G01 X65.3934 Y25.7338
G01 X65.3847 Y25.8686
G01 X65.3590 Y26.0004
G01 X65.3163 Y26.1285
G01 X65.2581 Y26.2502
G01 X65.1845 Y26.3632
G01 X65.0972 Y26.4660
G01 X64.9973 Y26.5567
G01 X64.8868 Y26.6337
G01 X64.7670 Y26.6958
G01 X64.6404 Y26.7424
G01 X64.5089 Y26.7725
G01 X64.3751 Y26.7856
G01 X64.2403 Y26.7812
G01 X64.1069 Y26.7598
G01 X63.9780 Y26.7216
G01 X63.8543 Y26.6667
G01 X63.7390 Y26.5969
G01 X63.6337 Y26.5126
G01 X63.5401 Y26.4160
G01 X63.4591 Y26.3079
G01 X63.3932 Y26.1906
G01 X63.3423 Y26.0655
G01 X63.3083 Y25.9350
G01 X63.2909 Y25.8011
G01 X63.2909 Y25.6664
G01 X63.3083 Y25.5325
G01 X63.3423 Y25.4021
G01 X63.3932 Y25.2770
G01 X63.4591 Y25.1597
G01 X63.5401 Y25.0515
G01 X63.5972 Y24.9926
G01 X63.5295 Y25.0674
G01 X63.4681 Y25.1502
G01 X63.4152 Y25.2386
G01 X63.3711 Y25.3317
G01 X63.3364 Y25.4287
G01 X63.3114 Y25.5287
G01 X63.2962 Y25.6306
G01 X63.2913 Y25.7360
G00 Z2.0000
G00 X64.4393 Y24.6883
G01 F60.00
G01 Z-0.0600
G01 F120.00
G01 X64.3412 Y24.6835
G01 X64.2407 Y24.6884
G01 X64.1388 Y24.7033
G01 X64.0364 Y24.7287
G01 X63.9417 Y24.7626
G01 X63.8462 Y24.8075
G01 X63.7578 Y24.8605
G01 X63.6751 Y24.9219
G01 X63.5991 Y24.9907
G01 X63.6337 Y24.9550
G01 X63.7390 Y24.8706
G01 X63.8543 Y24.8008
G01 X63.9780 Y24.7460
G01 X64.1069 Y24.7077
G01 X64.2403 Y24.6864
G01 X64.3751 Y24.6820
G01 X64.4393 Y24.6883
G00 Z2.0000
G00 X64.8330 Y24.8059
G01 F60.00
G01 Z-0.0600
G01 F120.00
G01 X64.7430 Y24.7634
G01 X64.6460 Y24.7287
G01 X64.5460 Y24.7037
G01 X64.4488 Y24.6892
G01 X64.5089 Y24.6951
G01 X64.6404 Y24.7252
G01 X64.7670 Y24.7717
G01 X64.8330 Y24.8059
G00 Z2.0000
G00 X65.8313 Y25.7360
G01 F60.00
G01 Z-0.0600
G01 F120.00
G01 X65.8362 Y25.8364
G01 X65.8514 Y25.9384
G01 X65.8764 Y26.0383
G01 X65.9111 Y26.1353
G01 X65.9552 Y26.2285
G01 X66.0081 Y26.3169
G01 X66.0695 Y26.3996
G01 X66.1387 Y26.4760
G01 X66.2151 Y26.5452
G01 X66.2978 Y26.6066
G01 X66.3862 Y26.6595
G01 X66.4794 Y26.7036
G01 X66.5764 Y26.7383
G01 X66.6763 Y26.7633
G01 X66.7783 Y26.7785
G01 X66.8812 Y26.7835
G01 X66.9841 Y26.7785
G01 X67.0836 Y26.7638
G01 X67.1883 Y26.7375
G01 X67.2830 Y26.7036
G01 X67.3762 Y26.6595
G01 X67.4645 Y26.6066
G01 X67.5454 Y26.5467
G01 X67.6253 Y26.4742
G01 X67.6929 Y26.3996
G01 X67.7542 Y26.3169
G01 X67.8072 Y26.2285
G01 X67.8503 Y26.1376
G01 X67.8866 Y26.0360
G01 X67.9110 Y25.9384
G01 X67.9261 Y25.8364
G01 X67.9312 Y25.7335
G01 X67.9263 Y25.6330
G01 X67.9105 Y25.5263
G01 X67.8860 Y25.4287
G01 X67.8513 Y25.3317
G01 X67.8072 Y25.2386
G01 X67.7555 Y25.1522
G01 X67.6912 Y25.0655
G01 X67.6237 Y24.9911
G01 X67.5473 Y24.9219
G01 X67.4645 Y24.8605
G01 X67.3779 Y24.8085
G01 X67.4268 Y24.8338
G01 X67.5373 Y24.9109
G01 X67.6372 Y25.0015
G01 X67.7245 Y25.1043
G01 X67.7981 Y25.2173
G01 X67.8563 Y25.3390
G01 X67.8990 Y25.4671
G01 X67.9247 Y25.5990
G01 X67.9334 Y25.7338
G01 X67.9247 Y25.8686
G01 X67.8990 Y26.0004
G01 X67.8563 Y26.1285
G01 X67.7981 Y26.2502
G01 X67.7245 Y26.3632
G01 X67.6372 Y26.4660
G01 X67.5373 Y26.5567
G01 X67.4268 Y26.6337
G01 X67.3070 Y26.6958
G01 X67.1804 Y26.7424
G01 X67.0489 Y26.7725
G01 X66.9151 Y26.7856
G01 X66.7803 Y26.7812
G01 X66.6469 Y26.7598
G01 X66.5180 Y26.7216
G01 X66.3943 Y26.6667
G01 X66.2790 Y26.5969
G01 X66.1737 Y26.5126
G01 X66.0801 Y26.4160
G01 X65.9991 Y26.3079
G01 X65.9332 Y26.1906
G01 X65.8823 Y26.0655
G01 X65.8483 Y25.9350
G01 X65.8309 Y25.8011
G01 X65.8309 Y25.6664
G01 X65.8483 Y25.5325
G01 X65.8823 Y25.4021
G01 X65.9332 Y25.2770
G01 X65.9991 Y25.1597
G01 X66.0801 Y25.0515
G01 X66.1372 Y24.9926
G01 X66.0695 Y25.0674
G01 X66.0081 Y25.1502
G01 X65.9552 Y25.2386
G01 X65.9111 Y25.3317
G01 X65.8764 Y25.4287
G01 X65.8514 Y25.5287
G01 X65.8362 Y25.6306
G01 X65.8313 Y25.7360
G00 Z2.0000
G00 X66.9793 Y24.6883
G01 F60.00
G01 Z-0.0600
G01 F120.00
G01 X66.8812 Y24.6835
G01 X66.7807 Y24.6884
G01 X66.6788 Y24.7033
G01 X66.5764 Y24.7287
G01 X66.4817 Y24.7626
G01 X66.3862 Y24.8075
G01 X66.2978 Y24.8605
G01 X66.2151 Y24.9219
G01 X66.1391 Y24.9907
G01 X66.1737 Y24.9550
G01 X66.2790 Y24.8706
G01 X66.3943 Y24.8008
G01 X66.5180 Y24.7460
G01 X66.6469 Y24.7077
G01 X66.7803 Y24.6864
G01 X66.9151 Y24.6820
G01 X66.9793 Y24.6883
G00 Z2.0000
G00 X67.3730 Y24.8059
G01 F60.00
G01 Z-0.0600
G01 F120.00
G01 X67.2830 Y24.7634
G01 X67.1860 Y24.7287
G01 X67.0860 Y24.7037
G01 X66.9888 Y24.6892
G01 X67.0489 Y24.6951
G01 X67.1804 Y24.7252
G01 X67.3070 Y24.7717
G01 X67.3730 Y24.8059
G00 Z2.0000
G00 X68.3713 Y25.7360
G01 F60.00
G01 Z-0.0600
G01 F120.00
G01 X68.3762 Y25.8364
G01 X68.3914 Y25.9384
G01 X68.4164 Y26.0383
G01 X68.4511 Y26.1353
G01 X68.4952 Y26.2285
G01 X68.5481 Y26.3169
G01 X68.6095 Y26.3996
G01 X68.6787 Y26.4760
G01 X68.7551 Y26.5452
G01 X68.8378 Y26.6066
G01 X68.9262 Y26.6595
G01 X69.0194 Y26.7036
G01 X69.1164 Y26.7383
G01 X69.2163 Y26.7633
G01 X69.3183 Y26.7785
G01 X69.4212 Y26.7835
G01 X69.5241 Y26.7785
G01 X69.6236 Y26.7638
G01 X69.7283 Y26.7375
G01 X69.8230 Y26.7036
G01 X69.9162 Y26.6595
G01 X70.0045 Y26.6066
G01 X70.0854 Y26.5467
G01 X70.1653 Y26.4742
G01 X70.2329 Y26.3996
G01 X70.2942 Y26.3169
G01 X70.3472 Y26.2285
G01 X70.3903 Y26.1376
G01 X70.4266 Y26.0360
G01 X70.4510 Y25.9384
G01 X70.4661 Y25.8364
G01 X70.4712 Y25.7335
G01 X70.4663 Y25.6330
G01 X70.4505 Y25.5263
G01 X70.4260 Y25.4287
G01 X70.3913 Y25.3317
G01 X70.3472 Y25.2386
G01 X70.2955 Y25.1522
G01 X70.2312 Y25.0655
G01 X70.1637 Y24.9911
G01 X70.0873 Y24.9219
G01 X70.0045 Y24.8605
G01 X69.9179 Y24.8085
G01 X69.9668 Y24.8338
G01 X70.0773 Y24.9109
G01 X70.1772 Y25.0015
G01 X70.2645 Y25.1043
G01 X70.3381 Y25.2173
G01 X70.3963 Y25.3390
G01 X70.4390 Y25.4671
G01 X70.4647 Y25.5990
G01 X70.4734 Y25.7338
G01 X70.4647 Y25.8686
G01 X70.4390 Y26.0004
G01 X70.3963 Y26.1285
G01 X70.3381 Y26.2502
G01 X70.2645 Y26.3632
G01 X70.1772 Y26.4660
G01 X70.0773 Y26.5567
G01 X69.9668 Y26.6337
G01 X69.8470 Y26.6958
G01 X69.7204 Y26.7424
G01 X69.5889 Y26.7725
G01 X69.4551 Y26.7856
G01 X69.3203 Y26.7812
G01 X69.1869 Y26.7598
G01 X69.0580 Y26.7216
G01 X68.9343 Y26.6667
G01 X68.8190 Y26.5969
G01 X68.7137 Y26.5126
G01 X68.6201 Y26.4160
G01 X68.5391 Y26.3079
G01 X68.4732 Y26.1906
G01 X68.4223 Y26.0655
G01 X68.3883 Y25.9350
G01 X68.3709 Y25.8011
G01 X68.3709 Y25.6664
G01 X68.3883 Y25.5325
G01 X68.4223 Y25.4021
G01 X68.4732 Y25.2770
G01 X68.5391 Y25.1597
G01 X68.6201 Y25.0515
G01 X68.6772 Y24.9926
G01 X68.6095 Y25.0674
G01 X68.5481 Y25.1502
G01 X68.4952 Y25.2386
G01 X68.4511 Y25.3317
G01 X68.4164 Y25.4287
G01 X68.3914 Y25.5287
G01 X68.3762 Y25.6306
G01 X68.3713 Y25.7360
G00 Z2.0000
G00 X69.5193 Y24.6883
G01 F60.00
G01 Z-0.0600
G01 F120.00
G01 X69.4212 Y24.6835
G01 X69.3207 Y24.6884
G01 X69.2188 Y24.7033
G01 X69.1164 Y24.7287
G01 X69.0217 Y24.7626
G01 X68.9262 Y24.8075
G01 X68.8378 Y24.8605
G01 X68.7551 Y24.9219
G01 X68.6791 Y24.9907
G01 X68.7137 Y24.9550
G01 X68.8190 Y24.8706
G01 X68.9343 Y24.8008
G01 X69.0580 Y24.7460
G01 X69.1869 Y24.7077
G01 X69.3203 Y24.6864
G01 X69.4551 Y24.6820
G01 X69.5193 Y24.6883
G00 Z2.0000
G00 X69.9130 Y24.8059
G01 F60.00
G01 Z-0.0600
G01 F120.00
G01 X69.8230 Y24.7634
G01 X69.7260 Y24.7287
G01 X69.6260 Y24.7037
G01 X69.5288 Y24.6892
G01 X69.5889 Y24.6951
G01 X69.7204 Y24.7252
G01 X69.8470 Y24.7717
G01 X69.9130 Y24.8059
G00 Z2.0000
G00 X70.9113 Y25.7360
G01 F60.00
G01 Z-0.0600
G01 F120.00
G01 X70.9162 Y25.8364
G01 X70.9314 Y25.9384
G01 X70.9564 Y26.0383
G01 X70.9911 Y26.1353
G01 X71.0352 Y26.2285
G01 X71.0881 Y26.3169
G01 X71.1495 Y26.3996
G01 X71.2187 Y26.4760
G01 X71.2951 Y26.5452
G01 X71.3778 Y26.6066
G01 X71.4662 Y26.6595
G01 X71.5594 Y26.7036
G01 X71.6564 Y26.7383
G01 X71.7563 Y26.7633
G01 X71.8583 Y26.7785
G01 X71.9612 Y26.7835
G01 X72.0641 Y26.7785
G01 X72.1636 Y26.7638
G01 X72.2683 Y26.7375
G01 X72.3630 Y26.7036
G01 X72.4562 Y26.6595
G01 X72.5445 Y26.6066
G01 X72.6254 Y26.5467
G01 X72.7053 Y26.4742
G01 X72.7729 Y26.3996
G01 X72.8342 Y26.3169
G01 X72.8872 Y26.2285
G01 X72.9303 Y26.1376
G01 X72.9666 Y26.0360
G01 X72.9910 Y25.9384
G01 X73.0061 Y25.8364
G01 X73.0112 Y25.7335
G01 X73.0063 Y25.6330
G01 X72.9905 Y25.5263
G01 X72.9660 Y25.4287
G01 X72.9313 Y25.3317
G01 X72.8872 Y25.2386
G01 X72.8355 Y25.1522
G01 X72.7712 Y25.0655
G01 X72.7037 Y24.9911
G01 X72.6273 Y24.9219
G01 X72.5445 Y24.8605
G01 X72.4579 Y24.8085
G01 X72.5068 Y24.8338
G01 X72.6173 Y24.9109
G01 X72.7172 Y25.0015
G01 X72.8045 Y25.1043
G01 X72.8781 Y25.2173
G01 X72.9363 Y25.3390
G01 X72.9790 Y25.4671
G01 X73.0047 Y25.5990
G01 X73.0134 Y25.7338
G01 X73.0047 Y25.8686
G01 X72.9790 Y26.0004
G01 X72.9363 Y26.1285
G01 X72.8781 Y26.2502
G01 X72.8045 Y26.3632
G01 X72.7172 Y26.4660
G01 X72.6173 Y26.5567
G01 X72.5068 Y26.6337
G01 X72.3870 Y26.6958
G01 X72.2604 Y26.7424
G01 X72.1289 Y26.7725
G01 X71.9951 Y26.7856
G01 X71.8603 Y26.7812
G01 X71.7269 Y26.7598
G01 X71.5980 Y26.7216
G01 X71.4743 Y26.6667
G01 X71.3590 Y26.5969
G01 X71.2537 Y26.5126
G01 X71.1601 Y26.4160
G01 X71.0791 Y26.3079
G01 X71.0132 Y26.1906
G01 X70.9623 Y26.0655
G01 X70.9283 Y25.9350
G01 X70.9109 Y25.8011
G01 X70.9109 Y25.6664
G01 X70.9283 Y25.5325
G01 X70.9623 Y25.4021
G01 X71.0132 Y25.2770
G01 X71.0791 Y25.1597
G01 X71.1601 Y25.0515
G01 X71.2172 Y24.9926
G01 X71.1495 Y25.0674
G01 X71.0881 Y25.1502
G01 X71.0352 Y25.2386
G01 X70.9911 Y25.3317
G01 X70.9564 Y25.4287
G01 X70.9314 Y25.5287
G01 X70.9162 Y25.6306
G01 X70.9113 Y25.7360
G00 Z2.0000
G00 X72.0593 Y24.6883
G01 F60.00
G01 Z-0.0600
G01 F120.00
G01 X71.9612 Y24.6835
G01 X71.8607 Y24.6884
G01 X71.7588 Y24.7033
G01 X71.6564 Y24.7287
G01 X71.5617 Y24.7626
G01 X71.4662 Y24.8075
G01 X71.3778 Y24.8605
G01 X71.2951 Y24.9219
G01 X71.2191 Y24.9907
G01 X71.2537 Y24.9550
G01 X71.3590 Y24.8706
G01 X71.4743 Y24.8008
G01 X71.5980 Y24.7460
G01 X71.7269 Y24.7077
G01 X71.8603 Y24.6864
G01 X71.9951 Y24.6820
G01 X72.0593 Y24.6883
G00 Z2.0000
G00 X72.4530 Y24.8059
G01 F60.00
G01 Z-0.0600
G01 F120.00
G01 X72.3630 Y24.7634
G01 X72.2660 Y24.7287
G01 X72.1660 Y24.7037
G01 X72.0688 Y24.6892
G01 X72.1289 Y24.6951
G01 X72.2604 Y24.7252
G01 X72.3870 Y24.7717
G01 X72.4530 Y24.8059
G00 Z2.0000
G00 X73.4513 Y25.7360
G01 F60.00
G01 Z-0.0600
G01 F120.00
G01 X73.4562 Y25.8364
G01 X73.4714 Y25.9384
G01 X73.4964 Y26.0383
G01 X73.5311 Y26.1353
G01 X73.5752 Y26.2285
G01 X73.6281 Y26.3169
G01 X73.6895 Y26.3996
G01 X73.7587 Y26.4760
G01 X73.8351 Y26.5452
G01 X73.9178 Y26.6066
G01 X74.0062 Y26.6595
G01 X74.0994 Y26.7036
G01 X74.1964 Y26.7383
G01 X74.2963 Y26.7633
G01 X74.3983 Y26.7785
G01 X74.5012 Y26.7835
G01 X74.6041 Y26.7785
G01 X74.7036 Y26.7638
G01 X74.8083 Y26.7375
G01 X74.9030 Y26.7036
G01 X74.9962 Y26.6595
G01 X75.0845 Y26.6066
G01 X75.1654 Y26.5467
G01 X75.2453 Y26.4742
G01 X75.3129 Y26.3996
G01 X75.3742 Y26.3169
G01 X75.4272 Y26.2285
G01 X75.4703 Y26.1376
G01 X75.5066 Y26.0360
G01 X75.5310 Y25.9384
G01 X75.5461 Y25.8364
G01 X75.5512 Y25.7335
G01 X75.5463 Y25.6330
G01 X75.5305 Y25.5263
G01 X75.5060 Y25.4287
G01 X75.4713 Y25.3317
G01 X75.4272 Y25.2386
G01 X75.3755 Y25.1522
G01 X75.3112 Y25.0655
G01 X75.2437 Y24.9911
G01 X75.1673 Y24.9219
G01 X75.0845 Y24.8605
G01 X74.9979 Y24.8085
G01 X75.0468 Y24.8338
G01 X75.1573 Y24.9109
G01 X75.2572 Y25.0015
G01 X75.3445 Y25.1043
G01 X75.4181 Y25.2173
G01 X75.4763 Y25.3390
G01 X75.5190 Y25.4671
G01 X75.5447 Y25.5990
G01 X75.5534 Y25.7338
G01 X75.5447 Y25.8686
G01 X75.5190 Y26.0004
G01 X75.4763 Y26.1285
G01 X75.4181 Y26.2502
G01 X75.3445 Y26.3632
G01 X75.2572 Y26.4660
G01 X75.1573 Y26.5567
G01 X75.0468 Y26.6337
G01 X74.9270 Y26.6958
G01 X74.8004 Y26.7424
G01 X74.6689 Y26.7725
G01 X74.5351 Y26.7856
G01 X74.4003 Y26.7812
G01 X74.2669 Y26.7598
G01 X74.1380 Y26.7216
G01 X74.0143 Y26.6667
G01 X73.8990 Y26.5969
G01 X73.7937 Y26.5126
G01 X73.7001 Y26.4160
G01 X73.6191 Y26.3079
G01 X73.5532 Y26.1906
G01 X73.5023 Y26.0655
G01 X73.4683 Y25.9350
G01 X73.4509 Y25.8011
G01 X73.4509 Y25.6664
G01 X73.4683 Y25.5325
G01 X73.5023 Y25.4021
G01 X73.5532 Y25.2770
G01 X73.6191 Y25.1597
G01 X73.7001 Y25.0515
G01 X73.7572 Y24.9926
G01 X73.6895 Y25.0674
G01 X73.6281 Y25.1502
G01 X73.5752 Y25.2386
G01 X73.5311 Y25.3317
G01 X73.4964 Y25.4287
G01 X73.4714 Y25.5287
G01 X73.4562 Y25.6306
G01 X73.4513 Y25.7360
G00 Z2.0000
G00 X74.5993 Y24.6883
G01 F60.00
G01 Z-0.0600
G01 F120.00
G01 X74.5012 Y24.6835
G01 X74.4007 Y24.6884
G01 X74.2988 Y24.7033
G01 X74.1964 Y24.7287
G01 X74.1017 Y24.7626
G01 X74.0062 Y24.8075
G01 X73.9178 Y24.8605
G01 X73.8351 Y24.9219
G01 X73.7591 Y24.9907
G01 X73.7937 Y24.9550
G01 X73.8990 Y24.8706
G01 X74.0143 Y24.8008
G01 X74.1380 Y24.7460
G01 X74.2669 Y24.7077
G01 X74.4003 Y24.6864
G01 X74.5351 Y24.6820
G01 X74.5993 Y24.6883
G00 Z2.0000
G00 X74.9930 Y24.8059
G01 F60.00
G01 Z-0.0600
G01 F120.00
G01 X74.9030 Y24.7634
G01 X74.8060 Y24.7287
G01 X74.7060 Y24.7037
G01 X74.6088 Y24.6892
G01 X74.6689 Y24.6951
G01 X74.8004 Y24.7252
G01 X74.9270 Y24.7717
G01 X74.9930 Y24.8059
G00 Z2.0000
G00 X75.3848 Y15.7785
G01 F60.00
G01 Z-0.0600
G01 F120.00
G01 X75.3241 Y15.8604
G01 X75.2711 Y15.9488
G01 X75.2271 Y16.0419
G01 X75.1924 Y16.1389
G01 X75.1673 Y16.2389
G01 X75.1522 Y16.3408
G01 X75.1472 Y16.4437
G01 X75.1520 Y16.5442
G01 X75.1673 Y16.6486
G01 X75.1931 Y16.7509
G01 X75.2271 Y16.8455
G01 X75.2700 Y16.9365
G01 X75.3234 Y17.0261
G01 X75.3855 Y17.1098
G01 X75.4556 Y17.1870
G01 X75.5320 Y17.2562
G01 X75.6128 Y17.3161
G01 X75.6397 Y17.3323
G01 X75.6397 Y20.5737
G01 X75.6424 Y20.6272
G01 X75.6504 Y20.6814
G01 X75.6637 Y20.7345
G01 X75.6826 Y20.7873
G01 X75.7056 Y20.8356
G01 X75.7337 Y20.8826
G01 X75.7664 Y20.9266
G01 X75.8032 Y20.9672
G01 X79.2769 Y24.4410
G01 X79.2769 Y32.3378
G01 X79.2796 Y32.3925
G01 X79.2877 Y32.4467
G01 X79.3010 Y32.4998
G01 X79.3204 Y32.5536
G01 X79.3429 Y32.6009
G01 X79.3710 Y32.6479
G01 X79.4037 Y32.6919
G01 X79.4404 Y32.7325
G01 X81.4724 Y34.7645
G01 X81.5150 Y34.8028
G01 X81.5570 Y34.8339
G01 X81.6040 Y34.8621
G01 X81.6536 Y34.8855
G01 X81.7075 Y34.9046
G01 X81.7583 Y34.9173
G01 X81.8100 Y34.9250
G01 X81.8660 Y34.9280
G01 X84.6262 Y34.9280
G01 X84.6263 Y35.3734
G01 X84.6274 Y35.3807
G01 X84.6300 Y35.3889
G01 X84.6339 Y35.3965
G01 X84.6383 Y35.4024
G01 X84.6445 Y35.4084
G01 X84.6505 Y35.4127
G01 X84.6582 Y35.4164
G01 X84.6660 Y35.4187
G01 X84.6603 Y35.4178
G01 X84.6461 Y35.4107
G01 X84.6352 Y35.3998
G01 X84.6280 Y35.3853
G01 X84.6233 Y35.3577
G01 X84.6233 Y35.0808
G01 X84.6226 Y35.0736
G01 X84.6148 Y35.0333
G01 X84.6124 Y35.0249
G01 X84.6079 Y35.0160
G01 X84.5847 Y34.9815
G01 X84.5793 Y34.9751
G01 X84.5729 Y34.9696
G01 X84.5378 Y34.9459
G01 X84.5300 Y34.9418
G01 X84.5216 Y34.9392
G01 X84.4801 Y34.9311
G01 X84.4717 Y34.9304
G01 X81.8718 Y34.9304
G01 X81.7947 Y34.9255
G01 X81.7779 Y34.9231
G01 X81.7058 Y34.9066
G01 X81.6191 Y34.8724
G01 X81.5399 Y34.8249
G01 X81.4673 Y34.7628
G01 X79.4422 Y32.7376
G01 X79.3801 Y32.6651
G01 X79.3326 Y32.5858
G01 X79.2984 Y32.4992
G01 X79.2819 Y32.4271
G01 X79.2794 Y32.4103
G01 X79.2746 Y32.3332
G01 X79.2746 Y24.5049
G01 X79.2739 Y24.4965
G01 X79.2648 Y24.4514
G01 X79.2621 Y24.4443
G01 X79.2591 Y24.4388
G01 X79.2353 Y24.4038
G01 X79.2300 Y24.3974
G01 X75.8049 Y20.9724
G01 X75.7428 Y20.8998
G01 X75.6953 Y20.8206
G01 X75.6611 Y20.7339
G01 X75.6446 Y20.6618
G01 X75.6422 Y20.6450
G01 X75.6373 Y20.5679
G01 X75.6371 Y17.4088
G01 X75.6314 Y17.3717
G01 X75.6295 Y17.3644
G01 X75.6270 Y17.3586
G01 X75.6112 Y17.3285
G01 X75.6058 Y17.3202
G01 X75.6015 Y17.3156
G01 X75.5755 Y17.2909
G01 X75.5415 Y17.2665
G01 X75.4413 Y17.1756
G01 X75.3537 Y17.0734
G01 X75.2805 Y16.9600
G01 X75.2217 Y16.8386
G01 X75.1791 Y16.7107
G01 X75.1534 Y16.5784
G01 X75.1451 Y16.4440
G01 X75.1534 Y16.3091
G01 X75.1791 Y16.1768
G01 X75.2217 Y16.0488
G01 X75.2804 Y15.9275
G01 X75.3580 Y15.8077
G01 X75.3609 Y15.8025
G01 X75.3741 Y15.7739
G01 X75.3762 Y15.7682
G01 X75.3776 Y15.7623
G01 X75.3819 Y15.7310
G01 X75.3823 Y15.7252
G01 X75.3823 Y14.6223
G01 X75.3818 Y14.6153
G01 X75.3777 Y14.5864
G01 X75.3765 Y14.5804
G01 X75.3741 Y14.5735
G01 X75.3609 Y14.5449
G01 X75.3580 Y14.5398
G01 X75.2804 Y14.4199
G01 X75.2217 Y14.2986
G01 X75.1791 Y14.1707
G01 X75.1534 Y14.0384
G01 X75.1451 Y13.9040
G01 X75.1534 Y13.7691
G01 X75.1791 Y13.6368
G01 X75.2217 Y13.5088
G01 X75.2804 Y13.3875
G01 X75.3537 Y13.2745
G01 X75.4414 Y13.1718
G01 X75.5413 Y13.0811
G01 X75.6519 Y13.0039
G01 X75.7712 Y12.9414
G01 X75.8977 Y12.8949
G01 X76.0291 Y12.8648
G01 X76.1634 Y12.8522
G01 X76.2983 Y12.8566
G01 X76.4312 Y12.8779
G01 X76.5606 Y12.9162
G01 X76.6837 Y12.9710
G01 X76.7992 Y13.0409
G01 X76.9049 Y13.1247
G01 X76.9984 Y13.2216
G01 X77.0790 Y13.3299
G01 X77.1454 Y13.4472
G01 X77.1958 Y13.5723
G01 X77.2303 Y13.7027
G01 X77.2472 Y13.8365
G01 X77.2472 Y13.9714
G01 X77.2303 Y14.1047
G01 X77.1958 Y14.2352
G01 X77.1454 Y14.3603
G01 X77.0789 Y14.4776
G01 X77.0397 Y14.5308
G01 X77.0221 Y14.5644
G01 X77.0197 Y14.5702
G01 X77.0181 Y14.5764
G01 X77.0121 Y14.6108
G01 X77.0115 Y14.6182
G01 X77.0118 Y15.7342
G01 X77.0178 Y15.7698
G01 X77.0197 Y15.7772
G01 X77.0221 Y15.7831
G01 X77.0374 Y15.8127
G01 X77.0416 Y15.8194
G01 X77.0789 Y15.8698
G01 X77.1454 Y15.9872
G01 X77.1958 Y16.1123
G01 X77.2303 Y16.2427
G01 X77.2472 Y16.3765
G01 X77.2472 Y16.5114
G01 X77.2303 Y16.6447
G01 X77.1958 Y16.7752
G01 X77.1454 Y16.9003
G01 X77.0790 Y17.0176
G01 X76.9984 Y17.1258
G01 X76.9049 Y17.2227
G01 X76.8137 Y17.2953
G01 X76.8096 Y17.2993
G01 X76.7876 Y17.3236
G01 X76.7846 Y17.3278
G01 X76.7820 Y17.3322
G01 X76.7682 Y17.3602
G01 X76.7658 Y17.3661
G01 X76.7639 Y17.3735
G01 X76.7587 Y17.4085
G01 X76.7585 Y20.2774
G01 X76.7595 Y20.2869
G01 X76.7673 Y20.3273
G01 X76.7695 Y20.3345
G01 X76.7721 Y20.3402
G01 X76.7747 Y20.3445
G01 X76.7978 Y20.3785
G01 X76.8031 Y20.3848
G01 X80.2282 Y23.8099
G01 X80.2903 Y23.8825
G01 X80.3378 Y23.9617
G01 X80.3720 Y24.0483
G01 X80.3885 Y24.1204
G01 X80.3910 Y24.1373
G01 X80.3958 Y24.2144
G01 X80.3958 Y32.0426
G01 X80.3965 Y32.0510
G01 X80.4046 Y32.0925
G01 X80.4063 Y32.0986
G01 X80.4088 Y32.1043
G01 X80.4120 Y32.1098
G01 X80.4344 Y32.1428
G01 X80.4404 Y32.1501
G01 X82.0549 Y33.7645
G01 X82.0612 Y33.7699
G01 X82.0973 Y33.7943
G01 X82.1052 Y33.7982
G01 X82.1137 Y33.8006
G01 X82.1540 Y33.8085
G01 X82.1623 Y33.8092
G01 X84.4717 Y33.8092
G01 X84.4813 Y33.8082
G01 X84.5216 Y33.8004
G01 X84.5300 Y33.7977
G01 X84.5378 Y33.7936
G01 X84.5729 Y33.7699
G01 X84.5793 Y33.7645
G01 X84.5847 Y33.7581
G01 X84.6079 Y33.7235
G01 X84.6119 Y33.7158
G01 X84.6148 Y33.7062
G01 X84.6224 Y33.6671
G01 X84.6233 Y33.6600
G01 X84.6233 Y33.3818
G01 X84.6280 Y33.3542
G01 X84.6352 Y33.3397
G01 X84.6461 Y33.3288
G01 X84.6606 Y33.3216
G01 X84.6882 Y33.3169
G01 X86.6641 Y33.3169
G01 X86.6917 Y33.3216
G01 X86.7063 Y33.3288
G01 X86.7171 Y33.3397
G01 X86.7242 Y33.3539
G01 X86.7251 Y33.3594
G01 X86.7228 Y33.3518
G01 X86.7191 Y33.3441
G01 X86.7140 Y33.3371
G01 X86.7079 Y33.3311
G01 X86.7008 Y33.3263
G01 X86.6942 Y33.3231
G01 X86.6859 Y33.3207
G01 X86.6774 Y33.3198
G01 X84.6762 Y33.3198
G01 X84.6713 Y33.3200
G01 X84.6652 Y33.3210
G01 X84.6570 Y33.3236
G01 X84.6505 Y33.3269
G01 X84.6435 Y33.3319
G01 X84.6383 Y33.3371
G01 X84.6333 Y33.3441
G01 X84.6300 Y33.3506
G01 X84.6274 Y33.3588
G01 X84.6263 Y33.3661
G01 X84.6262 Y33.8115
G01 X82.0984 Y33.8115
G01 X80.3934 Y32.1065
G01 X80.3934 Y24.2098
G01 X80.3908 Y24.1551
G01 X80.3827 Y24.1009
G01 X80.3686 Y24.0454
G01 X80.3510 Y23.9961
G01 X80.3275 Y23.9466
G01 X80.2979 Y23.8976
G01 X80.2667 Y23.8556
G01 X80.2308 Y23.8159
G01 X76.7562 Y20.3413
G01 X76.7562 Y17.3314
G01 X76.7815 Y17.3161
G01 X76.8623 Y17.2562
G01 X76.9387 Y17.1870
G01 X77.0088 Y17.1098
G01 X77.0709 Y17.0261
G01 X77.1232 Y16.9387
G01 X77.1681 Y16.8433
G01 X77.2026 Y16.7462
G01 X77.2270 Y16.6486
G01 X77.2418 Y16.5491
G01 X77.2472 Y16.4437
G01 X77.2421 Y16.3408
G01 X77.2270 Y16.2389
G01 X77.2019 Y16.1389
G01 X77.1672 Y16.0419
G01 X77.1232 Y15.9488
G01 X77.0702 Y15.8604
G01 X77.0095 Y15.7785
G01 X77.0095 Y14.5689
G01 X77.0702 Y14.4871
G01 X77.1232 Y14.3987
G01 X77.1672 Y14.3055
G01 X77.2012 Y14.2109
G01 X77.2274 Y14.1062
G01 X77.2421 Y14.0066
G01 X77.2471 Y13.9025
G01 X77.2421 Y13.8008
G01 X77.2274 Y13.7013
G01 X77.2019 Y13.5989
G01 X77.1672 Y13.5019
G01 X77.1243 Y13.4110
G01 X77.0702 Y13.3204
G01 X77.0088 Y13.2376
G01 X76.9413 Y13.1630
G01 X76.8633 Y13.0921
G01 X76.7784 Y13.0294
G01 X76.6921 Y12.9777
G01 X76.5990 Y12.9337
G01 X76.5019 Y12.8989
G01 X76.4020 Y12.8739
G01 X76.3001 Y12.8588
G01 X76.1972 Y12.8537
G01 X76.0942 Y12.8588
G01 X75.9923 Y12.8739
G01 X75.8924 Y12.8989
G01 X75.7953 Y12.9337
G01 X75.7022 Y12.9777
G01 X75.6138 Y13.0307
G01 X75.5310 Y13.0921
G01 X75.4547 Y13.1613
G01 X75.3855 Y13.2376
G01 X75.3241 Y13.3204
G01 X75.2711 Y13.4088
G01 X75.2271 Y13.5019
G01 X75.1924 Y13.5989
G01 X75.1669 Y13.7013
G01 X75.1522 Y13.8008
G01 X75.1472 Y13.9013
G01 X75.1521 Y14.0054
G01 X75.1679 Y14.1110
G01 X75.1924 Y14.2085
G01 X75.2271 Y14.3055
G01 X75.2723 Y14.4008
G01 X75.3241 Y14.4871
G01 X75.3848 Y14.5689
G01 X75.3848 Y15.7785
G00 Z2.0000
G00 X77.9473 Y15.0962
G01 F60.00
G01 Z-0.0600
G01 F120.00
G01 X77.9523 Y14.9908
G01 X77.9674 Y14.8889
G01 X77.9925 Y14.7889
G01 X78.0272 Y14.6919
G01 X78.0712 Y14.5988
G01 X78.1242 Y14.5104
G01 X78.1856 Y14.4276
G01 X78.2548 Y14.3513
G01 X78.3311 Y14.2821
G01 X78.4139 Y14.2207
G01 X78.5023 Y14.1677
G01 X78.5954 Y14.1236
G01 X78.6925 Y14.0889
G01 X78.7924 Y14.0639
G01 X78.8943 Y14.0488
G01 X78.9973 Y14.0437
G01 X79.1002 Y14.0488
G01 X79.2021 Y14.0639
G01 X79.3020 Y14.0889
G01 X79.3991 Y14.1236
G01 X79.4922 Y14.1677
G01 X79.5806 Y14.2207
G01 X79.6634 Y14.2821
G01 X79.7397 Y14.3513
G01 X79.8089 Y14.4276
G01 X79.8703 Y14.5104
G01 X79.9233 Y14.5988
G01 X79.9673 Y14.6919
G01 X80.0020 Y14.7889
G01 X80.0271 Y14.8889
G01 X80.0422 Y14.9908
G01 X80.0473 Y15.0937
G01 X80.0422 Y15.1966
G01 X80.0271 Y15.2986
G01 X80.0020 Y15.3985
G01 X79.9673 Y15.4955
G01 X79.9233 Y15.5887
G01 X79.8703 Y15.6771
G01 X79.8089 Y15.7598
G01 X79.7397 Y15.8362
G01 X79.6634 Y15.9054
G01 X79.5806 Y15.9668
G01 X79.4922 Y16.0197
G01 X79.3991 Y16.0638
G01 X79.3020 Y16.0985
G01 X79.2021 Y16.1235
G01 X79.1002 Y16.1387
G01 X78.9973 Y16.1437
G01 X78.8943 Y16.1387
G01 X78.7924 Y16.1235
G01 X78.6925 Y16.0985
G01 X78.5954 Y16.0638
G01 X78.5023 Y16.0197
G01 X78.4139 Y15.9668
G01 X78.3311 Y15.9054
G01 X78.2548 Y15.8362
G01 X78.1856 Y15.7598
G01 X78.1242 Y15.6771
G01 X78.0712 Y15.5887
G01 X78.0272 Y15.4955
G01 X77.9925 Y15.3985
G01 X77.9674 Y15.2986
G01 X77.9523 Y15.1966
G01 X77.9473 Y15.0962
G00 Z2.0000
G00 X78.9636 Y14.0419
G01 F60.00
G01 Z-0.0600
G01 F120.00
G01 X79.0984 Y14.0463
G01 X79.2312 Y14.0676
G01 X79.3607 Y14.1064
G01 X79.4839 Y14.1608
G01 X79.5992 Y14.2305
G01 X79.7045 Y14.3150
G01 X79.7986 Y14.4115
G01 X79.8791 Y14.5196
G01 X79.9455 Y14.6374
G01 X79.9959 Y14.7620
G01 X80.0299 Y14.8925
G01 X80.0473 Y15.0263
G01 X80.0473 Y15.1611
G01 X80.0299 Y15.2950
G01 X79.9959 Y15.4255
G01 X79.9455 Y15.5505
G01 X79.8791 Y15.6678
G01 X79.7986 Y15.7760
G01 X79.7045 Y15.8730
G01 X79.5993 Y15.9568
G01 X79.4838 Y16.0267
G01 X79.3607 Y16.0815
G01 X79.2313 Y16.1198
G01 X79.0984 Y16.1411
G01 X78.9636 Y16.1455
G01 X78.8293 Y16.1324
G01 X78.6978 Y16.1023
G01 X78.5712 Y16.0557
G01 X78.4514 Y15.9937
G01 X78.3410 Y15.9166
G01 X78.2415 Y15.8260
G01 X78.1537 Y15.7231
G01 X78.0805 Y15.6102
G01 X78.0218 Y15.4884
G01 X77.9792 Y15.3609
G01 X77.9535 Y15.2285
G01 X77.9447 Y15.0937
G01 X77.9535 Y14.9594
G01 X77.9792 Y14.8270
G01 X78.0218 Y14.6990
G01 X78.0805 Y14.5772
G01 X78.1537 Y14.4643
G01 X78.2415 Y14.3615
G01 X78.3410 Y14.2708
G01 X78.4514 Y14.1938
G01 X78.5712 Y14.1317
G01 X78.6978 Y14.0851
G01 X78.8293 Y14.0550
G01 X78.9636 Y14.0419
G00 Z2.0000
G00 X89.7521 Y23.9895
G01 F60.00
G01 Z-0.0600
G01 F120.00
G01 X89.7572 Y23.9898
G01 X90.1989 Y23.9898
G01 X90.1989 Y25.8610
G01 X90.1718 Y25.8774
G01 X90.0891 Y25.9389
G01 X90.0137 Y26.0073
G01 X89.9453 Y26.0827
G01 X89.8818 Y26.1685
G01 X89.8302 Y26.2548
G01 X89.7857 Y26.3491
G01 X89.7514 Y26.4450
G01 X89.7269 Y26.5425
G01 X89.7111 Y26.6493
G01 X89.7062 Y26.7498
G01 X89.7112 Y26.8527
G01 X89.7264 Y26.9546
G01 X89.7507 Y27.0522
G01 X89.7871 Y27.1538
G01 X89.8302 Y27.2447
G01 X89.8831 Y27.3331
G01 X89.9445 Y27.4159
G01 X90.0120 Y27.4905
G01 X90.0920 Y27.5629
G01 X90.1728 Y27.6228
G01 X90.2612 Y27.6758
G01 X90.3544 Y27.7198
G01 X90.4491 Y27.7538
G01 X90.5538 Y27.7800
G01 X90.6533 Y27.7947
G01 X90.7562 Y27.7998
G01 X90.8591 Y27.7947
G01 X90.9586 Y27.7800
G01 X91.0633 Y27.7538
G01 X91.1580 Y27.7198
G01 X91.2511 Y27.6758
G01 X91.3395 Y27.6228
G01 X91.4204 Y27.5629
G01 X91.5003 Y27.4905
G01 X91.5678 Y27.4159
G01 X91.6292 Y27.3331
G01 X91.6822 Y27.2447
G01 X91.7253 Y27.1538
G01 X91.7613 Y27.0534
G01 X91.7860 Y26.9546
G01 X91.8008 Y26.8551
G01 X91.8061 Y26.7473
G01 X91.8011 Y26.6469
G01 X91.7860 Y26.5449
G01 X91.7610 Y26.4450
G01 X91.7267 Y26.3491
G01 X91.6822 Y26.2548
G01 X91.6305 Y26.1685
G01 X91.5671 Y26.0827
G01 X91.4986 Y26.0073
G01 X91.4232 Y25.9389
G01 X91.3405 Y25.8774
G01 X91.3154 Y25.8622
G01 X91.3154 Y23.9898
G01 X91.7572 Y23.9898
G01 X91.7623 Y23.9895
G01 X91.7455 Y23.9921
G01 X91.4681 Y23.9921
G01 X91.4605 Y23.9929
G01 X91.4189 Y24.0016
G01 X91.4109 Y24.0042
G01 X91.4034 Y24.0081
G01 X91.3689 Y24.0313
G01 X91.3625 Y24.0367
G01 X91.3571 Y24.0431
G01 X91.3333 Y24.0781
G01 X91.3298 Y24.0847
G01 X91.3269 Y24.0930
G01 X91.3185 Y24.1352
G01 X91.3178 Y24.1437
G01 X91.3178 Y25.7825
G01 X91.3183 Y25.7895
G01 X91.3235 Y25.8216
G01 X91.3257 Y25.8299
G01 X91.3280 Y25.8356
G01 X91.3423 Y25.8646
G01 X91.3447 Y25.8688
G01 X91.3484 Y25.8737
G01 X91.3765 Y25.9023
G01 X91.4384 Y25.9487
G01 X91.5350 Y26.0423
G01 X91.6193 Y26.1475
G01 X91.6891 Y26.2629
G01 X91.7440 Y26.3866
G01 X91.7823 Y26.5155
G01 X91.8036 Y26.6489
G01 X91.8080 Y26.7837
G01 X91.7949 Y26.9175
G01 X91.7648 Y27.0489
G01 X91.7182 Y27.1756
G01 X91.6561 Y27.2954
G01 X91.5791 Y27.4059
G01 X91.4884 Y27.5057
G01 X91.3856 Y27.5930
G01 X91.2727 Y27.6667
G01 X91.1509 Y27.7249
G01 X91.0228 Y27.7676
G01 X90.8910 Y27.7933
G01 X90.7562 Y27.8020
G01 X90.6214 Y27.7933
G01 X90.4895 Y27.7676
G01 X90.3614 Y27.7249
G01 X90.2397 Y27.6667
G01 X90.1267 Y27.5930
G01 X90.0239 Y27.5057
G01 X89.9333 Y27.4059
G01 X89.8562 Y27.2954
G01 X89.7942 Y27.1756
G01 X89.7476 Y27.0489
G01 X89.7175 Y26.9175
G01 X89.7044 Y26.7837
G01 X89.7088 Y26.6489
G01 X89.7301 Y26.5155
G01 X89.7684 Y26.3866
G01 X89.8232 Y26.2629
G01 X89.8930 Y26.1475
G01 X89.9774 Y26.0423
G01 X90.0739 Y25.9487
G01 X90.1379 Y25.9007
G01 X90.1660 Y25.8722
G01 X90.1696 Y25.8673
G01 X90.1721 Y25.8631
G01 X90.1864 Y25.8340
G01 X90.1887 Y25.8284
G01 X90.1906 Y25.8213
G01 X90.1961 Y25.7880
G01 X90.1966 Y25.7810
G01 X90.1966 Y24.1425
G01 X90.1959 Y24.1352
G01 X90.1880 Y24.0954
G01 X90.1856 Y24.0871
G01 X90.1811 Y24.0781
G01 X90.1580 Y24.0441
G01 X90.1519 Y24.0367
G01 X90.1455 Y24.0313
G01 X90.1110 Y24.0081
G01 X90.1057 Y24.0052
G01 X90.1001 Y24.0029
G01 X90.0943 Y24.0013
G01 X90.0552 Y23.9932
G01 X90.0475 Y23.9922
G01 X89.7689 Y23.9921
G01 X89.7521 Y23.9895
G00 Z2.0000
G00 X91.7674 Y23.9887
G01 F60.00
G01 Z-0.0600
G01 F120.00
G01 X91.7740 Y23.9868
G01 X91.7808 Y23.9839
G01 X91.7870 Y23.9799
G01 X91.7925 Y23.9751
G01 X91.7974 Y23.9696
G01 X91.8013 Y23.9633
G01 X91.8043 Y23.9566
G01 X91.8061 Y23.9500
G01 X91.8053 Y23.9556
G01 X91.7981 Y23.9698
G01 X91.7873 Y23.9807
G01 X91.7730 Y23.9878
G01 X91.7674 Y23.9887
G00 Z2.0000
G00 X91.8069 Y23.9449
G01 F60.00
G01 Z-0.0600
G01 F120.00
G01 X91.8072 Y23.9398
G01 X91.8072 Y21.9398
G01 X91.8069 Y21.9347
G01 X91.8096 Y21.9515
G01 X91.8096 Y23.9280
G01 X91.8069 Y23.9449
G00 Z2.0000
G00 X93.8554 Y23.8279
G01 F60.00
G01 Z-0.0600
G01 F120.00
G01 X93.8554 Y25.8622
G01 X93.8805 Y25.8774
G01 X93.9632 Y25.9389
G01 X94.0386 Y26.0073
G01 X94.1071 Y26.0827
G01 X94.1705 Y26.1685
G01 X94.2222 Y26.2548
G01 X94.2658 Y26.3468
G01 X94.3016 Y26.4473
G01 X94.3260 Y26.5449
G01 X94.3411 Y26.6469
G01 X94.3461 Y26.7522
G01 X94.3411 Y26.8527
G01 X94.3260 Y26.9546
G01 X94.3010 Y27.0546
G01 X94.2663 Y27.1516
G01 X94.2222 Y27.2447
G01 X94.1692 Y27.3331
G01 X94.1078 Y27.4159
G01 X94.0386 Y27.4922
G01 X93.9623 Y27.5614
G01 X93.8795 Y27.6228
G01 X93.7911 Y27.6758
G01 X93.6980 Y27.7198
G01 X93.6010 Y27.7546
G01 X93.5010 Y27.7796
G01 X93.3991 Y27.7947
G01 X93.2962 Y27.7998
G01 X93.1933 Y27.7947
G01 X93.0913 Y27.7796
G01 X92.9914 Y27.7546
G01 X92.8967 Y27.7207
G01 X92.7991 Y27.6746
G01 X92.7128 Y27.6228
G01 X92.6301 Y27.5614
G01 X92.5537 Y27.4922
G01 X92.4861 Y27.4177
G01 X92.4218 Y27.3310
G01 X92.3702 Y27.2447
G01 X92.3261 Y27.1516
G01 X92.2914 Y27.0546
G01 X92.2669 Y26.9570
G01 X92.2511 Y26.8515
G01 X92.2462 Y26.7498
G01 X92.2511 Y26.6493
G01 X92.2664 Y26.5449
G01 X92.2922 Y26.4426
G01 X92.3261 Y26.3480
G01 X92.3696 Y26.2559
G01 X92.4246 Y26.1644
G01 X92.4845 Y26.0837
G01 X92.5529 Y26.0082
G01 X92.6310 Y25.9373
G01 X92.7118 Y25.8774
G01 X92.7389 Y25.8610
G01 X92.7389 Y23.8279
G01 X92.7128 Y23.8121
G01 X92.6320 Y23.7522
G01 X92.5539 Y23.6814
G01 X92.4855 Y23.6059
G01 X92.4256 Y23.5251
G01 X92.3718 Y23.4358
G01 X92.3271 Y23.3416
G01 X92.2917 Y23.2422
G01 X92.2674 Y23.1446
G01 X92.2525 Y23.0451
G01 X92.2472 Y22.9398
G01 X92.2525 Y22.8344
G01 X92.2674 Y22.7349
G01 X92.2917 Y22.6373
G01 X92.3271 Y22.5380
G01 X92.3712 Y22.4448
G01 X92.4256 Y22.3544
G01 X92.4855 Y22.2737
G01 X92.5530 Y22.1991
G01 X92.6311 Y22.1281
G01 X92.7149 Y22.0661
G01 X92.8022 Y22.0138
G01 X92.8954 Y21.9697
G01 X92.9924 Y21.9350
G01 X93.0923 Y21.9099
G01 X93.1943 Y21.8948
G01 X93.2972 Y21.8898
G01 X93.4001 Y21.8948
G01 X93.5020 Y21.9099
G01 X93.6020 Y21.9350
G01 X93.6990 Y21.9697
G01 X93.7922 Y22.0138
G01 X93.8805 Y22.0667
G01 X93.9633 Y22.1281
G01 X94.0397 Y22.1973
G01 X94.1089 Y22.2737
G01 X94.1709 Y22.3575
G01 X94.2232 Y22.4448
G01 X94.2673 Y22.5380
G01 X94.3020 Y22.6350
G01 X94.3270 Y22.7349
G01 X94.3421 Y22.8369
G01 X94.3472 Y22.9398
G01 X94.3421 Y23.0427
G01 X94.3268 Y23.1458
G01 X94.3020 Y23.2446
G01 X94.2673 Y23.3416
G01 X94.2232 Y23.4347
G01 X94.1695 Y23.5241
G01 X94.1089 Y23.6059
G01 X94.0388 Y23.6831
G01 X93.9623 Y23.7522
G01 X93.8816 Y23.8121
G01 X93.8554 Y23.8279
G00 Z2.0000
G00 X93.3311 Y21.8880
G01 F60.00
G01 Z-0.0600
G01 F120.00
G01 X93.4649 Y21.9011
G01 X93.5964 Y21.9312
G01 X93.7230 Y21.9777
G01 X93.8428 Y22.0398
G01 X93.9533 Y22.1169
G01 X94.0532 Y22.2075
G01 X94.1405 Y22.3103
G01 X94.2141 Y22.4233
G01 X94.2723 Y22.5450
G01 X94.3150 Y22.6731
G01 X94.3407 Y22.8050
G01 X94.3494 Y22.9398
G01 X94.3407 Y23.0746
G01 X94.3150 Y23.2064
G01 X94.2723 Y23.3345
G01 X94.2141 Y23.4562
G01 X94.1405 Y23.5692
G01 X94.0532 Y23.6720
G01 X93.9534 Y23.7626
G01 X93.9230 Y23.7836
G01 X93.9183 Y23.7873
G01 X93.8897 Y23.8156
G01 X93.8867 Y23.8196
G01 X93.8841 Y23.8240
G01 X93.8683 Y23.8535
G01 X93.8659 Y23.8589
G01 X93.8637 Y23.8670
G01 X93.8584 Y23.9002
G01 X93.8578 Y23.9080
G01 X93.8578 Y25.7825
G01 X93.8585 Y25.7906
G01 X93.8638 Y25.8228
G01 X93.8653 Y25.8288
G01 X93.8675 Y25.8345
G01 X93.8817 Y25.8635
G01 X93.8869 Y25.8718
G01 X93.8908 Y25.8764
G01 X93.9165 Y25.9023
G01 X93.9784 Y25.9487
G01 X94.0750 Y26.0423
G01 X94.1593 Y26.1475
G01 X94.2291 Y26.2629
G01 X94.2840 Y26.3866
G01 X94.3223 Y26.5155
G01 X94.3436 Y26.6489
G01 X94.3480 Y26.7837
G01 X94.3349 Y26.9175
G01 X94.3048 Y27.0489
G01 X94.2582 Y27.1756
G01 X94.1961 Y27.2954
G01 X94.1191 Y27.4059
G01 X94.0284 Y27.5057
G01 X93.9256 Y27.5930
G01 X93.8127 Y27.6667
G01 X93.6909 Y27.7249
G01 X93.5628 Y27.7676
G01 X93.4310 Y27.7933
G01 X93.2962 Y27.8020
G01 X93.1614 Y27.7933
G01 X93.0295 Y27.7676
G01 X92.9014 Y27.7249
G01 X92.7797 Y27.6667
G01 X92.6667 Y27.5930
G01 X92.5639 Y27.5057
G01 X92.4733 Y27.4059
G01 X92.3962 Y27.2954
G01 X92.3342 Y27.1756
G01 X92.2876 Y27.0489
G01 X92.2575 Y26.9175
G01 X92.2444 Y26.7837
G01 X92.2488 Y26.6489
G01 X92.2701 Y26.5155
G01 X92.3084 Y26.3866
G01 X92.3632 Y26.2629
G01 X92.4330 Y26.1475
G01 X92.5174 Y26.0423
G01 X92.6139 Y25.9487
