(G-CODE GENERATED BY FLATCAM v8.993 - www.flatcam.org - Version Date: 2020/06/05)

(Name: Gerber_Drill_PTH.DRL_mill_cnc)
(Type: G-code from Geometry)
(Units: MM)

(Created on Thursday, 27 May 2021 at 21:46)

(This preprocessor is the default preprocessor used by FlatCAM.)
(It is made to work with MACH3 compatible motion controllers.)

(TOOL DIAMETER: 1.0 mm)
(Feedrate_XY: 120.0 mm/min)
(Feedrate_Z: 60.0 mm/min)
(Feedrate rapids 1500.0 mm/min)

(Z_Cut: -1.8 mm)
(Z_Move: 2.0 mm)
(Z Start: None mm)
(Z End: 15.0 mm)
(Steps per circle: 64)
(Preprocessor Geometry: default)

(X range:   -2.2788 ...  167.6472  mm)
(Y range:   -2.5386 ...   84.6434  mm)

(Spindle Speed: None RPM)
G21
G90
G94



G01 F120.00
G00 Z2.0000

M03
G00 X0.0072 Y0.0314
G01 F60.00
G01 Z-1.8000
G01 F120.00
G01 X0.0072 Y0.0314
G01 X0.0072 Y0.0314
G01 X0.0072 Y0.0314
G01 X0.0072 Y0.0314
G00 Z2.0000
G00 X2.5472 Y0.0314
G01 F60.00
G01 Z-1.8000
G01 F120.00
G01 X2.5472 Y0.0314
G01 X2.5472 Y0.0314
G01 X2.5472 Y0.0314
G01 X2.5472 Y0.0314
G00 Z2.0000
G00 X5.0872 Y0.0314
G01 F60.00
G01 Z-1.8000
G01 F120.00
G01 X5.0872 Y0.0314
G01 X5.0872 Y0.0314
G01 X5.0872 Y0.0314
G01 X5.0872 Y0.0314
G00 Z2.0000
G00 X5.0872 Y6.1274
G01 F60.00
G01 Z-1.8000
G01 F120.00
G01 X5.0872 Y6.1274
G01 X5.0872 Y6.1274
G01 X5.0872 Y6.1274
G01 X5.0872 Y6.1274
G00 Z2.0000
G00 X0.0072 Y6.1274
G01 F60.00
G01 Z-1.8000
G01 F120.00
G01 X0.0072 Y6.1274
G01 X0.0072 Y6.1274
G01 X0.0072 Y6.1274
G01 X0.0072 Y6.1274
G00 Z2.0000
G00 X0.2612 Y15.9064
G01 F60.00
G01 Z-1.8000
G01 F120.00
G01 X0.2612 Y15.9064
G01 X0.2612 Y15.9064
G01 X0.2612 Y15.9064
G01 X0.2612 Y15.9064
G00 Z2.0000
G00 X-2.2788 Y15.9064
G01 F60.00
G01 Z-1.8000
G01 F120.00
G01 X-2.2788 Y15.9064
G01 X-2.2788 Y15.9064
G01 X-2.2788 Y15.9064
G01 X-2.2788 Y15.9064
G00 Z2.0000
G00 X2.8012 Y15.9064
G01 F60.00
G01 Z-1.8000
G01 F120.00
G01 X2.8012 Y15.9064
G01 X2.8012 Y15.9064
G01 X2.8012 Y15.9064
G01 X2.8012 Y15.9064
G00 Z2.0000
G00 X5.3412 Y15.9064
G01 F60.00
G01 Z-1.8000
G01 F120.00
G01 X5.3412 Y15.9064
G01 X5.3412 Y15.9064
G01 X5.3412 Y15.9064
G01 X5.3412 Y15.9064
G00 Z2.0000
G00 X7.8812 Y15.9064
G01 F60.00
G01 Z-1.8000
G01 F120.00
G01 X7.8812 Y15.9064
G01 X7.8812 Y15.9064
G01 X7.8812 Y15.9064
G01 X7.8812 Y15.9064
G00 Z2.0000
G00 X10.4212 Y15.9064
G01 F60.00
G01 Z-1.8000
G01 F120.00
G01 X10.4212 Y15.9064
G01 X10.4212 Y15.9064
G01 X10.4212 Y15.9064
G01 X10.4212 Y15.9064
G00 Z2.0000
G00 X12.9612 Y15.9064
G01 F60.00
G01 Z-1.8000
G01 F120.00
G01 X12.9612 Y15.9064
G01 X12.9612 Y15.9064
G01 X12.9612 Y15.9064
G01 X12.9612 Y15.9064
G00 Z2.0000
G00 X15.5012 Y15.9064
G01 F60.00
G01 Z-1.8000
G01 F120.00
G01 X15.5012 Y15.9064
G01 X15.5012 Y15.9064
G01 X15.5012 Y15.9064
G01 X15.5012 Y15.9064
G00 Z2.0000
G00 X18.0412 Y15.9064
G01 F60.00
G01 Z-1.8000
G01 F120.00
G01 X18.0412 Y15.9064
G01 X18.0412 Y15.9064
G01 X18.0412 Y15.9064
G01 X18.0412 Y15.9064
G00 Z2.0000
G00 X23.1222 Y16.0334
G01 F60.00
G01 Z-1.8000
G01 F120.00
G01 X23.1222 Y16.0334
G01 X23.1222 Y16.0334
G01 X23.1222 Y16.0334
G01 X23.1222 Y16.0334
G00 Z2.0000
G00 X25.6622 Y16.0334
G01 F60.00
G01 Z-1.8000
G01 F120.00
G01 X25.6622 Y16.0334
G01 X25.6622 Y16.0334
G01 X25.6622 Y16.0334
G01 X25.6622 Y16.0334
G00 Z2.0000
G00 X28.2022 Y16.0334
G01 F60.00
G01 Z-1.8000
G01 F120.00
G01 X28.2022 Y16.0334
G01 X28.2022 Y16.0334
G01 X28.2022 Y16.0334
G01 X28.2022 Y16.0334
G00 Z2.0000
G00 X30.7422 Y16.0334
G01 F60.00
G01 Z-1.8000
G01 F120.00
G01 X30.7422 Y16.0334
G01 X30.7422 Y16.0334
G01 X30.7422 Y16.0334
G01 X30.7422 Y16.0334
G00 Z2.0000
G00 X33.2822 Y16.0334
G01 F60.00
G01 Z-1.8000
G01 F120.00
G01 X33.2822 Y16.0334
G01 X33.2822 Y16.0334
G01 X33.2822 Y16.0334
G01 X33.2822 Y16.0334
G00 Z2.0000
G00 X35.8222 Y16.0334
G01 F60.00
G01 Z-1.8000
G01 F120.00
G01 X35.8222 Y16.0334
G01 X35.8222 Y16.0334
G01 X35.8222 Y16.0334
G01 X35.8222 Y16.0334
G00 Z2.0000
G00 X38.3622 Y16.0334
G01 F60.00
G01 Z-1.8000
G01 F120.00
G01 X38.3622 Y16.0334
G01 X38.3622 Y16.0334
G01 X38.3622 Y16.0334
G01 X38.3622 Y16.0334
G00 Z2.0000
G00 X40.9022 Y16.0334
G01 F60.00
G01 Z-1.8000
G01 F120.00
G01 X40.9022 Y16.0334
G01 X40.9022 Y16.0334
G01 X40.9022 Y16.0334
G01 X40.9022 Y16.0334
G00 Z2.0000
G00 X43.4422 Y16.0334
G01 F60.00
G01 Z-1.8000
G01 F120.00
G01 X43.4422 Y16.0334
G01 X43.4422 Y16.0334
G01 X43.4422 Y16.0334
G01 X43.4422 Y16.0334
G00 Z2.0000
G00 X48.5212 Y16.0334
G01 F60.00
G01 Z-1.8000
G01 F120.00
G01 X48.5212 Y16.0334
G01 X48.5212 Y16.0334
G01 X48.5212 Y16.0334
G01 X48.5212 Y16.0334
G00 Z2.0000
G00 X51.0612 Y16.0334
G01 F60.00
G01 Z-1.8000
G01 F120.00
G01 X51.0612 Y16.0334
G01 X51.0612 Y16.0334
G01 X51.0612 Y16.0334
G01 X51.0612 Y16.0334
G00 Z2.0000
G00 X53.6012 Y16.0334
G01 F60.00
G01 Z-1.8000
G01 F120.00
G01 X53.6012 Y16.0334
G01 X53.6012 Y16.0334
G01 X53.6012 Y16.0334
G01 X53.6012 Y16.0334
G00 Z2.0000
G00 X56.1412 Y16.0334
G01 F60.00
G01 Z-1.8000
G01 F120.00
G01 X56.1412 Y16.0334
G01 X56.1412 Y16.0334
G01 X56.1412 Y16.0334
G01 X56.1412 Y16.0334
G00 Z2.0000
G00 X58.6812 Y16.0334
G01 F60.00
G01 Z-1.8000
G01 F120.00
G01 X58.6812 Y16.0334
G01 X58.6812 Y16.0334
G01 X58.6812 Y16.0334
G01 X58.6812 Y16.0334
G00 Z2.0000
G00 X61.2212 Y16.0334
G01 F60.00
G01 Z-1.8000
G01 F120.00
G01 X61.2212 Y16.0334
G01 X61.2212 Y16.0334
G01 X61.2212 Y16.0334
G01 X61.2212 Y16.0334
G00 Z2.0000
G00 X63.7612 Y16.0334
G01 F60.00
G01 Z-1.8000
G01 F120.00
G01 X63.7612 Y16.0334
G01 X63.7612 Y16.0334
G01 X63.7612 Y16.0334
G01 X63.7612 Y16.0334
G00 Z2.0000
G00 X66.3012 Y16.0334
G01 F60.00
G01 Z-1.8000
G01 F120.00
G01 X66.3012 Y16.0334
G01 X66.3012 Y16.0334
G01 X66.3012 Y16.0334
G01 X66.3012 Y16.0334
G00 Z2.0000
G00 X68.8412 Y16.0334
G01 F60.00
G01 Z-1.8000
G01 F120.00
G01 X68.8412 Y16.0334
G01 X68.8412 Y16.0334
G01 X68.8412 Y16.0334
G01 X68.8412 Y16.0334
G00 Z2.0000
G00 X69.8772 Y8.4614
G01 F60.00
G01 Z-1.8000
G01 F120.00
G01 X69.8772 Y8.4614
G01 X69.8772 Y8.4614
G01 X69.8772 Y8.4614
G01 X69.8772 Y8.4614
G00 Z2.0000
G00 X64.7972 Y8.4614
G01 F60.00
G01 Z-1.8000
G01 F120.00
G01 X64.7972 Y8.4614
G01 X64.7972 Y8.4614
G01 X64.7972 Y8.4614
G01 X64.7972 Y8.4614
G00 Z2.0000
G00 X64.7772 Y-2.5386
G01 F60.00
G01 Z-1.8000
G01 F120.00
G01 X64.7772 Y-2.5386
G01 X64.7772 Y-2.5386
G01 X64.7772 Y-2.5386
G01 X64.7772 Y-2.5386
G00 Z2.0000
G00 X69.8572 Y-2.5386
G01 F60.00
G01 Z-1.8000
G01 F120.00
G01 X69.8572 Y-2.5386
G01 X69.8572 Y-2.5386
G01 X69.8572 Y-2.5386
G01 X69.8572 Y-2.5386
G00 Z2.0000
G00 X82.5572 Y13.2394
G01 F60.00
G01 Z-1.8000
G01 F120.00
G01 X82.5572 Y13.2394
G01 X82.5572 Y13.2394
G01 X82.5572 Y13.2394
G01 X82.5572 Y13.2394
G00 Z2.0000
G00 X85.0972 Y13.2394
G01 F60.00
G01 Z-1.8000
G01 F120.00
G01 X85.0972 Y13.2394
G01 X85.0972 Y13.2394
G01 X85.0972 Y13.2394
G01 X85.0972 Y13.2394
G00 Z2.0000
G00 X87.6372 Y13.2394
G01 F60.00
G01 Z-1.8000
G01 F120.00
G01 X87.6372 Y13.2394
G01 X87.6372 Y13.2394
G01 X87.6372 Y13.2394
G01 X87.6372 Y13.2394
G00 Z2.0000
G00 X90.1772 Y13.2394
G01 F60.00
G01 Z-1.8000
G01 F120.00
G01 X90.1772 Y13.2394
G01 X90.1772 Y13.2394
G01 X90.1772 Y13.2394
G01 X90.1772 Y13.2394
G00 Z2.0000
G00 X92.7172 Y13.2394
G01 F60.00
G01 Z-1.8000
G01 F120.00
G01 X92.7172 Y13.2394
G01 X92.7172 Y13.2394
G01 X92.7172 Y13.2394
G01 X92.7172 Y13.2394
G00 Z2.0000
G00 X95.2572 Y13.2394
G01 F60.00
G01 Z-1.8000
G01 F120.00
G01 X95.2572 Y13.2394
G01 X95.2572 Y13.2394
G01 X95.2572 Y13.2394
G01 X95.2572 Y13.2394
G00 Z2.0000
G00 X97.7972 Y13.2394
G01 F60.00
G01 Z-1.8000
G01 F120.00
G01 X97.7972 Y13.2394
G01 X97.7972 Y13.2394
G01 X97.7972 Y13.2394
G01 X97.7972 Y13.2394
G00 Z2.0000
G00 X100.3372 Y13.2394
G01 F60.00
G01 Z-1.8000
G01 F120.00
G01 X100.3372 Y13.2394
G01 X100.3372 Y13.2394
G01 X100.3372 Y13.2394
G01 X100.3372 Y13.2394
G00 Z2.0000
G00 X100.3372 Y16.7954
G01 F60.00
G01 Z-1.8000
G01 F120.00
G01 X100.3372 Y16.7954
G01 X100.3372 Y16.7954
G01 X100.3372 Y16.7954
G01 X100.3372 Y16.7954
G00 Z2.0000
G00 X97.7972 Y16.7954
G01 F60.00
G01 Z-1.8000
G01 F120.00
G01 X97.7972 Y16.7954
G01 X97.7972 Y16.7954
G01 X97.7972 Y16.7954
G01 X97.7972 Y16.7954
G00 Z2.0000
G00 X95.2572 Y16.7954
G01 F60.00
G01 Z-1.8000
G01 F120.00
G01 X95.2572 Y16.7954
G01 X95.2572 Y16.7954
G01 X95.2572 Y16.7954
G01 X95.2572 Y16.7954
G00 Z2.0000
G00 X92.7172 Y16.7954
G01 F60.00
G01 Z-1.8000
G01 F120.00
G01 X92.7172 Y16.7954
G01 X92.7172 Y16.7954
G01 X92.7172 Y16.7954
G01 X92.7172 Y16.7954
G00 Z2.0000
G00 X90.1772 Y16.7954
G01 F60.00
G01 Z-1.8000
G01 F120.00
G01 X90.1772 Y16.7954
G01 X90.1772 Y16.7954
G01 X90.1772 Y16.7954
G01 X90.1772 Y16.7954
G00 Z2.0000
G00 X87.6372 Y16.7954
G01 F60.00
G01 Z-1.8000
G01 F120.00
G01 X87.6372 Y16.7954
G01 X87.6372 Y16.7954
G01 X87.6372 Y16.7954
G01 X87.6372 Y16.7954
G00 Z2.0000
G00 X85.0972 Y16.7954
G01 F60.00
G01 Z-1.8000
G01 F120.00
G01 X85.0972 Y16.7954
G01 X85.0972 Y16.7954
G01 X85.0972 Y16.7954
G01 X85.0972 Y16.7954
G00 Z2.0000
G00 X82.5572 Y16.7954
G01 F60.00
G01 Z-1.8000
G01 F120.00
G01 X82.5572 Y16.7954
G01 X82.5572 Y16.7954
G01 X82.5572 Y16.7954
G01 X82.5572 Y16.7954
G00 Z2.0000
G00 X80.0172 Y21.8754
G01 F60.00
G01 Z-1.8000
G01 F120.00
G01 X80.0172 Y21.8754
G01 X80.0172 Y21.8754
G01 X80.0172 Y21.8754
G01 X80.0172 Y21.8754
G00 Z2.0000
G00 X77.4772 Y21.8754
G01 F60.00
G01 Z-1.8000
G01 F120.00
G01 X77.4772 Y21.8754
G01 X77.4772 Y21.8754
G01 X77.4772 Y21.8754
G01 X77.4772 Y21.8754
G00 Z2.0000
G00 X77.4772 Y24.4154
G01 F60.00
G01 Z-1.8000
G01 F120.00
G01 X77.4772 Y24.4154
G01 X77.4772 Y24.4154
G01 X77.4772 Y24.4154
G01 X77.4772 Y24.4154
G00 Z2.0000
G00 X80.0172 Y24.4154
G01 F60.00
G01 Z-1.8000
G01 F120.00
G01 X80.0172 Y24.4154
G01 X80.0172 Y24.4154
G01 X80.0172 Y24.4154
G01 X80.0172 Y24.4154
G00 Z2.0000
G00 X80.0172 Y26.9554
G01 F60.00
G01 Z-1.8000
G01 F120.00
G01 X80.0172 Y26.9554
G01 X80.0172 Y26.9554
G01 X80.0172 Y26.9554
G01 X80.0172 Y26.9554
G00 Z2.0000
G00 X77.4772 Y26.9554
G01 F60.00
G01 Z-1.8000
G01 F120.00
G01 X77.4772 Y26.9554
G01 X77.4772 Y26.9554
G01 X77.4772 Y26.9554
G01 X77.4772 Y26.9554
G00 Z2.0000
G00 X77.4772 Y29.4954
G01 F60.00
G01 Z-1.8000
G01 F120.00
G01 X77.4772 Y29.4954
G01 X77.4772 Y29.4954
G01 X77.4772 Y29.4954
G01 X77.4772 Y29.4954
G00 Z2.0000
G00 X80.0172 Y29.4954
G01 F60.00
G01 Z-1.8000
G01 F120.00
G01 X80.0172 Y29.4954
G01 X80.0172 Y29.4954
G01 X80.0172 Y29.4954
G01 X80.0172 Y29.4954
G00 Z2.0000
G00 X80.0172 Y32.0354
G01 F60.00
G01 Z-1.8000
G01 F120.00
G01 X80.0172 Y32.0354
G01 X80.0172 Y32.0354
G01 X80.0172 Y32.0354
G01 X80.0172 Y32.0354
G00 Z2.0000
G00 X77.4772 Y32.0354
G01 F60.00
G01 Z-1.8000
G01 F120.00
G01 X77.4772 Y32.0354
G01 X77.4772 Y32.0354
G01 X77.4772 Y32.0354
G01 X77.4772 Y32.0354
G00 Z2.0000
G00 X77.4772 Y34.5754
G01 F60.00
G01 Z-1.8000
G01 F120.00
G01 X77.4772 Y34.5754
G01 X77.4772 Y34.5754
G01 X77.4772 Y34.5754
G01 X77.4772 Y34.5754
G00 Z2.0000
G00 X80.0172 Y34.5754
G01 F60.00
G01 Z-1.8000
G01 F120.00
G01 X80.0172 Y34.5754
G01 X80.0172 Y34.5754
G01 X80.0172 Y34.5754
G01 X80.0172 Y34.5754
G00 Z2.0000
G00 X80.0172 Y37.1154
G01 F60.00
G01 Z-1.8000
G01 F120.00
G01 X80.0172 Y37.1154
G01 X80.0172 Y37.1154
G01 X80.0172 Y37.1154
G01 X80.0172 Y37.1154
G00 Z2.0000
G00 X77.4772 Y37.1154
G01 F60.00
G01 Z-1.8000
G01 F120.00
G01 X77.4772 Y37.1154
G01 X77.4772 Y37.1154
G01 X77.4772 Y37.1154
G01 X77.4772 Y37.1154
G00 Z2.0000
G00 X77.4772 Y39.6554
G01 F60.00
G01 Z-1.8000
G01 F120.00
G01 X77.4772 Y39.6554
G01 X77.4772 Y39.6554
G01 X77.4772 Y39.6554
G01 X77.4772 Y39.6554
G00 Z2.0000
G00 X80.0172 Y39.6554
G01 F60.00
G01 Z-1.8000
G01 F120.00
G01 X80.0172 Y39.6554
G01 X80.0172 Y39.6554
G01 X80.0172 Y39.6554
G01 X80.0172 Y39.6554
G00 Z2.0000
G00 X80.0172 Y42.1954
G01 F60.00
G01 Z-1.8000
G01 F120.00
G01 X80.0172 Y42.1954
G01 X80.0172 Y42.1954
G01 X80.0172 Y42.1954
G01 X80.0172 Y42.1954
G00 Z2.0000
G00 X77.4772 Y42.1954
G01 F60.00
G01 Z-1.8000
G01 F120.00
G01 X77.4772 Y42.1954
G01 X77.4772 Y42.1954
G01 X77.4772 Y42.1954
G01 X77.4772 Y42.1954
G00 Z2.0000
G00 X77.4772 Y44.7354
G01 F60.00
G01 Z-1.8000
G01 F120.00
G01 X77.4772 Y44.7354
G01 X77.4772 Y44.7354
G01 X77.4772 Y44.7354
G01 X77.4772 Y44.7354
G00 Z2.0000
G00 X80.0172 Y44.7354
G01 F60.00
G01 Z-1.8000
G01 F120.00
G01 X80.0172 Y44.7354
G01 X80.0172 Y44.7354
G01 X80.0172 Y44.7354
G01 X80.0172 Y44.7354
G00 Z2.0000
G00 X80.0172 Y47.2754
G01 F60.00
G01 Z-1.8000
G01 F120.00
G01 X80.0172 Y47.2754
G01 X80.0172 Y47.2754
G01 X80.0172 Y47.2754
G01 X80.0172 Y47.2754
G00 Z2.0000
G00 X77.4772 Y47.2754
G01 F60.00
G01 Z-1.8000
G01 F120.00
G01 X77.4772 Y47.2754
G01 X77.4772 Y47.2754
G01 X77.4772 Y47.2754
G01 X77.4772 Y47.2754
G00 Z2.0000
G00 X77.4772 Y49.8154
G01 F60.00
G01 Z-1.8000
G01 F120.00
G01 X77.4772 Y49.8154
G01 X77.4772 Y49.8154
G01 X77.4772 Y49.8154
G01 X77.4772 Y49.8154
G00 Z2.0000
G00 X80.0172 Y49.8154
G01 F60.00
G01 Z-1.8000
G01 F120.00
G01 X80.0172 Y49.8154
G01 X80.0172 Y49.8154
G01 X80.0172 Y49.8154
G01 X80.0172 Y49.8154
G00 Z2.0000
G00 X80.0172 Y52.3554
G01 F60.00
G01 Z-1.8000
G01 F120.00
G01 X80.0172 Y52.3554
G01 X80.0172 Y52.3554
G01 X80.0172 Y52.3554
G01 X80.0172 Y52.3554
G00 Z2.0000
G00 X77.4772 Y52.3554
G01 F60.00
G01 Z-1.8000
G01 F120.00
G01 X77.4772 Y52.3554
G01 X77.4772 Y52.3554
G01 X77.4772 Y52.3554
G01 X77.4772 Y52.3554
G00 Z2.0000
G00 X77.4772 Y54.8954
G01 F60.00
G01 Z-1.8000
G01 F120.00
G01 X77.4772 Y54.8954
G01 X77.4772 Y54.8954
G01 X77.4772 Y54.8954
G01 X77.4772 Y54.8954
G00 Z2.0000
G00 X80.0172 Y54.8954
G01 F60.00
G01 Z-1.8000
G01 F120.00
G01 X80.0172 Y54.8954
G01 X80.0172 Y54.8954
G01 X80.0172 Y54.8954
G01 X80.0172 Y54.8954
G00 Z2.0000
G00 X80.0172 Y57.4354
G01 F60.00
G01 Z-1.8000
G01 F120.00
G01 X80.0172 Y57.4354
G01 X80.0172 Y57.4354
G01 X80.0172 Y57.4354
G01 X80.0172 Y57.4354
G00 Z2.0000
G00 X77.4772 Y57.4354
G01 F60.00
G01 Z-1.8000
G01 F120.00
G01 X77.4772 Y57.4354
G01 X77.4772 Y57.4354
G01 X77.4772 Y57.4354
G01 X77.4772 Y57.4354
G00 Z2.0000
G00 X77.4772 Y59.9754
G01 F60.00
G01 Z-1.8000
G01 F120.00
G01 X77.4772 Y59.9754
G01 X77.4772 Y59.9754
G01 X77.4772 Y59.9754
G01 X77.4772 Y59.9754
G00 Z2.0000
G00 X80.0172 Y59.9754
G01 F60.00
G01 Z-1.8000
G01 F120.00
G01 X80.0172 Y59.9754
G01 X80.0172 Y59.9754
G01 X80.0172 Y59.9754
G01 X80.0172 Y59.9754
G00 Z2.0000
G00 X80.0172 Y62.5154
G01 F60.00
G01 Z-1.8000
G01 F120.00
G01 X80.0172 Y62.5154
G01 X80.0172 Y62.5154
G01 X80.0172 Y62.5154
G01 X80.0172 Y62.5154
G00 Z2.0000
G00 X80.0172 Y65.0554
G01 F60.00
G01 Z-1.8000
G01 F120.00
G01 X80.0172 Y65.0554
G01 X80.0172 Y65.0554
G01 X80.0172 Y65.0554
G01 X80.0172 Y65.0554
G00 Z2.0000
G00 X77.4772 Y65.0554
G01 F60.00
G01 Z-1.8000
G01 F120.00
G01 X77.4772 Y65.0554
G01 X77.4772 Y65.0554
G01 X77.4772 Y65.0554
G01 X77.4772 Y65.0554
G00 Z2.0000
G00 X77.4772 Y62.5154
G01 F60.00
G01 Z-1.8000
G01 F120.00
G01 X77.4772 Y62.5154
G01 X77.4772 Y62.5154
G01 X77.4772 Y62.5154
G01 X77.4772 Y62.5154
G00 Z2.0000
G00 X68.8412 Y66.4524
G01 F60.00
G01 Z-1.8000
G01 F120.00
G01 X68.8412 Y66.4524
G01 X68.8412 Y66.4524
G01 X68.8412 Y66.4524
G01 X68.8412 Y66.4524
G00 Z2.0000
G00 X66.3012 Y66.4524
G01 F60.00
G01 Z-1.8000
G01 F120.00
G01 X66.3012 Y66.4524
G01 X66.3012 Y66.4524
G01 X66.3012 Y66.4524
G01 X66.3012 Y66.4524
G00 Z2.0000
G00 X63.7612 Y66.4524
G01 F60.00
G01 Z-1.8000
G01 F120.00
G01 X63.7612 Y66.4524
G01 X63.7612 Y66.4524
G01 X63.7612 Y66.4524
G01 X63.7612 Y66.4524
G00 Z2.0000
G00 X61.2212 Y66.4524
G01 F60.00
G01 Z-1.8000
G01 F120.00
G01 X61.2212 Y66.4524
G01 X61.2212 Y66.4524
G01 X61.2212 Y66.4524
G01 X61.2212 Y66.4524
G00 Z2.0000
G00 X58.6812 Y66.4524
G01 F60.00
G01 Z-1.8000
G01 F120.00
G01 X58.6812 Y66.4524
G01 X58.6812 Y66.4524
G01 X58.6812 Y66.4524
G01 X58.6812 Y66.4524
G00 Z2.0000
G00 X56.1412 Y66.4524
G01 F60.00
G01 Z-1.8000
G01 F120.00
G01 X56.1412 Y66.4524
G01 X56.1412 Y66.4524
G01 X56.1412 Y66.4524
G01 X56.1412 Y66.4524
G00 Z2.0000
G00 X53.6012 Y66.4524
G01 F60.00
G01 Z-1.8000
G01 F120.00
G01 X53.6012 Y66.4524
G01 X53.6012 Y66.4524
G01 X53.6012 Y66.4524
G01 X53.6012 Y66.4524
G00 Z2.0000
G00 X51.0612 Y66.4524
G01 F60.00
G01 Z-1.8000
G01 F120.00
G01 X51.0612 Y66.4524
G01 X51.0612 Y66.4524
G01 X51.0612 Y66.4524
G01 X51.0612 Y66.4524
G00 Z2.0000
G00 X48.5212 Y66.4524
G01 F60.00
G01 Z-1.8000
G01 F120.00
G01 X48.5212 Y66.4524
G01 X48.5212 Y66.4524
G01 X48.5212 Y66.4524
G01 X48.5212 Y66.4524
G00 Z2.0000
G00 X43.4422 Y66.4524
G01 F60.00
G01 Z-1.8000
G01 F120.00
G01 X43.4422 Y66.4524
G01 X43.4422 Y66.4524
G01 X43.4422 Y66.4524
G01 X43.4422 Y66.4524
G00 Z2.0000
G00 X40.9022 Y66.4524
G01 F60.00
G01 Z-1.8000
G01 F120.00
G01 X40.9022 Y66.4524
G01 X40.9022 Y66.4524
G01 X40.9022 Y66.4524
G01 X40.9022 Y66.4524
G00 Z2.0000
G00 X38.3622 Y66.4524
G01 F60.00
G01 Z-1.8000
G01 F120.00
G01 X38.3622 Y66.4524
G01 X38.3622 Y66.4524
G01 X38.3622 Y66.4524
G01 X38.3622 Y66.4524
G00 Z2.0000
G00 X35.8222 Y66.4524
G01 F60.00
G01 Z-1.8000
G01 F120.00
G01 X35.8222 Y66.4524
G01 X35.8222 Y66.4524
G01 X35.8222 Y66.4524
G01 X35.8222 Y66.4524
G00 Z2.0000
G00 X33.2822 Y66.4524
G01 F60.00
G01 Z-1.8000
G01 F120.00
G01 X33.2822 Y66.4524
G01 X33.2822 Y66.4524
G01 X33.2822 Y66.4524
G01 X33.2822 Y66.4524
G00 Z2.0000
G00 X30.7422 Y66.4524
G01 F60.00
G01 Z-1.8000
G01 F120.00
G01 X30.7422 Y66.4524
G01 X30.7422 Y66.4524
G01 X30.7422 Y66.4524
G01 X30.7422 Y66.4524
G00 Z2.0000
G00 X28.2022 Y66.4524
G01 F60.00
G01 Z-1.8000
G01 F120.00
G01 X28.2022 Y66.4524
G01 X28.2022 Y66.4524
G01 X28.2022 Y66.4524
G01 X28.2022 Y66.4524
G00 Z2.0000
G00 X25.6622 Y66.4524
G01 F60.00
G01 Z-1.8000
G01 F120.00
G01 X25.6622 Y66.4524
G01 X25.6622 Y66.4524
G01 X25.6622 Y66.4524
G01 X25.6622 Y66.4524
G00 Z2.0000
G00 X23.1222 Y66.4524
G01 F60.00
G01 Z-1.8000
G01 F120.00
G01 X23.1222 Y66.4524
G01 X23.1222 Y66.4524
G01 X23.1222 Y66.4524
G01 X23.1222 Y66.4524
G00 Z2.0000
G00 X18.0412 Y66.3254
G01 F60.00
G01 Z-1.8000
G01 F120.00
G01 X18.0412 Y66.3254
G01 X18.0412 Y66.3254
G01 X18.0412 Y66.3254
G01 X18.0412 Y66.3254
G00 Z2.0000
G00 X15.5012 Y66.3254
G01 F60.00
G01 Z-1.8000
G01 F120.00
G01 X15.5012 Y66.3254
G01 X15.5012 Y66.3254
G01 X15.5012 Y66.3254
G01 X15.5012 Y66.3254
G00 Z2.0000
G00 X12.9612 Y66.3254
G01 F60.00
G01 Z-1.8000
G01 F120.00
G01 X12.9612 Y66.3254
G01 X12.9612 Y66.3254
G01 X12.9612 Y66.3254
G01 X12.9612 Y66.3254
G00 Z2.0000
G00 X10.4212 Y66.3254
G01 F60.00
G01 Z-1.8000
G01 F120.00
G01 X10.4212 Y66.3254
G01 X10.4212 Y66.3254
G01 X10.4212 Y66.3254
G01 X10.4212 Y66.3254
G00 Z2.0000
G00 X7.8812 Y66.3254
G01 F60.00
G01 Z-1.8000
G01 F120.00
G01 X7.8812 Y66.3254
G01 X7.8812 Y66.3254
G01 X7.8812 Y66.3254
G01 X7.8812 Y66.3254
G00 Z2.0000
G00 X5.3412 Y66.3254
G01 F60.00
G01 Z-1.8000
G01 F120.00
G01 X5.3412 Y66.3254
G01 X5.3412 Y66.3254
G01 X5.3412 Y66.3254
G01 X5.3412 Y66.3254
G00 Z2.0000
G00 X2.8012 Y66.3254
G01 F60.00
G01 Z-1.8000
G01 F120.00
G01 X2.8012 Y66.3254
G01 X2.8012 Y66.3254
G01 X2.8012 Y66.3254
G01 X2.8012 Y66.3254
G00 Z2.0000
G00 X0.2612 Y66.3254
G01 F60.00
G01 Z-1.8000
G01 F120.00
G01 X0.2612 Y66.3254
G01 X0.2612 Y66.3254
G01 X0.2612 Y66.3254
G01 X0.2612 Y66.3254
G00 Z2.0000
G00 X-2.2788 Y66.3254
G01 F60.00
G01 Z-1.8000
G01 F120.00
G01 X-2.2788 Y66.3254
G01 X-2.2788 Y66.3254
G01 X-2.2788 Y66.3254
G01 X-2.2788 Y66.3254
G00 Z2.0000
G00 X0.0072 Y76.7394
G01 F60.00
G01 Z-1.8000
G01 F120.00
G01 X0.0072 Y76.7394
G01 X0.0072 Y76.7394
G01 X0.0072 Y76.7394
G01 X0.0072 Y76.7394
G00 Z2.0000
G00 X5.0872 Y76.7394
G01 F60.00
G01 Z-1.8000
G01 F120.00
G01 X5.0872 Y76.7394
G01 X5.0872 Y76.7394
G01 X5.0872 Y76.7394
G01 X5.0872 Y76.7394
G00 Z2.0000
G00 X5.0872 Y82.0734
G01 F60.00
G01 Z-1.8000
G01 F120.00
G01 X5.0872 Y82.0734
G01 X5.0872 Y82.0734
G01 X5.0872 Y82.0734
G01 X5.0872 Y82.0734
G00 Z2.0000
G00 X2.5472 Y82.0734
G01 F60.00
G01 Z-1.8000
G01 F120.00
G01 X2.5472 Y82.0734
G01 X2.5472 Y82.0734
G01 X2.5472 Y82.0734
G01 X2.5472 Y82.0734
G00 Z2.0000
G00 X0.0072 Y82.0734
G01 F60.00
G01 Z-1.8000
G01 F120.00
G01 X0.0072 Y82.0734
G01 X0.0072 Y82.0734
G01 X0.0072 Y82.0734
G01 X0.0072 Y82.0734
G00 Z2.0000
G00 X15.2472 Y82.0734
G01 F60.00
G01 Z-1.8000
G01 F120.00
G01 X15.2472 Y82.0734
G01 X15.2472 Y82.0734
G01 X15.2472 Y82.0734
G01 X15.2472 Y82.0734
G00 Z2.0000
G00 X17.7872 Y82.0734
G01 F60.00
G01 Z-1.8000
G01 F120.00
G01 X17.7872 Y82.0734
G01 X17.7872 Y82.0734
G01 X17.7872 Y82.0734
G01 X17.7872 Y82.0734
G00 Z2.0000
G00 X20.3272 Y82.0734
G01 F60.00
G01 Z-1.8000
G01 F120.00
G01 X20.3272 Y82.0734
G01 X20.3272 Y82.0734
G01 X20.3272 Y82.0734
G01 X20.3272 Y82.0734
G00 Z2.0000
G00 X20.3272 Y76.7394
G01 F60.00
G01 Z-1.8000
G01 F120.00
G01 X20.3272 Y76.7394
G01 X20.3272 Y76.7394
G01 X20.3272 Y76.7394
G01 X20.3272 Y76.7394
G00 Z2.0000
G00 X20.3272 Y72.6754
G01 F60.00
G01 Z-1.8000
G01 F120.00
G01 X20.3272 Y72.6754
G01 X20.3272 Y72.6754
G01 X20.3272 Y72.6754
G01 X20.3272 Y72.6754
G00 Z2.0000
G00 X15.5932 Y72.5834
G01 F60.00
G01 Z-1.8000
G01 F120.00
G01 X15.5932 Y72.5834
G01 X15.5932 Y72.5834
G01 X15.5932 Y72.5834
G01 X15.5932 Y72.5834
G00 Z2.0000
G00 X15.2472 Y76.7394
G01 F60.00
G01 Z-1.8000
G01 F120.00
G01 X15.2472 Y76.7394
G01 X15.2472 Y76.7394
G01 X15.2472 Y76.7394
G01 X15.2472 Y76.7394
G00 Z2.0000
G00 X41.8972 Y73.6434
G01 F60.00
G01 Z-1.8000
G01 F120.00
G01 X41.8972 Y73.6434
G01 X41.8972 Y73.6434
G01 X41.8972 Y73.6434
G01 X41.8972 Y73.6434
G00 Z2.0000
G00 X46.9772 Y73.6434
G01 F60.00
G01 Z-1.8000
G01 F120.00
G01 X46.9772 Y73.6434
G01 X46.9772 Y73.6434
G01 X46.9772 Y73.6434
G01 X46.9772 Y73.6434
G00 Z2.0000
G00 X46.9972 Y84.6434
G01 F60.00
G01 Z-1.8000
G01 F120.00
G01 X46.9972 Y84.6434
G01 X46.9972 Y84.6434
G01 X46.9972 Y84.6434
G01 X46.9972 Y84.6434
G00 Z2.0000
G00 X41.9172 Y84.6434
G01 F60.00
G01 Z-1.8000
G01 F120.00
G01 X41.9172 Y84.6434
G01 X41.9172 Y84.6434
G01 X41.9172 Y84.6434
G01 X41.9172 Y84.6434
G00 Z2.0000
G00 X67.9972 Y82.9434
G01 F60.00
G01 Z-1.8000
G01 F120.00
G01 X67.9972 Y82.9434
G01 X67.9972 Y82.9434
G01 X67.9972 Y82.9434
G01 X67.9972 Y82.9434
G00 Z2.0000
G00 X67.9972 Y80.4034
G01 F60.00
G01 Z-1.8000
G01 F120.00
G01 X67.9972 Y80.4034
G01 X67.9972 Y80.4034
G01 X67.9972 Y80.4034
G01 X67.9972 Y80.4034
G00 Z2.0000
G00 X67.9972 Y77.8634
G01 F60.00
G01 Z-1.8000
G01 F120.00
G01 X67.9972 Y77.8634
G01 X67.9972 Y77.8634
G01 X67.9972 Y77.8634
G01 X67.9972 Y77.8634
G00 Z2.0000
G00 X67.9972 Y75.3234
G01 F60.00
G01 Z-1.8000
G01 F120.00
G01 X67.9972 Y75.3234
G01 X67.9972 Y75.3234
G01 X67.9972 Y75.3234
G01 X67.9972 Y75.3234
G00 Z2.0000
G00 X70.7972 Y76.5934
G01 F60.00
G01 Z-1.8000
G01 F120.00
G01 X70.7972 Y76.5934
G01 X70.7972 Y76.5934
G01 X70.7972 Y76.5934
G01 X70.7972 Y76.5934
G00 Z2.0000
G00 X70.7972 Y81.5934
G01 F60.00
G01 Z-1.8000
G01 F120.00
G01 X70.7972 Y81.5934
G01 X70.7972 Y81.5934
G01 X70.7972 Y81.5934
G01 X70.7972 Y81.5934
G00 Z2.0000
G00 X73.6672 Y72.1674
G01 F60.00
G01 Z-1.8000
G01 F120.00
G01 X73.6672 Y72.1674
G01 X73.6672 Y72.1674
G01 X73.6672 Y72.1674
G01 X73.6672 Y72.1674
G00 Z2.0000
G00 X87.6372 Y69.1194
G01 F60.00
G01 Z-1.8000
G01 F120.00
G01 X87.6372 Y69.1194
G01 X87.6372 Y69.1194
G01 X87.6372 Y69.1194
G01 X87.6372 Y69.1194
G00 Z2.0000
G00 X90.1772 Y69.1194
G01 F60.00
G01 Z-1.8000
G01 F120.00
G01 X90.1772 Y69.1194
G01 X90.1772 Y69.1194
G01 X90.1772 Y69.1194
G01 X90.1772 Y69.1194
G00 Z2.0000
G00 X92.7172 Y69.1194
G01 F60.00
G01 Z-1.8000
G01 F120.00
G01 X92.7172 Y69.1194
G01 X92.7172 Y69.1194
G01 X92.7172 Y69.1194
G01 X92.7172 Y69.1194
G00 Z2.0000
G00 X95.2572 Y69.1194
G01 F60.00
G01 Z-1.8000
G01 F120.00
G01 X95.2572 Y69.1194
G01 X95.2572 Y69.1194
G01 X95.2572 Y69.1194
G01 X95.2572 Y69.1194
G00 Z2.0000
G00 X97.7972 Y69.1194
G01 F60.00
G01 Z-1.8000
G01 F120.00
G01 X97.7972 Y69.1194
G01 X97.7972 Y69.1194
G01 X97.7972 Y69.1194
G01 X97.7972 Y69.1194
G00 Z2.0000
G00 X100.3372 Y69.1194
G01 F60.00
G01 Z-1.8000
G01 F120.00
G01 X100.3372 Y69.1194
G01 X100.3372 Y69.1194
G01 X100.3372 Y69.1194
G01 X100.3372 Y69.1194
G00 Z2.0000
G00 X102.8772 Y69.1194
G01 F60.00
G01 Z-1.8000
G01 F120.00
G01 X102.8772 Y69.1194
G01 X102.8772 Y69.1194
G01 X102.8772 Y69.1194
G01 X102.8772 Y69.1194
G00 Z2.0000
G00 X105.4172 Y69.1194
G01 F60.00
G01 Z-1.8000
G01 F120.00
G01 X105.4172 Y69.1194
G01 X105.4172 Y69.1194
G01 X105.4172 Y69.1194
G01 X105.4172 Y69.1194
G00 Z2.0000
G00 X105.4172 Y65.0554
G01 F60.00
G01 Z-1.8000
G01 F120.00
G01 X105.4172 Y65.0554
G01 X105.4172 Y65.0554
G01 X105.4172 Y65.0554
G01 X105.4172 Y65.0554
G00 Z2.0000
G00 X102.8772 Y65.0554
G01 F60.00
G01 Z-1.8000
G01 F120.00
G01 X102.8772 Y65.0554
G01 X102.8772 Y65.0554
G01 X102.8772 Y65.0554
G01 X102.8772 Y65.0554
G00 Z2.0000
G00 X100.3372 Y65.0554
G01 F60.00
G01 Z-1.8000
G01 F120.00
G01 X100.3372 Y65.0554
G01 X100.3372 Y65.0554
G01 X100.3372 Y65.0554
G01 X100.3372 Y65.0554
G00 Z2.0000
G00 X97.7972 Y65.0554
G01 F60.00
G01 Z-1.8000
G01 F120.00
G01 X97.7972 Y65.0554
G01 X97.7972 Y65.0554
G01 X97.7972 Y65.0554
G01 X97.7972 Y65.0554
G00 Z2.0000
G00 X95.2572 Y65.0554
G01 F60.00
G01 Z-1.8000
G01 F120.00
G01 X95.2572 Y65.0554
G01 X95.2572 Y65.0554
G01 X95.2572 Y65.0554
G01 X95.2572 Y65.0554
G00 Z2.0000
G00 X92.7172 Y65.0554
G01 F60.00
G01 Z-1.8000
G01 F120.00
G01 X92.7172 Y65.0554
G01 X92.7172 Y65.0554
G01 X92.7172 Y65.0554
G01 X92.7172 Y65.0554
G00 Z2.0000
G00 X90.1772 Y65.0554
G01 F60.00
G01 Z-1.8000
G01 F120.00
G01 X90.1772 Y65.0554
G01 X90.1772 Y65.0554
G01 X90.1772 Y65.0554
G01 X90.1772 Y65.0554
G00 Z2.0000
G00 X87.6372 Y65.0554
G01 F60.00
G01 Z-1.8000
G01 F120.00
G01 X87.6372 Y65.0554
G01 X87.6372 Y65.0554
G01 X87.6372 Y65.0554
G01 X87.6372 Y65.0554
G00 Z2.0000
G00 X87.6372 Y60.2294
G01 F60.00
G01 Z-1.8000
G01 F120.00
G01 X87.6372 Y60.2294
G01 X87.6372 Y60.2294
G01 X87.6372 Y60.2294
G01 X87.6372 Y60.2294
G00 Z2.0000
G00 X90.1772 Y60.2294
G01 F60.00
G01 Z-1.8000
G01 F120.00
G01 X90.1772 Y60.2294
G01 X90.1772 Y60.2294
G01 X90.1772 Y60.2294
G01 X90.1772 Y60.2294
G00 Z2.0000
G00 X92.7172 Y60.2294
G01 F60.00
G01 Z-1.8000
G01 F120.00
G01 X92.7172 Y60.2294
G01 X92.7172 Y60.2294
G01 X92.7172 Y60.2294
G01 X92.7172 Y60.2294
G00 Z2.0000
G00 X95.2572 Y60.2294
G01 F60.00
G01 Z-1.8000
G01 F120.00
G01 X95.2572 Y60.2294
G01 X95.2572 Y60.2294
G01 X95.2572 Y60.2294
G01 X95.2572 Y60.2294
G00 Z2.0000
G00 X97.7972 Y60.2294
G01 F60.00
G01 Z-1.8000
G01 F120.00
G01 X97.7972 Y60.2294
G01 X97.7972 Y60.2294
G01 X97.7972 Y60.2294
G01 X97.7972 Y60.2294
G00 Z2.0000
G00 X100.3372 Y60.2294
G01 F60.00
G01 Z-1.8000
G01 F120.00
G01 X100.3372 Y60.2294
G01 X100.3372 Y60.2294
G01 X100.3372 Y60.2294
G01 X100.3372 Y60.2294
G00 Z2.0000
G00 X102.8772 Y60.2294
G01 F60.00
G01 Z-1.8000
G01 F120.00
G01 X102.8772 Y60.2294
G01 X102.8772 Y60.2294
G01 X102.8772 Y60.2294
G01 X102.8772 Y60.2294
G00 Z2.0000
G00 X105.4172 Y60.2294
G01 F60.00
G01 Z-1.8000
G01 F120.00
G01 X105.4172 Y60.2294
G01 X105.4172 Y60.2294
G01 X105.4172 Y60.2294
G01 X105.4172 Y60.2294
G00 Z2.0000
G00 X110.4972 Y60.2294
G01 F60.00
G01 Z-1.8000
G01 F120.00
G01 X110.4972 Y60.2294
G01 X110.4972 Y60.2294
G01 X110.4972 Y60.2294
G01 X110.4972 Y60.2294
G00 Z2.0000
G00 X113.0372 Y60.2294
G01 F60.00
G01 Z-1.8000
G01 F120.00
G01 X113.0372 Y60.2294
G01 X113.0372 Y60.2294
G01 X113.0372 Y60.2294
G01 X113.0372 Y60.2294
G00 Z2.0000
G00 X115.5772 Y60.2294
G01 F60.00
G01 Z-1.8000
G01 F120.00
G01 X115.5772 Y60.2294
G01 X115.5772 Y60.2294
G01 X115.5772 Y60.2294
G01 X115.5772 Y60.2294
G00 Z2.0000
G00 X118.1172 Y60.2294
G01 F60.00
G01 Z-1.8000
G01 F120.00
G01 X118.1172 Y60.2294
G01 X118.1172 Y60.2294
G01 X118.1172 Y60.2294
G01 X118.1172 Y60.2294
G00 Z2.0000
G00 X120.6572 Y60.2294
G01 F60.00
G01 Z-1.8000
G01 F120.00
G01 X120.6572 Y60.2294
G01 X120.6572 Y60.2294
G01 X120.6572 Y60.2294
G01 X120.6572 Y60.2294
G00 Z2.0000
G00 X123.1972 Y60.2294
G01 F60.00
G01 Z-1.8000
G01 F120.00
G01 X123.1972 Y60.2294
G01 X123.1972 Y60.2294
G01 X123.1972 Y60.2294
G01 X123.1972 Y60.2294
G00 Z2.0000
G00 X125.7372 Y60.2294
G01 F60.00
G01 Z-1.8000
G01 F120.00
G01 X125.7372 Y60.2294
G01 X125.7372 Y60.2294
G01 X125.7372 Y60.2294
G01 X125.7372 Y60.2294
G00 Z2.0000
G00 X128.2772 Y60.2294
G01 F60.00
G01 Z-1.8000
G01 F120.00
G01 X128.2772 Y60.2294
G01 X128.2772 Y60.2294
G01 X128.2772 Y60.2294
G01 X128.2772 Y60.2294
G00 Z2.0000
G00 X132.3412 Y60.2294
G01 F60.00
G01 Z-1.8000
G01 F120.00
G01 X132.3412 Y60.2294
G01 X132.3412 Y60.2294
G01 X132.3412 Y60.2294
G01 X132.3412 Y60.2294
G00 Z2.0000
G00 X134.8812 Y60.2294
G01 F60.00
G01 Z-1.8000
G01 F120.00
G01 X134.8812 Y60.2294
G01 X134.8812 Y60.2294
G01 X134.8812 Y60.2294
G01 X134.8812 Y60.2294
G00 Z2.0000
G00 X137.4212 Y60.2294
G01 F60.00
G01 Z-1.8000
G01 F120.00
G01 X137.4212 Y60.2294
G01 X137.4212 Y60.2294
G01 X137.4212 Y60.2294
G01 X137.4212 Y60.2294
G00 Z2.0000
G00 X139.9612 Y60.2294
G01 F60.00
G01 Z-1.8000
G01 F120.00
G01 X139.9612 Y60.2294
G01 X139.9612 Y60.2294
G01 X139.9612 Y60.2294
G01 X139.9612 Y60.2294
G00 Z2.0000
G00 X142.5012 Y60.2294
G01 F60.00
G01 Z-1.8000
G01 F120.00
G01 X142.5012 Y60.2294
G01 X142.5012 Y60.2294
G01 X142.5012 Y60.2294
G01 X142.5012 Y60.2294
G00 Z2.0000
G00 X145.0412 Y60.2294
G01 F60.00
G01 Z-1.8000
G01 F120.00
G01 X145.0412 Y60.2294
G01 X145.0412 Y60.2294
G01 X145.0412 Y60.2294
G01 X145.0412 Y60.2294
G00 Z2.0000
G00 X147.5812 Y60.2294
G01 F60.00
G01 Z-1.8000
G01 F120.00
G01 X147.5812 Y60.2294
G01 X147.5812 Y60.2294
G01 X147.5812 Y60.2294
G01 X147.5812 Y60.2294
G00 Z2.0000
G00 X150.1212 Y60.2294
G01 F60.00
G01 Z-1.8000
G01 F120.00
G01 X150.1212 Y60.2294
G01 X150.1212 Y60.2294
G01 X150.1212 Y60.2294
G01 X150.1212 Y60.2294
G00 Z2.0000
G00 X152.6612 Y60.2294
G01 F60.00
G01 Z-1.8000
G01 F120.00
G01 X152.6612 Y60.2294
G01 X152.6612 Y60.2294
G01 X152.6612 Y60.2294
G01 X152.6612 Y60.2294
G00 Z2.0000
G00 X155.2012 Y60.2294
G01 F60.00
G01 Z-1.8000
G01 F120.00
G01 X155.2012 Y60.2294
G01 X155.2012 Y60.2294
G01 X155.2012 Y60.2294
G01 X155.2012 Y60.2294
G00 Z2.0000
G00 X155.2012 Y65.3094
G01 F60.00
G01 Z-1.8000
G01 F120.00
G01 X155.2012 Y65.3094
G01 X155.2012 Y65.3094
G01 X155.2012 Y65.3094
G01 X155.2012 Y65.3094
G00 Z2.0000
G00 X152.6612 Y65.3094
G01 F60.00
G01 Z-1.8000
G01 F120.00
G01 X152.6612 Y65.3094
G01 X152.6612 Y65.3094
G01 X152.6612 Y65.3094
G01 X152.6612 Y65.3094
G00 Z2.0000
G00 X150.1212 Y65.0554
G01 F60.00
G01 Z-1.8000
G01 F120.00
G01 X150.1212 Y65.0554
G01 X150.1212 Y65.0554
G01 X150.1212 Y65.0554
G01 X150.1212 Y65.0554
G00 Z2.0000
G00 X147.5812 Y65.0554
G01 F60.00
G01 Z-1.8000
G01 F120.00
G01 X147.5812 Y65.0554
G01 X147.5812 Y65.0554
G01 X147.5812 Y65.0554
G01 X147.5812 Y65.0554
G00 Z2.0000
G00 X145.0412 Y65.0554
G01 F60.00
G01 Z-1.8000
G01 F120.00
G01 X145.0412 Y65.0554
G01 X145.0412 Y65.0554
G01 X145.0412 Y65.0554
G01 X145.0412 Y65.0554
G00 Z2.0000
G00 X142.5012 Y65.0554
G01 F60.00
G01 Z-1.8000
G01 F120.00
G01 X142.5012 Y65.0554
G01 X142.5012 Y65.0554
G01 X142.5012 Y65.0554
G01 X142.5012 Y65.0554
G00 Z2.0000
G00 X139.9612 Y65.0554
G01 F60.00
G01 Z-1.8000
G01 F120.00
G01 X139.9612 Y65.0554
G01 X139.9612 Y65.0554
G01 X139.9612 Y65.0554
G01 X139.9612 Y65.0554
G00 Z2.0000
G00 X137.4212 Y65.0554
G01 F60.00
G01 Z-1.8000
G01 F120.00
G01 X137.4212 Y65.0554
G01 X137.4212 Y65.0554
G01 X137.4212 Y65.0554
G01 X137.4212 Y65.0554
G00 Z2.0000
G00 X134.8812 Y65.0554
G01 F60.00
G01 Z-1.8000
G01 F120.00
G01 X134.8812 Y65.0554
G01 X134.8812 Y65.0554
G01 X134.8812 Y65.0554
G01 X134.8812 Y65.0554
G00 Z2.0000
G00 X132.3412 Y65.0554
G01 F60.00
G01 Z-1.8000
G01 F120.00
G01 X132.3412 Y65.0554
G01 X132.3412 Y65.0554
G01 X132.3412 Y65.0554
G01 X132.3412 Y65.0554
G00 Z2.0000
G00 X128.2772 Y65.0554
G01 F60.00
G01 Z-1.8000
G01 F120.00
G01 X128.2772 Y65.0554
G01 X128.2772 Y65.0554
G01 X128.2772 Y65.0554
G01 X128.2772 Y65.0554
G00 Z2.0000
G00 X125.7372 Y65.0554
G01 F60.00
G01 Z-1.8000
G01 F120.00
G01 X125.7372 Y65.0554
G01 X125.7372 Y65.0554
G01 X125.7372 Y65.0554
G01 X125.7372 Y65.0554
G00 Z2.0000
G00 X123.1972 Y65.0554
G01 F60.00
G01 Z-1.8000
G01 F120.00
G01 X123.1972 Y65.0554
G01 X123.1972 Y65.0554
G01 X123.1972 Y65.0554
G01 X123.1972 Y65.0554
G00 Z2.0000
G00 X120.6572 Y65.0554
G01 F60.00
G01 Z-1.8000
G01 F120.00
G01 X120.6572 Y65.0554
G01 X120.6572 Y65.0554
G01 X120.6572 Y65.0554
G01 X120.6572 Y65.0554
G00 Z2.0000
G00 X118.1172 Y65.0554
G01 F60.00
G01 Z-1.8000
G01 F120.00
G01 X118.1172 Y65.0554
G01 X118.1172 Y65.0554
G01 X118.1172 Y65.0554
G01 X118.1172 Y65.0554
G00 Z2.0000
G00 X115.5772 Y65.0554
G01 F60.00
G01 Z-1.8000
G01 F120.00
G01 X115.5772 Y65.0554
G01 X115.5772 Y65.0554
G01 X115.5772 Y65.0554
G01 X115.5772 Y65.0554
G00 Z2.0000
G00 X113.0372 Y65.0554
G01 F60.00
G01 Z-1.8000
G01 F120.00
G01 X113.0372 Y65.0554
G01 X113.0372 Y65.0554
G01 X113.0372 Y65.0554
G01 X113.0372 Y65.0554
G00 Z2.0000
G00 X110.4972 Y65.0554
G01 F60.00
G01 Z-1.8000
G01 F120.00
G01 X110.4972 Y65.0554
G01 X110.4972 Y65.0554
G01 X110.4972 Y65.0554
G01 X110.4972 Y65.0554
G00 Z2.0000
G00 X110.4972 Y69.1194
G01 F60.00
G01 Z-1.8000
G01 F120.00
G01 X110.4972 Y69.1194
G01 X110.4972 Y69.1194
G01 X110.4972 Y69.1194
G01 X110.4972 Y69.1194
G00 Z2.0000
G00 X113.0372 Y69.1194
G01 F60.00
G01 Z-1.8000
G01 F120.00
G01 X113.0372 Y69.1194
G01 X113.0372 Y69.1194
G01 X113.0372 Y69.1194
G01 X113.0372 Y69.1194
G00 Z2.0000
G00 X115.5772 Y69.1194
G01 F60.00
G01 Z-1.8000
G01 F120.00
G01 X115.5772 Y69.1194
G01 X115.5772 Y69.1194
G01 X115.5772 Y69.1194
G01 X115.5772 Y69.1194
G00 Z2.0000
G00 X118.1172 Y69.1194
G01 F60.00
G01 Z-1.8000
G01 F120.00
G01 X118.1172 Y69.1194
G01 X118.1172 Y69.1194
G01 X118.1172 Y69.1194
G01 X118.1172 Y69.1194
G00 Z2.0000
G00 X120.6572 Y69.1194
G01 F60.00
G01 Z-1.8000
G01 F120.00
G01 X120.6572 Y69.1194
G01 X120.6572 Y69.1194
G01 X120.6572 Y69.1194
G01 X120.6572 Y69.1194
G00 Z2.0000
G00 X123.1972 Y69.1194
G01 F60.00
G01 Z-1.8000
G01 F120.00
G01 X123.1972 Y69.1194
G01 X123.1972 Y69.1194
G01 X123.1972 Y69.1194
G01 X123.1972 Y69.1194
G00 Z2.0000
G00 X125.7372 Y69.1194
G01 F60.00
G01 Z-1.8000
G01 F120.00
G01 X125.7372 Y69.1194
G01 X125.7372 Y69.1194
G01 X125.7372 Y69.1194
G01 X125.7372 Y69.1194
G00 Z2.0000
G00 X128.2772 Y69.1194
G01 F60.00
G01 Z-1.8000
G01 F120.00
G01 X128.2772 Y69.1194
G01 X128.2772 Y69.1194
G01 X128.2772 Y69.1194
G01 X128.2772 Y69.1194
G00 Z2.0000
G00 X132.3412 Y69.1194
G01 F60.00
G01 Z-1.8000
G01 F120.00
G01 X132.3412 Y69.1194
G01 X132.3412 Y69.1194
G01 X132.3412 Y69.1194
G01 X132.3412 Y69.1194
G00 Z2.0000
G00 X134.8812 Y69.1194
G01 F60.00
G01 Z-1.8000
G01 F120.00
G01 X134.8812 Y69.1194
G01 X134.8812 Y69.1194
G01 X134.8812 Y69.1194
G01 X134.8812 Y69.1194
G00 Z2.0000
G00 X137.4212 Y69.1194
G01 F60.00
G01 Z-1.8000
G01 F120.00
G01 X137.4212 Y69.1194
G01 X137.4212 Y69.1194
G01 X137.4212 Y69.1194
G01 X137.4212 Y69.1194
G00 Z2.0000
G00 X139.9612 Y69.1194
G01 F60.00
G01 Z-1.8000
G01 F120.00
G01 X139.9612 Y69.1194
G01 X139.9612 Y69.1194
G01 X139.9612 Y69.1194
G01 X139.9612 Y69.1194
G00 Z2.0000
G00 X142.5012 Y69.1194
G01 F60.00
G01 Z-1.8000
G01 F120.00
G01 X142.5012 Y69.1194
G01 X142.5012 Y69.1194
G01 X142.5012 Y69.1194
G01 X142.5012 Y69.1194
G00 Z2.0000
G00 X145.0412 Y69.1194
G01 F60.00
G01 Z-1.8000
G01 F120.00
G01 X145.0412 Y69.1194
G01 X145.0412 Y69.1194
G01 X145.0412 Y69.1194
G01 X145.0412 Y69.1194
G00 Z2.0000
G00 X147.5812 Y69.1194
G01 F60.00
G01 Z-1.8000
G01 F120.00
G01 X147.5812 Y69.1194
G01 X147.5812 Y69.1194
G01 X147.5812 Y69.1194
G01 X147.5812 Y69.1194
G00 Z2.0000
G00 X150.1212 Y69.1194
G01 F60.00
G01 Z-1.8000
G01 F120.00
G01 X150.1212 Y69.1194
G01 X150.1212 Y69.1194
G01 X150.1212 Y69.1194
G01 X150.1212 Y69.1194
G00 Z2.0000
G00 X152.6612 Y69.1194
G01 F60.00
G01 Z-1.8000
G01 F120.00
G01 X152.6612 Y69.1194
G01 X152.6612 Y69.1194
G01 X152.6612 Y69.1194
G01 X152.6612 Y69.1194
G00 Z2.0000
G00 X155.2012 Y69.1194
G01 F60.00
G01 Z-1.8000
G01 F120.00
G01 X155.2012 Y69.1194
G01 X155.2012 Y69.1194
G01 X155.2012 Y69.1194
G01 X155.2012 Y69.1194
G00 Z2.0000
G00 X152.9152 Y52.6094
G01 F60.00
G01 Z-1.8000
G01 F120.00
G01 X152.9152 Y52.6094
G01 X152.9152 Y52.6094
G01 X152.9152 Y52.6094
G01 X152.9152 Y52.6094
G00 Z2.0000
G00 X152.9152 Y50.0694
G01 F60.00
G01 Z-1.8000
G01 F120.00
G01 X152.9152 Y50.0694
G01 X152.9152 Y50.0694
G01 X152.9152 Y50.0694
G01 X152.9152 Y50.0694
G00 Z2.0000
G00 X152.9152 Y47.5294
G01 F60.00
G01 Z-1.8000
G01 F120.00
G01 X152.9152 Y47.5294
G01 X152.9152 Y47.5294
G01 X152.9152 Y47.5294
G01 X152.9152 Y47.5294
G00 Z2.0000
G00 X152.9152 Y44.9894
G01 F60.00
G01 Z-1.8000
G01 F120.00
G01 X152.9152 Y44.9894
G01 X152.9152 Y44.9894
G01 X152.9152 Y44.9894
G01 X152.9152 Y44.9894
G00 Z2.0000
G00 X152.9152 Y42.4494
G01 F60.00
G01 Z-1.8000
G01 F120.00
G01 X152.9152 Y42.4494
G01 X152.9152 Y42.4494
G01 X152.9152 Y42.4494
G01 X152.9152 Y42.4494
G00 Z2.0000
G00 X152.9152 Y39.9094
G01 F60.00
G01 Z-1.8000
G01 F120.00
G01 X152.9152 Y39.9094
G01 X152.9152 Y39.9094
G01 X152.9152 Y39.9094
G01 X152.9152 Y39.9094
G00 Z2.0000
G00 X152.9152 Y37.3694
G01 F60.00
G01 Z-1.8000
G01 F120.00
G01 X152.9152 Y37.3694
G01 X152.9152 Y37.3694
G01 X152.9152 Y37.3694
G01 X152.9152 Y37.3694
G00 Z2.0000
G00 X152.9152 Y34.8294
G01 F60.00
G01 Z-1.8000
G01 F120.00
G01 X152.9152 Y34.8294
G01 X152.9152 Y34.8294
G01 X152.9152 Y34.8294
G01 X152.9152 Y34.8294
G00 Z2.0000
G00 X152.9152 Y32.2894
G01 F60.00
G01 Z-1.8000
G01 F120.00
G01 X152.9152 Y32.2894
G01 X152.9152 Y32.2894
G01 X152.9152 Y32.2894
G01 X152.9152 Y32.2894
G00 Z2.0000
G00 X152.9152 Y29.7494
G01 F60.00
G01 Z-1.8000
G01 F120.00
G01 X152.9152 Y29.7494
G01 X152.9152 Y29.7494
G01 X152.9152 Y29.7494
G01 X152.9152 Y29.7494
G00 Z2.0000
G00 X148.8512 Y29.7494
G01 F60.00
G01 Z-1.8000
G01 F120.00
G01 X148.8512 Y29.7494
G01 X148.8512 Y29.7494
G01 X148.8512 Y29.7494
G01 X148.8512 Y29.7494
G00 Z2.0000
G00 X148.8512 Y32.2894
G01 F60.00
G01 Z-1.8000
G01 F120.00
G01 X148.8512 Y32.2894
G01 X148.8512 Y32.2894
G01 X148.8512 Y32.2894
G01 X148.8512 Y32.2894
G00 Z2.0000
G00 X148.8512 Y34.8294
G01 F60.00
G01 Z-1.8000
G01 F120.00
G01 X148.8512 Y34.8294
G01 X148.8512 Y34.8294
G01 X148.8512 Y34.8294
G01 X148.8512 Y34.8294
G00 Z2.0000
G00 X148.8512 Y37.3694
G01 F60.00
G01 Z-1.8000
G01 F120.00
G01 X148.8512 Y37.3694
G01 X148.8512 Y37.3694
G01 X148.8512 Y37.3694
G01 X148.8512 Y37.3694
G00 Z2.0000
G00 X148.8512 Y39.9094
G01 F60.00
G01 Z-1.8000
G01 F120.00
G01 X148.8512 Y39.9094
G01 X148.8512 Y39.9094
G01 X148.8512 Y39.9094
G01 X148.8512 Y39.9094
G00 Z2.0000
G00 X148.8512 Y42.4494
G01 F60.00
G01 Z-1.8000
G01 F120.00
G01 X148.8512 Y42.4494
G01 X148.8512 Y42.4494
G01 X148.8512 Y42.4494
G01 X148.8512 Y42.4494
G00 Z2.0000
G00 X148.8512 Y44.9894
G01 F60.00
G01 Z-1.8000
G01 F120.00
G01 X148.8512 Y44.9894
G01 X148.8512 Y44.9894
G01 X148.8512 Y44.9894
G01 X148.8512 Y44.9894
G00 Z2.0000
G00 X148.8512 Y47.5294
G01 F60.00
G01 Z-1.8000
G01 F120.00
G01 X148.8512 Y47.5294
G01 X148.8512 Y47.5294
G01 X148.8512 Y47.5294
G01 X148.8512 Y47.5294
G00 Z2.0000
G00 X148.8512 Y50.0694
G01 F60.00
G01 Z-1.8000
G01 F120.00
G01 X148.8512 Y50.0694
G01 X148.8512 Y50.0694
G01 X148.8512 Y50.0694
G01 X148.8512 Y50.0694
G00 Z2.0000
G00 X148.8512 Y52.6094
G01 F60.00
G01 Z-1.8000
G01 F120.00
G01 X148.8512 Y52.6094
G01 X148.8512 Y52.6094
G01 X148.8512 Y52.6094
G01 X148.8512 Y52.6094
G00 Z2.0000
G00 X142.2472 Y52.6094
G01 F60.00
G01 Z-1.8000
G01 F120.00
G01 X142.2472 Y52.6094
G01 X142.2472 Y52.6094
G01 X142.2472 Y52.6094
G01 X142.2472 Y52.6094
G00 Z2.0000
G00 X142.2472 Y50.0694
G01 F60.00
G01 Z-1.8000
G01 F120.00
G01 X142.2472 Y50.0694
G01 X142.2472 Y50.0694
G01 X142.2472 Y50.0694
G01 X142.2472 Y50.0694
G00 Z2.0000
G00 X142.2472 Y47.5294
G01 F60.00
G01 Z-1.8000
G01 F120.00
G01 X142.2472 Y47.5294
G01 X142.2472 Y47.5294
G01 X142.2472 Y47.5294
G01 X142.2472 Y47.5294
G00 Z2.0000
G00 X142.2472 Y44.9894
G01 F60.00
G01 Z-1.8000
G01 F120.00
G01 X142.2472 Y44.9894
G01 X142.2472 Y44.9894
G01 X142.2472 Y44.9894
G01 X142.2472 Y44.9894
G00 Z2.0000
G00 X142.2472 Y42.4494
G01 F60.00
G01 Z-1.8000
G01 F120.00
G01 X142.2472 Y42.4494
G01 X142.2472 Y42.4494
G01 X142.2472 Y42.4494
G01 X142.2472 Y42.4494
G00 Z2.0000
G00 X142.2472 Y39.9094
G01 F60.00
G01 Z-1.8000
G01 F120.00
G01 X142.2472 Y39.9094
G01 X142.2472 Y39.9094
G01 X142.2472 Y39.9094
G01 X142.2472 Y39.9094
G00 Z2.0000
G00 X142.2472 Y37.3694
G01 F60.00
G01 Z-1.8000
G01 F120.00
G01 X142.2472 Y37.3694
G01 X142.2472 Y37.3694
G01 X142.2472 Y37.3694
G01 X142.2472 Y37.3694
G00 Z2.0000
G00 X142.2472 Y34.8294
G01 F60.00
G01 Z-1.8000
G01 F120.00
G01 X142.2472 Y34.8294
G01 X142.2472 Y34.8294
G01 X142.2472 Y34.8294
G01 X142.2472 Y34.8294
G00 Z2.0000
G00 X142.2472 Y32.2894
G01 F60.00
G01 Z-1.8000
G01 F120.00
G01 X142.2472 Y32.2894
G01 X142.2472 Y32.2894
G01 X142.2472 Y32.2894
G01 X142.2472 Y32.2894
G00 Z2.0000
G00 X142.2472 Y29.7494
G01 F60.00
G01 Z-1.8000
G01 F120.00
G01 X142.2472 Y29.7494
G01 X142.2472 Y29.7494
G01 X142.2472 Y29.7494
G01 X142.2472 Y29.7494
G00 Z2.0000
G00 X138.4372 Y29.7494
G01 F60.00
G01 Z-1.8000
G01 F120.00
G01 X138.4372 Y29.7494
G01 X138.4372 Y29.7494
G01 X138.4372 Y29.7494
G01 X138.4372 Y29.7494
G00 Z2.0000
G00 X138.4372 Y32.2894
G01 F60.00
G01 Z-1.8000
G01 F120.00
G01 X138.4372 Y32.2894
G01 X138.4372 Y32.2894
G01 X138.4372 Y32.2894
G01 X138.4372 Y32.2894
G00 Z2.0000
G00 X138.4372 Y34.8294
G01 F60.00
G01 Z-1.8000
G01 F120.00
G01 X138.4372 Y34.8294
G01 X138.4372 Y34.8294
G01 X138.4372 Y34.8294
G01 X138.4372 Y34.8294
G00 Z2.0000
G00 X138.4372 Y37.3694
G01 F60.00
G01 Z-1.8000
G01 F120.00
G01 X138.4372 Y37.3694
G01 X138.4372 Y37.3694
G01 X138.4372 Y37.3694
G01 X138.4372 Y37.3694
G00 Z2.0000
G00 X138.4372 Y39.9094
G01 F60.00
G01 Z-1.8000
G01 F120.00
G01 X138.4372 Y39.9094
G01 X138.4372 Y39.9094
G01 X138.4372 Y39.9094
G01 X138.4372 Y39.9094
G00 Z2.0000
G00 X138.4372 Y42.4494
G01 F60.00
G01 Z-1.8000
G01 F120.00
G01 X138.4372 Y42.4494
G01 X138.4372 Y42.4494
G01 X138.4372 Y42.4494
G01 X138.4372 Y42.4494
G00 Z2.0000
G00 X138.4372 Y44.9894
G01 F60.00
G01 Z-1.8000
G01 F120.00
G01 X138.4372 Y44.9894
G01 X138.4372 Y44.9894
G01 X138.4372 Y44.9894
G01 X138.4372 Y44.9894
G00 Z2.0000
G00 X138.4372 Y47.5294
G01 F60.00
G01 Z-1.8000
G01 F120.00
G01 X138.4372 Y47.5294
G01 X138.4372 Y47.5294
G01 X138.4372 Y47.5294
G01 X138.4372 Y47.5294
G00 Z2.0000
G00 X138.4372 Y50.0694
G01 F60.00
G01 Z-1.8000
G01 F120.00
G01 X138.4372 Y50.0694
G01 X138.4372 Y50.0694
G01 X138.4372 Y50.0694
G01 X138.4372 Y50.0694
G00 Z2.0000
G00 X138.4372 Y52.6094
G01 F60.00
G01 Z-1.8000
G01 F120.00
G01 X138.4372 Y52.6094
G01 X138.4372 Y52.6094
G01 X138.4372 Y52.6094
G01 X138.4372 Y52.6094
G00 Z2.0000
G00 X131.8332 Y52.6094
G01 F60.00
G01 Z-1.8000
G01 F120.00
G01 X131.8332 Y52.6094
G01 X131.8332 Y52.6094
G01 X131.8332 Y52.6094
G01 X131.8332 Y52.6094
G00 Z2.0000
G00 X131.8332 Y48.2914
G01 F60.00
G01 Z-1.8000
G01 F120.00
G01 X131.8332 Y48.2914
G01 X131.8332 Y48.2914
G01 X131.8332 Y48.2914
G01 X131.8332 Y48.2914
G00 Z2.0000
G00 X131.8332 Y45.7514
G01 F60.00
G01 Z-1.8000
G01 F120.00
G01 X131.8332 Y45.7514
G01 X131.8332 Y45.7514
G01 X131.8332 Y45.7514
G01 X131.8332 Y45.7514
G00 Z2.0000
G00 X131.8332 Y43.2114
G01 F60.00
G01 Z-1.8000
G01 F120.00
G01 X131.8332 Y43.2114
G01 X131.8332 Y43.2114
G01 X131.8332 Y43.2114
G01 X131.8332 Y43.2114
G00 Z2.0000
G00 X131.8332 Y40.6714
G01 F60.00
G01 Z-1.8000
G01 F120.00
G01 X131.8332 Y40.6714
G01 X131.8332 Y40.6714
G01 X131.8332 Y40.6714
G01 X131.8332 Y40.6714
G00 Z2.0000
G00 X131.8332 Y38.1314
G01 F60.00
G01 Z-1.8000
G01 F120.00
G01 X131.8332 Y38.1314
G01 X131.8332 Y38.1314
G01 X131.8332 Y38.1314
G01 X131.8332 Y38.1314
G00 Z2.0000
G00 X128.2772 Y38.1314
G01 F60.00
G01 Z-1.8000
G01 F120.00
G01 X128.2772 Y38.1314
G01 X128.2772 Y38.1314
G01 X128.2772 Y38.1314
G01 X128.2772 Y38.1314
G00 Z2.0000
G00 X128.2772 Y40.6714
G01 F60.00
G01 Z-1.8000
G01 F120.00
G01 X128.2772 Y40.6714
G01 X128.2772 Y40.6714
G01 X128.2772 Y40.6714
G01 X128.2772 Y40.6714
G00 Z2.0000
G00 X128.2772 Y43.2114
G01 F60.00
G01 Z-1.8000
G01 F120.00
G01 X128.2772 Y43.2114
G01 X128.2772 Y43.2114
G01 X128.2772 Y43.2114
G01 X128.2772 Y43.2114
G00 Z2.0000
G00 X128.2772 Y45.7514
G01 F60.00
G01 Z-1.8000
G01 F120.00
G01 X128.2772 Y45.7514
G01 X128.2772 Y45.7514
G01 X128.2772 Y45.7514
G01 X128.2772 Y45.7514
G00 Z2.0000
G00 X128.2772 Y48.2914
G01 F60.00
G01 Z-1.8000
G01 F120.00
G01 X128.2772 Y48.2914
G01 X128.2772 Y48.2914
G01 X128.2772 Y48.2914
G01 X128.2772 Y48.2914
G00 Z2.0000
G00 X120.1492 Y48.2914
G01 F60.00
G01 Z-1.8000
G01 F120.00
G01 X120.1492 Y48.2914
G01 X120.1492 Y48.2914
G01 X120.1492 Y48.2914
G01 X120.1492 Y48.2914
G00 Z2.0000
G00 X120.1492 Y45.7514
G01 F60.00
G01 Z-1.8000
G01 F120.00
G01 X120.1492 Y45.7514
G01 X120.1492 Y45.7514
G01 X120.1492 Y45.7514
G01 X120.1492 Y45.7514
G00 Z2.0000
G00 X120.1492 Y43.2114
G01 F60.00
G01 Z-1.8000
G01 F120.00
G01 X120.1492 Y43.2114
G01 X120.1492 Y43.2114
G01 X120.1492 Y43.2114
G01 X120.1492 Y43.2114
G00 Z2.0000
G00 X120.1492 Y40.6714
G01 F60.00
G01 Z-1.8000
G01 F120.00
G01 X120.1492 Y40.6714
G01 X120.1492 Y40.6714
G01 X120.1492 Y40.6714
G01 X120.1492 Y40.6714
G00 Z2.0000
G00 X120.1492 Y38.1314
G01 F60.00
G01 Z-1.8000
G01 F120.00
G01 X120.1492 Y38.1314
G01 X120.1492 Y38.1314
G01 X120.1492 Y38.1314
G01 X120.1492 Y38.1314
G00 Z2.0000
G00 X132.0872 Y32.2894
G01 F60.00
G01 Z-1.8000
G01 F120.00
G01 X132.0872 Y32.2894
G01 X132.0872 Y32.2894
G01 X132.0872 Y32.2894
G01 X132.0872 Y32.2894
G00 Z2.0000
G00 X132.8492 Y24.1614
G01 F60.00
G01 Z-1.8000
G01 F120.00
G01 X132.8492 Y24.1614
G01 X132.8492 Y24.1614
G01 X132.8492 Y24.1614
G01 X132.8492 Y24.1614
G00 Z2.0000
G00 X135.3892 Y24.1614
G01 F60.00
G01 Z-1.8000
G01 F120.00
G01 X135.3892 Y24.1614
G01 X135.3892 Y24.1614
G01 X135.3892 Y24.1614
G01 X135.3892 Y24.1614
G00 Z2.0000
G00 X137.9292 Y24.1614
G01 F60.00
G01 Z-1.8000
G01 F120.00
G01 X137.9292 Y24.1614
G01 X137.9292 Y24.1614
G01 X137.9292 Y24.1614
G01 X137.9292 Y24.1614
G00 Z2.0000
G00 X140.4692 Y24.1614
G01 F60.00
G01 Z-1.8000
G01 F120.00
G01 X140.4692 Y24.1614
G01 X140.4692 Y24.1614
G01 X140.4692 Y24.1614
G01 X140.4692 Y24.1614
G00 Z2.0000
G00 X143.0092 Y24.1614
G01 F60.00
G01 Z-1.8000
G01 F120.00
G01 X143.0092 Y24.1614
G01 X143.0092 Y24.1614
G01 X143.0092 Y24.1614
G01 X143.0092 Y24.1614
G00 Z2.0000
G00 X145.5492 Y24.1614
G01 F60.00
G01 Z-1.8000
G01 F120.00
G01 X145.5492 Y24.1614
G01 X145.5492 Y24.1614
G01 X145.5492 Y24.1614
G01 X145.5492 Y24.1614
G00 Z2.0000
G00 X148.0892 Y24.1614
G01 F60.00
G01 Z-1.8000
G01 F120.00
G01 X148.0892 Y24.1614
G01 X148.0892 Y24.1614
G01 X148.0892 Y24.1614
G01 X148.0892 Y24.1614
G00 Z2.0000
G00 X150.6292 Y24.1614
G01 F60.00
G01 Z-1.8000
G01 F120.00
G01 X150.6292 Y24.1614
G01 X150.6292 Y24.1614
G01 X150.6292 Y24.1614
G01 X150.6292 Y24.1614
G00 Z2.0000
G00 X143.5172 Y16.7954
G01 F60.00
G01 Z-1.8000
G01 F120.00
G01 X143.5172 Y16.7954
G01 X143.5172 Y16.7954
G01 X143.5172 Y16.7954
G01 X143.5172 Y16.7954
G00 Z2.0000
G00 X140.9772 Y16.7954
G01 F60.00
G01 Z-1.8000
G01 F120.00
G01 X140.9772 Y16.7954
G01 X140.9772 Y16.7954
G01 X140.9772 Y16.7954
G01 X140.9772 Y16.7954
G00 Z2.0000
G00 X138.4372 Y16.7954
G01 F60.00
G01 Z-1.8000
G01 F120.00
G01 X138.4372 Y16.7954
G01 X138.4372 Y16.7954
G01 X138.4372 Y16.7954
G01 X138.4372 Y16.7954
G00 Z2.0000
G00 X135.8972 Y16.7954
G01 F60.00
G01 Z-1.8000
G01 F120.00
G01 X135.8972 Y16.7954
G01 X135.8972 Y16.7954
G01 X135.8972 Y16.7954
G01 X135.8972 Y16.7954
G00 Z2.0000
G00 X133.3572 Y16.7954
G01 F60.00
G01 Z-1.8000
G01 F120.00
G01 X133.3572 Y16.7954
G01 X133.3572 Y16.7954
G01 X133.3572 Y16.7954
G01 X133.3572 Y16.7954
G00 Z2.0000
G00 X130.8172 Y16.7954
G01 F60.00
G01 Z-1.8000
G01 F120.00
G01 X130.8172 Y16.7954
G01 X130.8172 Y16.7954
G01 X130.8172 Y16.7954
G01 X130.8172 Y16.7954
G00 Z2.0000
G00 X128.2772 Y16.7954
G01 F60.00
G01 Z-1.8000
G01 F120.00
G01 X128.2772 Y16.7954
G01 X128.2772 Y16.7954
G01 X128.2772 Y16.7954
G01 X128.2772 Y16.7954
G00 Z2.0000
G00 X128.2772 Y12.9854
G01 F60.00
G01 Z-1.8000
G01 F120.00
G01 X128.2772 Y12.9854
G01 X128.2772 Y12.9854
G01 X128.2772 Y12.9854
G01 X128.2772 Y12.9854
G00 Z2.0000
G00 X130.8172 Y12.9854
G01 F60.00
G01 Z-1.8000
G01 F120.00
G01 X130.8172 Y12.9854
G01 X130.8172 Y12.9854
G01 X130.8172 Y12.9854
G01 X130.8172 Y12.9854
G00 Z2.0000
G00 X133.3572 Y12.9854
G01 F60.00
G01 Z-1.8000
G01 F120.00
G01 X133.3572 Y12.9854
G01 X133.3572 Y12.9854
G01 X133.3572 Y12.9854
G01 X133.3572 Y12.9854
G00 Z2.0000
G00 X135.8972 Y12.9854
G01 F60.00
G01 Z-1.8000
G01 F120.00
G01 X135.8972 Y12.9854
G01 X135.8972 Y12.9854
G01 X135.8972 Y12.9854
G01 X135.8972 Y12.9854
G00 Z2.0000
G00 X138.4372 Y12.9854
G01 F60.00
G01 Z-1.8000
G01 F120.00
G01 X138.4372 Y12.9854
G01 X138.4372 Y12.9854
G01 X138.4372 Y12.9854
G01 X138.4372 Y12.9854
G00 Z2.0000
G00 X140.9772 Y12.9854
G01 F60.00
G01 Z-1.8000
G01 F120.00
G01 X140.9772 Y12.9854
G01 X140.9772 Y12.9854
G01 X140.9772 Y12.9854
G01 X140.9772 Y12.9854
G00 Z2.0000
G00 X143.5172 Y12.9854
G01 F60.00
G01 Z-1.8000
G01 F120.00
G01 X143.5172 Y12.9854
G01 X143.5172 Y12.9854
G01 X143.5172 Y12.9854
G01 X143.5172 Y12.9854
G00 Z2.0000
G00 X146.0572 Y12.9854
G01 F60.00
G01 Z-1.8000
G01 F120.00
G01 X146.0572 Y12.9854
G01 X146.0572 Y12.9854
G01 X146.0572 Y12.9854
G01 X146.0572 Y12.9854
G00 Z2.0000
G00 X128.0232 Y24.1614
G01 F60.00
G01 Z-1.8000
G01 F120.00
G01 X128.0232 Y24.1614
G01 X128.0232 Y24.1614
G01 X128.0232 Y24.1614
G01 X128.0232 Y24.1614
G00 Z2.0000
G00 X125.4832 Y24.1614
G01 F60.00
G01 Z-1.8000
G01 F120.00
G01 X125.4832 Y24.1614
G01 X125.4832 Y24.1614
G01 X125.4832 Y24.1614
G01 X125.4832 Y24.1614
G00 Z2.0000
G00 X122.9432 Y24.1614
G01 F60.00
G01 Z-1.8000
G01 F120.00
G01 X122.9432 Y24.1614
G01 X122.9432 Y24.1614
G01 X122.9432 Y24.1614
G01 X122.9432 Y24.1614
G00 Z2.0000
G00 X120.4032 Y24.1614
G01 F60.00
G01 Z-1.8000
G01 F120.00
G01 X120.4032 Y24.1614
G01 X120.4032 Y24.1614
G01 X120.4032 Y24.1614
G01 X120.4032 Y24.1614
G00 Z2.0000
G00 X117.8632 Y24.1614
G01 F60.00
G01 Z-1.8000
G01 F120.00
G01 X117.8632 Y24.1614
G01 X117.8632 Y24.1614
G01 X117.8632 Y24.1614
G01 X117.8632 Y24.1614
G00 Z2.0000
G00 X115.3232 Y24.1614
G01 F60.00
G01 Z-1.8000
G01 F120.00
G01 X115.3232 Y24.1614
G01 X115.3232 Y24.1614
G01 X115.3232 Y24.1614
G01 X115.3232 Y24.1614
G00 Z2.0000
G00 X112.7832 Y24.1614
G01 F60.00
G01 Z-1.8000
G01 F120.00
G01 X112.7832 Y24.1614
G01 X112.7832 Y24.1614
G01 X112.7832 Y24.1614
G01 X112.7832 Y24.1614
G00 Z2.0000
G00 X110.2432 Y24.1614
G01 F60.00
G01 Z-1.8000
G01 F120.00
G01 X110.2432 Y24.1614
G01 X110.2432 Y24.1614
G01 X110.2432 Y24.1614
G01 X110.2432 Y24.1614
G00 Z2.0000
G00 X104.9092 Y24.1614
G01 F60.00
G01 Z-1.8000
G01 F120.00
G01 X104.9092 Y24.1614
G01 X104.9092 Y24.1614
G01 X104.9092 Y24.1614
G01 X104.9092 Y24.1614
G00 Z2.0000
G00 X102.3692 Y24.1614
G01 F60.00
G01 Z-1.8000
G01 F120.00
G01 X102.3692 Y24.1614
G01 X102.3692 Y24.1614
G01 X102.3692 Y24.1614
G01 X102.3692 Y24.1614
G00 Z2.0000
G00 X99.8292 Y24.1614
G01 F60.00
G01 Z-1.8000
G01 F120.00
G01 X99.8292 Y24.1614
G01 X99.8292 Y24.1614
G01 X99.8292 Y24.1614
G01 X99.8292 Y24.1614
G00 Z2.0000
G00 X97.2892 Y24.1614
G01 F60.00
G01 Z-1.8000
G01 F120.00
G01 X97.2892 Y24.1614
G01 X97.2892 Y24.1614
G01 X97.2892 Y24.1614
G01 X97.2892 Y24.1614
G00 Z2.0000
G00 X94.7492 Y24.1614
G01 F60.00
G01 Z-1.8000
G01 F120.00
G01 X94.7492 Y24.1614
G01 X94.7492 Y24.1614
G01 X94.7492 Y24.1614
G01 X94.7492 Y24.1614
G00 Z2.0000
G00 X92.2092 Y24.1614
G01 F60.00
G01 Z-1.8000
G01 F120.00
G01 X92.2092 Y24.1614
G01 X92.2092 Y24.1614
G01 X92.2092 Y24.1614
G01 X92.2092 Y24.1614
G00 Z2.0000
G00 X89.6692 Y24.1614
G01 F60.00
G01 Z-1.8000
G01 F120.00
G01 X89.6692 Y24.1614
G01 X89.6692 Y24.1614
G01 X89.6692 Y24.1614
G01 X89.6692 Y24.1614
G00 Z2.0000
G00 X87.1292 Y24.1614
G01 F60.00
G01 Z-1.8000
G01 F120.00
G01 X87.1292 Y24.1614
G01 X87.1292 Y24.1614
G01 X87.1292 Y24.1614
G01 X87.1292 Y24.1614
G00 Z2.0000
G00 X90.6852 Y29.7494
G01 F60.00
G01 Z-1.8000
G01 F120.00
G01 X90.6852 Y29.7494
G01 X90.6852 Y29.7494
G01 X90.6852 Y29.7494
G01 X90.6852 Y29.7494
G00 Z2.0000
G00 X90.6852 Y32.2894
G01 F60.00
G01 Z-1.8000
G01 F120.00
G01 X90.6852 Y32.2894
G01 X90.6852 Y32.2894
G01 X90.6852 Y32.2894
G01 X90.6852 Y32.2894
G00 Z2.0000
G00 X90.6852 Y34.8294
G01 F60.00
G01 Z-1.8000
G01 F120.00
G01 X90.6852 Y34.8294
G01 X90.6852 Y34.8294
G01 X90.6852 Y34.8294
G01 X90.6852 Y34.8294
G00 Z2.0000
G00 X90.6852 Y37.3694
G01 F60.00
G01 Z-1.8000
G01 F120.00
G01 X90.6852 Y37.3694
G01 X90.6852 Y37.3694
G01 X90.6852 Y37.3694
G01 X90.6852 Y37.3694
G00 Z2.0000
G00 X90.6852 Y39.9094
G01 F60.00
G01 Z-1.8000
G01 F120.00
G01 X90.6852 Y39.9094
G01 X90.6852 Y39.9094
G01 X90.6852 Y39.9094
G01 X90.6852 Y39.9094
G00 Z2.0000
G00 X90.6852 Y42.4494
G01 F60.00
G01 Z-1.8000
G01 F120.00
G01 X90.6852 Y42.4494
G01 X90.6852 Y42.4494
G01 X90.6852 Y42.4494
G01 X90.6852 Y42.4494
G00 Z2.0000
G00 X90.6852 Y44.9894
G01 F60.00
G01 Z-1.8000
G01 F120.00
G01 X90.6852 Y44.9894
G01 X90.6852 Y44.9894
G01 X90.6852 Y44.9894
G01 X90.6852 Y44.9894
G00 Z2.0000
G00 X90.6852 Y47.5294
G01 F60.00
G01 Z-1.8000
G01 F120.00
G01 X90.6852 Y47.5294
G01 X90.6852 Y47.5294
G01 X90.6852 Y47.5294
G01 X90.6852 Y47.5294
G00 Z2.0000
G00 X90.6852 Y50.0694
G01 F60.00
G01 Z-1.8000
G01 F120.00
G01 X90.6852 Y50.0694
G01 X90.6852 Y50.0694
G01 X90.6852 Y50.0694
G01 X90.6852 Y50.0694
G00 Z2.0000
G00 X90.6852 Y52.6094
G01 F60.00
G01 Z-1.8000
G01 F120.00
G01 X90.6852 Y52.6094
G01 X90.6852 Y52.6094
G01 X90.6852 Y52.6094
G01 X90.6852 Y52.6094
G00 Z2.0000
G00 X96.7812 Y55.4034
G01 F60.00
G01 Z-1.8000
G01 F120.00
G01 X96.7812 Y55.4034
G01 X96.7812 Y55.4034
G01 X96.7812 Y55.4034
G01 X96.7812 Y55.4034
G00 Z2.0000
G00 X87.6372 Y42.7034
G01 F60.00
G01 Z-1.8000
G01 F120.00
G01 X87.6372 Y42.7034
G01 X87.6372 Y42.7034
G01 X87.6372 Y42.7034
G01 X87.6372 Y42.7034
G00 Z2.0000
G00 X85.3512 Y39.0144
G01 F60.00
G01 Z-1.8000
G01 F120.00
G01 X85.3512 Y39.0144
G01 X85.3512 Y39.0144
G01 X85.3512 Y39.0144
G01 X85.3512 Y39.0144
G00 Z2.0000
G00 X82.8112 Y35.2044
G01 F60.00
G01 Z-1.8000
G01 F120.00
G01 X82.8112 Y35.2044
G01 X82.8112 Y35.2044
G01 X82.8112 Y35.2044
G01 X82.8112 Y35.2044
G00 Z2.0000
G00 X61.4752 Y37.3694
G01 F60.00
G01 Z-1.8000
G01 F120.00
G01 X61.4752 Y37.3694
G01 X61.4752 Y37.3694
G01 X61.4752 Y37.3694
G01 X61.4752 Y37.3694
G00 Z2.0000
G00 X56.3952 Y37.3694
G01 F60.00
G01 Z-1.8000
G01 F120.00
G01 X56.3952 Y37.3694
G01 X56.3952 Y37.3694
G01 X56.3952 Y37.3694
G01 X56.3952 Y37.3694
G00 Z2.0000
G00 X56.3952 Y31.0194
G01 F60.00
G01 Z-1.8000
G01 F120.00
G01 X56.3952 Y31.0194
G01 X56.3952 Y31.0194
G01 X56.3952 Y31.0194
G01 X56.3952 Y31.0194
G00 Z2.0000
G00 X61.4752 Y31.0194
G01 F60.00
G01 Z-1.8000
G01 F120.00
G01 X61.4752 Y31.0194
G01 X61.4752 Y31.0194
G01 X61.4752 Y31.0194
G01 X61.4752 Y31.0194
G00 Z2.0000
G00 X61.4752 Y24.6694
G01 F60.00
G01 Z-1.8000
G01 F120.00
G01 X61.4752 Y24.6694
G01 X61.4752 Y24.6694
G01 X61.4752 Y24.6694
G01 X61.4752 Y24.6694
G00 Z2.0000
G00 X56.3952 Y24.6694
G01 F60.00
G01 Z-1.8000
G01 F120.00
G01 X56.3952 Y24.6694
G01 X56.3952 Y24.6694
G01 X56.3952 Y24.6694
G01 X56.3952 Y24.6694
G00 Z2.0000
G00 X50.2992 Y7.9054
G01 F60.00
G01 Z-1.8000
G01 F120.00
G01 X50.2992 Y7.9054
G01 X50.2992 Y7.9054
G01 X50.2992 Y7.9054
G01 X50.2992 Y7.9054
G00 Z2.0000
G00 X43.7772 Y6.7814
G01 F60.00
G01 Z-1.8000
G01 F120.00
G01 X43.7772 Y6.7814
G01 X43.7772 Y6.7814
G01 X43.7772 Y6.7814
G01 X43.7772 Y6.7814
G00 Z2.0000
G00 X43.7772 Y4.2414
G01 F60.00
G01 Z-1.8000
G01 F120.00
G01 X43.7772 Y4.2414
G01 X43.7772 Y4.2414
G01 X43.7772 Y4.2414
G01 X43.7772 Y4.2414
G00 Z2.0000
G00 X43.7772 Y1.7014
G01 F60.00
G01 Z-1.8000
G01 F120.00
G01 X43.7772 Y1.7014
G01 X43.7772 Y1.7014
G01 X43.7772 Y1.7014
G01 X43.7772 Y1.7014
G00 Z2.0000
G00 X43.7772 Y-0.8386
G01 F60.00
G01 Z-1.8000
G01 F120.00
G01 X43.7772 Y-0.8386
G01 X43.7772 Y-0.8386
G01 X43.7772 Y-0.8386
G01 X43.7772 Y-0.8386
G00 Z2.0000
G00 X40.9772 Y0.5114
G01 F60.00
G01 Z-1.8000
G01 F120.00
G01 X40.9772 Y0.5114
G01 X40.9772 Y0.5114
G01 X40.9772 Y0.5114
G01 X40.9772 Y0.5114
G00 Z2.0000
G00 X40.9772 Y5.5114
G01 F60.00
G01 Z-1.8000
G01 F120.00
G01 X40.9772 Y5.5114
G01 X40.9772 Y5.5114
G01 X40.9772 Y5.5114
G01 X40.9772 Y5.5114
G00 Z2.0000
G00 X22.8672 Y11.2074
G01 F60.00
G01 Z-1.8000
G01 F120.00
G01 X22.8672 Y11.2074
G01 X22.8672 Y11.2074
G01 X22.8672 Y11.2074
G01 X22.8672 Y11.2074
G00 Z2.0000
G00 X20.3272 Y6.1274
G01 F60.00
G01 Z-1.8000
G01 F120.00
G01 X20.3272 Y6.1274
G01 X20.3272 Y6.1274
G01 X20.3272 Y6.1274
G01 X20.3272 Y6.1274
G00 Z2.0000
G00 X15.2472 Y6.1274
G01 F60.00
G01 Z-1.8000
G01 F120.00
G01 X15.2472 Y6.1274
G01 X15.2472 Y6.1274
G01 X15.2472 Y6.1274
G01 X15.2472 Y6.1274
G00 Z2.0000
G00 X15.2472 Y0.0314
G01 F60.00
G01 Z-1.8000
G01 F120.00
G01 X15.2472 Y0.0314
G01 X15.2472 Y0.0314
G01 X15.2472 Y0.0314
G01 X15.2472 Y0.0314
G00 Z2.0000
G00 X17.7872 Y0.0314
G01 F60.00
G01 Z-1.8000
G01 F120.00
G01 X17.7872 Y0.0314
G01 X17.7872 Y0.0314
G01 X17.7872 Y0.0314
G01 X17.7872 Y0.0314
G00 Z2.0000
G00 X20.3272 Y0.0314
G01 F60.00
G01 Z-1.8000
G01 F120.00
G01 X20.3272 Y0.0314
G01 X20.3272 Y0.0314
G01 X20.3272 Y0.0314
G01 X20.3272 Y0.0314
G00 Z2.0000
G00 X9.0272 Y11.2074
G01 F60.00
G01 Z-1.8000
G01 F120.00
G01 X9.0272 Y11.2074
G01 X9.0272 Y11.2074
G01 X9.0272 Y11.2074
G01 X9.0272 Y11.2074
G00 Z2.0000
G00 X10.1672 Y24.4154
G01 F60.00
G01 Z-1.8000
G01 F120.00
G01 X10.1672 Y24.4154
G01 X10.1672 Y24.4154
G01 X10.1672 Y24.4154
G01 X10.1672 Y24.4154
G00 Z2.0000
G00 X5.0872 Y24.4154
G01 F60.00
G01 Z-1.8000
G01 F120.00
G01 X5.0872 Y24.4154
G01 X5.0872 Y24.4154
G01 X5.0872 Y24.4154
G01 X5.0872 Y24.4154
G00 Z2.0000
G00 X5.0872 Y31.0194
G01 F60.00
G01 Z-1.8000
G01 F120.00
G01 X5.0872 Y31.0194
G01 X5.0872 Y31.0194
G01 X5.0872 Y31.0194
G01 X5.0872 Y31.0194
G00 Z2.0000
G00 X10.1672 Y31.0194
G01 F60.00
G01 Z-1.8000
G01 F120.00
G01 X10.1672 Y31.0194
G01 X10.1672 Y31.0194
G01 X10.1672 Y31.0194
G01 X10.1672 Y31.0194
G00 Z2.0000
G00 X10.1672 Y37.3694
G01 F60.00
G01 Z-1.8000
G01 F120.00
G01 X10.1672 Y37.3694
G01 X10.1672 Y37.3694
G01 X10.1672 Y37.3694
G01 X10.1672 Y37.3694
G00 Z2.0000
G00 X5.0872 Y37.3694
G01 F60.00
G01 Z-1.8000
G01 F120.00
G01 X5.0872 Y37.3694
G01 X5.0872 Y37.3694
G01 X5.0872 Y37.3694
G01 X5.0872 Y37.3694
G00 Z2.0000
G00 X30.7412 Y37.3694
G01 F60.00
G01 Z-1.8000
G01 F120.00
G01 X30.7412 Y37.3694
G01 X30.7412 Y37.3694
G01 X30.7412 Y37.3694
G01 X30.7412 Y37.3694
G00 Z2.0000
G00 X35.8212 Y37.3694
G01 F60.00
G01 Z-1.8000
G01 F120.00
G01 X35.8212 Y37.3694
G01 X35.8212 Y37.3694
G01 X35.8212 Y37.3694
G01 X35.8212 Y37.3694
G00 Z2.0000
G00 X35.8212 Y31.0194
G01 F60.00
G01 Z-1.8000
G01 F120.00
G01 X35.8212 Y31.0194
G01 X35.8212 Y31.0194
G01 X35.8212 Y31.0194
G01 X35.8212 Y31.0194
G00 Z2.0000
G00 X30.7412 Y31.0194
G01 F60.00
G01 Z-1.8000
G01 F120.00
G01 X30.7412 Y31.0194
G01 X30.7412 Y31.0194
G01 X30.7412 Y31.0194
G01 X30.7412 Y31.0194
G00 Z2.0000
G00 X30.7412 Y24.4154
G01 F60.00
G01 Z-1.8000
G01 F120.00
G01 X30.7412 Y24.4154
G01 X30.7412 Y24.4154
G01 X30.7412 Y24.4154
G01 X30.7412 Y24.4154
G00 Z2.0000
G00 X35.8212 Y24.4154
G01 F60.00
G01 Z-1.8000
G01 F120.00
G01 X35.8212 Y24.4154
G01 X35.8212 Y24.4154
G01 X35.8212 Y24.4154
G01 X35.8212 Y24.4154
G00 Z2.0000
G00 X105.4172 Y16.7954
G01 F60.00
G01 Z-1.8000
G01 F120.00
G01 X105.4172 Y16.7954
G01 X105.4172 Y16.7954
G01 X105.4172 Y16.7954
G01 X105.4172 Y16.7954
G00 Z2.0000
G00 X107.9572 Y16.7954
G01 F60.00
G01 Z-1.8000
G01 F120.00
G01 X107.9572 Y16.7954
G01 X107.9572 Y16.7954
G01 X107.9572 Y16.7954
G01 X107.9572 Y16.7954
G00 Z2.0000
G00 X110.4972 Y16.7954
G01 F60.00
G01 Z-1.8000
G01 F120.00
G01 X110.4972 Y16.7954
G01 X110.4972 Y16.7954
G01 X110.4972 Y16.7954
G01 X110.4972 Y16.7954
G00 Z2.0000
G00 X113.0372 Y16.7954
G01 F60.00
G01 Z-1.8000
G01 F120.00
G01 X113.0372 Y16.7954
G01 X113.0372 Y16.7954
G01 X113.0372 Y16.7954
G01 X113.0372 Y16.7954
G00 Z2.0000
G00 X115.5772 Y16.7954
G01 F60.00
G01 Z-1.8000
G01 F120.00
G01 X115.5772 Y16.7954
G01 X115.5772 Y16.7954
G01 X115.5772 Y16.7954
G01 X115.5772 Y16.7954
G00 Z2.0000
G00 X118.1172 Y16.7954
G01 F60.00
G01 Z-1.8000
G01 F120.00
G01 X118.1172 Y16.7954
G01 X118.1172 Y16.7954
G01 X118.1172 Y16.7954
G01 X118.1172 Y16.7954
G00 Z2.0000
G00 X120.6572 Y16.7954
G01 F60.00
G01 Z-1.8000
G01 F120.00
G01 X120.6572 Y16.7954
G01 X120.6572 Y16.7954
G01 X120.6572 Y16.7954
G01 X120.6572 Y16.7954
G00 Z2.0000
G00 X123.1972 Y16.7954
G01 F60.00
G01 Z-1.8000
G01 F120.00
G01 X123.1972 Y16.7954
G01 X123.1972 Y16.7954
G01 X123.1972 Y16.7954
G01 X123.1972 Y16.7954
G00 Z2.0000
G00 X123.1972 Y12.9854
G01 F60.00
G01 Z-1.8000
G01 F120.00
G01 X123.1972 Y12.9854
G01 X123.1972 Y12.9854
G01 X123.1972 Y12.9854
G01 X123.1972 Y12.9854
G00 Z2.0000
G00 X120.6572 Y12.9854
G01 F60.00
G01 Z-1.8000
G01 F120.00
G01 X120.6572 Y12.9854
G01 X120.6572 Y12.9854
G01 X120.6572 Y12.9854
G01 X120.6572 Y12.9854
G00 Z2.0000
G00 X118.1172 Y12.9854
G01 F60.00
G01 Z-1.8000
G01 F120.00
G01 X118.1172 Y12.9854
G01 X118.1172 Y12.9854
G01 X118.1172 Y12.9854
G01 X118.1172 Y12.9854
G00 Z2.0000
G00 X115.5772 Y12.9854
G01 F60.00
G01 Z-1.8000
G01 F120.00
G01 X115.5772 Y12.9854
G01 X115.5772 Y12.9854
G01 X115.5772 Y12.9854
G01 X115.5772 Y12.9854
G00 Z2.0000
G00 X113.0372 Y12.9854
G01 F60.00
G01 Z-1.8000
G01 F120.00
G01 X113.0372 Y12.9854
G01 X113.0372 Y12.9854
G01 X113.0372 Y12.9854
G01 X113.0372 Y12.9854
G00 Z2.0000
G00 X110.4972 Y12.9854
G01 F60.00
G01 Z-1.8000
G01 F120.00
G01 X110.4972 Y12.9854
G01 X110.4972 Y12.9854
G01 X110.4972 Y12.9854
G01 X110.4972 Y12.9854
G00 Z2.0000
G00 X107.9572 Y12.9854
G01 F60.00
G01 Z-1.8000
G01 F120.00
G01 X107.9572 Y12.9854
G01 X107.9572 Y12.9854
G01 X107.9572 Y12.9854
G01 X107.9572 Y12.9854
G00 Z2.0000
G00 X105.4172 Y12.9854
G01 F60.00
G01 Z-1.8000
G01 F120.00
G01 X105.4172 Y12.9854
G01 X105.4172 Y12.9854
G01 X105.4172 Y12.9854
G01 X105.4172 Y12.9854
G00 Z2.0000
G00 X111.2592 Y48.2914
G01 F60.00
G01 Z-1.8000
G01 F120.00
G01 X111.2592 Y48.2914
G01 X111.2592 Y48.2914
G01 X111.2592 Y48.2914
G01 X111.2592 Y48.2914
G00 Z2.0000
G00 X162.5672 Y45.7914
G01 F60.00
G01 Z-1.8000
G01 F120.00
G01 X162.5672 Y45.7914
G01 X162.5672 Y45.7914
G01 X162.5672 Y45.7914
G01 X162.5672 Y45.7914
G00 Z2.0000
G00 X162.5672 Y50.7924
G01 F60.00
G01 Z-1.8000
G01 F120.00
G01 X162.5672 Y50.7924
G01 X162.5672 Y50.7924
G01 X162.5672 Y50.7924
G01 X162.5672 Y50.7924
G00 Z2.0000
G00 X167.6472 Y37.6234
G01 F60.00
G01 Z-1.8000
G01 F120.00
G01 X167.6472 Y37.6234
G01 X167.6472 Y37.6234
G01 X167.6472 Y37.6234
G01 X167.6472 Y37.6234
G00 Z2.0000
G00 X167.6472 Y32.5434
G01 F60.00
G01 Z-1.8000
G01 F120.00
G01 X167.6472 Y32.5434
G01 X167.6472 Y32.5434
G01 X167.6472 Y32.5434
G01 X167.6472 Y32.5434
G00 Z2.0000
M05
G00 Z2.0000
G00 Z15.00

