(G-CODE GENERATED BY FLATCAM v8.993 - www.flatcam.org - Version Date: 2020/06/05)

(Name: Gerber_Drill_PTH.DRL_mill_slot_1_cnc)
(Type: G-code from Geometry)
(Units: MM)

(Created on Thursday, 27 May 2021 at 22:36)

(This preprocessor is the default preprocessor used by FlatCAM.)
(It is made to work with MACH3 compatible motion controllers.)

(TOOL DIAMETER: 2.4 mm)
(Feedrate_XY: 120.0 mm/min)
(Feedrate_Z: 60.0 mm/min)
(Feedrate rapids 1500.0 mm/min)

(Z_Cut: -1.8 mm)
(Z_Move: 2.0 mm)
(Z Start: None mm)
(Z End: 15.0 mm)
(Steps per circle: 64)
(Preprocessor Geometry: default)

(X range:   30.0841 ...   79.1503  mm)
(Y range:    4.4573 ...   77.6475  mm)

(Spindle Speed: None RPM)
G21
G90
G94



G01 F120.00
G00 Z2.0000

M03
G00 X30.4842 Y4.4573
G01 F60.00
G01 Z-1.8000
G01 F120.00
G01 X30.4646 Y4.4577
G01 X30.4450 Y4.4592
G01 X30.4255 Y4.4616
G01 X30.4061 Y4.4650
G01 X30.3870 Y4.4693
G01 X30.3680 Y4.4745
G01 X30.3494 Y4.4807
G01 X30.3311 Y4.4877
G01 X30.3131 Y4.4957
G01 X30.2956 Y4.5045
G01 X30.2785 Y4.5142
G01 X30.2619 Y4.5247
G01 X30.2459 Y4.5360
G01 X30.2304 Y4.5481
G01 X30.2155 Y4.5609
G01 X30.2013 Y4.5745
G01 X30.1877 Y4.5887
G01 X30.1749 Y4.6035
G01 X30.1628 Y4.6190
G01 X30.1515 Y4.6351
G01 X30.1361 Y4.6602
G01 X30.1268 Y4.6775
G01 X30.1184 Y4.6952
G01 X30.1109 Y4.7134
G01 X30.1043 Y4.7319
G01 X30.0986 Y4.7507
G01 X30.0938 Y4.7697
G01 X30.0900 Y4.7890
G01 X30.0871 Y4.8084
G01 X30.0852 Y4.8279
G01 X30.0842 Y4.8475
G01 X30.0842 Y4.8672
G01 X30.0852 Y4.8868
G01 X30.0871 Y4.9063
G01 X30.0900 Y4.9258
G01 X30.0938 Y4.9450
G01 X30.0986 Y4.9641
G01 X30.1043 Y4.9829
G01 X30.1109 Y5.0014
G01 X30.1184 Y5.0195
G01 X30.1268 Y5.0373
G01 X30.1361 Y5.0546
G01 X30.1462 Y5.0714
G01 X30.1571 Y5.0877
G01 X30.1688 Y5.1035
G01 X30.1812 Y5.1187
G01 X30.1944 Y5.1332
G01 X30.2083 Y5.1471
G01 X30.2229 Y5.1603
G01 X30.2380 Y5.1728
G01 X30.2538 Y5.1845
G01 X30.2701 Y5.1954
G01 X30.2870 Y5.2055
G01 X30.3043 Y5.2147
G01 X30.3221 Y5.2231
G01 X30.3402 Y5.2307
G01 X30.3587 Y5.2373
G01 X30.3775 Y5.2430
G01 X30.3965 Y5.2477
G01 X30.4158 Y5.2516
G01 X30.4352 Y5.2545
G01 X30.4548 Y5.2564
G01 X30.4744 Y5.2573
G01 X30.5000 Y5.2573
G01 X30.5196 Y5.2564
G01 X30.5392 Y5.2545
G01 X30.5586 Y5.2516
G01 X30.5779 Y5.2477
G01 X30.5969 Y5.2430
G01 X30.6157 Y5.2373
G01 X30.6342 Y5.2307
G01 X30.6523 Y5.2231
G01 X30.6701 Y5.2147
G01 X30.6874 Y5.2055
G01 X30.7042 Y5.1954
G01 X30.7206 Y5.1845
G01 X30.7363 Y5.1728
G01 X30.7515 Y5.1603
G01 X30.7661 Y5.1471
G01 X30.7800 Y5.1332
G01 X30.7931 Y5.1187
G01 X30.8056 Y5.1035
G01 X30.8173 Y5.0877
G01 X30.8282 Y5.0714
G01 X30.8383 Y5.0546
G01 X30.8476 Y5.0373
G01 X30.8560 Y5.0195
G01 X30.8635 Y5.0014
G01 X30.8701 Y4.9829
G01 X30.8758 Y4.9641
G01 X30.8806 Y4.9450
G01 X30.8844 Y4.9258
G01 X30.8873 Y4.9063
G01 X30.8892 Y4.8868
G01 X30.8902 Y4.8672
G01 X30.8902 Y4.8475
G01 X30.8892 Y4.8279
G01 X30.8873 Y4.8084
G01 X30.8844 Y4.7890
G01 X30.8806 Y4.7697
G01 X30.8758 Y4.7507
G01 X30.8701 Y4.7319
G01 X30.8635 Y4.7134
G01 X30.8560 Y4.6952
G01 X30.8476 Y4.6775
G01 X30.8383 Y4.6602
G01 X30.8282 Y4.6433
G01 X30.8173 Y4.6270
G01 X30.8056 Y4.6112
G01 X30.7931 Y4.5960
G01 X30.7800 Y4.5815
G01 X30.7661 Y4.5676
G01 X30.7515 Y4.5544
G01 X30.7363 Y4.5419
G01 X30.7206 Y4.5302
G01 X30.7042 Y4.5193
G01 X30.6874 Y4.5092
G01 X30.6701 Y4.5000
G01 X30.6523 Y4.4916
G01 X30.6342 Y4.4841
G01 X30.6157 Y4.4775
G01 X30.5969 Y4.4718
G01 X30.5779 Y4.4670
G01 X30.5586 Y4.4632
G01 X30.5392 Y4.4603
G01 X30.5196 Y4.4583
G01 X30.5000 Y4.4574
G01 X30.4842 Y4.4573
G00 Z2.0000
G00 X78.7442 Y4.4573
G01 F60.00
G01 Z-1.8000
G01 F120.00
G01 X78.7246 Y4.4577
G01 X78.7050 Y4.4592
G01 X78.6855 Y4.4616
G01 X78.6661 Y4.4650
G01 X78.6375 Y4.4718
G01 X78.6187 Y4.4775
G01 X78.6002 Y4.4841
G01 X78.5821 Y4.4916
G01 X78.5643 Y4.5000
G01 X78.5470 Y4.5092
G01 X78.5301 Y4.5193
G01 X78.5138 Y4.5302
G01 X78.4980 Y4.5419
G01 X78.4829 Y4.5544
G01 X78.4683 Y4.5676
G01 X78.4544 Y4.5815
G01 X78.4412 Y4.5960
G01 X78.4288 Y4.6112
G01 X78.4171 Y4.6270
G01 X78.4062 Y4.6433
G01 X78.3961 Y4.6602
G01 X78.3868 Y4.6775
G01 X78.3784 Y4.6952
G01 X78.3709 Y4.7134
G01 X78.3643 Y4.7319
G01 X78.3586 Y4.7507
G01 X78.3538 Y4.7697
G01 X78.3500 Y4.7890
G01 X78.3471 Y4.8084
G01 X78.3452 Y4.8279
G01 X78.3442 Y4.8475
G01 X78.3442 Y4.8672
G01 X78.3452 Y4.8868
G01 X78.3471 Y4.9063
G01 X78.3500 Y4.9258
G01 X78.3538 Y4.9450
G01 X78.3586 Y4.9641
G01 X78.3643 Y4.9829
G01 X78.3709 Y5.0014
G01 X78.3784 Y5.0195
G01 X78.3868 Y5.0373
G01 X78.3961 Y5.0546
G01 X78.4062 Y5.0714
G01 X78.4171 Y5.0877
G01 X78.4288 Y5.1035
G01 X78.4412 Y5.1187
G01 X78.4544 Y5.1332
G01 X78.4683 Y5.1471
G01 X78.4829 Y5.1603
G01 X78.4980 Y5.1728
G01 X78.5138 Y5.1845
G01 X78.5301 Y5.1954
G01 X78.5470 Y5.2055
G01 X78.5643 Y5.2147
G01 X78.5821 Y5.2231
G01 X78.6002 Y5.2307
G01 X78.6187 Y5.2373
G01 X78.6375 Y5.2430
G01 X78.6565 Y5.2477
G01 X78.6758 Y5.2516
G01 X78.6952 Y5.2545
G01 X78.7148 Y5.2564
G01 X78.7344 Y5.2573
G01 X78.7600 Y5.2573
G01 X78.7796 Y5.2564
G01 X78.7992 Y5.2545
G01 X78.8186 Y5.2516
G01 X78.8379 Y5.2477
G01 X78.8569 Y5.2430
G01 X78.8757 Y5.2373
G01 X78.8942 Y5.2307
G01 X78.9123 Y5.2231
G01 X78.9301 Y5.2147
G01 X78.9474 Y5.2055
G01 X78.9642 Y5.1954
G01 X78.9806 Y5.1845
G01 X78.9963 Y5.1728
G01 X79.0115 Y5.1603
G01 X79.0261 Y5.1471
G01 X79.0400 Y5.1332
G01 X79.0531 Y5.1187
G01 X79.0656 Y5.1035
G01 X79.0773 Y5.0877
G01 X79.0882 Y5.0714
G01 X79.0983 Y5.0546
G01 X79.1076 Y5.0373
G01 X79.1160 Y5.0195
G01 X79.1235 Y5.0014
G01 X79.1301 Y4.9829
G01 X79.1358 Y4.9641
G01 X79.1406 Y4.9450
G01 X79.1444 Y4.9258
G01 X79.1473 Y4.9063
G01 X79.1492 Y4.8868
G01 X79.1502 Y4.8672
G01 X79.1502 Y4.8475
G01 X79.1492 Y4.8279
G01 X79.1473 Y4.8084
G01 X79.1444 Y4.7890
G01 X79.1406 Y4.7697
G01 X79.1358 Y4.7507
G01 X79.1301 Y4.7319
G01 X79.1235 Y4.7134
G01 X79.1160 Y4.6952
G01 X79.1076 Y4.6775
G01 X79.0983 Y4.6602
G01 X79.0882 Y4.6433
G01 X79.0773 Y4.6270
G01 X79.0656 Y4.6112
G01 X79.0531 Y4.5960
G01 X79.0400 Y4.5815
G01 X79.0261 Y4.5676
G01 X79.0115 Y4.5544
G01 X78.9963 Y4.5419
G01 X78.9806 Y4.5302
G01 X78.9642 Y4.5193
G01 X78.9474 Y4.5092
G01 X78.9301 Y4.5000
G01 X78.9123 Y4.4916
G01 X78.8942 Y4.4841
G01 X78.8757 Y4.4775
G01 X78.8569 Y4.4718
G01 X78.8379 Y4.4670
G01 X78.8186 Y4.4632
G01 X78.7992 Y4.4603
G01 X78.7796 Y4.4583
G01 X78.7600 Y4.4574
G01 X78.7442 Y4.4573
G00 Z2.0000
G00 X78.7442 Y76.8473
G01 F60.00
G01 Z-1.8000
G01 F120.00
G01 X78.7246 Y76.8477
G01 X78.7050 Y76.8492
G01 X78.6855 Y76.8516
G01 X78.6661 Y76.8550
G01 X78.6375 Y76.8618
G01 X78.6187 Y76.8675
G01 X78.6002 Y76.8741
G01 X78.5821 Y76.8816
G01 X78.5643 Y76.8900
G01 X78.5470 Y76.8992
G01 X78.5301 Y76.9093
G01 X78.5138 Y76.9202
G01 X78.4980 Y76.9319
G01 X78.4829 Y76.9444
G01 X78.4683 Y76.9576
G01 X78.4544 Y76.9715
G01 X78.4412 Y76.9860
G01 X78.4288 Y77.0012
G01 X78.4171 Y77.0170
G01 X78.4062 Y77.0333
G01 X78.3961 Y77.0502
G01 X78.3868 Y77.0675
G01 X78.3784 Y77.0852
G01 X78.3709 Y77.1034
G01 X78.3643 Y77.1219
G01 X78.3586 Y77.1407
G01 X78.3538 Y77.1597
G01 X78.3500 Y77.1790
G01 X78.3471 Y77.1984
G01 X78.3452 Y77.2179
G01 X78.3442 Y77.2375
G01 X78.3442 Y77.2572
G01 X78.3452 Y77.2768
G01 X78.3471 Y77.2963
G01 X78.3500 Y77.3158
G01 X78.3538 Y77.3350
G01 X78.3586 Y77.3541
G01 X78.3643 Y77.3729
G01 X78.3709 Y77.3914
G01 X78.3784 Y77.4095
G01 X78.3868 Y77.4273
G01 X78.3961 Y77.4446
G01 X78.4062 Y77.4614
G01 X78.4171 Y77.4777
G01 X78.4288 Y77.4935
G01 X78.4412 Y77.5087
G01 X78.4544 Y77.5232
G01 X78.4683 Y77.5371
G01 X78.4829 Y77.5503
G01 X78.4980 Y77.5628
G01 X78.5138 Y77.5745
G01 X78.5301 Y77.5854
G01 X78.5470 Y77.5955
G01 X78.5643 Y77.6047
G01 X78.5821 Y77.6131
G01 X78.6002 Y77.6207
G01 X78.6187 Y77.6273
G01 X78.6375 Y77.6330
G01 X78.6565 Y77.6377
G01 X78.6758 Y77.6416
G01 X78.6952 Y77.6445
G01 X78.7148 Y77.6464
G01 X78.7344 Y77.6473
G01 X78.7600 Y77.6473
G01 X78.7796 Y77.6464
G01 X78.7992 Y77.6445
G01 X78.8186 Y77.6416
G01 X78.8379 Y77.6377
G01 X78.8569 Y77.6330
G01 X78.8757 Y77.6273
G01 X78.8942 Y77.6207
G01 X78.9123 Y77.6131
G01 X78.9301 Y77.6047
G01 X78.9474 Y77.5955
G01 X78.9642 Y77.5854
G01 X78.9806 Y77.5745
G01 X78.9963 Y77.5628
G01 X79.0115 Y77.5503
G01 X79.0261 Y77.5371
G01 X79.0400 Y77.5232
G01 X79.0531 Y77.5087
G01 X79.0656 Y77.4935
G01 X79.0773 Y77.4777
G01 X79.0882 Y77.4614
G01 X79.0983 Y77.4446
G01 X79.1076 Y77.4273
G01 X79.1160 Y77.4095
G01 X79.1235 Y77.3914
G01 X79.1301 Y77.3729
G01 X79.1358 Y77.3541
G01 X79.1406 Y77.3350
G01 X79.1444 Y77.3158
G01 X79.1473 Y77.2963
G01 X79.1492 Y77.2768
G01 X79.1502 Y77.2572
G01 X79.1502 Y77.2375
G01 X79.1492 Y77.2179
G01 X79.1473 Y77.1984
G01 X79.1444 Y77.1790
G01 X79.1406 Y77.1597
G01 X79.1358 Y77.1407
G01 X79.1301 Y77.1219
G01 X79.1235 Y77.1034
G01 X79.1160 Y77.0852
G01 X79.1076 Y77.0675
G01 X79.0983 Y77.0502
G01 X79.0882 Y77.0333
G01 X79.0773 Y77.0170
G01 X79.0656 Y77.0012
G01 X79.0531 Y76.9860
G01 X79.0400 Y76.9715
G01 X79.0261 Y76.9576
G01 X79.0115 Y76.9444
G01 X78.9963 Y76.9319
G01 X78.9806 Y76.9202
G01 X78.9642 Y76.9093
G01 X78.9474 Y76.8992
G01 X78.9301 Y76.8900
G01 X78.9123 Y76.8816
G01 X78.8942 Y76.8741
G01 X78.8757 Y76.8675
G01 X78.8569 Y76.8618
G01 X78.8379 Y76.8570
G01 X78.8186 Y76.8532
G01 X78.7992 Y76.8503
G01 X78.7796 Y76.8483
G01 X78.7600 Y76.8474
G01 X78.7442 Y76.8473
G00 Z2.0000
G00 X30.4842 Y76.8473
G01 F60.00
G01 Z-1.8000
G01 F120.00
G01 X30.4646 Y76.8477
G01 X30.4450 Y76.8492
G01 X30.4255 Y76.8516
G01 X30.4061 Y76.8550
G01 X30.3775 Y76.8618
G01 X30.3587 Y76.8675
G01 X30.3402 Y76.8741
G01 X30.3221 Y76.8816
G01 X30.3043 Y76.8900
G01 X30.2870 Y76.8992
G01 X30.2701 Y76.9093
G01 X30.2538 Y76.9202
G01 X30.2380 Y76.9319
G01 X30.2229 Y76.9444
G01 X30.2083 Y76.9576
G01 X30.1944 Y76.9715
G01 X30.1812 Y76.9860
G01 X30.1688 Y77.0012
G01 X30.1571 Y77.0170
G01 X30.1462 Y77.0333
G01 X30.1361 Y77.0502
G01 X30.1268 Y77.0675
G01 X30.1184 Y77.0852
G01 X30.1109 Y77.1034
G01 X30.1043 Y77.1219
G01 X30.0986 Y77.1407
G01 X30.0938 Y77.1597
G01 X30.0900 Y77.1790
G01 X30.0871 Y77.1984
G01 X30.0852 Y77.2179
G01 X30.0842 Y77.2375
G01 X30.0842 Y77.2572
G01 X30.0852 Y77.2768
G01 X30.0871 Y77.2963
G01 X30.0900 Y77.3158
G01 X30.0938 Y77.3350
G01 X30.0986 Y77.3541
G01 X30.1043 Y77.3729
G01 X30.1109 Y77.3914
G01 X30.1184 Y77.4095
G01 X30.1268 Y77.4273
G01 X30.1361 Y77.4446
G01 X30.1462 Y77.4614
G01 X30.1571 Y77.4777
G01 X30.1688 Y77.4935
G01 X30.1812 Y77.5087
G01 X30.1944 Y77.5232
G01 X30.2083 Y77.5371
G01 X30.2229 Y77.5503
G01 X30.2380 Y77.5628
G01 X30.2538 Y77.5745
G01 X30.2701 Y77.5854
G01 X30.2870 Y77.5955
G01 X30.3043 Y77.6047
G01 X30.3221 Y77.6131
G01 X30.3402 Y77.6207
G01 X30.3587 Y77.6273
G01 X30.3775 Y77.6330
G01 X30.3965 Y77.6377
G01 X30.4158 Y77.6416
G01 X30.4352 Y77.6445
G01 X30.4548 Y77.6464
G01 X30.4744 Y77.6473
G01 X30.5000 Y77.6473
G01 X30.5196 Y77.6464
G01 X30.5392 Y77.6445
G01 X30.5586 Y77.6416
G01 X30.5779 Y77.6377
G01 X30.5969 Y77.6330
G01 X30.6157 Y77.6273
G01 X30.6342 Y77.6207
G01 X30.6523 Y77.6131
G01 X30.6701 Y77.6047
G01 X30.6874 Y77.5955
G01 X30.7042 Y77.5854
G01 X30.7206 Y77.5745
G01 X30.7363 Y77.5628
G01 X30.7515 Y77.5503
G01 X30.7661 Y77.5371
G01 X30.7800 Y77.5232
G01 X30.7931 Y77.5087
G01 X30.8056 Y77.4935
G01 X30.8173 Y77.4777
G01 X30.8282 Y77.4614
G01 X30.8383 Y77.4446
G01 X30.8476 Y77.4273
G01 X30.8560 Y77.4095
G01 X30.8635 Y77.3914
G01 X30.8701 Y77.3729
G01 X30.8758 Y77.3541
G01 X30.8806 Y77.3350
G01 X30.8844 Y77.3158
G01 X30.8873 Y77.2963
G01 X30.8892 Y77.2768
G01 X30.8902 Y77.2572
G01 X30.8902 Y77.2375
G01 X30.8892 Y77.2179
G01 X30.8873 Y77.1984
G01 X30.8844 Y77.1790
G01 X30.8806 Y77.1597
G01 X30.8758 Y77.1407
G01 X30.8701 Y77.1219
G01 X30.8635 Y77.1034
G01 X30.8560 Y77.0852
G01 X30.8476 Y77.0675
G01 X30.8383 Y77.0502
G01 X30.8282 Y77.0333
G01 X30.8173 Y77.0170
G01 X30.8056 Y77.0012
G01 X30.7931 Y76.9860
G01 X30.7800 Y76.9715
G01 X30.7661 Y76.9576
G01 X30.7515 Y76.9444
G01 X30.7363 Y76.9319
G01 X30.7206 Y76.9202
G01 X30.7042 Y76.9093
G01 X30.6874 Y76.8992
G01 X30.6701 Y76.8900
G01 X30.6523 Y76.8816
G01 X30.6342 Y76.8741
G01 X30.6157 Y76.8675
G01 X30.5969 Y76.8618
G01 X30.5779 Y76.8570
G01 X30.5586 Y76.8532
G01 X30.5392 Y76.8503
G01 X30.5196 Y76.8483
G01 X30.5000 Y76.8474
G01 X30.4842 Y76.8473
G00 Z2.0000
M05
G00 Z2.0000
G00 Z15.00

