(G-CODE GENERATED BY FLATCAM v8.993 - www.flatcam.org - Version Date: 2020/06/05)

(Name: Box_2.4)
(Type: G-code from Geometry)
(Units: MM)

(Created on Wednesday, 24 March 2021 at 22:34)

(This preprocessor is the default preprocessor used by FlatCAM.)
(It is made to work with MACH3 compatible motion controllers.)

(TOOL DIAMETER: 2.4 mm)
(Feedrate_XY: 120.0 mm/min)
(Feedrate_Z: 60.0 mm/min)
(Feedrate rapids 1500.0 mm/min)

(Z_Cut: -1.8 mm)
(DepthPerCut: 0.6 mm <=>3 passes)
(Z_Move: 2.0 mm)
(Z Start: None mm)
(Z End: 15.0 mm)
(Steps per circle: 64)
(Preprocessor Geometry: default)

(X range:   -5.8000 ...  188.8384  mm)
(Y range:   -5.8000 ...  107.3050  mm)

(Spindle Speed: None RPM)
G21
G90
G94



G01 F120.00
G00 Z2.0000

M03
G00 X-5.8000 Y48.0000
G01 F60.00
G01 Z-0.6000
G01 F120.00
G01 X-5.8000 Y3.0000
G01 X-5.7576 Y2.1374
G01 X-5.6309 Y1.2832
G01 X-5.4211 Y0.4455
G01 X-5.1301 Y-0.3676
G01 X-4.7609 Y-1.1483
G01 X-4.3169 Y-1.8890
G01 X-3.8025 Y-2.5827
G01 X-3.2225 Y-3.2225
G01 X-2.5827 Y-3.8025
G01 X-1.8890 Y-4.3169
G01 X-1.1483 Y-4.7609
G01 X-0.3676 Y-5.1301
G01 X0.4455 Y-5.4211
G01 X1.2832 Y-5.6309
G01 X2.1374 Y-5.7576
G01 X3.0000 Y-5.8000
G01 X88.0000 Y-5.8000
G00 X88.0000 Y-5.8000
G01 F60.00
G01 Z-1.2000
G01 F120.00
G01 X3.0000 Y-5.8000
G01 X2.1374 Y-5.7576
G01 X1.2832 Y-5.6309
G01 X0.4455 Y-5.4211
G01 X-0.3676 Y-5.1301
G01 X-1.1483 Y-4.7609
G01 X-1.8890 Y-4.3169
G01 X-2.5827 Y-3.8025
G01 X-3.2225 Y-3.2225
G01 X-3.8025 Y-2.5827
G01 X-4.3169 Y-1.8890
G01 X-4.7609 Y-1.1483
G01 X-5.1301 Y-0.3676
G01 X-5.4211 Y0.4455
G01 X-5.6309 Y1.2832
G01 X-5.7576 Y2.1374
G01 X-5.8000 Y3.0000
G01 X-5.8000 Y48.0000
G00 X-5.8000 Y48.0000
G01 F60.00
G01 Z-1.8000
G01 F120.00
G01 X-5.8000 Y3.0000
G01 X-5.7576 Y2.1374
G01 X-5.6309 Y1.2832
G01 X-5.4211 Y0.4455
G01 X-5.1301 Y-0.3676
G01 X-4.7609 Y-1.1483
G01 X-4.3169 Y-1.8890
G01 X-3.8025 Y-2.5827
G01 X-3.2225 Y-3.2225
G01 X-2.5827 Y-3.8025
G01 X-1.8890 Y-4.3169
G01 X-1.1483 Y-4.7609
G01 X-0.3676 Y-5.1301
G01 X0.4455 Y-5.4211
G01 X1.2832 Y-5.6309
G01 X2.1374 Y-5.7576
G01 X3.0000 Y-5.8000
G01 X88.0000 Y-5.8000
G00 Z2.0000
G00 X98.0000 Y-5.8000
G01 F60.00
G01 Z-0.6000
G01 F120.00
G01 X180.0384 Y-5.8000
G01 X180.9009 Y-5.7576
G01 X181.7552 Y-5.6309
G01 X182.5929 Y-5.4211
G01 X183.4060 Y-5.1301
G01 X184.1867 Y-4.7609
G01 X184.9274 Y-4.3169
G01 X185.6210 Y-3.8025
G01 X186.2609 Y-3.2225
G01 X186.8409 Y-2.5827
G01 X187.3553 Y-1.8890
G01 X187.7993 Y-1.1483
G01 X188.1685 Y-0.3676
G01 X188.4595 Y0.4455
G01 X188.6693 Y1.2832
G01 X188.7960 Y2.1374
G01 X188.8384 Y3.0000
G01 X188.8384 Y48.0000
G00 X188.8384 Y48.0000
G01 F60.00
G01 Z-1.2000
G01 F120.00
G01 X188.8384 Y3.0000
G01 X188.7960 Y2.1374
G01 X188.6693 Y1.2832
G01 X188.4595 Y0.4455
G01 X188.1685 Y-0.3676
G01 X187.7993 Y-1.1483
G01 X187.3553 Y-1.8890
G01 X186.8409 Y-2.5827
G01 X186.2609 Y-3.2225
G01 X185.6210 Y-3.8025
G01 X184.9274 Y-4.3169
G01 X184.1867 Y-4.7609
G01 X183.4060 Y-5.1301
G01 X182.5929 Y-5.4211
G01 X181.7552 Y-5.6309
G01 X180.9009 Y-5.7576
G01 X180.0384 Y-5.8000
G01 X98.0000 Y-5.8000
G00 X98.0000 Y-5.8000
G01 F60.00
G01 Z-1.8000
G01 F120.00
G01 X180.0384 Y-5.8000
G01 X180.9009 Y-5.7576
G01 X181.7552 Y-5.6309
G01 X182.5929 Y-5.4211
G01 X183.4060 Y-5.1301
G01 X184.1867 Y-4.7609
G01 X184.9274 Y-4.3169
G01 X185.6210 Y-3.8025
G01 X186.2609 Y-3.2225
G01 X186.8409 Y-2.5827
G01 X187.3553 Y-1.8890
G01 X187.7993 Y-1.1483
G01 X188.1685 Y-0.3676
G01 X188.4595 Y0.4455
G01 X188.6693 Y1.2832
G01 X188.7960 Y2.1374
G01 X188.8384 Y3.0000
G01 X188.8384 Y48.0000
G00 Z2.0000
G00 X188.8384 Y58.0000
G01 F60.00
G01 Z-0.6000
G01 F120.00
G01 X188.8384 Y98.5050
G01 X188.7960 Y99.3675
G01 X188.6693 Y100.2218
G01 X188.4595 Y101.0595
G01 X188.1685 Y101.8726
G01 X187.7993 Y102.6533
G01 X187.3553 Y103.3940
G01 X186.8409 Y104.0876
G01 X186.2609 Y104.7275
G01 X185.6210 Y105.3075
G01 X184.9274 Y105.8219
G01 X184.1867 Y106.2659
G01 X183.4060 Y106.6351
G01 X182.5929 Y106.9260
G01 X181.7552 Y107.1359
G01 X180.9009 Y107.2626
G01 X180.0384 Y107.3050
G01 X98.0000 Y107.3050
G00 X98.0000 Y107.3050
G01 F60.00
G01 Z-1.2000
G01 F120.00
G01 X180.0384 Y107.3050
G01 X180.9009 Y107.2626
G01 X181.7552 Y107.1359
G01 X182.5929 Y106.9260
G01 X183.4060 Y106.6351
G01 X184.1867 Y106.2659
G01 X184.9274 Y105.8219
G01 X185.6210 Y105.3075
G01 X186.2609 Y104.7275
G01 X186.8409 Y104.0876
G01 X187.3553 Y103.3940
G01 X187.7993 Y102.6533
G01 X188.1685 Y101.8726
G01 X188.4595 Y101.0595
G01 X188.6693 Y100.2218
G01 X188.7960 Y99.3675
G01 X188.8384 Y98.5050
G01 X188.8384 Y58.0000
G00 X188.8384 Y58.0000
G01 F60.00
G01 Z-1.8000
G01 F120.00
G01 X188.8384 Y98.5050
G01 X188.7960 Y99.3675
G01 X188.6693 Y100.2218
G01 X188.4595 Y101.0595
G01 X188.1685 Y101.8726
G01 X187.7993 Y102.6533
G01 X187.3553 Y103.3940
G01 X186.8409 Y104.0876
G01 X186.2609 Y104.7275
G01 X185.6210 Y105.3075
G01 X184.9274 Y105.8219
G01 X184.1867 Y106.2659
G01 X183.4060 Y106.6351
G01 X182.5929 Y106.9260
G01 X181.7552 Y107.1359
G01 X180.9009 Y107.2626
G01 X180.0384 Y107.3050
G01 X98.0000 Y107.3050
G00 Z2.0000
G00 X88.0000 Y107.3050
G01 F60.00
G01 Z-0.6000
G01 F120.00
G01 X3.0000 Y107.3050
G01 X2.1374 Y107.2626
G01 X1.2832 Y107.1359
G01 X0.4455 Y106.9260
G01 X-0.3676 Y106.6351
G01 X-1.1483 Y106.2659
G01 X-1.8890 Y105.8219
G01 X-2.5827 Y105.3075
G01 X-3.2225 Y104.7275
G01 X-3.8025 Y104.0876
G01 X-4.3169 Y103.3940
G01 X-4.7609 Y102.6533
G01 X-5.1301 Y101.8726
G01 X-5.4211 Y101.0595
G01 X-5.6309 Y100.2218
G01 X-5.7576 Y99.3675
G01 X-5.8000 Y98.5050
G01 X-5.8000 Y58.0000
G00 X-5.8000 Y58.0000
G01 F60.00
G01 Z-1.2000
G01 F120.00
G01 X-5.8000 Y98.5050
G01 X-5.7576 Y99.3675
G01 X-5.6309 Y100.2218
G01 X-5.4211 Y101.0595
G01 X-5.1301 Y101.8726
G01 X-4.7609 Y102.6533
G01 X-4.3169 Y103.3940
G01 X-3.8025 Y104.0876
G01 X-3.2225 Y104.7275
G01 X-2.5827 Y105.3075
G01 X-1.8890 Y105.8219
G01 X-1.1483 Y106.2659
G01 X-0.3676 Y106.6351
G01 X0.4455 Y106.9260
G01 X1.2832 Y107.1359
G01 X2.1374 Y107.2626
G01 X3.0000 Y107.3050
G01 X88.0000 Y107.3050
G00 X88.0000 Y107.3050
G01 F60.00
G01 Z-1.8000
G01 F120.00
G01 X3.0000 Y107.3050
G01 X2.1374 Y107.2626
G01 X1.2832 Y107.1359
G01 X0.4455 Y106.9260
G01 X-0.3676 Y106.6351
G01 X-1.1483 Y106.2659
G01 X-1.8890 Y105.8219
G01 X-2.5827 Y105.3075
G01 X-3.2225 Y104.7275
G01 X-3.8025 Y104.0876
G01 X-4.3169 Y103.3940
G01 X-4.7609 Y102.6533
G01 X-5.1301 Y101.8726
G01 X-5.4211 Y101.0595
G01 X-5.6309 Y100.2218
G01 X-5.7576 Y99.3675
G01 X-5.8000 Y98.5050
G01 X-5.8000 Y58.0000
G00 Z2.0000
M05
G00 Z2.0000
G00 Z15.00

