(G-CODE GENERATED BY FLATCAM v8.993 - www.flatcam.org - Version Date: 2020/06/05)

(Name: Outline_2.4)
(Type: G-code from Geometry)
(Units: MM)

(Created on Wednesday, 24 March 2021 at 22:34)

(This preprocessor is the default preprocessor used by FlatCAM.)
(It is made to work with MACH3 compatible motion controllers.)

(TOOL DIAMETER: 2.4 mm)
(Feedrate_XY: 120.0 mm/min)
(Feedrate_Z: 60.0 mm/min)
(Feedrate rapids 1500.0 mm/min)

(Z_Cut: -1.8 mm)
(DepthPerCut: 0.6 mm <=>3 passes)
(Z_Move: 2.0 mm)
(Z Start: None mm)
(Z End: 15.0 mm)
(Steps per circle: 64)
(Preprocessor Geometry: default)

(X range:    1.8000 ...  181.2384  mm)
(Y range:    1.8000 ...   99.7050  mm)

(Spindle Speed: None RPM)
G21
G90
G94



G01 F120.00
G00 Z2.0000

M03
G00 X43.0000 Y1.8000
G01 F60.00
G01 Z-0.6000
G01 F120.00
G01 X8.9692 Y1.8000
G01 X8.9210 Y1.8008
G01 X8.8916 Y1.8019
G01 X8.3439 Y1.8288
G01 X8.2851 Y1.8331
G01 X8.2479 Y1.8368
G01 X8.1895 Y1.8440
G01 X7.6470 Y1.9245
G01 X7.5890 Y1.9346
G01 X7.5523 Y1.9419
G01 X7.4948 Y1.9548
G01 X6.9629 Y2.0880
G01 X6.9061 Y2.1037
G01 X6.8703 Y2.1146
G01 X6.8144 Y2.1330
G01 X6.2981 Y2.3178
G01 X6.2431 Y2.3390
G01 X6.2086 Y2.3533
G01 X6.1547 Y2.3772
G01 X5.6590 Y2.6116
G01 X5.6064 Y2.6381
G01 X5.5734 Y2.6558
G01 X5.5221 Y2.6848
G01 X5.0518 Y2.9667
G01 X5.0020 Y2.9982
G01 X4.9709 Y3.0190
G01 X4.9227 Y3.0529
G01 X4.4823 Y3.3796
G01 X4.4359 Y3.4158
G01 X4.4069 Y3.4396
G01 X4.3623 Y3.4780
G01 X3.9560 Y3.8463
G01 X3.9134 Y3.8869
G01 X3.8869 Y3.9134
G01 X3.8463 Y3.9560
G01 X3.4780 Y4.3623
G01 X3.4396 Y4.4069
G01 X3.4158 Y4.4359
G01 X3.3796 Y4.4823
G01 X3.0529 Y4.9227
G01 X3.0190 Y4.9709
G01 X2.9982 Y5.0020
G01 X2.9667 Y5.0518
G01 X2.6848 Y5.5221
G01 X2.6558 Y5.5734
G01 X2.6381 Y5.6064
G01 X2.6116 Y5.6590
G01 X2.3772 Y6.1547
G01 X2.3533 Y6.2086
G01 X2.3390 Y6.2431
G01 X2.3178 Y6.2981
G01 X2.1330 Y6.8144
G01 X2.1146 Y6.8703
G01 X2.1037 Y6.9061
G01 X2.0880 Y6.9629
G01 X1.9548 Y7.4948
G01 X1.9419 Y7.5523
G01 X1.9346 Y7.5890
G01 X1.9245 Y7.6470
G01 X1.8440 Y8.1895
G01 X1.8368 Y8.2479
G01 X1.8331 Y8.2851
G01 X1.8288 Y8.3439
G01 X1.8019 Y8.8916
G01 X1.8008 Y8.9210
G01 X1.8000 Y8.9692
G01 X1.8000 Y48.0000
G00 X1.8000 Y48.0000
G01 F60.00
G01 Z-1.2000
G01 F120.00
G01 X1.8000 Y8.9692
G01 X1.8008 Y8.9210
G01 X1.8019 Y8.8916
G01 X1.8288 Y8.3439
G01 X1.8331 Y8.2851
G01 X1.8368 Y8.2479
G01 X1.8440 Y8.1895
G01 X1.9245 Y7.6470
G01 X1.9346 Y7.5890
G01 X1.9419 Y7.5523
G01 X1.9548 Y7.4948
G01 X2.0880 Y6.9629
G01 X2.1037 Y6.9061
G01 X2.1146 Y6.8703
G01 X2.1330 Y6.8144
G01 X2.3178 Y6.2981
G01 X2.3390 Y6.2431
G01 X2.3533 Y6.2086
G01 X2.3772 Y6.1547
G01 X2.6116 Y5.6590
G01 X2.6381 Y5.6064
G01 X2.6558 Y5.5734
G01 X2.6848 Y5.5221
G01 X2.9667 Y5.0518
G01 X2.9982 Y5.0020
G01 X3.0190 Y4.9709
G01 X3.0529 Y4.9227
G01 X3.3796 Y4.4823
G01 X3.4158 Y4.4359
G01 X3.4396 Y4.4069
G01 X3.4780 Y4.3623
G01 X3.8463 Y3.9560
G01 X3.8869 Y3.9134
G01 X3.9134 Y3.8869
G01 X3.9560 Y3.8463
G01 X4.3623 Y3.4780
G01 X4.4069 Y3.4396
G01 X4.4359 Y3.4158
G01 X4.4823 Y3.3796
G01 X4.9227 Y3.0529
G01 X4.9709 Y3.0190
G01 X5.0020 Y2.9982
G01 X5.0518 Y2.9667
G01 X5.5221 Y2.6848
G01 X5.5734 Y2.6558
G01 X5.6064 Y2.6381
G01 X5.6590 Y2.6116
G01 X6.1547 Y2.3772
G01 X6.2086 Y2.3533
G01 X6.2431 Y2.3390
G01 X6.2981 Y2.3178
G01 X6.8144 Y2.1330
G01 X6.8703 Y2.1146
G01 X6.9061 Y2.1037
G01 X6.9629 Y2.0880
G01 X7.4948 Y1.9548
G01 X7.5523 Y1.9419
G01 X7.5890 Y1.9346
G01 X7.6470 Y1.9245
G01 X8.1895 Y1.8440
G01 X8.2479 Y1.8368
G01 X8.2851 Y1.8331
G01 X8.3439 Y1.8288
G01 X8.8916 Y1.8019
G01 X8.9210 Y1.8008
G01 X8.9692 Y1.8000
G01 X43.0000 Y1.8000
G00 X43.0000 Y1.8000
G01 F60.00
G01 Z-1.8000
G01 F120.00
G01 X8.9692 Y1.8000
G01 X8.9210 Y1.8008
G01 X8.8916 Y1.8019
G01 X8.3439 Y1.8288
G01 X8.2851 Y1.8331
G01 X8.2479 Y1.8368
G01 X8.1895 Y1.8440
G01 X7.6470 Y1.9245
G01 X7.5890 Y1.9346
G01 X7.5523 Y1.9419
G01 X7.4948 Y1.9548
G01 X6.9629 Y2.0880
G01 X6.9061 Y2.1037
G01 X6.8703 Y2.1146
G01 X6.8144 Y2.1330
G01 X6.2981 Y2.3178
G01 X6.2431 Y2.3390
G01 X6.2086 Y2.3533
G01 X6.1547 Y2.3772
G01 X5.6590 Y2.6116
G01 X5.6064 Y2.6381
G01 X5.5734 Y2.6558
G01 X5.5221 Y2.6848
G01 X5.0518 Y2.9667
G01 X5.0020 Y2.9982
G01 X4.9709 Y3.0190
G01 X4.9227 Y3.0529
G01 X4.4823 Y3.3796
G01 X4.4359 Y3.4158
G01 X4.4069 Y3.4396
G01 X4.3623 Y3.4780
G01 X3.9560 Y3.8463
G01 X3.9134 Y3.8869
G01 X3.8869 Y3.9134
G01 X3.8463 Y3.9560
G01 X3.4780 Y4.3623
G01 X3.4396 Y4.4069
G01 X3.4158 Y4.4359
G01 X3.3796 Y4.4823
G01 X3.0529 Y4.9227
G01 X3.0190 Y4.9709
G01 X2.9982 Y5.0020
G01 X2.9667 Y5.0518
G01 X2.6848 Y5.5221
G01 X2.6558 Y5.5734
G01 X2.6381 Y5.6064
G01 X2.6116 Y5.6590
G01 X2.3772 Y6.1547
G01 X2.3533 Y6.2086
G01 X2.3390 Y6.2431
G01 X2.3178 Y6.2981
G01 X2.1330 Y6.8144
G01 X2.1146 Y6.8703
G01 X2.1037 Y6.9061
G01 X2.0880 Y6.9629
G01 X1.9548 Y7.4948
G01 X1.9419 Y7.5523
G01 X1.9346 Y7.5890
G01 X1.9245 Y7.6470
G01 X1.8440 Y8.1895
G01 X1.8368 Y8.2479
G01 X1.8331 Y8.2851
G01 X1.8288 Y8.3439
G01 X1.8019 Y8.8916
G01 X1.8008 Y8.9210
G01 X1.8000 Y8.9692
G01 X1.8000 Y48.0000
G00 Z2.0000
G00 X1.8000 Y58.0000
G01 F60.00
G01 Z-0.6000
G01 F120.00
G01 X1.8000 Y92.7892
G01 X1.8014 Y92.8481
G01 X1.8033 Y92.8854
G01 X1.8148 Y93.0026
G01 X1.8203 Y93.0396
G01 X1.8220 Y93.0481
G01 X1.8255 Y93.1245
G01 X1.8294 Y93.1797
G01 X1.8326 Y93.2148
G01 X1.8390 Y93.2698
G01 X1.9103 Y93.7810
G01 X1.9192 Y93.8357
G01 X1.9257 Y93.8703
G01 X1.9371 Y93.9246
G01 X2.0553 Y94.4270
G01 X2.0693 Y94.4807
G01 X2.0789 Y94.5145
G01 X2.0953 Y94.5675
G01 X2.2593 Y95.0569
G01 X2.2781 Y95.1090
G01 X2.2909 Y95.1418
G01 X2.3121 Y95.1931
G01 X2.5206 Y95.6652
G01 X2.5441 Y95.7154
G01 X2.5598 Y95.7469
G01 X2.5857 Y95.7960
G01 X2.8368 Y96.2469
G01 X2.8649 Y96.2947
G01 X2.8834 Y96.3246
G01 X2.9137 Y96.3711
G01 X3.2054 Y96.7969
G01 X3.2378 Y96.8419
G01 X3.2590 Y96.8700
G01 X3.2934 Y96.9134
G01 X3.6231 Y97.3105
G01 X3.6595 Y97.3523
G01 X3.6833 Y97.3784
G01 X3.7215 Y97.4185
G01 X4.0865 Y97.7834
G01 X4.1266 Y97.8217
G01 X4.1526 Y97.8454
G01 X4.1944 Y97.8818
G01 X4.5915 Y98.2116
G01 X4.6350 Y98.2460
G01 X4.6631 Y98.2672
G01 X4.7081 Y98.2996
G01 X5.1339 Y98.5913
G01 X5.1803 Y98.6215
G01 X5.2103 Y98.6401
G01 X5.2581 Y98.6681
G01 X5.7090 Y98.9193
G01 X5.7580 Y98.9452
G01 X5.7895 Y98.9608
G01 X5.8397 Y98.9844
G01 X6.3119 Y99.1929
G01 X6.3631 Y99.2141
G01 X6.3959 Y99.2268
G01 X6.4481 Y99.2456
G01 X6.9375 Y99.4097
G01 X6.9904 Y99.4261
G01 X7.0243 Y99.4357
G01 X7.0779 Y99.4496
G01 X7.5804 Y99.5678
G01 X7.6346 Y99.5793
G01 X7.6692 Y99.5857
G01 X7.7239 Y99.5947
G01 X8.2351 Y99.6660
G01 X8.2902 Y99.6723
G01 X8.3253 Y99.6756
G01 X8.3806 Y99.6794
G01 X8.8962 Y99.7033
G01 X8.9415 Y99.7046
G01 X8.9693 Y99.7050
G01 X43.0000 Y99.7036
G00 X43.0000 Y99.7036
G01 F60.00
G01 Z-1.2000
G01 F120.00
G01 X8.9693 Y99.7050
G01 X8.9415 Y99.7046
G01 X8.8962 Y99.7033
G01 X8.3806 Y99.6794
G01 X8.3253 Y99.6756
G01 X8.2902 Y99.6723
G01 X8.2351 Y99.6660
G01 X7.7239 Y99.5947
G01 X7.6692 Y99.5857
G01 X7.6346 Y99.5793
G01 X7.5804 Y99.5678
G01 X7.0779 Y99.4496
G01 X7.0243 Y99.4357
G01 X6.9904 Y99.4261
G01 X6.9375 Y99.4097
G01 X6.4481 Y99.2456
G01 X6.3959 Y99.2268
G01 X6.3631 Y99.2141
G01 X6.3119 Y99.1929
G01 X5.8397 Y98.9844
G01 X5.7895 Y98.9608
G01 X5.7580 Y98.9452
G01 X5.7090 Y98.9193
G01 X5.2581 Y98.6681
G01 X5.2103 Y98.6401
G01 X5.1803 Y98.6215
G01 X5.1339 Y98.5913
G01 X4.7081 Y98.2996
G01 X4.6631 Y98.2672
G01 X4.6350 Y98.2460
G01 X4.5915 Y98.2116
G01 X4.1944 Y97.8818
G01 X4.1526 Y97.8454
G01 X4.1266 Y97.8217
G01 X4.0865 Y97.7834
G01 X3.7215 Y97.4185
G01 X3.6833 Y97.3784
G01 X3.6595 Y97.3523
G01 X3.6231 Y97.3105
G01 X3.2934 Y96.9134
G01 X3.2590 Y96.8700
G01 X3.2378 Y96.8419
G01 X3.2054 Y96.7969
G01 X2.9137 Y96.3711
G01 X2.8834 Y96.3246
G01 X2.8649 Y96.2947
G01 X2.8368 Y96.2469
G01 X2.5857 Y95.7960
G01 X2.5598 Y95.7469
G01 X2.5441 Y95.7154
G01 X2.5206 Y95.6652
G01 X2.3121 Y95.1931
G01 X2.2909 Y95.1418
G01 X2.2781 Y95.1090
G01 X2.2593 Y95.0569
G01 X2.0953 Y94.5675
G01 X2.0789 Y94.5145
G01 X2.0693 Y94.4807
G01 X2.0553 Y94.4270
G01 X1.9371 Y93.9246
G01 X1.9257 Y93.8703
G01 X1.9192 Y93.8357
G01 X1.9103 Y93.7810
G01 X1.8390 Y93.2698
G01 X1.8326 Y93.2148
G01 X1.8294 Y93.1797
G01 X1.8255 Y93.1245
G01 X1.8220 Y93.0481
G01 X1.8203 Y93.0396
G01 X1.8148 Y93.0026
G01 X1.8033 Y92.8854
G01 X1.8014 Y92.8481
G01 X1.8000 Y92.7892
G01 X1.8000 Y58.0000
G00 X1.8000 Y58.0000
G01 F60.00
G01 Z-1.8000
G01 F120.00
G01 X1.8000 Y92.7892
G01 X1.8014 Y92.8481
G01 X1.8033 Y92.8854
G01 X1.8148 Y93.0026
G01 X1.8203 Y93.0396
G01 X1.8220 Y93.0481
G01 X1.8255 Y93.1245
G01 X1.8294 Y93.1797
G01 X1.8326 Y93.2148
G01 X1.8390 Y93.2698
G01 X1.9103 Y93.7810
G01 X1.9192 Y93.8357
G01 X1.9257 Y93.8703
G01 X1.9371 Y93.9246
G01 X2.0553 Y94.4270
G01 X2.0693 Y94.4807
G01 X2.0789 Y94.5145
G01 X2.0953 Y94.5675
G01 X2.2593 Y95.0569
G01 X2.2781 Y95.1090
G01 X2.2909 Y95.1418
G01 X2.3121 Y95.1931
G01 X2.5206 Y95.6652
G01 X2.5441 Y95.7154
G01 X2.5598 Y95.7469
G01 X2.5857 Y95.7960
G01 X2.8368 Y96.2469
G01 X2.8649 Y96.2947
G01 X2.8834 Y96.3246
G01 X2.9137 Y96.3711
G01 X3.2054 Y96.7969
G01 X3.2378 Y96.8419
G01 X3.2590 Y96.8700
G01 X3.2934 Y96.9134
G01 X3.6231 Y97.3105
G01 X3.6595 Y97.3523
G01 X3.6833 Y97.3784
G01 X3.7215 Y97.4185
G01 X4.0865 Y97.7834
G01 X4.1266 Y97.8217
G01 X4.1526 Y97.8454
G01 X4.1944 Y97.8818
G01 X4.5915 Y98.2116
G01 X4.6350 Y98.2460
G01 X4.6631 Y98.2672
G01 X4.7081 Y98.2996
G01 X5.1339 Y98.5913
G01 X5.1803 Y98.6215
G01 X5.2103 Y98.6401
G01 X5.2581 Y98.6681
G01 X5.7090 Y98.9193
G01 X5.7580 Y98.9452
G01 X5.7895 Y98.9608
G01 X5.8397 Y98.9844
G01 X6.3119 Y99.1929
G01 X6.3631 Y99.2141
G01 X6.3959 Y99.2268
G01 X6.4481 Y99.2456
G01 X6.9375 Y99.4097
G01 X6.9904 Y99.4261
G01 X7.0243 Y99.4357
G01 X7.0779 Y99.4496
G01 X7.5804 Y99.5678
G01 X7.6346 Y99.5793
G01 X7.6692 Y99.5857
G01 X7.7239 Y99.5947
G01 X8.2351 Y99.6660
G01 X8.2902 Y99.6723
G01 X8.3253 Y99.6756
G01 X8.3806 Y99.6794
G01 X8.8962 Y99.7033
G01 X8.9415 Y99.7046
G01 X8.9693 Y99.7050
G01 X43.0000 Y99.7036
G00 Z2.0000
G00 X53.0000 Y99.7032
G01 F60.00
G01 Z-0.6000
G01 F120.00
G01 X80.9783 Y99.7020
G01 X81.0417 Y99.7004
G01 X81.1641 Y99.7006
G01 X81.2014 Y99.6988
G01 X81.3186 Y99.6872
G01 X81.3556 Y99.6817
G01 X81.4711 Y99.6588
G01 X81.5074 Y99.6497
G01 X81.6201 Y99.6155
G01 X81.6553 Y99.6029
G01 X81.7641 Y99.5578
G01 X81.7979 Y99.5418
G01 X81.9018 Y99.4863
G01 X81.9339 Y99.4671
G01 X82.0318 Y99.4016
G01 X82.0619 Y99.3794
G01 X82.1529 Y99.3047
G01 X82.1806 Y99.2795
G01 X82.2233 Y99.2389
G01 X98.5241 Y82.9381
G01 X133.0000 Y82.9391
G00 X133.0000 Y82.9391
G01 F60.00
G01 Z-1.2000
G01 F120.00
G01 X98.5241 Y82.9381
G01 X82.2233 Y99.2389
G01 X82.1806 Y99.2795
G01 X82.1529 Y99.3047
G01 X82.0619 Y99.3794
G01 X82.0318 Y99.4016
G01 X81.9339 Y99.4671
G01 X81.9018 Y99.4863
G01 X81.7979 Y99.5418
G01 X81.7641 Y99.5578
G01 X81.6553 Y99.6029
G01 X81.6201 Y99.6155
G01 X81.5074 Y99.6497
G01 X81.4711 Y99.6588
G01 X81.3556 Y99.6817
G01 X81.3186 Y99.6872
G01 X81.2014 Y99.6988
G01 X81.1641 Y99.7006
G01 X81.0417 Y99.7004
G01 X80.9783 Y99.7020
G01 X53.0000 Y99.7032
G00 X53.0000 Y99.7032
G01 F60.00
G01 Z-1.8000
G01 F120.00
G01 X80.9783 Y99.7020
G01 X81.0417 Y99.7004
G01 X81.1641 Y99.7006
G01 X81.2014 Y99.6988
G01 X81.3186 Y99.6872
G01 X81.3556 Y99.6817
G01 X81.4711 Y99.6588
G01 X81.5074 Y99.6497
G01 X81.6201 Y99.6155
G01 X81.6553 Y99.6029
G01 X81.7641 Y99.5578
G01 X81.7979 Y99.5418
G01 X81.9018 Y99.4863
G01 X81.9339 Y99.4671
G01 X82.0318 Y99.4016
G01 X82.0619 Y99.3794
G01 X82.1529 Y99.3047
G01 X82.1806 Y99.2795
G01 X82.2233 Y99.2389
G01 X98.5241 Y82.9381
G01 X133.0000 Y82.9391
G00 Z2.0000
G00 X143.0000 Y82.9394
G01 F60.00
G01 Z-0.6000
G01 F120.00
G01 X174.0691 Y82.9404
G01 X174.1173 Y82.9396
G01 X174.1468 Y82.9385
G01 X174.6945 Y82.9116
G01 X174.7532 Y82.9072
G01 X174.7905 Y82.9036
G01 X174.8489 Y82.8964
G01 X175.3914 Y82.8159
G01 X175.4494 Y82.8058
G01 X175.4861 Y82.7985
G01 X175.5436 Y82.7856
G01 X176.0755 Y82.6524
G01 X176.1323 Y82.6367
G01 X176.1681 Y82.6258
G01 X176.2240 Y82.6073
G01 X176.7403 Y82.4226
G01 X176.7953 Y82.4014
G01 X176.8298 Y82.3871
G01 X176.8837 Y82.3632
G01 X177.3794 Y82.1287
G01 X177.4320 Y82.1023
G01 X177.4650 Y82.0846
G01 X177.5162 Y82.0556
G01 X177.9866 Y81.7737
G01 X178.0364 Y81.7422
G01 X178.0675 Y81.7214
G01 X178.1156 Y81.6875
G01 X178.5561 Y81.3608
G01 X178.6025 Y81.3246
G01 X178.6314 Y81.3008
G01 X178.6760 Y81.2624
G01 X179.0824 Y80.8941
G01 X179.1250 Y80.8535
G01 X179.1515 Y80.8270
G01 X179.1921 Y80.7844
G01 X179.5604 Y80.3780
G01 X179.5988 Y80.3334
G01 X179.6226 Y80.3045
G01 X179.6588 Y80.2581
G01 X179.9855 Y79.8176
G01 X180.0194 Y79.7695
G01 X180.0402 Y79.7384
G01 X180.0717 Y79.6886
G01 X180.3536 Y79.2182
G01 X180.3826 Y79.1670
G01 X180.4003 Y79.1340
G01 X180.4267 Y79.0814
G01 X180.6612 Y78.5857
G01 X180.6851 Y78.5318
G01 X180.6994 Y78.4973
G01 X180.7206 Y78.4423
G01 X180.9053 Y77.9260
G01 X180.9238 Y77.8701
G01 X180.9347 Y77.8343
G01 X180.9504 Y77.7775
G01 X181.0836 Y77.2456
G01 X181.0965 Y77.1881
G01 X181.1038 Y77.1514
G01 X181.1139 Y77.0934
G01 X181.1944 Y76.5509
G01 X181.2016 Y76.4925
G01 X181.2052 Y76.4552
G01 X181.2096 Y76.3965
G01 X181.2365 Y75.8488
G01 X181.2381 Y75.7957
G01 X181.2384 Y75.7632
G01 X181.1482 Y58.0000
G00 X181.1482 Y58.0000
G01 F60.00
G01 Z-1.2000
G01 F120.00
G01 X181.2384 Y75.7632
G01 X181.2381 Y75.7957
G01 X181.2365 Y75.8488
G01 X181.2096 Y76.3965
G01 X181.2052 Y76.4552
G01 X181.2016 Y76.4925
G01 X181.1944 Y76.5509
G01 X181.1139 Y77.0934
G01 X181.1038 Y77.1514
G01 X181.0965 Y77.1881
G01 X181.0836 Y77.2456
G01 X180.9504 Y77.7775
G01 X180.9347 Y77.8343
G01 X180.9238 Y77.8701
G01 X180.9053 Y77.9260
G01 X180.7206 Y78.4423
G01 X180.6994 Y78.4973
G01 X180.6851 Y78.5318
G01 X180.6612 Y78.5857
G01 X180.4267 Y79.0814
G01 X180.4003 Y79.1340
G01 X180.3826 Y79.1670
G01 X180.3536 Y79.2182
G01 X180.0717 Y79.6886
G01 X180.0402 Y79.7384
G01 X180.0194 Y79.7695
G01 X179.9855 Y79.8176
G01 X179.6588 Y80.2581
G01 X179.6226 Y80.3045
G01 X179.5988 Y80.3334
G01 X179.5604 Y80.3780
G01 X179.1921 Y80.7844
G01 X179.1515 Y80.8270
G01 X179.1250 Y80.8535
G01 X179.0824 Y80.8941
G01 X178.6760 Y81.2624
G01 X178.6314 Y81.3008
G01 X178.6025 Y81.3246
G01 X178.5561 Y81.3608
G01 X178.1156 Y81.6875
G01 X178.0675 Y81.7214
G01 X178.0364 Y81.7422
G01 X177.9866 Y81.7737
G01 X177.5162 Y82.0556
G01 X177.4650 Y82.0846
G01 X177.4320 Y82.1023
G01 X177.3794 Y82.1287
G01 X176.8837 Y82.3632
G01 X176.8298 Y82.3871
G01 X176.7953 Y82.4014
G01 X176.7403 Y82.4226
G01 X176.2240 Y82.6073
G01 X176.1681 Y82.6258
G01 X176.1323 Y82.6367
G01 X176.0755 Y82.6524
G01 X175.5436 Y82.7856
G01 X175.4861 Y82.7985
G01 X175.4494 Y82.8058
G01 X175.3914 Y82.8159
G01 X174.8489 Y82.8964
G01 X174.7905 Y82.9036
G01 X174.7532 Y82.9072
G01 X174.6945 Y82.9116
G01 X174.1468 Y82.9385
G01 X174.1173 Y82.9396
G01 X174.0691 Y82.9404
G01 X143.0000 Y82.9394
G00 X143.0000 Y82.9394
G01 F60.00
G01 Z-1.8000
G01 F120.00
G01 X174.0691 Y82.9404
G01 X174.1173 Y82.9396
G01 X174.1468 Y82.9385
G01 X174.6945 Y82.9116
G01 X174.7532 Y82.9072
G01 X174.7905 Y82.9036
G01 X174.8489 Y82.8964
G01 X175.3914 Y82.8159
G01 X175.4494 Y82.8058
G01 X175.4861 Y82.7985
G01 X175.5436 Y82.7856
G01 X176.0755 Y82.6524
G01 X176.1323 Y82.6367
G01 X176.1681 Y82.6258
G01 X176.2240 Y82.6073
G01 X176.7403 Y82.4226
G01 X176.7953 Y82.4014
G01 X176.8298 Y82.3871
G01 X176.8837 Y82.3632
G01 X177.3794 Y82.1287
G01 X177.4320 Y82.1023
G01 X177.4650 Y82.0846
G01 X177.5162 Y82.0556
G01 X177.9866 Y81.7737
G01 X178.0364 Y81.7422
G01 X178.0675 Y81.7214
G01 X178.1156 Y81.6875
G01 X178.5561 Y81.3608
G01 X178.6025 Y81.3246
G01 X178.6314 Y81.3008
G01 X178.6760 Y81.2624
G01 X179.0824 Y80.8941
G01 X179.1250 Y80.8535
G01 X179.1515 Y80.8270
G01 X179.1921 Y80.7844
G01 X179.5604 Y80.3780
G01 X179.5988 Y80.3334
G01 X179.6226 Y80.3045
G01 X179.6588 Y80.2581
G01 X179.9855 Y79.8176
G01 X180.0194 Y79.7695
G01 X180.0402 Y79.7384
G01 X180.0717 Y79.6886
G01 X180.3536 Y79.2182
G01 X180.3826 Y79.1670
G01 X180.4003 Y79.1340
G01 X180.4267 Y79.0814
G01 X180.6612 Y78.5857
G01 X180.6851 Y78.5318
G01 X180.6994 Y78.4973
G01 X180.7206 Y78.4423
G01 X180.9053 Y77.9260
G01 X180.9238 Y77.8701
G01 X180.9347 Y77.8343
G01 X180.9504 Y77.7775
G01 X181.0836 Y77.2456
G01 X181.0965 Y77.1881
G01 X181.1038 Y77.1514
G01 X181.1139 Y77.0934
G01 X181.1944 Y76.5509
G01 X181.2016 Y76.4925
G01 X181.2052 Y76.4552
G01 X181.2096 Y76.3965
G01 X181.2365 Y75.8488
G01 X181.2381 Y75.7957
G01 X181.2384 Y75.7632
G01 X181.1482 Y58.0000
G00 Z2.0000
G00 X181.0974 Y48.0000
G01 F60.00
G01 Z-0.6000
G01 F120.00
G01 X180.9844 Y25.7252
G01 X180.9838 Y25.6935
G01 X180.9825 Y25.6579
G01 X180.9556 Y25.1102
G01 X180.9512 Y25.0515
G01 X180.9476 Y25.0143
G01 X180.9404 Y24.9558
G01 X180.8599 Y24.4134
G01 X180.8498 Y24.3553
G01 X180.8425 Y24.3186
G01 X180.8296 Y24.2612
G01 X180.6964 Y23.7292
G01 X180.6807 Y23.6725
G01 X180.6698 Y23.6367
G01 X180.6513 Y23.5807
G01 X180.4666 Y23.0644
G01 X180.4454 Y23.0095
G01 X180.4311 Y22.9749
G01 X180.4072 Y22.9210
G01 X180.1727 Y22.4253
G01 X180.1463 Y22.3727
G01 X180.1286 Y22.3397
G01 X180.0996 Y22.2885
G01 X179.8177 Y21.8181
G01 X179.7862 Y21.7683
G01 X179.7654 Y21.7372
G01 X179.7315 Y21.6891
G01 X179.4048 Y21.2486
G01 X179.3686 Y21.2022
G01 X179.3448 Y21.1733
G01 X179.3064 Y21.1287
G01 X178.9381 Y20.7224
G01 X178.8975 Y20.6797
G01 X178.8710 Y20.6532
G01 X178.8284 Y20.6126
G01 X178.4220 Y20.2444
G01 X178.3774 Y20.2059
G01 X178.3485 Y20.1822
G01 X178.3021 Y20.1459
G01 X177.8616 Y19.8193
G01 X177.8135 Y19.7853
G01 X177.7824 Y19.7646
G01 X177.7326 Y19.7330
G01 X177.2622 Y19.4511
G01 X177.2110 Y19.4221
G01 X177.1780 Y19.4045
G01 X177.1254 Y19.3780
G01 X176.6297 Y19.1435
G01 X176.5758 Y19.1196
G01 X176.5413 Y19.1053
G01 X176.4863 Y19.0841
G01 X175.9700 Y18.8994
G01 X175.9141 Y18.8809
G01 X175.8783 Y18.8701
G01 X175.8215 Y18.8543
G01 X175.2896 Y18.7211
G01 X175.2321 Y18.7082
G01 X175.1954 Y18.7009
G01 X175.1374 Y18.6908
G01 X174.5949 Y18.6104
G01 X174.5365 Y18.6032
G01 X174.4992 Y18.5995
G01 X174.4405 Y18.5952
G01 X173.8928 Y18.5682
G01 X173.8447 Y18.5667
G01 X173.8152 Y18.5663
G01 X143.0000 Y18.5654
G00 X143.0000 Y18.5654
G01 F60.00
G01 Z-1.2000
G01 F120.00
G01 X173.8152 Y18.5663
G01 X173.8447 Y18.5667
G01 X173.8928 Y18.5682
G01 X174.4405 Y18.5952
G01 X174.4992 Y18.5995
G01 X174.5365 Y18.6032
G01 X174.5949 Y18.6104
G01 X175.1374 Y18.6908
G01 X175.1954 Y18.7009
G01 X175.2321 Y18.7082
G01 X175.2896 Y18.7211
G01 X175.8215 Y18.8543
G01 X175.8783 Y18.8701
G01 X175.9141 Y18.8809
G01 X175.9700 Y18.8994
G01 X176.4863 Y19.0841
G01 X176.5413 Y19.1053
G01 X176.5758 Y19.1196
G01 X176.6297 Y19.1435
G01 X177.1254 Y19.3780
G01 X177.1780 Y19.4045
G01 X177.2110 Y19.4221
G01 X177.2622 Y19.4511
G01 X177.7326 Y19.7330
G01 X177.7824 Y19.7646
G01 X177.8135 Y19.7853
G01 X177.8616 Y19.8193
G01 X178.3021 Y20.1459
G01 X178.3485 Y20.1822
G01 X178.3774 Y20.2059
G01 X178.4220 Y20.2444
G01 X178.8284 Y20.6126
G01 X178.8710 Y20.6532
G01 X178.8975 Y20.6797
G01 X178.9381 Y20.7224
G01 X179.3064 Y21.1287
G01 X179.3448 Y21.1733
G01 X179.3686 Y21.2022
G01 X179.4048 Y21.2486
G01 X179.7315 Y21.6891
G01 X179.7654 Y21.7372
G01 X179.7862 Y21.7683
G01 X179.8177 Y21.8181
G01 X180.0996 Y22.2885
G01 X180.1286 Y22.3397
G01 X180.1463 Y22.3727
G01 X180.1727 Y22.4253
G01 X180.4072 Y22.9210
G01 X180.4311 Y22.9749
G01 X180.4454 Y23.0095
G01 X180.4666 Y23.0644
G01 X180.6513 Y23.5807
G01 X180.6698 Y23.6367
G01 X180.6807 Y23.6725
G01 X180.6964 Y23.7292
G01 X180.8296 Y24.2612
G01 X180.8425 Y24.3186
G01 X180.8498 Y24.3553
G01 X180.8599 Y24.4134
G01 X180.9404 Y24.9558
G01 X180.9476 Y25.0143
G01 X180.9512 Y25.0515
G01 X180.9556 Y25.1102
G01 X180.9825 Y25.6579
G01 X180.9838 Y25.6935
G01 X180.9844 Y25.7252
G01 X181.0974 Y48.0000
G00 X181.0974 Y48.0000
G01 F60.00
G01 Z-1.8000
G01 F120.00
G01 X180.9844 Y25.7252
G01 X180.9838 Y25.6935
G01 X180.9825 Y25.6579
G01 X180.9556 Y25.1102
G01 X180.9512 Y25.0515
G01 X180.9476 Y25.0143
G01 X180.9404 Y24.9558
G01 X180.8599 Y24.4134
G01 X180.8498 Y24.3553
G01 X180.8425 Y24.3186
G01 X180.8296 Y24.2612
G01 X180.6964 Y23.7292
G01 X180.6807 Y23.6725
G01 X180.6698 Y23.6367
G01 X180.6513 Y23.5807
G01 X180.4666 Y23.0644
G01 X180.4454 Y23.0095
G01 X180.4311 Y22.9749
G01 X180.4072 Y22.9210
G01 X180.1727 Y22.4253
G01 X180.1463 Y22.3727
G01 X180.1286 Y22.3397
G01 X180.0996 Y22.2885
G01 X179.8177 Y21.8181
G01 X179.7862 Y21.7683
G01 X179.7654 Y21.7372
G01 X179.7315 Y21.6891
G01 X179.4048 Y21.2486
G01 X179.3686 Y21.2022
G01 X179.3448 Y21.1733
G01 X179.3064 Y21.1287
G01 X178.9381 Y20.7224
G01 X178.8975 Y20.6797
G01 X178.8710 Y20.6532
G01 X178.8284 Y20.6126
G01 X178.4220 Y20.2444
G01 X178.3774 Y20.2059
G01 X178.3485 Y20.1822
G01 X178.3021 Y20.1459
G01 X177.8616 Y19.8193
G01 X177.8135 Y19.7853
G01 X177.7824 Y19.7646
G01 X177.7326 Y19.7330
G01 X177.2622 Y19.4511
G01 X177.2110 Y19.4221
G01 X177.1780 Y19.4045
G01 X177.1254 Y19.3780
G01 X176.6297 Y19.1435
G01 X176.5758 Y19.1196
G01 X176.5413 Y19.1053
G01 X176.4863 Y19.0841
G01 X175.9700 Y18.8994
G01 X175.9141 Y18.8809
G01 X175.8783 Y18.8701
G01 X175.8215 Y18.8543
G01 X175.2896 Y18.7211
G01 X175.2321 Y18.7082
G01 X175.1954 Y18.7009
G01 X175.1374 Y18.6908
G01 X174.5949 Y18.6104
G01 X174.5365 Y18.6032
G01 X174.4992 Y18.5995
G01 X174.4405 Y18.5952
G01 X173.8928 Y18.5682
G01 X173.8447 Y18.5667
G01 X173.8152 Y18.5663
G01 X143.0000 Y18.5654
G00 Z2.0000
G00 X133.0000 Y18.5651
G01 F60.00
G01 Z-0.6000
G01 F120.00
G01 X98.2702 Y18.5640
G01 X81.9693 Y2.2631
G01 X81.9266 Y2.2225
G01 X81.8989 Y2.1974
G01 X81.8079 Y2.1227
G01 X81.7778 Y2.1004
G01 X81.6799 Y2.0350
G01 X81.6478 Y2.0157
G01 X81.5439 Y1.9602
G01 X81.5101 Y1.9442
G01 X81.4013 Y1.8992
G01 X81.3661 Y1.8866
G01 X81.2534 Y1.8524
G01 X81.2171 Y1.8433
G01 X81.1016 Y1.8203
G01 X81.0646 Y1.8148
G01 X80.9474 Y1.8033
G01 X80.9101 Y1.8014
G01 X80.7877 Y1.8017
G01 X80.7242 Y1.8000
G01 X53.0000 Y1.8000
G00 X53.0000 Y1.8000
G01 F60.00
G01 Z-1.2000
G01 F120.00
G01 X80.7242 Y1.8000
G01 X80.7877 Y1.8017
G01 X80.9101 Y1.8014
G01 X80.9474 Y1.8033
G01 X81.0646 Y1.8148
G01 X81.1016 Y1.8203
G01 X81.2171 Y1.8433
G01 X81.2534 Y1.8524
G01 X81.3661 Y1.8866
G01 X81.4013 Y1.8992
G01 X81.5101 Y1.9442
G01 X81.5439 Y1.9602
G01 X81.6478 Y2.0157
G01 X81.6799 Y2.0350
G01 X81.7778 Y2.1004
G01 X81.8079 Y2.1227
G01 X81.8989 Y2.1974
G01 X81.9266 Y2.2225
G01 X81.9693 Y2.2631
G01 X98.2702 Y18.5640
G01 X133.0000 Y18.5651
G00 X133.0000 Y18.5651
G01 F60.00
G01 Z-1.8000
G01 F120.00
G01 X98.2702 Y18.5640
G01 X81.9693 Y2.2631
G01 X81.9266 Y2.2225
G01 X81.8989 Y2.1974
G01 X81.8079 Y2.1227
G01 X81.7778 Y2.1004
G01 X81.6799 Y2.0350
G01 X81.6478 Y2.0157
G01 X81.5439 Y1.9602
G01 X81.5101 Y1.9442
G01 X81.4013 Y1.8992
G01 X81.3661 Y1.8866
G01 X81.2534 Y1.8524
G01 X81.2171 Y1.8433
G01 X81.1016 Y1.8203
G01 X81.0646 Y1.8148
G01 X80.9474 Y1.8033
G01 X80.9101 Y1.8014
G01 X80.7877 Y1.8017
G01 X80.7242 Y1.8000
G01 X53.0000 Y1.8000
G00 Z2.0000
M05
G00 Z2.0000
G00 Z15.00

