(G-CODE GENERATED BY FLATCAM v8.993 - www.flatcam.org - Version Date: 2020/06/05)

(Name: Drill)
(Type: G-code from Geometry)
(Units: MM)

(Created on Monday, 29 March 2021 at 22:55)

(This preprocessor is the default preprocessor used by FlatCAM.)
(It is made to work with MACH3 compatible motion controllers.)

(TOOL DIAMETER: 1.0 mm)
(Feedrate_XY: 120.0 mm/min)
(Feedrate_Z: 60.0 mm/min)
(Feedrate rapids 1500.0 mm/min)

(Z_Cut: -1.8 mm)
(Z_Move: 2.0 mm)
(Z Start: None mm)
(Z End: 15.0 mm)
(Steps per circle: 64)
(Preprocessor Geometry: default)

(X range:    7.1912 ...  177.3702  mm)
(Y range:    7.1432 ...   94.3612  mm)

(Spindle Speed: None RPM)
G21
G90
G94



G01 F120.00
G00 Z2.0000

M03
G00 X28.7812 Y22.6852
G01 F60.00
G01 Z-1.8000
G01 F120.00
G01 X28.7812 Y22.6852
G01 X28.7812 Y22.6852
G01 X28.7812 Y22.6852
G01 X28.7812 Y22.6852
G00 Z2.0000
G00 X31.3212 Y22.6852
G01 F60.00
G01 Z-1.8000
G01 F120.00
G01 X31.3212 Y22.6852
G01 X31.3212 Y22.6852
G01 X31.3212 Y22.6852
G01 X31.3212 Y22.6852
G00 Z2.0000
G00 X33.8612 Y22.6852
G01 F60.00
G01 Z-1.8000
G01 F120.00
G01 X33.8612 Y22.6852
G01 X33.8612 Y22.6852
G01 X33.8612 Y22.6852
G01 X33.8612 Y22.6852
G00 Z2.0000
G00 X36.4012 Y22.6852
G01 F60.00
G01 Z-1.8000
G01 F120.00
G01 X36.4012 Y22.6852
G01 X36.4012 Y22.6852
G01 X36.4012 Y22.6852
G01 X36.4012 Y22.6852
G00 Z2.0000
G00 X38.9412 Y22.6852
G01 F60.00
G01 Z-1.8000
G01 F120.00
G01 X38.9412 Y22.6852
G01 X38.9412 Y22.6852
G01 X38.9412 Y22.6852
G01 X38.9412 Y22.6852
G00 Z2.0000
G00 X41.4812 Y22.6852
G01 F60.00
G01 Z-1.8000
G01 F120.00
G01 X41.4812 Y22.6852
G01 X41.4812 Y22.6852
G01 X41.4812 Y22.6852
G01 X41.4812 Y22.6852
G00 Z2.0000
G00 X44.0212 Y22.6852
G01 F60.00
G01 Z-1.8000
G01 F120.00
G01 X44.0212 Y22.6852
G01 X44.0212 Y22.6852
G01 X44.0212 Y22.6852
G01 X44.0212 Y22.6852
G00 Z2.0000
G00 X46.5612 Y22.6852
G01 F60.00
G01 Z-1.8000
G01 F120.00
G01 X46.5612 Y22.6852
G01 X46.5612 Y22.6852
G01 X46.5612 Y22.6852
G01 X46.5612 Y22.6852
G00 Z2.0000
G00 X46.5622 Y26.7492
G01 F60.00
G01 Z-1.8000
G01 F120.00
G01 X46.5622 Y26.7492
G01 X46.5622 Y26.7492
G01 X46.5622 Y26.7492
G01 X46.5622 Y26.7492
G00 Z2.0000
G00 X44.0222 Y26.7492
G01 F60.00
G01 Z-1.8000
G01 F120.00
G01 X44.0222 Y26.7492
G01 X44.0222 Y26.7492
G01 X44.0222 Y26.7492
G01 X44.0222 Y26.7492
G00 Z2.0000
G00 X41.4822 Y26.7492
G01 F60.00
G01 Z-1.8000
G01 F120.00
G01 X41.4822 Y26.7492
G01 X41.4822 Y26.7492
G01 X41.4822 Y26.7492
G01 X41.4822 Y26.7492
G00 Z2.0000
G00 X38.9422 Y26.7492
G01 F60.00
G01 Z-1.8000
G01 F120.00
G01 X38.9422 Y26.7492
G01 X38.9422 Y26.7492
G01 X38.9422 Y26.7492
G01 X38.9422 Y26.7492
G00 Z2.0000
G00 X36.4022 Y26.7492
G01 F60.00
G01 Z-1.8000
G01 F120.00
G01 X36.4022 Y26.7492
G01 X36.4022 Y26.7492
G01 X36.4022 Y26.7492
G01 X36.4022 Y26.7492
G00 Z2.0000
G00 X33.8622 Y26.7492
G01 F60.00
G01 Z-1.8000
G01 F120.00
G01 X33.8622 Y26.7492
G01 X33.8622 Y26.7492
G01 X33.8622 Y26.7492
G01 X33.8622 Y26.7492
G00 Z2.0000
G00 X31.3222 Y26.7492
G01 F60.00
G01 Z-1.8000
G01 F120.00
G01 X31.3222 Y26.7492
G01 X31.3222 Y26.7492
G01 X31.3222 Y26.7492
G01 X31.3222 Y26.7492
G00 Z2.0000
G00 X33.3532 Y39.4492
G01 F60.00
G01 Z-1.8000
G01 F120.00
G01 X33.3532 Y39.4492
G01 X33.3532 Y39.4492
G01 X33.3532 Y39.4492
G01 X33.3532 Y39.4492
G00 Z2.0000
G00 X33.3532 Y41.9892
G01 F60.00
G01 Z-1.8000
G01 F120.00
G01 X33.3532 Y41.9892
G01 X33.3532 Y41.9892
G01 X33.3532 Y41.9892
G01 X33.3532 Y41.9892
G00 Z2.0000
G00 X33.3532 Y44.5292
G01 F60.00
G01 Z-1.8000
G01 F120.00
G01 X33.3532 Y44.5292
G01 X33.3532 Y44.5292
G01 X33.3532 Y44.5292
G01 X33.3532 Y44.5292
G00 Z2.0000
G00 X33.3532 Y47.0692
G01 F60.00
G01 Z-1.8000
G01 F120.00
G01 X33.3532 Y47.0692
G01 X33.3532 Y47.0692
G01 X33.3532 Y47.0692
G01 X33.3532 Y47.0692
G00 Z2.0000
G00 X33.3532 Y49.6092
G01 F60.00
G01 Z-1.8000
G01 F120.00
G01 X33.3532 Y49.6092
G01 X33.3532 Y49.6092
G01 X33.3532 Y49.6092
G01 X33.3532 Y49.6092
G00 Z2.0000
G00 X33.3532 Y52.1492
G01 F60.00
G01 Z-1.8000
G01 F120.00
G01 X33.3532 Y52.1492
G01 X33.3532 Y52.1492
G01 X33.3532 Y52.1492
G01 X33.3532 Y52.1492
G00 Z2.0000
G00 X33.3532 Y54.6892
G01 F60.00
G01 Z-1.8000
G01 F120.00
G01 X33.3532 Y54.6892
G01 X33.3532 Y54.6892
G01 X33.3532 Y54.6892
G01 X33.3532 Y54.6892
G00 Z2.0000
G00 X33.3532 Y57.2292
G01 F60.00
G01 Z-1.8000
G01 F120.00
G01 X33.3532 Y57.2292
G01 X33.3532 Y57.2292
G01 X33.3532 Y57.2292
G01 X33.3532 Y57.2292
G00 Z2.0000
G00 X33.3532 Y59.7692
G01 F60.00
G01 Z-1.8000
G01 F120.00
G01 X33.3532 Y59.7692
G01 X33.3532 Y59.7692
G01 X33.3532 Y59.7692
G01 X33.3532 Y59.7692
G00 Z2.0000
G00 X33.3532 Y62.3092
G01 F60.00
G01 Z-1.8000
G01 F120.00
G01 X33.3532 Y62.3092
G01 X33.3532 Y62.3092
G01 X33.3532 Y62.3092
G01 X33.3532 Y62.3092
G00 Z2.0000
G00 X37.1632 Y62.3092
G01 F60.00
G01 Z-1.8000
G01 F120.00
G01 X37.1632 Y62.3092
G01 X37.1632 Y62.3092
G01 X37.1632 Y62.3092
G01 X37.1632 Y62.3092
G00 Z2.0000
G00 X37.1632 Y59.7692
G01 F60.00
G01 Z-1.8000
G01 F120.00
G01 X37.1632 Y59.7692
G01 X37.1632 Y59.7692
G01 X37.1632 Y59.7692
G01 X37.1632 Y59.7692
G00 Z2.0000
G00 X37.1632 Y57.2292
G01 F60.00
G01 Z-1.8000
G01 F120.00
G01 X37.1632 Y57.2292
G01 X37.1632 Y57.2292
G01 X37.1632 Y57.2292
G01 X37.1632 Y57.2292
G00 Z2.0000
G00 X37.1632 Y54.6892
G01 F60.00
G01 Z-1.8000
G01 F120.00
G01 X37.1632 Y54.6892
G01 X37.1632 Y54.6892
G01 X37.1632 Y54.6892
G01 X37.1632 Y54.6892
G00 Z2.0000
G00 X37.1632 Y52.1492
G01 F60.00
G01 Z-1.8000
G01 F120.00
G01 X37.1632 Y52.1492
G01 X37.1632 Y52.1492
G01 X37.1632 Y52.1492
G01 X37.1632 Y52.1492
G00 Z2.0000
G00 X37.1632 Y49.6092
G01 F60.00
G01 Z-1.8000
G01 F120.00
G01 X37.1632 Y49.6092
G01 X37.1632 Y49.6092
G01 X37.1632 Y49.6092
G01 X37.1632 Y49.6092
G00 Z2.0000
G00 X37.1632 Y47.0692
G01 F60.00
G01 Z-1.8000
G01 F120.00
G01 X37.1632 Y47.0692
G01 X37.1632 Y47.0692
G01 X37.1632 Y47.0692
G01 X37.1632 Y47.0692
G00 Z2.0000
G00 X37.1632 Y44.5292
G01 F60.00
G01 Z-1.8000
G01 F120.00
G01 X37.1632 Y44.5292
G01 X37.1632 Y44.5292
G01 X37.1632 Y44.5292
G01 X37.1632 Y44.5292
G00 Z2.0000
G00 X37.1632 Y41.9892
G01 F60.00
G01 Z-1.8000
G01 F120.00
G01 X37.1632 Y41.9892
G01 X37.1632 Y41.9892
G01 X37.1632 Y41.9892
G01 X37.1632 Y41.9892
G00 Z2.0000
G00 X37.1632 Y39.4492
G01 F60.00
G01 Z-1.8000
G01 F120.00
G01 X37.1632 Y39.4492
G01 X37.1632 Y39.4492
G01 X37.1632 Y39.4492
G01 X37.1632 Y39.4492
G00 Z2.0000
G00 X26.7492 Y39.4492
G01 F60.00
G01 Z-1.8000
G01 F120.00
G01 X26.7492 Y39.4492
G01 X26.7492 Y39.4492
G01 X26.7492 Y39.4492
G01 X26.7492 Y39.4492
G00 Z2.0000
G00 X26.7492 Y41.9892
G01 F60.00
G01 Z-1.8000
G01 F120.00
G01 X26.7492 Y41.9892
G01 X26.7492 Y41.9892
G01 X26.7492 Y41.9892
G01 X26.7492 Y41.9892
G00 Z2.0000
G00 X26.7492 Y44.5292
G01 F60.00
G01 Z-1.8000
G01 F120.00
G01 X26.7492 Y44.5292
G01 X26.7492 Y44.5292
G01 X26.7492 Y44.5292
G01 X26.7492 Y44.5292
G00 Z2.0000
G00 X26.7492 Y47.0692
G01 F60.00
G01 Z-1.8000
G01 F120.00
G01 X26.7492 Y47.0692
G01 X26.7492 Y47.0692
G01 X26.7492 Y47.0692
G01 X26.7492 Y47.0692
G00 Z2.0000
G00 X26.7492 Y49.6092
G01 F60.00
G01 Z-1.8000
G01 F120.00
G01 X26.7492 Y49.6092
G01 X26.7492 Y49.6092
G01 X26.7492 Y49.6092
G01 X26.7492 Y49.6092
G00 Z2.0000
G00 X26.7492 Y52.1492
G01 F60.00
G01 Z-1.8000
G01 F120.00
G01 X26.7492 Y52.1492
G01 X26.7492 Y52.1492
G01 X26.7492 Y52.1492
G01 X26.7492 Y52.1492
G00 Z2.0000
G00 X26.7492 Y54.6892
G01 F60.00
G01 Z-1.8000
G01 F120.00
G01 X26.7492 Y54.6892
G01 X26.7492 Y54.6892
G01 X26.7492 Y54.6892
G01 X26.7492 Y54.6892
G00 Z2.0000
G00 X26.7492 Y57.2292
G01 F60.00
G01 Z-1.8000
G01 F120.00
G01 X26.7492 Y57.2292
G01 X26.7492 Y57.2292
G01 X26.7492 Y57.2292
G01 X26.7492 Y57.2292
G00 Z2.0000
G00 X26.7492 Y59.7692
G01 F60.00
G01 Z-1.8000
G01 F120.00
G01 X26.7492 Y59.7692
G01 X26.7492 Y59.7692
G01 X26.7492 Y59.7692
G01 X26.7492 Y59.7692
G00 Z2.0000
G00 X26.7492 Y62.3092
G01 F60.00
G01 Z-1.8000
G01 F120.00
G01 X26.7492 Y62.3092
G01 X26.7492 Y62.3092
G01 X26.7492 Y62.3092
G01 X26.7492 Y62.3092
G00 Z2.0000
G00 X22.6852 Y62.3092
G01 F60.00
G01 Z-1.8000
G01 F120.00
G01 X22.6852 Y62.3092
G01 X22.6852 Y62.3092
G01 X22.6852 Y62.3092
G01 X22.6852 Y62.3092
G00 Z2.0000
G00 X22.6852 Y59.7692
G01 F60.00
G01 Z-1.8000
G01 F120.00
G01 X22.6852 Y59.7692
G01 X22.6852 Y59.7692
G01 X22.6852 Y59.7692
G01 X22.6852 Y59.7692
G00 Z2.0000
G00 X22.6852 Y57.2292
G01 F60.00
G01 Z-1.8000
G01 F120.00
G01 X22.6852 Y57.2292
G01 X22.6852 Y57.2292
G01 X22.6852 Y57.2292
G01 X22.6852 Y57.2292
G00 Z2.0000
G00 X22.6852 Y54.6892
G01 F60.00
G01 Z-1.8000
G01 F120.00
G01 X22.6852 Y54.6892
G01 X22.6852 Y54.6892
G01 X22.6852 Y54.6892
G01 X22.6852 Y54.6892
G00 Z2.0000
G00 X22.6852 Y52.1492
G01 F60.00
G01 Z-1.8000
G01 F120.00
G01 X22.6852 Y52.1492
G01 X22.6852 Y52.1492
G01 X22.6852 Y52.1492
G01 X22.6852 Y52.1492
G00 Z2.0000
G00 X22.6852 Y49.6092
G01 F60.00
G01 Z-1.8000
G01 F120.00
G01 X22.6852 Y49.6092
G01 X22.6852 Y49.6092
G01 X22.6852 Y49.6092
G01 X22.6852 Y49.6092
G00 Z2.0000
G00 X22.6852 Y47.0692
G01 F60.00
G01 Z-1.8000
G01 F120.00
G01 X22.6852 Y47.0692
G01 X22.6852 Y47.0692
G01 X22.6852 Y47.0692
G01 X22.6852 Y47.0692
G00 Z2.0000
G00 X22.6852 Y44.5292
G01 F60.00
G01 Z-1.8000
G01 F120.00
G01 X22.6852 Y44.5292
G01 X22.6852 Y44.5292
G01 X22.6852 Y44.5292
G01 X22.6852 Y44.5292
G00 Z2.0000
G00 X22.6852 Y41.9892
G01 F60.00
G01 Z-1.8000
G01 F120.00
G01 X22.6852 Y41.9892
G01 X22.6852 Y41.9892
G01 X22.6852 Y41.9892
G01 X22.6852 Y41.9892
G00 Z2.0000
G00 X22.6852 Y39.4492
G01 F60.00
G01 Z-1.8000
G01 F120.00
G01 X22.6852 Y39.4492
G01 X22.6852 Y39.4492
G01 X22.6852 Y39.4492
G01 X22.6852 Y39.4492
G00 Z2.0000
G00 X7.1912 Y42.2432
G01 F60.00
G01 Z-1.8000
G01 F120.00
G01 X7.1912 Y42.2432
G01 X7.1912 Y42.2432
G01 X7.1912 Y42.2432
G01 X7.1912 Y42.2432
G00 Z2.0000
G00 X7.1912 Y47.3232
G01 F60.00
G01 Z-1.8000
G01 F120.00
G01 X7.1912 Y47.3232
G01 X7.1912 Y47.3232
G01 X7.1912 Y47.3232
G01 X7.1912 Y47.3232
G00 Z2.0000
G00 X12.2712 Y55.4912
G01 F60.00
G01 Z-1.8000
G01 F120.00
G01 X12.2712 Y55.4912
G01 X12.2712 Y55.4912
G01 X12.2712 Y55.4912
G01 X12.2712 Y55.4912
G00 Z2.0000
G00 X12.2712 Y60.4922
G01 F60.00
G01 Z-1.8000
G01 F120.00
G01 X12.2712 Y60.4922
G01 X12.2712 Y60.4922
G01 X12.2712 Y60.4922
G01 X12.2712 Y60.4922
G00 Z2.0000
G00 X24.7182 Y75.0092
G01 F60.00
G01 Z-1.8000
G01 F120.00
G01 X24.7182 Y75.0092
G01 X24.7182 Y75.0092
G01 X24.7182 Y75.0092
G01 X24.7182 Y75.0092
G00 Z2.0000
G00 X27.2582 Y75.0092
G01 F60.00
G01 Z-1.8000
G01 F120.00
G01 X27.2582 Y75.0092
G01 X27.2582 Y75.0092
G01 X27.2582 Y75.0092
G01 X27.2582 Y75.0092
G00 Z2.0000
G00 X29.7982 Y75.0092
G01 F60.00
G01 Z-1.8000
G01 F120.00
G01 X29.7982 Y75.0092
G01 X29.7982 Y75.0092
G01 X29.7982 Y75.0092
G01 X29.7982 Y75.0092
G00 Z2.0000
G00 X32.3382 Y75.0092
G01 F60.00
G01 Z-1.8000
G01 F120.00
G01 X32.3382 Y75.0092
G01 X32.3382 Y75.0092
G01 X32.3382 Y75.0092
G01 X32.3382 Y75.0092
G00 Z2.0000
G00 X34.8782 Y75.0092
G01 F60.00
G01 Z-1.8000
G01 F120.00
G01 X34.8782 Y75.0092
G01 X34.8782 Y75.0092
G01 X34.8782 Y75.0092
G01 X34.8782 Y75.0092
G00 Z2.0000
G00 X37.4182 Y75.0092
G01 F60.00
G01 Z-1.8000
G01 F120.00
G01 X37.4182 Y75.0092
G01 X37.4182 Y75.0092
G01 X37.4182 Y75.0092
G01 X37.4182 Y75.0092
G00 Z2.0000
G00 X39.9582 Y75.0092
G01 F60.00
G01 Z-1.8000
G01 F120.00
G01 X39.9582 Y75.0092
G01 X39.9582 Y75.0092
G01 X39.9582 Y75.0092
G01 X39.9582 Y75.0092
G00 Z2.0000
G00 X42.4982 Y75.0092
G01 F60.00
G01 Z-1.8000
G01 F120.00
G01 X42.4982 Y75.0092
G01 X42.4982 Y75.0092
G01 X42.4982 Y75.0092
G01 X42.4982 Y75.0092
G00 Z2.0000
G00 X42.4972 Y78.8192
G01 F60.00
G01 Z-1.8000
G01 F120.00
G01 X42.4972 Y78.8192
G01 X42.4972 Y78.8192
G01 X42.4972 Y78.8192
G01 X42.4972 Y78.8192
G00 Z2.0000
G00 X39.9572 Y78.8192
G01 F60.00
G01 Z-1.8000
G01 F120.00
G01 X39.9572 Y78.8192
G01 X39.9572 Y78.8192
G01 X39.9572 Y78.8192
G01 X39.9572 Y78.8192
G00 Z2.0000
G00 X37.4172 Y78.8192
G01 F60.00
G01 Z-1.8000
G01 F120.00
G01 X37.4172 Y78.8192
G01 X37.4172 Y78.8192
G01 X37.4172 Y78.8192
G01 X37.4172 Y78.8192
G00 Z2.0000
G00 X34.8772 Y78.8192
G01 F60.00
G01 Z-1.8000
G01 F120.00
G01 X34.8772 Y78.8192
G01 X34.8772 Y78.8192
G01 X34.8772 Y78.8192
G01 X34.8772 Y78.8192
G00 Z2.0000
G00 X32.3372 Y78.8192
G01 F60.00
G01 Z-1.8000
G01 F120.00
G01 X32.3372 Y78.8192
G01 X32.3372 Y78.8192
G01 X32.3372 Y78.8192
G01 X32.3372 Y78.8192
G00 Z2.0000
G00 X29.7972 Y78.8192
G01 F60.00
G01 Z-1.8000
G01 F120.00
G01 X29.7972 Y78.8192
G01 X29.7972 Y78.8192
G01 X29.7972 Y78.8192
G01 X29.7972 Y78.8192
G00 Z2.0000
G00 X27.2572 Y78.8192
G01 F60.00
G01 Z-1.8000
G01 F120.00
G01 X27.2572 Y78.8192
G01 X27.2572 Y78.8192
G01 X27.2572 Y78.8192
G01 X27.2572 Y78.8192
G00 Z2.0000
G00 X24.7172 Y78.8192
G01 F60.00
G01 Z-1.8000
G01 F120.00
G01 X24.7172 Y78.8192
G01 X24.7172 Y78.8192
G01 X24.7172 Y78.8192
G01 X24.7172 Y78.8192
G00 Z2.0000
G00 X22.1772 Y78.8192
G01 F60.00
G01 Z-1.8000
G01 F120.00
G01 X22.1772 Y78.8192
G01 X22.1772 Y78.8192
G01 X22.1772 Y78.8192
G01 X22.1772 Y78.8192
G00 Z2.0000
G00 X19.6372 Y78.8192
G01 F60.00
G01 Z-1.8000
G01 F120.00
G01 X19.6372 Y78.8192
G01 X19.6372 Y78.8192
G01 X19.6372 Y78.8192
G01 X19.6372 Y78.8192
G00 Z2.0000
G00 X46.5612 Y78.8192
G01 F60.00
G01 Z-1.8000
G01 F120.00
G01 X46.5612 Y78.8192
G01 X46.5612 Y78.8192
G01 X46.5612 Y78.8192
G01 X46.5612 Y78.8192
G00 Z2.0000
G00 X49.1012 Y78.8192
G01 F60.00
G01 Z-1.8000
G01 F120.00
G01 X49.1012 Y78.8192
G01 X49.1012 Y78.8192
G01 X49.1012 Y78.8192
G01 X49.1012 Y78.8192
G00 Z2.0000
G00 X51.6412 Y78.8192
G01 F60.00
G01 Z-1.8000
G01 F120.00
G01 X51.6412 Y78.8192
G01 X51.6412 Y78.8192
G01 X51.6412 Y78.8192
G01 X51.6412 Y78.8192
G00 Z2.0000
G00 X54.1812 Y78.8192
G01 F60.00
G01 Z-1.8000
G01 F120.00
G01 X54.1812 Y78.8192
G01 X54.1812 Y78.8192
G01 X54.1812 Y78.8192
G01 X54.1812 Y78.8192
G00 Z2.0000
G00 X56.7212 Y78.8192
G01 F60.00
G01 Z-1.8000
G01 F120.00
G01 X56.7212 Y78.8192
G01 X56.7212 Y78.8192
G01 X56.7212 Y78.8192
G01 X56.7212 Y78.8192
G00 Z2.0000
G00 X59.2612 Y78.8192
G01 F60.00
G01 Z-1.8000
G01 F120.00
G01 X59.2612 Y78.8192
G01 X59.2612 Y78.8192
G01 X59.2612 Y78.8192
G01 X59.2612 Y78.8192
G00 Z2.0000
G00 X61.8012 Y78.8192
G01 F60.00
G01 Z-1.8000
G01 F120.00
G01 X61.8012 Y78.8192
G01 X61.8012 Y78.8192
G01 X61.8012 Y78.8192
G01 X61.8012 Y78.8192
G00 Z2.0000
G00 X64.3412 Y78.8192
G01 F60.00
G01 Z-1.8000
G01 F120.00
G01 X64.3412 Y78.8192
G01 X64.3412 Y78.8192
G01 X64.3412 Y78.8192
G01 X64.3412 Y78.8192
G00 Z2.0000
G00 X64.3422 Y75.0092
G01 F60.00
G01 Z-1.8000
G01 F120.00
G01 X64.3422 Y75.0092
G01 X64.3422 Y75.0092
G01 X64.3422 Y75.0092
G01 X64.3422 Y75.0092
G00 Z2.0000
G00 X61.8022 Y75.0092
G01 F60.00
G01 Z-1.8000
G01 F120.00
G01 X61.8022 Y75.0092
G01 X61.8022 Y75.0092
G01 X61.8022 Y75.0092
G01 X61.8022 Y75.0092
G00 Z2.0000
G00 X59.2622 Y75.0092
G01 F60.00
G01 Z-1.8000
G01 F120.00
G01 X59.2622 Y75.0092
G01 X59.2622 Y75.0092
G01 X59.2622 Y75.0092
G01 X59.2622 Y75.0092
G00 Z2.0000
G00 X56.7222 Y75.0092
G01 F60.00
G01 Z-1.8000
G01 F120.00
G01 X56.7222 Y75.0092
G01 X56.7222 Y75.0092
G01 X56.7222 Y75.0092
G01 X56.7222 Y75.0092
G00 Z2.0000
G00 X54.1822 Y75.0092
G01 F60.00
G01 Z-1.8000
G01 F120.00
G01 X54.1822 Y75.0092
G01 X54.1822 Y75.0092
G01 X54.1822 Y75.0092
G01 X54.1822 Y75.0092
G00 Z2.0000
G00 X51.6422 Y75.0092
G01 F60.00
G01 Z-1.8000
G01 F120.00
G01 X51.6422 Y75.0092
G01 X51.6422 Y75.0092
G01 X51.6422 Y75.0092
G01 X51.6422 Y75.0092
G00 Z2.0000
G00 X49.1022 Y75.0092
G01 F60.00
G01 Z-1.8000
G01 F120.00
G01 X49.1022 Y75.0092
G01 X49.1022 Y75.0092
G01 X49.1022 Y75.0092
G01 X49.1022 Y75.0092
G00 Z2.0000
G00 X46.5622 Y75.0092
G01 F60.00
G01 Z-1.8000
G01 F120.00
G01 X46.5622 Y75.0092
G01 X46.5622 Y75.0092
G01 X46.5622 Y75.0092
G01 X46.5622 Y75.0092
G00 Z2.0000
G00 X54.1812 Y62.8172
G01 F60.00
G01 Z-1.8000
G01 F120.00
G01 X54.1812 Y62.8172
G01 X54.1812 Y62.8172
G01 X54.1812 Y62.8172
G01 X54.1812 Y62.8172
G00 Z2.0000
G00 X56.7212 Y62.8172
G01 F60.00
G01 Z-1.8000
G01 F120.00
G01 X56.7212 Y62.8172
G01 X56.7212 Y62.8172
G01 X56.7212 Y62.8172
G01 X56.7212 Y62.8172
G00 Z2.0000
G00 X59.2612 Y62.8172
G01 F60.00
G01 Z-1.8000
G01 F120.00
G01 X59.2612 Y62.8172
G01 X59.2612 Y62.8172
G01 X59.2612 Y62.8172
G01 X59.2612 Y62.8172
G00 Z2.0000
G00 X59.2612 Y54.6892
G01 F60.00
G01 Z-1.8000
G01 F120.00
G01 X59.2612 Y54.6892
G01 X59.2612 Y54.6892
G01 X59.2612 Y54.6892
G01 X59.2612 Y54.6892
G00 Z2.0000
G00 X54.1812 Y54.6892
G01 F60.00
G01 Z-1.8000
G01 F120.00
G01 X54.1812 Y54.6892
G01 X54.1812 Y54.6892
G01 X54.1812 Y54.6892
G01 X54.1812 Y54.6892
G00 Z2.0000
G00 X54.1812 Y49.6092
G01 F60.00
G01 Z-1.8000
G01 F120.00
G01 X54.1812 Y49.6092
G01 X54.1812 Y49.6092
G01 X54.1812 Y49.6092
G01 X54.1812 Y49.6092
G00 Z2.0000
G00 X59.2612 Y49.6092
G01 F60.00
G01 Z-1.8000
G01 F120.00
G01 X59.2612 Y49.6092
G01 X59.2612 Y49.6092
G01 X59.2612 Y49.6092
G01 X59.2612 Y49.6092
G00 Z2.0000
G00 X59.2612 Y41.9892
G01 F60.00
G01 Z-1.8000
G01 F120.00
G01 X59.2612 Y41.9892
G01 X59.2612 Y41.9892
G01 X59.2612 Y41.9892
G01 X59.2612 Y41.9892
G00 Z2.0000
G00 X56.7212 Y41.9892
G01 F60.00
G01 Z-1.8000
G01 F120.00
G01 X56.7212 Y41.9892
G01 X56.7212 Y41.9892
G01 X56.7212 Y41.9892
G01 X56.7212 Y41.9892
G00 Z2.0000
G00 X54.1812 Y41.9892
G01 F60.00
G01 Z-1.8000
G01 F120.00
G01 X54.1812 Y41.9892
G01 X54.1812 Y41.9892
G01 X54.1812 Y41.9892
G01 X54.1812 Y41.9892
G00 Z2.0000
G00 X54.1822 Y26.7492
G01 F60.00
G01 Z-1.8000
G01 F120.00
G01 X54.1822 Y26.7492
G01 X54.1822 Y26.7492
G01 X54.1822 Y26.7492
G01 X54.1822 Y26.7492
G00 Z2.0000
G00 X56.7222 Y26.7492
G01 F60.00
G01 Z-1.8000
G01 F120.00
G01 X56.7222 Y26.7492
G01 X56.7222 Y26.7492
G01 X56.7222 Y26.7492
G01 X56.7222 Y26.7492
G00 Z2.0000
G00 X59.2622 Y26.7492
G01 F60.00
G01 Z-1.8000
G01 F120.00
G01 X59.2622 Y26.7492
G01 X59.2622 Y26.7492
G01 X59.2622 Y26.7492
G01 X59.2622 Y26.7492
G00 Z2.0000
G00 X61.8022 Y26.7492
G01 F60.00
G01 Z-1.8000
G01 F120.00
G01 X61.8022 Y26.7492
G01 X61.8022 Y26.7492
G01 X61.8022 Y26.7492
G01 X61.8022 Y26.7492
G00 Z2.0000
G00 X64.3422 Y26.7492
G01 F60.00
G01 Z-1.8000
G01 F120.00
G01 X64.3422 Y26.7492
G01 X64.3422 Y26.7492
G01 X64.3422 Y26.7492
G01 X64.3422 Y26.7492
G00 Z2.0000
G00 X66.8822 Y26.7492
G01 F60.00
G01 Z-1.8000
G01 F120.00
G01 X66.8822 Y26.7492
G01 X66.8822 Y26.7492
G01 X66.8822 Y26.7492
G01 X66.8822 Y26.7492
G00 Z2.0000
G00 X69.4222 Y26.7492
G01 F60.00
G01 Z-1.8000
G01 F120.00
G01 X69.4222 Y26.7492
G01 X69.4222 Y26.7492
G01 X69.4222 Y26.7492
G01 X69.4222 Y26.7492
G00 Z2.0000
G00 X69.4212 Y22.9392
G01 F60.00
G01 Z-1.8000
G01 F120.00
G01 X69.4212 Y22.9392
G01 X69.4212 Y22.9392
G01 X69.4212 Y22.9392
G01 X69.4212 Y22.9392
G00 Z2.0000
G00 X66.8812 Y22.9392
G01 F60.00
G01 Z-1.8000
G01 F120.00
G01 X66.8812 Y22.9392
G01 X66.8812 Y22.9392
G01 X66.8812 Y22.9392
G01 X66.8812 Y22.9392
G00 Z2.0000
G00 X64.3412 Y22.9392
G01 F60.00
G01 Z-1.8000
G01 F120.00
G01 X64.3412 Y22.9392
G01 X64.3412 Y22.9392
G01 X64.3412 Y22.9392
G01 X64.3412 Y22.9392
G00 Z2.0000
G00 X61.8012 Y22.9392
G01 F60.00
G01 Z-1.8000
G01 F120.00
G01 X61.8012 Y22.9392
G01 X61.8012 Y22.9392
G01 X61.8012 Y22.9392
G01 X61.8012 Y22.9392
G00 Z2.0000
G00 X59.2612 Y22.9392
G01 F60.00
G01 Z-1.8000
G01 F120.00
G01 X59.2612 Y22.9392
G01 X59.2612 Y22.9392
G01 X59.2612 Y22.9392
G01 X59.2612 Y22.9392
G00 Z2.0000
G00 X56.7212 Y22.9392
G01 F60.00
G01 Z-1.8000
G01 F120.00
G01 X56.7212 Y22.9392
G01 X56.7212 Y22.9392
G01 X56.7212 Y22.9392
G01 X56.7212 Y22.9392
G00 Z2.0000
G00 X54.1812 Y22.9392
G01 F60.00
G01 Z-1.8000
G01 F120.00
G01 X54.1812 Y22.9392
G01 X54.1812 Y22.9392
G01 X54.1812 Y22.9392
G01 X54.1812 Y22.9392
G00 Z2.0000
G00 X51.6412 Y22.9392
G01 F60.00
G01 Z-1.8000
G01 F120.00
G01 X51.6412 Y22.9392
G01 X51.6412 Y22.9392
G01 X51.6412 Y22.9392
G01 X51.6412 Y22.9392
G00 Z2.0000
G00 X51.6422 Y26.7492
G01 F60.00
G01 Z-1.8000
G01 F120.00
G01 X51.6422 Y26.7492
G01 X51.6422 Y26.7492
G01 X51.6422 Y26.7492
G01 X51.6422 Y26.7492
G00 Z2.0000
G00 X74.5022 Y26.7492
G01 F60.00
G01 Z-1.8000
G01 F120.00
G01 X74.5022 Y26.7492
G01 X74.5022 Y26.7492
G01 X74.5022 Y26.7492
G01 X74.5022 Y26.7492
G00 Z2.0000
G00 X77.0422 Y26.7492
G01 F60.00
G01 Z-1.8000
G01 F120.00
G01 X77.0422 Y26.7492
G01 X77.0422 Y26.7492
G01 X77.0422 Y26.7492
G01 X77.0422 Y26.7492
G00 Z2.0000
G00 X79.5822 Y26.7492
G01 F60.00
G01 Z-1.8000
G01 F120.00
G01 X79.5822 Y26.7492
G01 X79.5822 Y26.7492
G01 X79.5822 Y26.7492
G01 X79.5822 Y26.7492
G00 Z2.0000
G00 X82.1222 Y26.7492
G01 F60.00
G01 Z-1.8000
G01 F120.00
G01 X82.1222 Y26.7492
G01 X82.1222 Y26.7492
G01 X82.1222 Y26.7492
G01 X82.1222 Y26.7492
G00 Z2.0000
G00 X84.6622 Y26.7492
G01 F60.00
G01 Z-1.8000
G01 F120.00
G01 X84.6622 Y26.7492
G01 X84.6622 Y26.7492
G01 X84.6622 Y26.7492
G01 X84.6622 Y26.7492
G00 Z2.0000
G00 X87.2022 Y26.7492
G01 F60.00
G01 Z-1.8000
G01 F120.00
G01 X87.2022 Y26.7492
G01 X87.2022 Y26.7492
G01 X87.2022 Y26.7492
G01 X87.2022 Y26.7492
G00 Z2.0000
G00 X89.7422 Y26.7492
G01 F60.00
G01 Z-1.8000
G01 F120.00
G01 X89.7422 Y26.7492
G01 X89.7422 Y26.7492
G01 X89.7422 Y26.7492
G01 X89.7422 Y26.7492
G00 Z2.0000
G00 X92.2822 Y26.7492
G01 F60.00
G01 Z-1.8000
G01 F120.00
G01 X92.2822 Y26.7492
G01 X92.2822 Y26.7492
G01 X92.2822 Y26.7492
G01 X92.2822 Y26.7492
G00 Z2.0000
G00 X92.2812 Y22.9392
G01 F60.00
G01 Z-1.8000
G01 F120.00
G01 X92.2812 Y22.9392
G01 X92.2812 Y22.9392
G01 X92.2812 Y22.9392
G01 X92.2812 Y22.9392
G00 Z2.0000
G00 X89.7412 Y22.9392
G01 F60.00
G01 Z-1.8000
G01 F120.00
G01 X89.7412 Y22.9392
G01 X89.7412 Y22.9392
G01 X89.7412 Y22.9392
G01 X89.7412 Y22.9392
G00 Z2.0000
G00 X87.2012 Y22.9392
G01 F60.00
G01 Z-1.8000
G01 F120.00
G01 X87.2012 Y22.9392
G01 X87.2012 Y22.9392
G01 X87.2012 Y22.9392
G01 X87.2012 Y22.9392
G00 Z2.0000
G00 X84.6612 Y22.9392
G01 F60.00
G01 Z-1.8000
G01 F120.00
G01 X84.6612 Y22.9392
G01 X84.6612 Y22.9392
G01 X84.6612 Y22.9392
G01 X84.6612 Y22.9392
G00 Z2.0000
G00 X82.1212 Y22.9392
G01 F60.00
G01 Z-1.8000
G01 F120.00
G01 X82.1212 Y22.9392
G01 X82.1212 Y22.9392
G01 X82.1212 Y22.9392
G01 X82.1212 Y22.9392
G00 Z2.0000
G00 X79.5812 Y22.9392
G01 F60.00
G01 Z-1.8000
G01 F120.00
G01 X79.5812 Y22.9392
G01 X79.5812 Y22.9392
G01 X79.5812 Y22.9392
G01 X79.5812 Y22.9392
G00 Z2.0000
G00 X77.0412 Y22.9392
G01 F60.00
G01 Z-1.8000
G01 F120.00
G01 X77.0412 Y22.9392
G01 X77.0412 Y22.9392
G01 X77.0412 Y22.9392
G01 X77.0412 Y22.9392
G00 Z2.0000
G00 X74.5012 Y22.9392
G01 F60.00
G01 Z-1.8000
G01 F120.00
G01 X74.5012 Y22.9392
G01 X74.5012 Y22.9392
G01 X74.5012 Y22.9392
G01 X74.5012 Y22.9392
G00 Z2.0000
G00 X84.1532 Y39.4492
G01 F60.00
G01 Z-1.8000
G01 F120.00
G01 X84.1532 Y39.4492
G01 X84.1532 Y39.4492
G01 X84.1532 Y39.4492
G01 X84.1532 Y39.4492
G00 Z2.0000
G00 X84.1532 Y41.9892
G01 F60.00
G01 Z-1.8000
G01 F120.00
G01 X84.1532 Y41.9892
G01 X84.1532 Y41.9892
G01 X84.1532 Y41.9892
G01 X84.1532 Y41.9892
G00 Z2.0000
G00 X84.1532 Y44.5292
G01 F60.00
G01 Z-1.8000
G01 F120.00
G01 X84.1532 Y44.5292
G01 X84.1532 Y44.5292
G01 X84.1532 Y44.5292
G01 X84.1532 Y44.5292
G00 Z2.0000
G00 X84.1532 Y47.0692
G01 F60.00
G01 Z-1.8000
G01 F120.00
G01 X84.1532 Y47.0692
G01 X84.1532 Y47.0692
G01 X84.1532 Y47.0692
G01 X84.1532 Y47.0692
G00 Z2.0000
G00 X84.1532 Y49.6092
G01 F60.00
G01 Z-1.8000
G01 F120.00
G01 X84.1532 Y49.6092
G01 X84.1532 Y49.6092
G01 X84.1532 Y49.6092
G01 X84.1532 Y49.6092
G00 Z2.0000
G00 X84.1532 Y52.1492
G01 F60.00
G01 Z-1.8000
G01 F120.00
G01 X84.1532 Y52.1492
G01 X84.1532 Y52.1492
G01 X84.1532 Y52.1492
G01 X84.1532 Y52.1492
G00 Z2.0000
G00 X84.1532 Y54.6892
G01 F60.00
G01 Z-1.8000
G01 F120.00
G01 X84.1532 Y54.6892
G01 X84.1532 Y54.6892
G01 X84.1532 Y54.6892
G01 X84.1532 Y54.6892
G00 Z2.0000
G00 X84.1532 Y57.2292
G01 F60.00
G01 Z-1.8000
G01 F120.00
G01 X84.1532 Y57.2292
G01 X84.1532 Y57.2292
G01 X84.1532 Y57.2292
G01 X84.1532 Y57.2292
G00 Z2.0000
G00 X84.1532 Y59.7692
G01 F60.00
G01 Z-1.8000
G01 F120.00
G01 X84.1532 Y59.7692
G01 X84.1532 Y59.7692
G01 X84.1532 Y59.7692
G01 X84.1532 Y59.7692
G00 Z2.0000
G00 X84.1532 Y62.3092
G01 F60.00
G01 Z-1.8000
G01 F120.00
G01 X84.1532 Y62.3092
G01 X84.1532 Y62.3092
G01 X84.1532 Y62.3092
G01 X84.1532 Y62.3092
G00 Z2.0000
G00 X94.8222 Y62.3092
G01 F60.00
G01 Z-1.8000
G01 F120.00
G01 X94.8222 Y62.3092
G01 X94.8222 Y62.3092
G01 X94.8222 Y62.3092
G01 X94.8222 Y62.3092
G00 Z2.0000
G00 X94.8222 Y59.7692
G01 F60.00
G01 Z-1.8000
G01 F120.00
G01 X94.8222 Y59.7692
G01 X94.8222 Y59.7692
G01 X94.8222 Y59.7692
G01 X94.8222 Y59.7692
G00 Z2.0000
G00 X94.8222 Y57.2292
G01 F60.00
G01 Z-1.8000
G01 F120.00
G01 X94.8222 Y57.2292
G01 X94.8222 Y57.2292
G01 X94.8222 Y57.2292
G01 X94.8222 Y57.2292
G00 Z2.0000
G00 X94.8222 Y54.6892
G01 F60.00
G01 Z-1.8000
G01 F120.00
G01 X94.8222 Y54.6892
G01 X94.8222 Y54.6892
G01 X94.8222 Y54.6892
G01 X94.8222 Y54.6892
G00 Z2.0000
G00 X94.8222 Y52.1492
G01 F60.00
G01 Z-1.8000
G01 F120.00
G01 X94.8222 Y52.1492
G01 X94.8222 Y52.1492
G01 X94.8222 Y52.1492
G01 X94.8222 Y52.1492
G00 Z2.0000
G00 X97.3622 Y52.1492
G01 F60.00
G01 Z-1.8000
G01 F120.00
G01 X97.3622 Y52.1492
G01 X97.3622 Y52.1492
G01 X97.3622 Y52.1492
G01 X97.3622 Y52.1492
G00 Z2.0000
G00 X97.3622 Y54.6892
G01 F60.00
G01 Z-1.8000
G01 F120.00
G01 X97.3622 Y54.6892
G01 X97.3622 Y54.6892
G01 X97.3622 Y54.6892
G01 X97.3622 Y54.6892
G00 Z2.0000
G00 X97.3622 Y57.2292
G01 F60.00
G01 Z-1.8000
G01 F120.00
G01 X97.3622 Y57.2292
G01 X97.3622 Y57.2292
G01 X97.3622 Y57.2292
G01 X97.3622 Y57.2292
G00 Z2.0000
G00 X97.3622 Y59.7692
G01 F60.00
G01 Z-1.8000
G01 F120.00
G01 X97.3622 Y59.7692
G01 X97.3622 Y59.7692
G01 X97.3622 Y59.7692
G01 X97.3622 Y59.7692
G00 Z2.0000
G00 X97.3622 Y62.3092
G01 F60.00
G01 Z-1.8000
G01 F120.00
G01 X97.3622 Y62.3092
G01 X97.3622 Y62.3092
G01 X97.3622 Y62.3092
G01 X97.3622 Y62.3092
G00 Z2.0000
G00 X97.3622 Y64.8492
G01 F60.00
G01 Z-1.8000
G01 F120.00
G01 X97.3622 Y64.8492
G01 X97.3622 Y64.8492
G01 X97.3622 Y64.8492
G01 X97.3622 Y64.8492
G00 Z2.0000
G00 X97.3622 Y67.3892
G01 F60.00
G01 Z-1.8000
G01 F120.00
G01 X97.3622 Y67.3892
G01 X97.3622 Y67.3892
G01 X97.3622 Y67.3892
G01 X97.3622 Y67.3892
G00 Z2.0000
G00 X97.3622 Y69.9292
G01 F60.00
G01 Z-1.8000
G01 F120.00
G01 X97.3622 Y69.9292
G01 X97.3622 Y69.9292
G01 X97.3622 Y69.9292
G01 X97.3622 Y69.9292
G00 Z2.0000
G00 X97.3622 Y72.4692
G01 F60.00
G01 Z-1.8000
G01 F120.00
G01 X97.3622 Y72.4692
G01 X97.3622 Y72.4692
G01 X97.3622 Y72.4692
G01 X97.3622 Y72.4692
G00 Z2.0000
G00 X97.3622 Y75.0092
G01 F60.00
G01 Z-1.8000
G01 F120.00
G01 X97.3622 Y75.0092
G01 X97.3622 Y75.0092
G01 X97.3622 Y75.0092
G01 X97.3622 Y75.0092
G00 Z2.0000
G00 X94.8222 Y75.0092
G01 F60.00
G01 Z-1.8000
G01 F120.00
G01 X94.8222 Y75.0092
G01 X94.8222 Y75.0092
G01 X94.8222 Y75.0092
G01 X94.8222 Y75.0092
G00 Z2.0000
G00 X94.8222 Y72.4692
G01 F60.00
G01 Z-1.8000
G01 F120.00
G01 X94.8222 Y72.4692
G01 X94.8222 Y72.4692
G01 X94.8222 Y72.4692
G01 X94.8222 Y72.4692
G00 Z2.0000
G00 X94.8222 Y69.9292
G01 F60.00
G01 Z-1.8000
G01 F120.00
G01 X94.8222 Y69.9292
G01 X94.8222 Y69.9292
G01 X94.8222 Y69.9292
G01 X94.8222 Y69.9292
G00 Z2.0000
G00 X94.8222 Y67.3892
G01 F60.00
G01 Z-1.8000
G01 F120.00
G01 X94.8222 Y67.3892
G01 X94.8222 Y67.3892
G01 X94.8222 Y67.3892
G01 X94.8222 Y67.3892
G00 Z2.0000
G00 X94.8222 Y64.8492
G01 F60.00
G01 Z-1.8000
G01 F120.00
G01 X94.8222 Y64.8492
G01 X94.8222 Y64.8492
G01 X94.8222 Y64.8492
G01 X94.8222 Y64.8492
G00 Z2.0000
G00 X87.2022 Y75.0092
G01 F60.00
G01 Z-1.8000
G01 F120.00
G01 X87.2022 Y75.0092
G01 X87.2022 Y75.0092
G01 X87.2022 Y75.0092
G01 X87.2022 Y75.0092
G00 Z2.0000
G00 X84.6622 Y75.0092
G01 F60.00
G01 Z-1.8000
G01 F120.00
G01 X84.6622 Y75.0092
G01 X84.6622 Y75.0092
G01 X84.6622 Y75.0092
G01 X84.6622 Y75.0092
G00 Z2.0000
G00 X82.1222 Y75.0092
G01 F60.00
G01 Z-1.8000
G01 F120.00
G01 X82.1222 Y75.0092
G01 X82.1222 Y75.0092
G01 X82.1222 Y75.0092
G01 X82.1222 Y75.0092
G00 Z2.0000
G00 X79.5822 Y75.0092
G01 F60.00
G01 Z-1.8000
G01 F120.00
G01 X79.5822 Y75.0092
G01 X79.5822 Y75.0092
G01 X79.5822 Y75.0092
G01 X79.5822 Y75.0092
G00 Z2.0000
G00 X77.0422 Y75.0092
G01 F60.00
G01 Z-1.8000
G01 F120.00
G01 X77.0422 Y75.0092
G01 X77.0422 Y75.0092
G01 X77.0422 Y75.0092
G01 X77.0422 Y75.0092
G00 Z2.0000
G00 X74.5022 Y75.0092
G01 F60.00
G01 Z-1.8000
G01 F120.00
G01 X74.5022 Y75.0092
G01 X74.5022 Y75.0092
G01 X74.5022 Y75.0092
G01 X74.5022 Y75.0092
G00 Z2.0000
G00 X71.9622 Y75.0092
G01 F60.00
G01 Z-1.8000
G01 F120.00
G01 X71.9622 Y75.0092
G01 X71.9622 Y75.0092
G01 X71.9622 Y75.0092
G01 X71.9622 Y75.0092
G00 Z2.0000
G00 X69.4222 Y75.0092
G01 F60.00
G01 Z-1.8000
G01 F120.00
G01 X69.4222 Y75.0092
G01 X69.4222 Y75.0092
G01 X69.4222 Y75.0092
G01 X69.4222 Y75.0092
G00 Z2.0000
G00 X69.4212 Y78.8192
G01 F60.00
G01 Z-1.8000
G01 F120.00
G01 X69.4212 Y78.8192
G01 X69.4212 Y78.8192
G01 X69.4212 Y78.8192
G01 X69.4212 Y78.8192
G00 Z2.0000
G00 X71.9612 Y78.8192
G01 F60.00
G01 Z-1.8000
G01 F120.00
G01 X71.9612 Y78.8192
G01 X71.9612 Y78.8192
G01 X71.9612 Y78.8192
G01 X71.9612 Y78.8192
G00 Z2.0000
G00 X74.5012 Y78.8192
G01 F60.00
G01 Z-1.8000
G01 F120.00
G01 X74.5012 Y78.8192
G01 X74.5012 Y78.8192
G01 X74.5012 Y78.8192
G01 X74.5012 Y78.8192
G00 Z2.0000
G00 X77.0412 Y78.8192
G01 F60.00
G01 Z-1.8000
G01 F120.00
G01 X77.0412 Y78.8192
G01 X77.0412 Y78.8192
G01 X77.0412 Y78.8192
G01 X77.0412 Y78.8192
G00 Z2.0000
G00 X79.5812 Y78.8192
G01 F60.00
G01 Z-1.8000
G01 F120.00
G01 X79.5812 Y78.8192
G01 X79.5812 Y78.8192
G01 X79.5812 Y78.8192
G01 X79.5812 Y78.8192
G00 Z2.0000
G00 X82.1212 Y78.8192
G01 F60.00
G01 Z-1.8000
G01 F120.00
G01 X82.1212 Y78.8192
G01 X82.1212 Y78.8192
G01 X82.1212 Y78.8192
G01 X82.1212 Y78.8192
G00 Z2.0000
G00 X84.6612 Y78.8192
G01 F60.00
G01 Z-1.8000
G01 F120.00
G01 X84.6612 Y78.8192
G01 X84.6612 Y78.8192
G01 X84.6612 Y78.8192
G01 X84.6612 Y78.8192
G00 Z2.0000
G00 X87.2012 Y78.8192
G01 F60.00
G01 Z-1.8000
G01 F120.00
G01 X87.2012 Y78.8192
G01 X87.2012 Y78.8192
G01 X87.2012 Y78.8192
G01 X87.2012 Y78.8192
G00 Z2.0000
G00 X104.9812 Y83.3612
G01 F60.00
G01 Z-1.8000
G01 F120.00
G01 X104.9812 Y83.3612
G01 X104.9812 Y83.3612
G01 X104.9812 Y83.3612
G01 X104.9812 Y83.3612
G00 Z2.0000
G00 X110.0612 Y83.3612
G01 F60.00
G01 Z-1.8000
G01 F120.00
G01 X110.0612 Y83.3612
G01 X110.0612 Y83.3612
G01 X110.0612 Y83.3612
G01 X110.0612 Y83.3612
G00 Z2.0000
G00 X111.0772 Y76.1522
G01 F60.00
G01 Z-1.8000
G01 F120.00
G01 X111.0772 Y76.1522
G01 X111.0772 Y76.1522
G01 X111.0772 Y76.1522
G01 X111.0772 Y76.1522
G00 Z2.0000
G00 X113.6172 Y76.1522
G01 F60.00
G01 Z-1.8000
G01 F120.00
G01 X113.6172 Y76.1522
G01 X113.6172 Y76.1522
G01 X113.6172 Y76.1522
G01 X113.6172 Y76.1522
G00 Z2.0000
G00 X116.1572 Y76.1522
G01 F60.00
G01 Z-1.8000
G01 F120.00
G01 X116.1572 Y76.1522
G01 X116.1572 Y76.1522
G01 X116.1572 Y76.1522
G01 X116.1572 Y76.1522
G00 Z2.0000
G00 X118.6972 Y76.1522
G01 F60.00
G01 Z-1.8000
G01 F120.00
G01 X118.6972 Y76.1522
G01 X118.6972 Y76.1522
G01 X118.6972 Y76.1522
G01 X118.6972 Y76.1522
G00 Z2.0000
G00 X121.2372 Y76.1522
G01 F60.00
G01 Z-1.8000
G01 F120.00
G01 X121.2372 Y76.1522
G01 X121.2372 Y76.1522
G01 X121.2372 Y76.1522
G01 X121.2372 Y76.1522
G00 Z2.0000
G00 X123.7772 Y76.1522
G01 F60.00
G01 Z-1.8000
G01 F120.00
G01 X123.7772 Y76.1522
G01 X123.7772 Y76.1522
G01 X123.7772 Y76.1522
G01 X123.7772 Y76.1522
G00 Z2.0000
G00 X126.3172 Y76.1522
G01 F60.00
G01 Z-1.8000
G01 F120.00
G01 X126.3172 Y76.1522
G01 X126.3172 Y76.1522
G01 X126.3172 Y76.1522
G01 X126.3172 Y76.1522
G00 Z2.0000
G00 X131.3962 Y76.1522
G01 F60.00
G01 Z-1.8000
G01 F120.00
G01 X131.3962 Y76.1522
G01 X131.3962 Y76.1522
G01 X131.3962 Y76.1522
G01 X131.3962 Y76.1522
G00 Z2.0000
G00 X133.9362 Y76.1522
G01 F60.00
G01 Z-1.8000
G01 F120.00
G01 X133.9362 Y76.1522
G01 X133.9362 Y76.1522
G01 X133.9362 Y76.1522
G01 X133.9362 Y76.1522
G00 Z2.0000
G00 X136.4762 Y76.1522
G01 F60.00
G01 Z-1.8000
G01 F120.00
G01 X136.4762 Y76.1522
G01 X136.4762 Y76.1522
G01 X136.4762 Y76.1522
G01 X136.4762 Y76.1522
G00 Z2.0000
G00 X139.0162 Y76.1522
G01 F60.00
G01 Z-1.8000
G01 F120.00
G01 X139.0162 Y76.1522
G01 X139.0162 Y76.1522
G01 X139.0162 Y76.1522
G01 X139.0162 Y76.1522
G00 Z2.0000
G00 X141.5562 Y76.1522
G01 F60.00
G01 Z-1.8000
G01 F120.00
G01 X141.5562 Y76.1522
G01 X141.5562 Y76.1522
G01 X141.5562 Y76.1522
G01 X141.5562 Y76.1522
G00 Z2.0000
G00 X144.0962 Y76.1522
G01 F60.00
G01 Z-1.8000
G01 F120.00
G01 X144.0962 Y76.1522
G01 X144.0962 Y76.1522
G01 X144.0962 Y76.1522
G01 X144.0962 Y76.1522
G00 Z2.0000
G00 X146.6362 Y76.1522
G01 F60.00
G01 Z-1.8000
G01 F120.00
G01 X146.6362 Y76.1522
G01 X146.6362 Y76.1522
G01 X146.6362 Y76.1522
G01 X146.6362 Y76.1522
G00 Z2.0000
G00 X149.1762 Y76.1522
G01 F60.00
G01 Z-1.8000
G01 F120.00
G01 X149.1762 Y76.1522
G01 X149.1762 Y76.1522
G01 X149.1762 Y76.1522
G01 X149.1762 Y76.1522
G00 Z2.0000
G00 X151.7162 Y76.1522
G01 F60.00
G01 Z-1.8000
G01 F120.00
G01 X151.7162 Y76.1522
G01 X151.7162 Y76.1522
G01 X151.7162 Y76.1522
G01 X151.7162 Y76.1522
G00 Z2.0000
G00 X157.0502 Y76.1522
G01 F60.00
G01 Z-1.8000
G01 F120.00
G01 X157.0502 Y76.1522
G01 X157.0502 Y76.1522
G01 X157.0502 Y76.1522
G01 X157.0502 Y76.1522
G00 Z2.0000
G00 X159.5902 Y76.1522
G01 F60.00
G01 Z-1.8000
G01 F120.00
G01 X159.5902 Y76.1522
G01 X159.5902 Y76.1522
G01 X159.5902 Y76.1522
G01 X159.5902 Y76.1522
G00 Z2.0000
G00 X162.1302 Y76.1522
G01 F60.00
G01 Z-1.8000
G01 F120.00
G01 X162.1302 Y76.1522
G01 X162.1302 Y76.1522
G01 X162.1302 Y76.1522
G01 X162.1302 Y76.1522
G00 Z2.0000
G00 X164.6702 Y76.1522
G01 F60.00
G01 Z-1.8000
G01 F120.00
G01 X164.6702 Y76.1522
G01 X164.6702 Y76.1522
G01 X164.6702 Y76.1522
G01 X164.6702 Y76.1522
G00 Z2.0000
G00 X167.2102 Y76.1522
G01 F60.00
G01 Z-1.8000
G01 F120.00
G01 X167.2102 Y76.1522
G01 X167.2102 Y76.1522
G01 X167.2102 Y76.1522
G01 X167.2102 Y76.1522
G00 Z2.0000
G00 X169.7502 Y76.1522
G01 F60.00
G01 Z-1.8000
G01 F120.00
G01 X169.7502 Y76.1522
G01 X169.7502 Y76.1522
G01 X169.7502 Y76.1522
G01 X169.7502 Y76.1522
G00 Z2.0000
G00 X172.2902 Y76.1522
G01 F60.00
G01 Z-1.8000
G01 F120.00
G01 X172.2902 Y76.1522
G01 X172.2902 Y76.1522
G01 X172.2902 Y76.1522
G01 X172.2902 Y76.1522
G00 Z2.0000
G00 X174.8302 Y76.1522
G01 F60.00
G01 Z-1.8000
G01 F120.00
G01 X174.8302 Y76.1522
G01 X174.8302 Y76.1522
G01 X174.8302 Y76.1522
G01 X174.8302 Y76.1522
G00 Z2.0000
G00 X177.3702 Y76.1522
G01 F60.00
G01 Z-1.8000
G01 F120.00
G01 X177.3702 Y76.1522
G01 X177.3702 Y76.1522
G01 X177.3702 Y76.1522
G01 X177.3702 Y76.1522
G00 Z2.0000
G00 X174.8312 Y86.4392
G01 F60.00
G01 Z-1.8000
G01 F120.00
G01 X174.8312 Y86.4392
G01 X174.8312 Y86.4392
G01 X174.8312 Y86.4392
G01 X174.8312 Y86.4392
G00 Z2.0000
G00 X169.7512 Y86.4392
G01 F60.00
G01 Z-1.8000
G01 F120.00
G01 X169.7512 Y86.4392
G01 X169.7512 Y86.4392
G01 X169.7512 Y86.4392
G01 X169.7512 Y86.4392
G00 Z2.0000
G00 X169.7512 Y91.7732
G01 F60.00
G01 Z-1.8000
G01 F120.00
G01 X169.7512 Y91.7732
G01 X169.7512 Y91.7732
G01 X169.7512 Y91.7732
G01 X169.7512 Y91.7732
G00 Z2.0000
G00 X172.2912 Y91.7732
G01 F60.00
G01 Z-1.8000
G01 F120.00
G01 X172.2912 Y91.7732
G01 X172.2912 Y91.7732
G01 X172.2912 Y91.7732
G01 X172.2912 Y91.7732
G00 Z2.0000
G00 X174.8312 Y91.7732
G01 F60.00
G01 Z-1.8000
G01 F120.00
G01 X174.8312 Y91.7732
G01 X174.8312 Y91.7732
G01 X174.8312 Y91.7732
G01 X174.8312 Y91.7732
G00 Z2.0000
G00 X159.5912 Y91.7732
G01 F60.00
G01 Z-1.8000
G01 F120.00
G01 X159.5912 Y91.7732
G01 X159.5912 Y91.7732
G01 X159.5912 Y91.7732
G01 X159.5912 Y91.7732
G00 Z2.0000
G00 X157.0512 Y91.7732
G01 F60.00
G01 Z-1.8000
G01 F120.00
G01 X157.0512 Y91.7732
G01 X157.0512 Y91.7732
G01 X157.0512 Y91.7732
G01 X157.0512 Y91.7732
G00 Z2.0000
G00 X154.5112 Y91.7732
G01 F60.00
G01 Z-1.8000
G01 F120.00
G01 X154.5112 Y91.7732
G01 X154.5112 Y91.7732
G01 X154.5112 Y91.7732
G01 X154.5112 Y91.7732
G00 Z2.0000
G00 X154.5112 Y86.4392
G01 F60.00
G01 Z-1.8000
G01 F120.00
G01 X154.5112 Y86.4392
G01 X154.5112 Y86.4392
G01 X154.5112 Y86.4392
G01 X154.5112 Y86.4392
G00 Z2.0000
G00 X159.5912 Y86.4392
G01 F60.00
G01 Z-1.8000
G01 F120.00
G01 X159.5912 Y86.4392
G01 X159.5912 Y86.4392
G01 X159.5912 Y86.4392
G01 X159.5912 Y86.4392
G00 Z2.0000
G00 X133.8612 Y86.4112
G01 F60.00
G01 Z-1.8000
G01 F120.00
G01 X133.8612 Y86.4112
G01 X133.8612 Y86.4112
G01 X133.8612 Y86.4112
G01 X133.8612 Y86.4112
G00 Z2.0000
G00 X131.0612 Y87.6012
G01 F60.00
G01 Z-1.8000
G01 F120.00
G01 X131.0612 Y87.6012
G01 X131.0612 Y87.6012
G01 X131.0612 Y87.6012
G01 X131.0612 Y87.6012
G00 Z2.0000
G00 X131.0612 Y90.1412
G01 F60.00
G01 Z-1.8000
G01 F120.00
G01 X131.0612 Y90.1412
G01 X131.0612 Y90.1412
G01 X131.0612 Y90.1412
G01 X131.0612 Y90.1412
G00 Z2.0000
G00 X131.0612 Y92.6812
G01 F60.00
G01 Z-1.8000
G01 F120.00
G01 X131.0612 Y92.6812
G01 X131.0612 Y92.6812
G01 X131.0612 Y92.6812
G01 X131.0612 Y92.6812
G00 Z2.0000
G00 X133.8612 Y91.4112
G01 F60.00
G01 Z-1.8000
G01 F120.00
G01 X133.8612 Y91.4112
G01 X133.8612 Y91.4112
G01 X133.8612 Y91.4112
G01 X133.8612 Y91.4112
G00 Z2.0000
G00 X131.0612 Y85.0612
G01 F60.00
G01 Z-1.8000
G01 F120.00
G01 X131.0612 Y85.0612
G01 X131.0612 Y85.0612
G01 X131.0612 Y85.0612
G01 X131.0612 Y85.0612
G00 Z2.0000
G00 X110.0412 Y94.3612
G01 F60.00
G01 Z-1.8000
G01 F120.00
G01 X110.0412 Y94.3612
G01 X110.0412 Y94.3612
G01 X110.0412 Y94.3612
G01 X110.0412 Y94.3612
G00 Z2.0000
G00 X104.9612 Y94.3612
G01 F60.00
G01 Z-1.8000
G01 F120.00
G01 X104.9612 Y94.3612
G01 X104.9612 Y94.3612
G01 X104.9612 Y94.3612
G01 X104.9612 Y94.3612
G00 Z2.0000
G00 X105.9972 Y76.1522
G01 F60.00
G01 Z-1.8000
G01 F120.00
G01 X105.9972 Y76.1522
G01 X105.9972 Y76.1522
G01 X105.9972 Y76.1522
G01 X105.9972 Y76.1522
G00 Z2.0000
G00 X108.5372 Y76.1522
G01 F60.00
G01 Z-1.8000
G01 F120.00
G01 X108.5372 Y76.1522
G01 X108.5372 Y76.1522
G01 X108.5372 Y76.1522
G01 X108.5372 Y76.1522
G00 Z2.0000
G00 X97.3622 Y49.6092
G01 F60.00
G01 Z-1.8000
G01 F120.00
G01 X97.3622 Y49.6092
G01 X97.3622 Y49.6092
G01 X97.3622 Y49.6092
G01 X97.3622 Y49.6092
G00 Z2.0000
G00 X97.3622 Y47.0692
G01 F60.00
G01 Z-1.8000
G01 F120.00
G01 X97.3622 Y47.0692
G01 X97.3622 Y47.0692
G01 X97.3622 Y47.0692
G01 X97.3622 Y47.0692
G00 Z2.0000
G00 X97.3622 Y44.5292
G01 F60.00
G01 Z-1.8000
G01 F120.00
G01 X97.3622 Y44.5292
G01 X97.3622 Y44.5292
G01 X97.3622 Y44.5292
G01 X97.3622 Y44.5292
G00 Z2.0000
G00 X97.3622 Y41.9892
G01 F60.00
G01 Z-1.8000
G01 F120.00
G01 X97.3622 Y41.9892
G01 X97.3622 Y41.9892
G01 X97.3622 Y41.9892
G01 X97.3622 Y41.9892
G00 Z2.0000
G00 X97.3622 Y39.4492
G01 F60.00
G01 Z-1.8000
G01 F120.00
G01 X97.3622 Y39.4492
G01 X97.3622 Y39.4492
G01 X97.3622 Y39.4492
G01 X97.3622 Y39.4492
G00 Z2.0000
G00 X97.3622 Y36.9092
G01 F60.00
G01 Z-1.8000
G01 F120.00
G01 X97.3622 Y36.9092
G01 X97.3622 Y36.9092
G01 X97.3622 Y36.9092
G01 X97.3622 Y36.9092
G00 Z2.0000
G00 X97.3622 Y34.3692
G01 F60.00
G01 Z-1.8000
G01 F120.00
G01 X97.3622 Y34.3692
G01 X97.3622 Y34.3692
G01 X97.3622 Y34.3692
G01 X97.3622 Y34.3692
G00 Z2.0000
G00 X97.3622 Y31.8292
G01 F60.00
G01 Z-1.8000
G01 F120.00
G01 X97.3622 Y31.8292
G01 X97.3622 Y31.8292
G01 X97.3622 Y31.8292
G01 X97.3622 Y31.8292
G00 Z2.0000
G00 X94.8222 Y31.8292
G01 F60.00
G01 Z-1.8000
G01 F120.00
G01 X94.8222 Y31.8292
G01 X94.8222 Y31.8292
G01 X94.8222 Y31.8292
G01 X94.8222 Y31.8292
G00 Z2.0000
G00 X94.8222 Y34.3692
G01 F60.00
G01 Z-1.8000
G01 F120.00
G01 X94.8222 Y34.3692
G01 X94.8222 Y34.3692
G01 X94.8222 Y34.3692
G01 X94.8222 Y34.3692
G00 Z2.0000
G00 X94.8222 Y36.9092
G01 F60.00
G01 Z-1.8000
G01 F120.00
G01 X94.8222 Y36.9092
G01 X94.8222 Y36.9092
G01 X94.8222 Y36.9092
G01 X94.8222 Y36.9092
G00 Z2.0000
G00 X94.8222 Y39.4492
G01 F60.00
G01 Z-1.8000
G01 F120.00
G01 X94.8222 Y39.4492
G01 X94.8222 Y39.4492
G01 X94.8222 Y39.4492
G01 X94.8222 Y39.4492
G00 Z2.0000
G00 X94.8222 Y41.9892
G01 F60.00
G01 Z-1.8000
G01 F120.00
G01 X94.8222 Y41.9892
G01 X94.8222 Y41.9892
G01 X94.8222 Y41.9892
G01 X94.8222 Y41.9892
G00 Z2.0000
G00 X94.8222 Y44.5292
G01 F60.00
G01 Z-1.8000
G01 F120.00
G01 X94.8222 Y44.5292
G01 X94.8222 Y44.5292
G01 X94.8222 Y44.5292
G01 X94.8222 Y44.5292
G00 Z2.0000
G00 X94.8222 Y47.0692
G01 F60.00
G01 Z-1.8000
G01 F120.00
G01 X94.8222 Y47.0692
G01 X94.8222 Y47.0692
G01 X94.8222 Y47.0692
G01 X94.8222 Y47.0692
G00 Z2.0000
G00 X94.8222 Y49.6092
G01 F60.00
G01 Z-1.8000
G01 F120.00
G01 X94.8222 Y49.6092
G01 X94.8222 Y49.6092
G01 X94.8222 Y49.6092
G01 X94.8222 Y49.6092
G00 Z2.0000
G00 X113.3632 Y34.3692
G01 F60.00
G01 Z-1.8000
G01 F120.00
G01 X113.3632 Y34.3692
G01 X113.3632 Y34.3692
G01 X113.3632 Y34.3692
G01 X113.3632 Y34.3692
G00 Z2.0000
G00 X118.4432 Y34.3692
G01 F60.00
G01 Z-1.8000
G01 F120.00
G01 X118.4432 Y34.3692
G01 X118.4432 Y34.3692
G01 X118.4432 Y34.3692
G01 X118.4432 Y34.3692
G00 Z2.0000
G00 X118.6972 Y25.7332
G01 F60.00
G01 Z-1.8000
G01 F120.00
G01 X118.6972 Y25.7332
G01 X118.6972 Y25.7332
G01 X118.6972 Y25.7332
G01 X118.6972 Y25.7332
G00 Z2.0000
G00 X116.1572 Y25.7332
G01 F60.00
G01 Z-1.8000
G01 F120.00
G01 X116.1572 Y25.7332
G01 X116.1572 Y25.7332
G01 X116.1572 Y25.7332
G01 X116.1572 Y25.7332
G00 Z2.0000
G00 X113.6172 Y25.7332
G01 F60.00
G01 Z-1.8000
G01 F120.00
G01 X113.6172 Y25.7332
G01 X113.6172 Y25.7332
G01 X113.6172 Y25.7332
G01 X113.6172 Y25.7332
G00 Z2.0000
G00 X111.0772 Y25.7332
G01 F60.00
G01 Z-1.8000
G01 F120.00
G01 X111.0772 Y25.7332
G01 X111.0772 Y25.7332
G01 X111.0772 Y25.7332
G01 X111.0772 Y25.7332
G00 Z2.0000
G00 X108.5372 Y25.7332
G01 F60.00
G01 Z-1.8000
G01 F120.00
G01 X108.5372 Y25.7332
G01 X108.5372 Y25.7332
G01 X108.5372 Y25.7332
G01 X108.5372 Y25.7332
G00 Z2.0000
G00 X105.9972 Y25.7332
G01 F60.00
G01 Z-1.8000
G01 F120.00
G01 X105.9972 Y25.7332
G01 X105.9972 Y25.7332
G01 X105.9972 Y25.7332
G01 X105.9972 Y25.7332
G00 Z2.0000
G00 X106.8412 Y16.4432
G01 F60.00
G01 Z-1.8000
G01 F120.00
G01 X106.8412 Y16.4432
G01 X106.8412 Y16.4432
G01 X106.8412 Y16.4432
G01 X106.8412 Y16.4432
G00 Z2.0000
G00 X106.8412 Y13.9032
G01 F60.00
G01 Z-1.8000
G01 F120.00
G01 X106.8412 Y13.9032
G01 X106.8412 Y13.9032
G01 X106.8412 Y13.9032
G01 X106.8412 Y13.9032
G00 Z2.0000
G00 X106.8412 Y11.3632
G01 F60.00
G01 Z-1.8000
G01 F120.00
G01 X106.8412 Y11.3632
G01 X106.8412 Y11.3632
G01 X106.8412 Y11.3632
G01 X106.8412 Y11.3632
G00 Z2.0000
G00 X106.8412 Y8.8232
G01 F60.00
G01 Z-1.8000
G01 F120.00
G01 X106.8412 Y8.8232
G01 X106.8412 Y8.8232
G01 X106.8412 Y8.8232
G01 X106.8412 Y8.8232
G00 Z2.0000
G00 X104.0412 Y10.0932
G01 F60.00
G01 Z-1.8000
G01 F120.00
G01 X104.0412 Y10.0932
G01 X104.0412 Y10.0932
G01 X104.0412 Y10.0932
G01 X104.0412 Y10.0932
G00 Z2.0000
G00 X104.0412 Y15.0932
G01 F60.00
G01 Z-1.8000
G01 F120.00
G01 X104.0412 Y15.0932
G01 X104.0412 Y15.0932
G01 X104.0412 Y15.0932
G01 X104.0412 Y15.0932
G00 Z2.0000
G00 X121.2372 Y25.7332
G01 F60.00
G01 Z-1.8000
G01 F120.00
G01 X121.2372 Y25.7332
G01 X121.2372 Y25.7332
G01 X121.2372 Y25.7332
G01 X121.2372 Y25.7332
G00 Z2.0000
G00 X123.7772 Y25.7332
G01 F60.00
G01 Z-1.8000
G01 F120.00
G01 X123.7772 Y25.7332
G01 X123.7772 Y25.7332
G01 X123.7772 Y25.7332
G01 X123.7772 Y25.7332
G00 Z2.0000
G00 X126.3172 Y25.7332
G01 F60.00
G01 Z-1.8000
G01 F120.00
G01 X126.3172 Y25.7332
G01 X126.3172 Y25.7332
G01 X126.3172 Y25.7332
G01 X126.3172 Y25.7332
G00 Z2.0000
G00 X131.3962 Y25.7332
G01 F60.00
G01 Z-1.8000
G01 F120.00
G01 X131.3962 Y25.7332
G01 X131.3962 Y25.7332
G01 X131.3962 Y25.7332
G01 X131.3962 Y25.7332
G00 Z2.0000
G00 X133.9362 Y25.7332
G01 F60.00
G01 Z-1.8000
G01 F120.00
G01 X133.9362 Y25.7332
G01 X133.9362 Y25.7332
G01 X133.9362 Y25.7332
G01 X133.9362 Y25.7332
G00 Z2.0000
G00 X136.4762 Y25.7332
G01 F60.00
G01 Z-1.8000
G01 F120.00
G01 X136.4762 Y25.7332
G01 X136.4762 Y25.7332
G01 X136.4762 Y25.7332
G01 X136.4762 Y25.7332
G00 Z2.0000
G00 X139.0162 Y25.7332
G01 F60.00
G01 Z-1.8000
G01 F120.00
G01 X139.0162 Y25.7332
G01 X139.0162 Y25.7332
G01 X139.0162 Y25.7332
G01 X139.0162 Y25.7332
G00 Z2.0000
G00 X141.5562 Y25.7332
G01 F60.00
G01 Z-1.8000
G01 F120.00
G01 X141.5562 Y25.7332
G01 X141.5562 Y25.7332
G01 X141.5562 Y25.7332
G01 X141.5562 Y25.7332
G00 Z2.0000
G00 X144.0962 Y25.7332
G01 F60.00
G01 Z-1.8000
G01 F120.00
G01 X144.0962 Y25.7332
G01 X144.0962 Y25.7332
G01 X144.0962 Y25.7332
G01 X144.0962 Y25.7332
G00 Z2.0000
G00 X146.6362 Y25.7332
G01 F60.00
G01 Z-1.8000
G01 F120.00
G01 X146.6362 Y25.7332
G01 X146.6362 Y25.7332
G01 X146.6362 Y25.7332
G01 X146.6362 Y25.7332
G00 Z2.0000
G00 X149.1762 Y25.7332
G01 F60.00
G01 Z-1.8000
G01 F120.00
G01 X149.1762 Y25.7332
G01 X149.1762 Y25.7332
G01 X149.1762 Y25.7332
G01 X149.1762 Y25.7332
G00 Z2.0000
G00 X151.7162 Y25.7332
G01 F60.00
G01 Z-1.8000
G01 F120.00
G01 X151.7162 Y25.7332
G01 X151.7162 Y25.7332
G01 X151.7162 Y25.7332
G01 X151.7162 Y25.7332
G00 Z2.0000
G00 X157.0502 Y25.7332
G01 F60.00
G01 Z-1.8000
G01 F120.00
G01 X157.0502 Y25.7332
G01 X157.0502 Y25.7332
G01 X157.0502 Y25.7332
G01 X157.0502 Y25.7332
G00 Z2.0000
G00 X159.5902 Y25.7332
G01 F60.00
G01 Z-1.8000
G01 F120.00
G01 X159.5902 Y25.7332
G01 X159.5902 Y25.7332
G01 X159.5902 Y25.7332
G01 X159.5902 Y25.7332
G00 Z2.0000
G00 X162.1302 Y25.7332
G01 F60.00
G01 Z-1.8000
G01 F120.00
G01 X162.1302 Y25.7332
G01 X162.1302 Y25.7332
G01 X162.1302 Y25.7332
G01 X162.1302 Y25.7332
G00 Z2.0000
G00 X164.6702 Y25.7332
G01 F60.00
G01 Z-1.8000
G01 F120.00
G01 X164.6702 Y25.7332
G01 X164.6702 Y25.7332
G01 X164.6702 Y25.7332
G01 X164.6702 Y25.7332
G00 Z2.0000
G00 X167.2102 Y25.7332
G01 F60.00
G01 Z-1.8000
G01 F120.00
G01 X167.2102 Y25.7332
G01 X167.2102 Y25.7332
G01 X167.2102 Y25.7332
G01 X167.2102 Y25.7332
G00 Z2.0000
G00 X169.7502 Y25.7332
G01 F60.00
G01 Z-1.8000
G01 F120.00
G01 X169.7502 Y25.7332
G01 X169.7502 Y25.7332
G01 X169.7502 Y25.7332
G01 X169.7502 Y25.7332
G00 Z2.0000
G00 X172.2902 Y25.7332
G01 F60.00
G01 Z-1.8000
G01 F120.00
G01 X172.2902 Y25.7332
G01 X172.2902 Y25.7332
G01 X172.2902 Y25.7332
G01 X172.2902 Y25.7332
G00 Z2.0000
G00 X174.8302 Y25.7332
G01 F60.00
G01 Z-1.8000
G01 F120.00
G01 X174.8302 Y25.7332
G01 X174.8302 Y25.7332
G01 X174.8302 Y25.7332
G01 X174.8302 Y25.7332
G00 Z2.0000
G00 X177.3702 Y25.7332
G01 F60.00
G01 Z-1.8000
G01 F120.00
G01 X177.3702 Y25.7332
G01 X177.3702 Y25.7332
G01 X177.3702 Y25.7332
G01 X177.3702 Y25.7332
G00 Z2.0000
G00 X174.8312 Y15.3192
G01 F60.00
G01 Z-1.8000
G01 F120.00
G01 X174.8312 Y15.3192
G01 X174.8312 Y15.3192
G01 X174.8312 Y15.3192
G01 X174.8312 Y15.3192
G00 Z2.0000
G00 X169.7512 Y15.3192
G01 F60.00
G01 Z-1.8000
G01 F120.00
G01 X169.7512 Y15.3192
G01 X169.7512 Y15.3192
G01 X169.7512 Y15.3192
G01 X169.7512 Y15.3192
G00 Z2.0000
G00 X169.7512 Y9.7312
G01 F60.00
G01 Z-1.8000
G01 F120.00
G01 X169.7512 Y9.7312
G01 X169.7512 Y9.7312
G01 X169.7512 Y9.7312
G01 X169.7512 Y9.7312
G00 Z2.0000
G00 X172.2912 Y9.7312
G01 F60.00
G01 Z-1.8000
G01 F120.00
G01 X172.2912 Y9.7312
G01 X172.2912 Y9.7312
G01 X172.2912 Y9.7312
G01 X172.2912 Y9.7312
G00 Z2.0000
G00 X174.8312 Y9.7312
G01 F60.00
G01 Z-1.8000
G01 F120.00
G01 X174.8312 Y9.7312
G01 X174.8312 Y9.7312
G01 X174.8312 Y9.7312
G01 X174.8312 Y9.7312
G00 Z2.0000
G00 X159.5912 Y9.7312
G01 F60.00
G01 Z-1.8000
G01 F120.00
G01 X159.5912 Y9.7312
G01 X159.5912 Y9.7312
G01 X159.5912 Y9.7312
G01 X159.5912 Y9.7312
G00 Z2.0000
G00 X157.0512 Y9.7312
G01 F60.00
G01 Z-1.8000
G01 F120.00
G01 X157.0512 Y9.7312
G01 X157.0512 Y9.7312
G01 X157.0512 Y9.7312
G01 X157.0512 Y9.7312
G00 Z2.0000
G00 X154.5112 Y9.7312
G01 F60.00
G01 Z-1.8000
G01 F120.00
G01 X154.5112 Y9.7312
G01 X154.5112 Y9.7312
G01 X154.5112 Y9.7312
G01 X154.5112 Y9.7312
G00 Z2.0000
G00 X154.5112 Y15.8272
G01 F60.00
G01 Z-1.8000
G01 F120.00
G01 X154.5112 Y15.8272
G01 X154.5112 Y15.8272
G01 X154.5112 Y15.8272
G01 X154.5112 Y15.8272
G00 Z2.0000
G00 X159.5912 Y15.8272
G01 F60.00
G01 Z-1.8000
G01 F120.00
G01 X159.5912 Y15.8272
G01 X159.5912 Y15.8272
G01 X159.5912 Y15.8272
G01 X159.5912 Y15.8272
G00 Z2.0000
G00 X164.6712 Y34.1152
G01 F60.00
G01 Z-1.8000
G01 F120.00
G01 X164.6712 Y34.1152
G01 X164.6712 Y34.1152
G01 X164.6712 Y34.1152
G01 X164.6712 Y34.1152
G00 Z2.0000
G00 X169.7512 Y34.1152
G01 F60.00
G01 Z-1.8000
G01 F120.00
G01 X169.7512 Y34.1152
G01 X169.7512 Y34.1152
G01 X169.7512 Y34.1152
G01 X169.7512 Y34.1152
G00 Z2.0000
G00 X169.7512 Y40.7192
G01 F60.00
G01 Z-1.8000
G01 F120.00
G01 X169.7512 Y40.7192
G01 X169.7512 Y40.7192
G01 X169.7512 Y40.7192
G01 X169.7512 Y40.7192
G00 Z2.0000
G00 X164.6712 Y40.7192
G01 F60.00
G01 Z-1.8000
G01 F120.00
G01 X164.6712 Y40.7192
G01 X164.6712 Y40.7192
G01 X164.6712 Y40.7192
G01 X164.6712 Y40.7192
G00 Z2.0000
G00 X164.6712 Y47.0692
G01 F60.00
G01 Z-1.8000
G01 F120.00
G01 X164.6712 Y47.0692
G01 X164.6712 Y47.0692
G01 X164.6712 Y47.0692
G01 X164.6712 Y47.0692
G00 Z2.0000
G00 X169.7512 Y47.0692
G01 F60.00
G01 Z-1.8000
G01 F120.00
G01 X169.7512 Y47.0692
G01 X169.7512 Y47.0692
G01 X169.7512 Y47.0692
G01 X169.7512 Y47.0692
G00 Z2.0000
G00 X144.0972 Y47.0692
G01 F60.00
G01 Z-1.8000
G01 F120.00
G01 X144.0972 Y47.0692
G01 X144.0972 Y47.0692
G01 X144.0972 Y47.0692
G01 X144.0972 Y47.0692
G00 Z2.0000
G00 X139.0172 Y47.0692
G01 F60.00
G01 Z-1.8000
G01 F120.00
G01 X139.0172 Y47.0692
G01 X139.0172 Y47.0692
G01 X139.0172 Y47.0692
G01 X139.0172 Y47.0692
G00 Z2.0000
G00 X139.0172 Y40.7192
G01 F60.00
G01 Z-1.8000
G01 F120.00
G01 X139.0172 Y40.7192
G01 X139.0172 Y40.7192
G01 X139.0172 Y40.7192
G01 X139.0172 Y40.7192
G00 Z2.0000
G00 X144.0972 Y40.7192
G01 F60.00
G01 Z-1.8000
G01 F120.00
G01 X144.0972 Y40.7192
G01 X144.0972 Y40.7192
G01 X144.0972 Y40.7192
G01 X144.0972 Y40.7192
G00 Z2.0000
G00 X144.0972 Y34.1152
G01 F60.00
G01 Z-1.8000
G01 F120.00
G01 X144.0972 Y34.1152
G01 X144.0972 Y34.1152
G01 X144.0972 Y34.1152
G01 X144.0972 Y34.1152
G00 Z2.0000
G00 X139.0172 Y34.1152
G01 F60.00
G01 Z-1.8000
G01 F120.00
G01 X139.0172 Y34.1152
G01 X139.0172 Y34.1152
G01 X139.0172 Y34.1152
G01 X139.0172 Y34.1152
G00 Z2.0000
G00 X132.9212 Y18.1432
G01 F60.00
G01 Z-1.8000
G01 F120.00
G01 X132.9212 Y18.1432
G01 X132.9212 Y18.1432
G01 X132.9212 Y18.1432
G01 X132.9212 Y18.1432
G00 Z2.0000
G00 X127.8412 Y18.1432
G01 F60.00
G01 Z-1.8000
G01 F120.00
G01 X127.8412 Y18.1432
G01 X127.8412 Y18.1432
G01 X127.8412 Y18.1432
G01 X127.8412 Y18.1432
G00 Z2.0000
G00 X127.8612 Y7.1432
G01 F60.00
G01 Z-1.8000
G01 F120.00
G01 X127.8612 Y7.1432
G01 X127.8612 Y7.1432
G01 X127.8612 Y7.1432
G01 X127.8612 Y7.1432
G00 Z2.0000
G00 X132.9412 Y7.1432
G01 F60.00
G01 Z-1.8000
G01 F120.00
G01 X132.9412 Y7.1432
G01 X132.9412 Y7.1432
G01 X132.9412 Y7.1432
G01 X132.9412 Y7.1432
G00 Z2.0000
M05
G00 Z2.0000
G00 Z15.00

