(G-CODE GENERATED BY FLATCAM v8.993 - www.flatcam.org - Version Date: 2020/06/05)

(Name: TopLayer_novo)
(Type: G-code from Geometry)
(Units: MM)

(Created on Monday, 29 March 2021 at 20:00)

(This preprocessor is the default preprocessor used by FlatCAM.)
(It is made to work with MACH3 compatible motion controllers.)

(TOOL DIAMETER: 0.1 mm)
(Feedrate_XY: 120.0 mm/min)
(Feedrate_Z: 60.0 mm/min)
(Feedrate rapids 1500.0 mm/min)

(Z_Cut: -0.05 mm)
(Z_Move: 2.0 mm)
(Z Start: None mm)
(Z End: 15.0 mm)
(Steps per circle: 64)
(Preprocessor Geometry: default)

(X range:    3.5877 ...  179.4506  mm)
(Y range:    3.5878 ...   97.9172  mm)

(Spindle Speed: None RPM)
G21
G90
G94



G01 F120.00
G00 Z2.0000

M03
G00 X28.7473 Y21.6340
G01 F60.00
G01 Z-0.0500
G01 F120.00
G01 X28.6135 Y21.6471
G01 X28.4820 Y21.6772
G01 X28.3554 Y21.7237
G01 X28.2356 Y21.7858
G01 X28.1251 Y21.8629
G01 X28.0252 Y21.9535
G01 X27.9379 Y22.0563
G01 X27.8642 Y22.1693
G01 X27.8060 Y22.2910
G01 X27.7633 Y22.4191
G01 X27.7377 Y22.5510
G01 X27.7289 Y22.6858
G01 X27.7377 Y22.8206
G01 X27.7633 Y22.9524
G01 X27.8060 Y23.0805
G01 X27.8642 Y23.2022
G01 X27.9379 Y23.3152
G01 X28.0252 Y23.4180
G01 X28.1251 Y23.5087
G01 X28.2356 Y23.5857
G01 X28.3554 Y23.6478
G01 X28.4820 Y23.6944
G01 X28.6135 Y23.7245
G01 X28.7473 Y23.7376
G01 X28.8821 Y23.7332
G01 X29.0154 Y23.7118
G01 X29.1444 Y23.6736
G01 X29.2681 Y23.6187
G01 X29.3834 Y23.5489
G01 X29.4886 Y23.4646
G01 X29.5823 Y23.3680
G01 X29.6633 Y23.2599
G01 X29.7292 Y23.1426
G01 X29.7801 Y23.0175
G01 X29.8140 Y22.8870
G01 X29.8315 Y22.7531
G01 X29.8315 Y22.6184
G01 X29.8140 Y22.4845
G01 X29.7801 Y22.3541
G01 X29.7292 Y22.2290
G01 X29.6633 Y22.1117
G01 X29.5823 Y22.0035
G01 X29.4886 Y21.9070
G01 X29.3834 Y21.8226
G01 X29.2681 Y21.7528
G01 X29.1444 Y21.6980
G01 X29.0154 Y21.6597
G01 X28.8821 Y21.6384
G01 X28.7473 Y21.6340
G00 Z2.0000
G00 X29.8311 Y22.6882
G01 F60.00
G01 Z-0.0500
G01 F120.00
G01 X29.8261 Y22.5829
G01 X29.8110 Y22.4809
G01 X29.7860 Y22.3810
G01 X29.7513 Y22.2840
G01 X29.7072 Y22.1908
G01 X29.6542 Y22.1024
G01 X29.5928 Y22.0197
G01 X29.5236 Y21.9433
G01 X29.4473 Y21.8741
G01 X29.3645 Y21.8127
G01 X29.2762 Y21.7598
G01 X29.1830 Y21.7157
G01 X29.0860 Y21.6810
G01 X28.9860 Y21.6559
G01 X28.8841 Y21.6408
G01 X28.7812 Y21.6358
G01 X28.6783 Y21.6408
G01 X28.5763 Y21.6559
G01 X28.4764 Y21.6810
G01 X28.3794 Y21.7157
G01 X28.2862 Y21.7598
G01 X28.1978 Y21.8127
G01 X28.1151 Y21.8741
G01 X28.0387 Y21.9433
G01 X27.9695 Y22.0197
G01 X27.9081 Y22.1024
G01 X27.8552 Y22.1908
G01 X27.8111 Y22.2840
G01 X27.7764 Y22.3810
G01 X27.7514 Y22.4809
G01 X27.7362 Y22.5829
G01 X27.7312 Y22.6858
G01 X27.7362 Y22.7887
G01 X27.7514 Y22.8906
G01 X27.7764 Y22.9906
G01 X27.8111 Y23.0876
G01 X27.8552 Y23.1807
G01 X27.9081 Y23.2691
G01 X27.9695 Y23.3519
G01 X28.0387 Y23.4282
G01 X28.1151 Y23.4974
G01 X28.1978 Y23.5588
G01 X28.2862 Y23.6118
G01 X28.3794 Y23.6558
G01 X28.4764 Y23.6906
G01 X28.5763 Y23.7156
G01 X28.6783 Y23.7307
G01 X28.7812 Y23.7358
G01 X28.8841 Y23.7307
G01 X28.9860 Y23.7156
G01 X29.0860 Y23.6906
G01 X29.1830 Y23.6558
G01 X29.2762 Y23.6118
G01 X29.3645 Y23.5588
G01 X29.4473 Y23.4974
G01 X29.5236 Y23.4282
G01 X29.5928 Y23.3519
G01 X29.6542 Y23.2691
G01 X29.7072 Y23.1807
G01 X29.7513 Y23.0876
G01 X29.7860 Y22.9906
G01 X29.8110 Y22.8906
G01 X29.8261 Y22.7887
G01 X29.8311 Y22.6882
G00 Z2.0000
G00 X30.7629 Y23.5739
G01 F60.00
G01 Z-0.0500
G01 F120.00
G01 X30.7629 Y25.8622
G01 X30.7378 Y25.8774
G01 X30.6551 Y25.9389
G01 X30.5797 Y26.0073
G01 X30.5113 Y26.0827
G01 X30.4478 Y26.1685
G01 X30.3962 Y26.2548
G01 X30.3526 Y26.3468
G01 X30.3168 Y26.4473
G01 X30.2924 Y26.5449
G01 X30.2773 Y26.6469
G01 X30.2723 Y26.7522
G01 X30.2773 Y26.8527
G01 X30.2921 Y26.9534
G01 X30.3174 Y27.0546
G01 X30.3521 Y27.1516
G01 X30.3962 Y27.2447
G01 X30.4492 Y27.3331
G01 X30.5105 Y27.4159
G01 X30.5797 Y27.4922
G01 X30.6561 Y27.5614
G01 X30.7388 Y27.6228
G01 X30.8272 Y27.6758
G01 X30.9204 Y27.7198
G01 X31.0174 Y27.7546
G01 X31.1174 Y27.7796
G01 X31.2193 Y27.7947
G01 X31.3222 Y27.7998
G01 X31.4251 Y27.7947
G01 X31.5258 Y27.7798
G01 X31.6270 Y27.7546
G01 X31.7217 Y27.7207
G01 X31.8193 Y27.6746
G01 X31.9055 Y27.6228
G01 X31.9883 Y27.5614
G01 X32.0647 Y27.4922
G01 X32.1323 Y27.4177
G01 X32.1966 Y27.3310
G01 X32.2482 Y27.2447
G01 X32.2923 Y27.1516
G01 X32.3270 Y27.0546
G01 X32.3515 Y26.9570
G01 X32.3672 Y26.8515
G01 X32.3722 Y26.7498
G01 X32.3673 Y26.6493
G01 X32.3520 Y26.5449
G01 X32.3262 Y26.4426
G01 X32.2923 Y26.3480
G01 X32.2488 Y26.2559
G01 X32.1938 Y26.1644
G01 X32.1339 Y26.0837
G01 X32.0655 Y26.0082
G01 X31.9874 Y25.9373
G01 X31.9066 Y25.8774
G01 X31.8794 Y25.8610
G01 X31.8794 Y23.5739
G01 X31.9055 Y23.5581
G01 X31.9863 Y23.4982
G01 X32.0645 Y23.4274
G01 X32.1344 Y23.3499
G01 X32.1942 Y23.2691
G01 X32.2466 Y23.1818
G01 X32.2913 Y23.0876
G01 X32.3266 Y22.9882
G01 X32.3510 Y22.8906
G01 X32.3658 Y22.7911
G01 X32.3712 Y22.6858
G01 X32.3658 Y22.5804
G01 X32.3510 Y22.4809
G01 X32.3266 Y22.3833
G01 X32.2913 Y22.2840
G01 X32.2472 Y22.1908
G01 X32.1928 Y22.1004
G01 X32.1328 Y22.0197
G01 X32.0653 Y21.9451
G01 X31.9873 Y21.8741
G01 X31.9035 Y21.8121
G01 X31.8162 Y21.7598
G01 X31.7230 Y21.7157
G01 X31.6260 Y21.6810
G01 X31.5260 Y21.6559
G01 X31.4241 Y21.6408
G01 X31.3212 Y21.6358
G01 X31.2183 Y21.6408
G01 X31.1163 Y21.6559
G01 X31.0164 Y21.6810
G01 X30.9194 Y21.7157
G01 X30.8262 Y21.7598
G01 X30.7378 Y21.8127
G01 X30.6551 Y21.8741
G01 X30.5787 Y21.9433
G01 X30.5095 Y22.0197
G01 X30.4475 Y22.1035
G01 X30.3952 Y22.1908
G01 X30.3511 Y22.2840
G01 X30.3164 Y22.3810
G01 X30.2914 Y22.4809
G01 X30.2762 Y22.5829
G01 X30.2712 Y22.6858
G01 X30.2762 Y22.7887
G01 X30.2916 Y22.8918
G01 X30.3164 Y22.9906
G01 X30.3511 Y23.0876
G01 X30.3952 Y23.1807
G01 X30.4488 Y23.2701
G01 X30.5095 Y23.3519
G01 X30.5796 Y23.4291
G01 X30.6560 Y23.4982
G01 X30.7368 Y23.5581
G01 X30.7629 Y23.5739
G00 Z2.0000
G00 X31.2873 Y21.6340
G01 F60.00
G01 Z-0.0500
G01 F120.00
G01 X31.1535 Y21.6471
G01 X31.0220 Y21.6772
G01 X30.8954 Y21.7237
G01 X30.7756 Y21.7858
G01 X30.6651 Y21.8629
G01 X30.5652 Y21.9535
G01 X30.4779 Y22.0563
G01 X30.4042 Y22.1693
G01 X30.3460 Y22.2910
G01 X30.3033 Y22.4191
G01 X30.2777 Y22.5510
G01 X30.2689 Y22.6858
G01 X30.2777 Y22.8206
G01 X30.3033 Y22.9524
G01 X30.3460 Y23.0805
G01 X30.4042 Y23.2022
G01 X30.4779 Y23.3152
G01 X30.5652 Y23.4180
G01 X30.6650 Y23.5086
G01 X30.6953 Y23.5296
G01 X30.7001 Y23.5333
G01 X30.7287 Y23.5616
G01 X30.7317 Y23.5656
G01 X30.7343 Y23.5700
G01 X30.7501 Y23.5995
G01 X30.7525 Y23.6049
G01 X30.7547 Y23.6130
G01 X30.7601 Y23.6475
G01 X30.7606 Y23.6540
G01 X30.7606 Y25.7825
G01 X30.7599 Y25.7906
G01 X30.7546 Y25.8228
G01 X30.7531 Y25.8288
G01 X30.7509 Y25.8345
G01 X30.7366 Y25.8635
G01 X30.7315 Y25.8718
G01 X30.7275 Y25.8764
G01 X30.7019 Y25.9023
G01 X30.6400 Y25.9487
G01 X30.5434 Y26.0423
G01 X30.4590 Y26.1475
G01 X30.3892 Y26.2629
G01 X30.3344 Y26.3866
G01 X30.2961 Y26.5155
G01 X30.2748 Y26.6489
G01 X30.2704 Y26.7837
G01 X30.2835 Y26.9175
G01 X30.3136 Y27.0489
G01 X30.3602 Y27.1756
G01 X30.4222 Y27.2954
G01 X30.4993 Y27.4059
G01 X30.5900 Y27.5057
G01 X30.6928 Y27.5930
G01 X30.8057 Y27.6667
G01 X30.9274 Y27.7249
G01 X31.0555 Y27.7676
G01 X31.1874 Y27.7933
G01 X31.3222 Y27.8020
G01 X31.4570 Y27.7933
G01 X31.5889 Y27.7676
G01 X31.7169 Y27.7249
G01 X31.8387 Y27.6667
G01 X31.9516 Y27.5930
G01 X32.0544 Y27.5057
G01 X32.1451 Y27.4059
G01 X32.2222 Y27.2954
G01 X32.2842 Y27.1756
G01 X32.3308 Y27.0489
G01 X32.3609 Y26.9175
G01 X32.3740 Y26.7837
G01 X32.3696 Y26.6489
G01 X32.3483 Y26.5155
G01 X32.3100 Y26.3866
G01 X32.2552 Y26.2629
G01 X32.1854 Y26.1475
G01 X32.1010 Y26.0423
G01 X32.0044 Y25.9487
G01 X31.9405 Y25.9007
G01 X31.9124 Y25.8722
G01 X31.9087 Y25.8673
G01 X31.9063 Y25.8631
G01 X31.8920 Y25.8340
G01 X31.8896 Y25.8284
G01 X31.8877 Y25.8213
G01 X31.8823 Y25.7880
G01 X31.8818 Y25.7810
G01 X31.8818 Y23.6550
G01 X31.8824 Y23.6475
G01 X31.8871 Y23.6163
G01 X31.8886 Y23.6103
G01 X31.8908 Y23.6045
G01 X31.9045 Y23.5759
G01 X31.9095 Y23.5677
G01 X31.9329 Y23.5416
G01 X31.9370 Y23.5376
G01 X32.0287 Y23.4645
G01 X32.1223 Y23.3680
G01 X32.2033 Y23.2599
G01 X32.2692 Y23.1426
G01 X32.3201 Y23.0175
G01 X32.3540 Y22.8870
G01 X32.3715 Y22.7531
G01 X32.3715 Y22.6184
G01 X32.3540 Y22.4845
G01 X32.3201 Y22.3541
G01 X32.2692 Y22.2290
G01 X32.2033 Y22.1117
G01 X32.1223 Y22.0035
G01 X32.0286 Y21.9070
G01 X31.9234 Y21.8226
G01 X31.8081 Y21.7528
G01 X31.6844 Y21.6980
G01 X31.5554 Y21.6597
G01 X31.4221 Y21.6384
G01 X31.2873 Y21.6340
G00 Z2.0000
G00 X33.8273 Y21.6340
G01 F60.00
G01 Z-0.0500
G01 F120.00
G01 X33.6935 Y21.6471
G01 X33.5620 Y21.6772
G01 X33.4354 Y21.7237
G01 X33.3156 Y21.7858
G01 X33.2051 Y21.8629
G01 X33.1052 Y21.9535
G01 X33.0179 Y22.0563
G01 X32.9442 Y22.1693
G01 X32.8860 Y22.2910
G01 X32.8433 Y22.4191
G01 X32.8177 Y22.5510
G01 X32.8089 Y22.6858
G01 X32.8177 Y22.8206
G01 X32.8433 Y22.9524
G01 X32.8860 Y23.0805
G01 X32.9442 Y23.2022
G01 X33.0179 Y23.3152
G01 X33.1052 Y23.4180
G01 X33.2050 Y23.5086
G01 X33.2353 Y23.5296
G01 X33.2401 Y23.5333
G01 X33.2687 Y23.5616
G01 X33.2717 Y23.5656
G01 X33.2743 Y23.5700
G01 X33.2901 Y23.5995
G01 X33.2925 Y23.6049
G01 X33.2947 Y23.6130
G01 X33.3001 Y23.6475
G01 X33.3006 Y23.6540
G01 X33.3006 Y25.7825
G01 X33.2999 Y25.7906
G01 X33.2946 Y25.8228
G01 X33.2931 Y25.8288
G01 X33.2909 Y25.8345
G01 X33.2766 Y25.8635
G01 X33.2715 Y25.8718
G01 X33.2675 Y25.8764
G01 X33.2419 Y25.9023
G01 X33.1800 Y25.9487
G01 X33.0834 Y26.0423
G01 X32.9990 Y26.1475
G01 X32.9292 Y26.2629
G01 X32.8744 Y26.3866
G01 X32.8361 Y26.5155
G01 X32.8148 Y26.6489
G01 X32.8104 Y26.7837
G01 X32.8235 Y26.9175
G01 X32.8536 Y27.0489
G01 X32.9002 Y27.1756
G01 X32.9622 Y27.2954
G01 X33.0393 Y27.4059
G01 X33.1300 Y27.5057
G01 X33.2328 Y27.5930
G01 X33.3457 Y27.6667
G01 X33.4674 Y27.7249
G01 X33.5955 Y27.7676
G01 X33.7274 Y27.7933
G01 X33.8622 Y27.8020
G01 X33.9970 Y27.7933
G01 X34.1289 Y27.7676
G01 X34.2569 Y27.7249
G01 X34.3787 Y27.6667
G01 X34.4916 Y27.5930
G01 X34.5944 Y27.5057
G01 X34.6851 Y27.4059
G01 X34.7622 Y27.2954
G01 X34.8242 Y27.1756
G01 X34.8708 Y27.0489
G01 X34.9009 Y26.9175
G01 X34.9140 Y26.7837
G01 X34.9096 Y26.6489
G01 X34.8883 Y26.5155
G01 X34.8500 Y26.3866
G01 X34.7952 Y26.2629
G01 X34.7254 Y26.1475
G01 X34.6410 Y26.0423
G01 X34.5444 Y25.9487
G01 X34.4805 Y25.9007
G01 X34.4524 Y25.8722
G01 X34.4494 Y25.8683
G01 X34.4463 Y25.8631
G01 X34.4320 Y25.8340
G01 X34.4296 Y25.8284
G01 X34.4277 Y25.8213
G01 X34.4223 Y25.7880
G01 X34.4218 Y25.7810
G01 X34.4218 Y23.6550
G01 X34.4224 Y23.6475
G01 X34.4271 Y23.6163
G01 X34.4286 Y23.6103
G01 X34.4308 Y23.6045
G01 X34.4445 Y23.5759
G01 X34.4495 Y23.5677
G01 X34.4729 Y23.5416
G01 X34.4770 Y23.5376
G01 X34.5687 Y23.4645
G01 X34.6623 Y23.3680
G01 X34.7433 Y23.2599
G01 X34.8092 Y23.1426
G01 X34.8601 Y23.0175
G01 X34.8940 Y22.8870
G01 X34.9115 Y22.7531
G01 X34.9115 Y22.6184
G01 X34.8940 Y22.4845
G01 X34.8601 Y22.3541
G01 X34.8092 Y22.2290
G01 X34.7433 Y22.1117
G01 X34.6623 Y22.0035
G01 X34.5686 Y21.9070
G01 X34.4634 Y21.8226
G01 X34.3481 Y21.7528
G01 X34.2244 Y21.6980
G01 X34.0954 Y21.6597
G01 X33.9621 Y21.6384
G01 X33.8273 Y21.6340
G00 Z2.0000
G00 X33.3029 Y23.5739
G01 F60.00
G01 Z-0.0500
G01 F120.00
G01 X33.3029 Y25.8622
G01 X33.2778 Y25.8774
G01 X33.1951 Y25.9389
G01 X33.1197 Y26.0073
G01 X33.0513 Y26.0827
G01 X32.9878 Y26.1685
G01 X32.9362 Y26.2548
G01 X32.8926 Y26.3468
G01 X32.8568 Y26.4473
G01 X32.8324 Y26.5449
G01 X32.8173 Y26.6469
G01 X32.8123 Y26.7522
G01 X32.8173 Y26.8527
G01 X32.8321 Y26.9534
G01 X32.8574 Y27.0546
G01 X32.8921 Y27.1516
G01 X32.9362 Y27.2447
G01 X32.9892 Y27.3331
G01 X33.0505 Y27.4159
G01 X33.1197 Y27.4922
G01 X33.1961 Y27.5614
G01 X33.2788 Y27.6228
G01 X33.3672 Y27.6758
G01 X33.4604 Y27.7198
G01 X33.5574 Y27.7546
G01 X33.6574 Y27.7796
G01 X33.7593 Y27.7947
G01 X33.8622 Y27.7998
G01 X33.9651 Y27.7947
G01 X34.0658 Y27.7798
G01 X34.1670 Y27.7546
G01 X34.2617 Y27.7207
G01 X34.3593 Y27.6746
G01 X34.4455 Y27.6228
G01 X34.5283 Y27.5614
G01 X34.6047 Y27.4922
G01 X34.6723 Y27.4177
G01 X34.7366 Y27.3310
G01 X34.7882 Y27.2447
G01 X34.8323 Y27.1516
G01 X34.8670 Y27.0546
G01 X34.8915 Y26.9570
G01 X34.9072 Y26.8515
G01 X34.9122 Y26.7498
G01 X34.9073 Y26.6493
G01 X34.8920 Y26.5449
G01 X34.8662 Y26.4426
G01 X34.8323 Y26.3480
G01 X34.7888 Y26.2559
G01 X34.7338 Y26.1644
G01 X34.6739 Y26.0837
G01 X34.6055 Y26.0082
G01 X34.5274 Y25.9373
G01 X34.4466 Y25.8774
G01 X34.4194 Y25.8610
G01 X34.4194 Y23.5739
G01 X34.4455 Y23.5581
G01 X34.5263 Y23.4982
G01 X34.6045 Y23.4274
G01 X34.6744 Y23.3499
G01 X34.7342 Y23.2691
G01 X34.7866 Y23.1818
G01 X34.8313 Y23.0876
G01 X34.8666 Y22.9882
G01 X34.8910 Y22.8906
G01 X34.9058 Y22.7911
G01 X34.9112 Y22.6858
G01 X34.9058 Y22.5804
G01 X34.8910 Y22.4809
G01 X34.8666 Y22.3833
G01 X34.8313 Y22.2840
G01 X34.7872 Y22.1908
G01 X34.7328 Y22.1004
G01 X34.6728 Y22.0197
G01 X34.6053 Y21.9451
G01 X34.5273 Y21.8741
G01 X34.4435 Y21.8121
G01 X34.3562 Y21.7598
G01 X34.2630 Y21.7157
G01 X34.1660 Y21.6810
G01 X34.0660 Y21.6559
G01 X33.9641 Y21.6408
G01 X33.8612 Y21.6358
G01 X33.7583 Y21.6408
G01 X33.6563 Y21.6559
G01 X33.5564 Y21.6810
G01 X33.4594 Y21.7157
G01 X33.3662 Y21.7598
G01 X33.2778 Y21.8127
G01 X33.1951 Y21.8741
G01 X33.1187 Y21.9433
G01 X33.0495 Y22.0197
G01 X32.9875 Y22.1035
G01 X32.9352 Y22.1908
G01 X32.8911 Y22.2840
G01 X32.8564 Y22.3810
G01 X32.8314 Y22.4809
G01 X32.8162 Y22.5829
G01 X32.8112 Y22.6858
G01 X32.8162 Y22.7887
G01 X32.8316 Y22.8918
G01 X32.8564 Y22.9906
G01 X32.8911 Y23.0876
G01 X32.9352 Y23.1807
G01 X32.9888 Y23.2701
G01 X33.0495 Y23.3519
G01 X33.1196 Y23.4291
G01 X33.1960 Y23.4982
G01 X33.2768 Y23.5581
G01 X33.3029 Y23.5739
G00 Z2.0000
G00 X35.8429 Y23.5739
G01 F60.00
G01 Z-0.0500
G01 F120.00
G01 X35.8429 Y25.8622
G01 X35.8178 Y25.8774
G01 X35.7351 Y25.9389
G01 X35.6597 Y26.0073
G01 X35.5913 Y26.0827
G01 X35.5278 Y26.1685
G01 X35.4762 Y26.2548
G01 X35.4326 Y26.3468
G01 X35.3968 Y26.4473
G01 X35.3724 Y26.5449
G01 X35.3573 Y26.6469
G01 X35.3523 Y26.7522
G01 X35.3573 Y26.8527
G01 X35.3721 Y26.9534
G01 X35.3974 Y27.0546
G01 X35.4321 Y27.1516
G01 X35.4762 Y27.2447
G01 X35.5292 Y27.3331
G01 X35.5905 Y27.4159
G01 X35.6597 Y27.4922
G01 X35.7361 Y27.5614
G01 X35.8188 Y27.6228
G01 X35.9072 Y27.6758
G01 X36.0004 Y27.7198
G01 X36.0974 Y27.7546
G01 X36.1974 Y27.7796
G01 X36.2993 Y27.7947
G01 X36.4022 Y27.7998
G01 X36.5051 Y27.7947
G01 X36.6058 Y27.7798
G01 X36.7070 Y27.7546
G01 X36.8017 Y27.7207
G01 X36.8993 Y27.6746
G01 X36.9855 Y27.6228
G01 X37.0683 Y27.5614
G01 X37.1447 Y27.4922
G01 X37.2123 Y27.4177
G01 X37.2766 Y27.3310
G01 X37.3282 Y27.2447
G01 X37.3723 Y27.1516
G01 X37.4070 Y27.0546
G01 X37.4315 Y26.9570
G01 X37.4472 Y26.8515
G01 X37.4522 Y26.7498
G01 X37.4473 Y26.6493
G01 X37.4320 Y26.5449
G01 X37.4062 Y26.4426
G01 X37.3723 Y26.3480
G01 X37.3288 Y26.2559
G01 X37.2738 Y26.1644
G01 X37.2139 Y26.0837
G01 X37.1455 Y26.0082
G01 X37.0674 Y25.9373
G01 X36.9866 Y25.8774
G01 X36.9594 Y25.8610
G01 X36.9594 Y23.5739
G01 X36.9855 Y23.5581
G01 X37.0663 Y23.4982
G01 X37.1445 Y23.4274
G01 X37.2144 Y23.3499
G01 X37.2742 Y23.2691
G01 X37.3266 Y23.1818
G01 X37.3713 Y23.0876
G01 X37.4066 Y22.9882
G01 X37.4310 Y22.8906
G01 X37.4458 Y22.7911
G01 X37.4512 Y22.6858
G01 X37.4458 Y22.5804
G01 X37.4310 Y22.4809
G01 X37.4066 Y22.3833
G01 X37.3713 Y22.2840
G01 X37.3272 Y22.1908
G01 X37.2728 Y22.1004
G01 X37.2128 Y22.0197
G01 X37.1453 Y21.9451
G01 X37.0673 Y21.8741
G01 X36.9835 Y21.8121
G01 X36.8962 Y21.7598
G01 X36.8030 Y21.7157
G01 X36.7060 Y21.6810
G01 X36.6060 Y21.6559
G01 X36.5041 Y21.6408
G01 X36.4012 Y21.6358
G01 X36.2983 Y21.6408
G01 X36.1963 Y21.6559
G01 X36.0964 Y21.6810
G01 X35.9994 Y21.7157
G01 X35.9062 Y21.7598
G01 X35.8178 Y21.8127
G01 X35.7351 Y21.8741
G01 X35.6587 Y21.9433
G01 X35.5895 Y22.0197
G01 X35.5275 Y22.1035
G01 X35.4752 Y22.1908
G01 X35.4311 Y22.2840
G01 X35.3964 Y22.3810
G01 X35.3714 Y22.4809
G01 X35.3562 Y22.5829
G01 X35.3512 Y22.6858
G01 X35.3562 Y22.7887
G01 X35.3716 Y22.8918
G01 X35.3964 Y22.9906
G01 X35.4311 Y23.0876
G01 X35.4752 Y23.1807
G01 X35.5288 Y23.2701
G01 X35.5895 Y23.3519
G01 X35.6596 Y23.4291
G01 X35.7360 Y23.4982
G01 X35.8168 Y23.5581
G01 X35.8429 Y23.5739
G00 Z2.0000
G00 X36.3673 Y21.6340
G01 F60.00
G01 Z-0.0500
G01 F120.00
G01 X36.2335 Y21.6471
G01 X36.1020 Y21.6772
G01 X35.9754 Y21.7237
G01 X35.8556 Y21.7858
G01 X35.7451 Y21.8629
G01 X35.6452 Y21.9535
G01 X35.5579 Y22.0563
G01 X35.4842 Y22.1693
G01 X35.4260 Y22.2910
G01 X35.3833 Y22.4191
G01 X35.3577 Y22.5510
G01 X35.3489 Y22.6858
G01 X35.3577 Y22.8206
G01 X35.3833 Y22.9524
G01 X35.4260 Y23.0805
G01 X35.4842 Y23.2022
G01 X35.5579 Y23.3152
G01 X35.6452 Y23.4180
G01 X35.7450 Y23.5086
G01 X35.7753 Y23.5296
G01 X35.7801 Y23.5333
G01 X35.8087 Y23.5616
G01 X35.8117 Y23.5656
G01 X35.8143 Y23.5700
G01 X35.8301 Y23.5995
G01 X35.8325 Y23.6049
G01 X35.8347 Y23.6130
G01 X35.8401 Y23.6475
G01 X35.8406 Y23.6540
G01 X35.8406 Y25.7825
G01 X35.8399 Y25.7906
G01 X35.8346 Y25.8228
G01 X35.8331 Y25.8288
G01 X35.8309 Y25.8345
G01 X35.8166 Y25.8635
G01 X35.8115 Y25.8718
G01 X35.8075 Y25.8764
G01 X35.7819 Y25.9023
G01 X35.7200 Y25.9487
G01 X35.6234 Y26.0423
G01 X35.5390 Y26.1475
G01 X35.4692 Y26.2629
G01 X35.4144 Y26.3866
G01 X35.3761 Y26.5155
G01 X35.3548 Y26.6489
G01 X35.3504 Y26.7837
G01 X35.3635 Y26.9175
G01 X35.3936 Y27.0489
G01 X35.4402 Y27.1756
G01 X35.5022 Y27.2954
G01 X35.5793 Y27.4059
G01 X35.6700 Y27.5057
G01 X35.7728 Y27.5930
G01 X35.8857 Y27.6667
G01 X36.0074 Y27.7249
G01 X36.1355 Y27.7676
G01 X36.2674 Y27.7933
G01 X36.4022 Y27.8020
G01 X36.5370 Y27.7933
G01 X36.6689 Y27.7676
G01 X36.7969 Y27.7249
G01 X36.9187 Y27.6667
G01 X37.0316 Y27.5930
G01 X37.1344 Y27.5057
G01 X37.2251 Y27.4059
G01 X37.3022 Y27.2954
G01 X37.3642 Y27.1756
G01 X37.4108 Y27.0489
G01 X37.4409 Y26.9175
G01 X37.4540 Y26.7837
G01 X37.4496 Y26.6489
G01 X37.4283 Y26.5155
G01 X37.3900 Y26.3866
G01 X37.3352 Y26.2629
G01 X37.2654 Y26.1475
G01 X37.1810 Y26.0423
G01 X37.0844 Y25.9487
G01 X37.0205 Y25.9007
G01 X36.9924 Y25.8722
G01 X36.9894 Y25.8683
G01 X36.9863 Y25.8631
G01 X36.9720 Y25.8340
G01 X36.9696 Y25.8284
G01 X36.9677 Y25.8213
G01 X36.9623 Y25.7880
G01 X36.9618 Y25.7810
G01 X36.9618 Y23.6550
G01 X36.9624 Y23.6475
G01 X36.9671 Y23.6163
G01 X36.9686 Y23.6103
G01 X36.9708 Y23.6045
G01 X36.9845 Y23.5759
G01 X36.9895 Y23.5677
G01 X37.0129 Y23.5416
G01 X37.0170 Y23.5376
G01 X37.1087 Y23.4645
G01 X37.2023 Y23.3680
G01 X37.2833 Y23.2599
G01 X37.3492 Y23.1426
G01 X37.4001 Y23.0175
G01 X37.4340 Y22.8870
G01 X37.4515 Y22.7531
G01 X37.4515 Y22.6184
G01 X37.4340 Y22.4845
G01 X37.4001 Y22.3541
G01 X37.3492 Y22.2290
G01 X37.2833 Y22.1117
G01 X37.2023 Y22.0035
G01 X37.1086 Y21.9070
G01 X37.0034 Y21.8226
G01 X36.8881 Y21.7528
G01 X36.7644 Y21.6980
G01 X36.6354 Y21.6597
G01 X36.5021 Y21.6384
G01 X36.3673 Y21.6340
G00 Z2.0000
G00 X38.9073 Y21.6340
G01 F60.00
G01 Z-0.0500
G01 F120.00
G01 X38.7735 Y21.6471
G01 X38.6420 Y21.6772
G01 X38.5154 Y21.7237
G01 X38.3956 Y21.7858
G01 X38.2851 Y21.8629
G01 X38.1852 Y21.9535
G01 X38.0979 Y22.0563
G01 X38.0242 Y22.1693
G01 X37.9660 Y22.2910
G01 X37.9233 Y22.4191
G01 X37.8977 Y22.5510
G01 X37.8889 Y22.6858
G01 X37.8977 Y22.8206
G01 X37.9233 Y22.9524
G01 X37.9660 Y23.0805
G01 X38.0242 Y23.2022
G01 X38.0979 Y23.3152
G01 X38.1852 Y23.4180
G01 X38.2850 Y23.5086
G01 X38.3153 Y23.5296
G01 X38.3201 Y23.5333
G01 X38.3452 Y23.5578
G01 X38.3495 Y23.5625
G01 X38.3543 Y23.5700
G01 X38.3701 Y23.5995
G01 X38.3729 Y23.6061
G01 X38.3749 Y23.6142
G01 X38.3805 Y23.6514
G01 X38.3806 Y25.7825
G01 X38.3799 Y25.7906
G01 X38.3746 Y25.8228
G01 X38.3727 Y25.8299
G01 X38.3704 Y25.8356
G01 X38.3561 Y25.8646
G01 X38.3508 Y25.8728
G01 X38.3257 Y25.8988
G01 X38.3219 Y25.9023
G01 X38.2600 Y25.9487
G01 X38.1634 Y26.0423
G01 X38.0790 Y26.1475
G01 X38.0092 Y26.2629
G01 X37.9544 Y26.3866
G01 X37.9161 Y26.5155
G01 X37.8948 Y26.6489
G01 X37.8904 Y26.7837
G01 X37.9035 Y26.9175
G01 X37.9336 Y27.0489
G01 X37.9802 Y27.1756
G01 X38.0422 Y27.2954
G01 X38.1193 Y27.4059
G01 X38.2101 Y27.5059
G01 X38.3418 Y27.6191
G01 X38.3478 Y27.6253
G01 X38.3533 Y27.6335
G01 X38.3696 Y27.6641
G01 X38.3721 Y27.6698
G01 X38.3741 Y27.6770
G01 X38.3802 Y27.7136
G01 X38.3806 Y27.7196
G01 X38.3806 Y31.5712
G01 X38.3854 Y31.6483
G01 X38.3879 Y31.6651
G01 X38.4044 Y31.7372
G01 X38.4386 Y31.8238
G01 X38.4861 Y31.9031
G01 X38.5481 Y31.9756
G01 X54.3147 Y47.7422
G01 X54.3873 Y47.8043
G01 X54.4665 Y47.8518
G01 X54.5531 Y47.8860
G01 X54.6252 Y47.9025
G01 X54.6421 Y47.9049
G01 X54.7192 Y47.9098
G01 X58.5502 Y47.9098
G01 X58.5573 Y47.9105
G01 X58.6000 Y47.9189
G01 X58.6080 Y47.9215
G01 X58.6154 Y47.9255
G01 X58.6499 Y47.9493
G01 X58.6564 Y47.9548
G01 X58.6618 Y47.9614
G01 X58.6841 Y47.9939
G01 X58.6878 Y48.0002
G01 X58.6901 Y48.0057
G01 X58.6918 Y48.0115
G01 X58.6999 Y48.0530
G01 X58.7006 Y48.0614
G01 X58.7006 Y48.6405
G01 X58.7000 Y48.6480
G01 X58.6954 Y48.6780
G01 X58.6941 Y48.6841
G01 X58.6910 Y48.6922
G01 X58.6778 Y48.7196
G01 X58.6749 Y48.7249
G01 X58.6706 Y48.7306
G01 X58.6487 Y48.7547
G01 X58.6436 Y48.7594
G01 X58.5537 Y48.8310
G01 X58.4601 Y48.9275
G01 X58.3791 Y49.0357
G01 X58.3132 Y49.1530
G01 X58.2623 Y49.2781
G01 X58.2283 Y49.4085
G01 X58.2109 Y49.5424
G01 X58.2109 Y49.6771
G01 X58.2283 Y49.8110
G01 X58.2623 Y49.9415
G01 X58.3132 Y50.0666
G01 X58.3791 Y50.1839
G01 X58.4601 Y50.2920
G01 X58.5537 Y50.3885
G01 X58.6454 Y50.4616
G01 X58.6495 Y50.4656
G01 X58.6728 Y50.4917
G01 X58.6778 Y50.4999
G01 X58.6910 Y50.5274
G01 X58.6934 Y50.5331
G01 X58.6952 Y50.5403
G01 X58.7002 Y50.5728
G01 X58.7006 Y50.5790
G01 X58.7004 Y53.7243
G01 X58.6952 Y53.7592
G01 X58.6934 Y53.7664
G01 X58.6910 Y53.7722
G01 X58.6778 Y53.7996
G01 X58.6728 Y53.8078
G01 X58.6495 Y53.8339
G01 X58.6454 Y53.8379
G01 X58.5537 Y53.9110
G01 X58.4601 Y54.0075
G01 X58.3791 Y54.1157
G01 X58.3132 Y54.2330
G01 X58.2623 Y54.3581
G01 X58.2283 Y54.4885
G01 X58.2109 Y54.6224
G01 X58.2109 Y54.7571
G01 X58.2283 Y54.8910
G01 X58.2623 Y55.0215
G01 X58.3132 Y55.1466
G01 X58.3791 Y55.2639
G01 X58.4601 Y55.3720
G01 X58.5537 Y55.4685
G01 X58.6454 Y55.5416
G01 X58.6495 Y55.5456
G01 X58.6728 Y55.5717
G01 X58.6778 Y55.5799
G01 X58.6910 Y55.6074
G01 X58.6934 Y55.6131
G01 X58.6952 Y55.6203
G01 X58.7004 Y55.6553
G01 X58.7005 Y61.8498
G01 X58.7000 Y61.8560
G01 X58.6954 Y61.8860
G01 X58.6938 Y61.8933
G01 X58.6916 Y61.8991
G01 X58.6778 Y61.9276
G01 X58.6728 Y61.9358
G01 X58.6495 Y61.9619
G01 X58.6454 Y61.9659
G01 X58.5537 Y62.0390
G01 X58.4601 Y62.1355
G01 X58.3791 Y62.2437
G01 X58.3132 Y62.3610
G01 X58.2623 Y62.4861
G01 X58.2283 Y62.6165
G01 X58.2109 Y62.7504
G01 X58.2109 Y62.8851
G01 X58.2283 Y63.0190
G01 X58.2623 Y63.1495
G01 X58.3132 Y63.2746
G01 X58.3791 Y63.3919
G01 X58.4601 Y63.5000
G01 X58.5537 Y63.5966
G01 X58.6590 Y63.6809
G01 X58.7743 Y63.7507
G01 X58.8980 Y63.8056
G01 X59.0269 Y63.8438
G01 X59.1603 Y63.8652
G01 X59.2951 Y63.8696
G01 X59.4289 Y63.8565
G01 X59.5604 Y63.8264
G01 X59.6870 Y63.7798
G01 X59.8068 Y63.7177
G01 X59.9173 Y63.6407
G01 X60.0171 Y63.5500
G01 X60.1044 Y63.4472
G01 X60.1781 Y63.3342
G01 X60.2363 Y63.2125
G01 X60.2790 Y63.0844
G01 X60.3047 Y62.9526
G01 X60.3134 Y62.8178
G01 X60.3047 Y62.6830
G01 X60.2790 Y62.5511
G01 X60.2363 Y62.4230
G01 X60.1781 Y62.3013
G01 X60.1044 Y62.1883
G01 X60.0171 Y62.0855
G01 X59.9173 Y61.9949
G01 X59.8870 Y61.9740
G01 X59.8823 Y61.9702
G01 X59.8572 Y61.9457
G01 X59.8529 Y61.9410
G01 X59.8480 Y61.9336
G01 X59.8322 Y61.9041
G01 X59.8295 Y61.8975
G01 X59.8275 Y61.8894
G01 X59.8222 Y61.8561
G01 X59.8218 Y61.8495
G01 X59.8220 Y55.6541
G01 X59.8277 Y55.6170
G01 X59.8299 Y55.6089
G01 X59.8322 Y55.6035
G01 X59.8480 Y55.5740
G01 X59.8529 Y55.5665
G01 X59.8572 Y55.5618
G01 X59.8823 Y55.5373
G01 X59.8870 Y55.5336
G01 X59.9173 Y55.5126
G01 X60.0171 Y55.4220
G01 X60.1044 Y55.3192
G01 X60.1781 Y55.2062
G01 X60.2363 Y55.0845
G01 X60.2790 Y54.9564
G01 X60.3047 Y54.8246
G01 X60.3134 Y54.6898
G01 X60.3047 Y54.5550
G01 X60.2790 Y54.4231
G01 X60.2363 Y54.2950
G01 X60.1781 Y54.1733
G01 X60.1044 Y54.0603
G01 X60.0171 Y53.9575
G01 X59.9173 Y53.8669
G01 X59.8870 Y53.8460
G01 X59.8823 Y53.8422
G01 X59.8572 Y53.8177
G01 X59.8529 Y53.8130
G01 X59.8480 Y53.8056
G01 X59.8322 Y53.7761
G01 X59.8295 Y53.7695
G01 X59.8275 Y53.7614
G01 X59.8222 Y53.7281
G01 X59.8218 Y53.7215
G01 X59.8218 Y50.5780
G01 X59.8222 Y50.5715
G01 X59.8277 Y50.5370
G01 X59.8299 Y50.5289
G01 X59.8322 Y50.5235
G01 X59.8480 Y50.4940
G01 X59.8529 Y50.4865
G01 X59.8572 Y50.4818
G01 X59.8823 Y50.4573
G01 X59.8870 Y50.4536
G01 X59.9173 Y50.4326
G01 X60.0171 Y50.3420
G01 X60.1044 Y50.2392
G01 X60.1781 Y50.1262
G01 X60.2363 Y50.0045
G01 X60.2790 Y49.8764
G01 X60.3047 Y49.7446
G01 X60.3134 Y49.6098
G01 X60.3047 Y49.4750
G01 X60.2790 Y49.3431
G01 X60.2363 Y49.2150
G01 X60.1781 Y49.0933
G01 X60.1044 Y48.9803
G01 X60.0171 Y48.8775
G01 X59.9173 Y48.7869
G01 X59.8870 Y48.7660
G01 X59.8823 Y48.7622
G01 X59.8572 Y48.7377
G01 X59.8529 Y48.7330
G01 X59.8480 Y48.7256
G01 X59.8322 Y48.6961
G01 X59.8295 Y48.6895
G01 X59.8275 Y48.6814
G01 X59.8224 Y48.6494
G01 X59.8218 Y48.6428
G01 X59.8219 Y42.9554
G01 X59.8277 Y42.9170
G01 X59.8299 Y42.9089
G01 X59.8322 Y42.9035
G01 X59.8480 Y42.8740
G01 X59.8507 Y42.8696
G01 X59.8537 Y42.8656
G01 X59.8823 Y42.8373
G01 X59.8870 Y42.8336
G01 X59.9173 Y42.8126
G01 X60.0171 Y42.7220
G01 X60.1044 Y42.6192
G01 X60.1781 Y42.5062
G01 X60.2363 Y42.3845
G01 X60.2790 Y42.2564
G01 X60.3047 Y42.1246
G01 X60.3134 Y41.9898
G01 X60.3047 Y41.8550
G01 X60.2790 Y41.7231
G01 X60.2363 Y41.5950
G01 X60.1781 Y41.4733
G01 X60.1044 Y41.3603
G01 X60.0171 Y41.2575
G01 X59.9173 Y41.1669
G01 X59.8068 Y41.0898
G01 X59.6870 Y41.0277
G01 X59.5604 Y40.9812
G01 X59.4289 Y40.9511
G01 X59.2951 Y40.9380
G01 X59.1603 Y40.9424
G01 X59.0269 Y40.9637
G01 X58.8980 Y41.0020
G01 X58.7743 Y41.0568
G01 X58.6590 Y41.1266
G01 X58.5537 Y41.2110
G01 X58.4601 Y41.3075
G01 X58.3791 Y41.4157
G01 X58.3132 Y41.5330
G01 X58.2623 Y41.6581
G01 X58.2283 Y41.7885
G01 X58.2109 Y41.9224
G01 X58.2109 Y42.0571
G01 X58.2283 Y42.1910
G01 X58.2623 Y42.3215
G01 X58.3132 Y42.4466
G01 X58.3791 Y42.5639
G01 X58.4601 Y42.6720
G01 X58.5537 Y42.7685
G01 X58.6454 Y42.8416
G01 X58.6495 Y42.8456
G01 X58.6714 Y42.8698
G01 X58.6749 Y42.8747
G01 X58.6773 Y42.8789
G01 X58.6910 Y42.9074
G01 X58.6934 Y42.9131
G01 X58.6952 Y42.9203
G01 X58.7004 Y42.9553
G01 X58.7006 Y46.6370
G01 X58.6999 Y46.6453
G01 X58.6920 Y46.6856
G01 X58.6893 Y46.6949
G01 X58.6867 Y46.7003
G01 X58.6842 Y46.7044
G01 X58.6611 Y46.7379
G01 X58.6555 Y46.7444
G01 X58.6499 Y46.7491
G01 X58.6164 Y46.7721
G01 X58.6113 Y46.7753
G01 X58.6069 Y46.7773
G01 X58.5976 Y46.7800
G01 X58.5573 Y46.7879
G01 X58.5490 Y46.7886
G01 X55.0097 Y46.7886
G01 X55.0013 Y46.7879
G01 X54.9611 Y46.7800
G01 X54.9562 Y46.7788
G01 X54.9514 Y46.7771
G01 X54.9469 Y46.7750
G01 X54.9426 Y46.7723
G01 X54.9086 Y46.7493
G01 X54.9031 Y46.7448
G01 X39.5464 Y31.3881
G01 X39.5410 Y31.3818
G01 X39.5173 Y31.3467
G01 X39.5137 Y31.3401
G01 X39.5109 Y31.3318
G01 X39.5025 Y31.2890
G01 X39.5018 Y31.2806
G01 X39.5020 Y27.7158
G01 X39.5083 Y27.6780
G01 X39.5103 Y27.6708
G01 X39.5127 Y27.6651
G01 X39.5290 Y27.6345
G01 X39.5346 Y27.6263
G01 X39.5407 Y27.6201
G01 X39.6744 Y27.5058
G01 X39.7651 Y27.4059
G01 X39.8422 Y27.2954
G01 X39.9042 Y27.1756
G01 X39.9508 Y27.0489
G01 X39.9809 Y26.9175
G01 X39.9940 Y26.7837
G01 X39.9896 Y26.6489
G01 X39.9683 Y26.5155
G01 X39.9300 Y26.3866
G01 X39.8752 Y26.2629
G01 X39.8054 Y26.1475
G01 X39.7210 Y26.0423
G01 X39.6244 Y25.9487
G01 X39.5605 Y25.9007
G01 X39.5567 Y25.8972
G01 X39.5316 Y25.8712
G01 X39.5263 Y25.8631
G01 X39.5120 Y25.8340
G01 X39.5096 Y25.8284
G01 X39.5077 Y25.8213
G01 X39.5025 Y25.7891
G01 X39.5018 Y25.7810
G01 X39.5019 Y23.6525
G01 X39.5069 Y23.6175
G01 X39.5090 Y23.6091
G01 X39.5113 Y23.6034
G01 X39.5245 Y23.5759
G01 X39.5295 Y23.5677
G01 X39.5529 Y23.5416
G01 X39.5570 Y23.5376
G01 X39.6487 Y23.4645
G01 X39.7423 Y23.3680
G01 X39.8233 Y23.2599
G01 X39.8892 Y23.1426
G01 X39.9401 Y23.0175
G01 X39.9740 Y22.8870
G01 X39.9915 Y22.7531
G01 X39.9915 Y22.6184
G01 X39.9740 Y22.4845
G01 X39.9401 Y22.3541
G01 X39.8892 Y22.2290
G01 X39.8233 Y22.1117
G01 X39.7423 Y22.0035
G01 X39.6486 Y21.9070
G01 X39.5434 Y21.8226
G01 X39.4281 Y21.7528
G01 X39.3044 Y21.6980
G01 X39.1754 Y21.6597
G01 X39.0421 Y21.6384
G01 X38.9073 Y21.6340
G00 Z2.0000
G00 X38.3829 Y23.5739
G01 F60.00
G01 Z-0.0500
G01 F120.00
G01 X38.3829 Y25.8622
G01 X38.3578 Y25.8774
G01 X38.2770 Y25.9373
G01 X38.1989 Y26.0082
G01 X38.1290 Y26.0856
G01 X38.0692 Y26.1664
G01 X38.0168 Y26.2537
G01 X37.9712 Y26.3502
G01 X37.9374 Y26.4450
G01 X37.9129 Y26.5425
G01 X37.8973 Y26.6469
G01 X37.8922 Y26.7510
G01 X37.8976 Y26.8551
G01 X37.9124 Y26.9546
G01 X37.9368 Y27.0522
G01 X37.9721 Y27.1516
G01 X38.0168 Y27.2458
G01 X38.0692 Y27.3331
G01 X38.1290 Y27.4139
G01 X38.1989 Y27.4914
G01 X38.2770 Y27.5622
G01 X38.3578 Y27.6221
G01 X38.3829 Y27.6373
G01 X38.3829 Y31.5770
G01 X38.3856 Y31.6305
G01 X38.3937 Y31.6847
G01 X38.4070 Y31.7378
G01 X38.4245 Y31.7871
G01 X38.4501 Y31.8411
G01 X38.4770 Y31.8859
G01 X38.5096 Y31.9299
G01 X38.5464 Y31.9705
G01 X54.3198 Y47.7439
G01 X54.3614 Y47.7815
G01 X54.4044 Y47.8133
G01 X54.4514 Y47.8415
G01 X54.5010 Y47.8649
G01 X54.5502 Y47.8826
G01 X54.6081 Y47.8971
G01 X54.6599 Y47.9047
G01 X54.7134 Y47.9074
G01 X58.7029 Y47.9074
G01 X58.7029 Y48.7216
G01 X58.6768 Y48.7374
G01 X58.5960 Y48.7973
G01 X58.5179 Y48.8682
G01 X58.4480 Y48.9456
G01 X58.3881 Y49.0264
G01 X58.3358 Y49.1137
G01 X58.2911 Y49.2080
G01 X58.2557 Y49.3073
G01 X58.2314 Y49.4049
G01 X58.2165 Y49.5044
G01 X58.2112 Y49.6098
G01 X58.2165 Y49.7151
G01 X58.2314 Y49.8146
G01 X58.2557 Y49.9122
G01 X58.2911 Y50.0116
G01 X58.3358 Y50.1058
G01 X58.3881 Y50.1931
G01 X58.4480 Y50.2739
G01 X58.5179 Y50.3514
G01 X58.5960 Y50.4222
G01 X58.6768 Y50.4821
G01 X58.7029 Y50.4979
G01 X58.7029 Y53.8016
G01 X58.6768 Y53.8174
G01 X58.5960 Y53.8773
G01 X58.5179 Y53.9482
G01 X58.4480 Y54.0256
G01 X58.3881 Y54.1064
G01 X58.3358 Y54.1937
G01 X58.2911 Y54.2880
G01 X58.2557 Y54.3873
G01 X58.2314 Y54.4849
G01 X58.2165 Y54.5844
G01 X58.2112 Y54.6898
G01 X58.2165 Y54.7951
G01 X58.2314 Y54.8946
G01 X58.2557 Y54.9922
G01 X58.2911 Y55.0916
G01 X58.3358 Y55.1858
G01 X58.3881 Y55.2731
G01 X58.4480 Y55.3539
G01 X58.5179 Y55.4314
G01 X58.5960 Y55.5022
G01 X58.6768 Y55.5621
G01 X58.7029 Y55.5779
G01 X58.7029 Y61.9296
G01 X58.6768 Y61.9454
G01 X58.5960 Y62.0053
G01 X58.5179 Y62.0762
G01 X58.4495 Y62.1517
G01 X58.3896 Y62.2324
G01 X58.3346 Y62.3239
G01 X58.2911 Y62.4160
G01 X58.2572 Y62.5106
G01 X58.2314 Y62.6129
G01 X58.2161 Y62.7173
G01 X58.2112 Y62.8178
G01 X58.2161 Y62.9195
G01 X58.2314 Y63.0226
G01 X58.2572 Y63.1249
G01 X58.2911 Y63.2196
G01 X58.3341 Y63.3105
G01 X58.3881 Y63.4011
G01 X58.4511 Y63.4857
G01 X58.5187 Y63.5602
G01 X58.5932 Y63.6278
G01 X58.6778 Y63.6908
G01 X58.7662 Y63.7438
G01 X58.8617 Y63.7887
G01 X58.9564 Y63.8226
G01 X59.0539 Y63.8471
G01 X59.1583 Y63.8627
G01 X59.2612 Y63.8678
G01 X59.3665 Y63.8624
G01 X59.4660 Y63.8476
G01 X59.5636 Y63.8232
G01 X59.6630 Y63.7878
G01 X59.7562 Y63.7438
G01 X59.8465 Y63.6894
G01 X59.9273 Y63.6294
G01 X60.0019 Y63.5619
G01 X60.0728 Y63.4839
G01 X60.1355 Y63.3990
G01 X60.1872 Y63.3127
G01 X60.2303 Y63.2218
G01 X60.2660 Y63.1226
G01 X60.2914 Y63.0202
G01 X60.3061 Y62.9207
G01 X60.3112 Y62.8190
G01 X60.3058 Y62.7124
G01 X60.2910 Y62.6129
G01 X60.2666 Y62.5153
G01 X60.2313 Y62.4160
G01 X60.1866 Y62.3217
G01 X60.1342 Y62.2344
G01 X60.0744 Y62.1536
G01 X60.0045 Y62.0762
G01 X59.9263 Y62.0053
G01 X59.8455 Y61.9454
G01 X59.8194 Y61.9296
G01 X59.8194 Y55.5779
G01 X59.8455 Y55.5621
G01 X59.9263 Y55.5022
G01 X60.0045 Y55.4314
G01 X60.0744 Y55.3539
G01 X60.1342 Y55.2731
G01 X60.1866 Y55.1858
G01 X60.2313 Y55.0916
G01 X60.2666 Y54.9922
G01 X60.2910 Y54.8946
G01 X60.3058 Y54.7951
G01 X60.3112 Y54.6910
G01 X60.3058 Y54.5844
G01 X60.2910 Y54.4849
G01 X60.2666 Y54.3873
G01 X60.2313 Y54.2880
G01 X60.1866 Y54.1937
G01 X60.1328 Y54.1044
G01 X60.0728 Y54.0237
G01 X60.0045 Y53.9482
G01 X59.9263 Y53.8773
G01 X59.8455 Y53.8174
G01 X59.8194 Y53.8016
G01 X59.8194 Y50.4979
G01 X59.8455 Y50.4821
G01 X59.9263 Y50.4222
G01 X60.0045 Y50.3514
G01 X60.0744 Y50.2739
G01 X60.1342 Y50.1931
G01 X60.1866 Y50.1058
G01 X60.2313 Y50.0116
G01 X60.2666 Y49.9122
G01 X60.2910 Y49.8146
G01 X60.3058 Y49.7151
G01 X60.3112 Y49.6110
G01 X60.3058 Y49.5044
G01 X60.2910 Y49.4049
G01 X60.2666 Y49.3073
G01 X60.2313 Y49.2080
G01 X60.1866 Y49.1137
G01 X60.1328 Y49.0244
G01 X60.0728 Y48.9437
G01 X60.0045 Y48.8682
G01 X59.9263 Y48.7973
G01 X59.8455 Y48.7374
G01 X59.8194 Y48.7216
G01 X59.8194 Y42.8779
G01 X59.8455 Y42.8621
G01 X59.9282 Y42.8006
G01 X60.0036 Y42.7322
G01 X60.0736 Y42.6549
G01 X60.1342 Y42.5731
G01 X60.1872 Y42.4847
G01 X60.2313 Y42.3916
G01 X60.2663 Y42.2934
G01 X60.2910 Y42.1946
G01 X60.3061 Y42.0927
G01 X60.3112 Y41.9898
G01 X60.3061 Y41.8869
G01 X60.2910 Y41.7849
G01 X60.2660 Y41.6850
G01 X60.2313 Y41.5880
G01 X60.1872 Y41.4948
G01 X60.1342 Y41.4064
G01 X60.0744 Y41.3256
G01 X60.0036 Y41.2473
G01 X59.9254 Y41.1766
G01 X59.8445 Y41.1167
G01 X59.7562 Y41.0638
G01 X59.6607 Y41.0188
G01 X59.5660 Y40.9850
G01 X59.4660 Y40.9599
G01 X59.3617 Y40.9446
G01 X59.2612 Y40.9398
G01 X59.1583 Y40.9448
G01 X59.0539 Y40.9605
G01 X58.9564 Y40.9850
G01 X58.8594 Y41.0197
G01 X58.7662 Y41.0638
G01 X58.6799 Y41.1154
G01 X58.5951 Y41.1781
G01 X58.5170 Y41.2491
G01 X58.4495 Y41.3237
G01 X58.3881 Y41.4064
G01 X58.3352 Y41.4948
G01 X58.2921 Y41.5857
G01 X58.2561 Y41.6862
G01 X58.2314 Y41.7849
G01 X58.2165 Y41.8844
G01 X58.2112 Y41.9922
G01 X58.2162 Y42.0927
G01 X58.2314 Y42.1946
G01 X58.2564 Y42.2946
G01 X58.2907 Y42.3904
G01 X58.3352 Y42.4847
G01 X58.3868 Y42.5710
G01 X58.4503 Y42.6568
G01 X58.5187 Y42.7322
G01 X58.5941 Y42.8006
G01 X58.6768 Y42.8621
G01 X58.7029 Y42.8779
G01 X58.7029 Y46.7909
G01 X54.9458 Y46.7909
G01 X39.4994 Y31.3445
G01 X39.4994 Y27.6385
G01 X39.5266 Y27.6221
G01 X39.6074 Y27.5622
G01 X39.6855 Y27.4914
G01 X39.7554 Y27.4139
G01 X39.8152 Y27.3331
G01 X39.8676 Y27.2458
G01 X39.9123 Y27.1516
G01 X39.9476 Y27.0522
G01 X39.9720 Y26.9546
G01 X39.9868 Y26.8551
G01 X39.9922 Y26.7498
G01 X39.9868 Y26.6444
G01 X39.9720 Y26.5449
G01 X39.9476 Y26.4473
G01 X39.9123 Y26.3480
G01 X39.8676 Y26.2537
G01 X39.8152 Y26.1664
G01 X39.7554 Y26.0856
G01 X39.6855 Y26.0082
G01 X39.6074 Y25.9373
G01 X39.5266 Y25.8774
G01 X39.4994 Y25.8610
G01 X39.4994 Y23.5739
G01 X39.5255 Y23.5581
G01 X39.6063 Y23.4982
G01 X39.6845 Y23.4274
G01 X39.7528 Y23.3519
G01 X39.8128 Y23.2711
G01 X39.8666 Y23.1818
G01 X39.9113 Y23.0876
G01 X39.9466 Y22.9882
G01 X39.9710 Y22.8906
G01 X39.9858 Y22.7911
G01 X39.9912 Y22.6858
G01 X39.9858 Y22.5804
G01 X39.9710 Y22.4809
G01 X39.9466 Y22.3833
G01 X39.9113 Y22.2840
G01 X39.8672 Y22.1908
G01 X39.8128 Y22.1004
G01 X39.7528 Y22.0197
G01 X39.6853 Y21.9451
G01 X39.6073 Y21.8741
G01 X39.5235 Y21.8121
G01 X39.4362 Y21.7598
G01 X39.3430 Y21.7157
G01 X39.2460 Y21.6810
G01 X39.1460 Y21.6559
G01 X39.0441 Y21.6408
G01 X38.9412 Y21.6358
G01 X38.8383 Y21.6408
G01 X38.7363 Y21.6559
G01 X38.6364 Y21.6810
G01 X38.5394 Y21.7157
G01 X38.4462 Y21.7598
G01 X38.3578 Y21.8127
G01 X38.2751 Y21.8741
G01 X38.1987 Y21.9433
G01 X38.1295 Y22.0197
G01 X38.0675 Y22.1035
G01 X38.0152 Y22.1908
G01 X37.9711 Y22.2840
G01 X37.9364 Y22.3810
G01 X37.9114 Y22.4809
G01 X37.8962 Y22.5829
G01 X37.8912 Y22.6858
G01 X37.8962 Y22.7887
G01 X37.9116 Y22.8918
G01 X37.9364 Y22.9906
G01 X37.9711 Y23.0876
G01 X38.0152 Y23.1807
G01 X38.0688 Y23.2701
G01 X38.1295 Y23.3519
G01 X38.1996 Y23.4291
G01 X38.2760 Y23.4982
G01 X38.3568 Y23.5581
G01 X38.3829 Y23.5739
G00 Z2.0000
G00 X45.5612 Y21.6358
G01 F60.00
G01 Z-0.0500
G01 F120.00
G01 X47.5612 Y21.6358
G01 X47.5709 Y21.6367
G01 X47.5803 Y21.6396
G01 X47.5890 Y21.6442
G01 X47.5929 Y21.6471
G01 X47.5974 Y21.6513
G01 X47.6034 Y21.6590
G01 X47.6078 Y21.6678
G01 X47.6104 Y21.6772
G01 X47.6112 Y21.6858
G01 X47.6112 Y23.6870
G01 X47.6102 Y23.6955
G01 X47.6078 Y23.7038
G01 X47.6041 Y23.7115
G01 X47.5998 Y23.7175
G01 X47.5938 Y23.7236
G01 X47.5869 Y23.7287
G01 X47.5792 Y23.7324
G01 X47.5714 Y23.7347
G01 X47.5770 Y23.7338
G01 X47.5912 Y23.7267
G01 X47.6021 Y23.7158
G01 X47.6094 Y23.7013
G01 X47.6140 Y23.6737
G01 X47.6140 Y21.6978
G01 X47.6094 Y21.6702
G01 X47.6021 Y21.6557
G01 X47.5912 Y21.6448
G01 X47.5767 Y21.6376
G01 X47.5491 Y21.6329
G01 X45.5732 Y21.6329
G01 X45.5456 Y21.6376
G01 X45.5311 Y21.6448
G01 X45.5202 Y21.6557
G01 X45.5130 Y21.6702
G01 X45.5083 Y21.6978
G01 X45.5083 Y23.6737
G01 X45.5130 Y23.7013
G01 X45.5202 Y23.7158
G01 X45.5311 Y23.7267
G01 X45.5453 Y23.7338
G01 X45.5510 Y23.7347
G01 X45.5432 Y23.7324
G01 X45.5355 Y23.7287
G01 X45.5285 Y23.7236
G01 X45.5225 Y23.7175
G01 X45.5177 Y23.7104
G01 X45.5141 Y23.7026
G01 X45.5121 Y23.6955
G01 X45.5112 Y23.6870
G01 X45.5112 Y21.6845
G01 X45.5121 Y21.6760
G01 X45.5150 Y21.6666
G01 X45.5196 Y21.6580
G01 X45.5258 Y21.6504
G01 X45.5334 Y21.6442
G01 X45.5421 Y21.6396
G01 X45.5514 Y21.6367
G01 X45.5612 Y21.6358
G00 Z2.0000
G00 X47.5663 Y23.7355
G01 F60.00
G01 Z-0.0500
G01 F120.00
G01 X47.5612 Y23.7358
G01 X47.1194 Y23.7358
G01 X47.1194 Y25.8610
G01 X47.1466 Y25.8774
G01 X47.2292 Y25.9389
G01 X47.3047 Y26.0073
G01 X47.3731 Y26.0827
G01 X47.4366 Y26.1685
G01 X47.4882 Y26.2548
G01 X47.5318 Y26.3468
G01 X47.5676 Y26.4473
G01 X47.5920 Y26.5449
G01 X47.6071 Y26.6469
G01 X47.6122 Y26.7498
G01 X47.6073 Y26.8502
G01 X47.5915 Y26.9570
G01 X47.5670 Y27.0546
G01 X47.5323 Y27.1516
G01 X47.4882 Y27.2447
G01 X47.4366 Y27.3310
G01 X47.3723 Y27.4177
G01 X47.3047 Y27.4922
G01 X47.2283 Y27.5614
G01 X47.1455 Y27.6228
G01 X47.0593 Y27.6746
G01 X46.9617 Y27.7207
G01 X46.8670 Y27.7546
G01 X46.7670 Y27.7796
G01 X46.6651 Y27.7947
G01 X46.5622 Y27.7998
G01 X46.4593 Y27.7947
G01 X46.3574 Y27.7796
G01 X46.2574 Y27.7546
G01 X46.1627 Y27.7207
G01 X46.0651 Y27.6746
G01 X45.9788 Y27.6228
G01 X45.8961 Y27.5614
G01 X45.8197 Y27.4922
G01 X45.7521 Y27.4177
G01 X45.6878 Y27.3310
G01 X45.6362 Y27.2447
G01 X45.5921 Y27.1516
G01 X45.5574 Y27.0546
G01 X45.5329 Y26.9570
G01 X45.5171 Y26.8502
G01 X45.5122 Y26.7498
G01 X45.5173 Y26.6469
G01 X45.5324 Y26.5449
G01 X45.5568 Y26.4473
G01 X45.5926 Y26.3468
G01 X45.6362 Y26.2548
G01 X45.6878 Y26.1685
G01 X45.7513 Y26.0827
G01 X45.8197 Y26.0073
G01 X45.8951 Y25.9389
G01 X45.9778 Y25.8774
G01 X46.0029 Y25.8622
G01 X46.0029 Y23.7358
G01 X45.5612 Y23.7358
G01 X45.5561 Y23.7355
G01 X45.5729 Y23.7381
G01 X45.8502 Y23.7381
G01 X45.8579 Y23.7389
G01 X45.8994 Y23.7476
G01 X45.9075 Y23.7502
G01 X45.9150 Y23.7541
G01 X45.9495 Y23.7773
G01 X45.9559 Y23.7827
G01 X45.9613 Y23.7891
G01 X45.9857 Y23.8252
G01 X45.9891 Y23.8319
G01 X45.9917 Y23.8402
G01 X45.9998 Y23.8812
G01 X46.0006 Y23.8897
G01 X46.0006 Y25.7825
G01 X46.0001 Y25.7895
G01 X45.9948 Y25.8216
G01 X45.9927 Y25.8299
G01 X45.9904 Y25.8356
G01 X45.9761 Y25.8646
G01 X45.9736 Y25.8688
G01 X45.9700 Y25.8737
G01 X45.9419 Y25.9023
G01 X45.8800 Y25.9487
G01 X45.7834 Y26.0423
G01 X45.6990 Y26.1475
G01 X45.6292 Y26.2629
G01 X45.5744 Y26.3866
G01 X45.5361 Y26.5155
G01 X45.5148 Y26.6489
G01 X45.5104 Y26.7837
G01 X45.5235 Y26.9175
G01 X45.5536 Y27.0489
G01 X45.6002 Y27.1756
G01 X45.6622 Y27.2954
G01 X45.7393 Y27.4059
G01 X45.8300 Y27.5057
G01 X45.9328 Y27.5930
G01 X46.0457 Y27.6667
G01 X46.1674 Y27.7249
G01 X46.2955 Y27.7676
G01 X46.4274 Y27.7933
G01 X46.5622 Y27.8020
G01 X46.6970 Y27.7933
G01 X46.8289 Y27.7676
G01 X46.9569 Y27.7249
G01 X47.0787 Y27.6667
G01 X47.1916 Y27.5930
G01 X47.2944 Y27.5057
G01 X47.3851 Y27.4059
G01 X47.4622 Y27.2954
G01 X47.5242 Y27.1756
G01 X47.5708 Y27.0489
G01 X47.6009 Y26.9175
G01 X47.6140 Y26.7837
G01 X47.6096 Y26.6489
G01 X47.5883 Y26.5155
G01 X47.5500 Y26.3866
G01 X47.4952 Y26.2629
G01 X47.4254 Y26.1475
G01 X47.3410 Y26.0423
G01 X47.2444 Y25.9487
G01 X47.1805 Y25.9007
G01 X47.1524 Y25.8722
G01 X47.1487 Y25.8673
G01 X47.1463 Y25.8631
G01 X47.1320 Y25.8340
G01 X47.1296 Y25.8284
G01 X47.1275 Y25.8201
G01 X47.1223 Y25.7880
G01 X47.1218 Y25.7810
G01 X47.1218 Y23.8897
G01 X47.1225 Y23.8812
G01 X47.1306 Y23.8402
G01 X47.1328 Y23.8331
G01 X47.1367 Y23.8252
G01 X47.1610 Y23.7891
G01 X47.1665 Y23.7827
G01 X47.1729 Y23.7773
G01 X47.2074 Y23.7541
G01 X47.2149 Y23.7502
G01 X47.2229 Y23.7476
G01 X47.2645 Y23.7389
G01 X47.2721 Y23.7381
G01 X47.5494 Y23.7381
G01 X47.5663 Y23.7355
G00 Z2.0000
G00 X51.0829 Y23.8279
G01 F60.00
G01 Z-0.0500
G01 F120.00
G01 X51.0829 Y25.8622
G01 X51.0578 Y25.8774
G01 X50.9751 Y25.9389
G01 X50.8997 Y26.0073
G01 X50.8313 Y26.0827
G01 X50.7678 Y26.1685
G01 X50.7162 Y26.2548
G01 X50.6726 Y26.3468
G01 X50.6368 Y26.4473
G01 X50.6124 Y26.5449
G01 X50.5973 Y26.6469
G01 X50.5923 Y26.7522
G01 X50.5973 Y26.8527
G01 X50.6124 Y26.9546
G01 X50.6374 Y27.0546
G01 X50.6721 Y27.1516
G01 X50.7162 Y27.2447
G01 X50.7692 Y27.3331
G01 X50.8305 Y27.4159
G01 X50.8997 Y27.4922
G01 X50.9761 Y27.5614
G01 X51.0588 Y27.6228
G01 X51.1472 Y27.6758
G01 X51.2404 Y27.7198
G01 X51.3374 Y27.7546
G01 X51.4374 Y27.7796
G01 X51.5393 Y27.7947
G01 X51.6422 Y27.7998
G01 X51.7451 Y27.7947
G01 X51.8470 Y27.7796
G01 X51.9470 Y27.7546
G01 X52.0417 Y27.7207
G01 X52.1393 Y27.6746
G01 X52.2255 Y27.6228
G01 X52.3083 Y27.5614
G01 X52.3847 Y27.4922
G01 X52.4523 Y27.4177
G01 X52.5166 Y27.3310
G01 X52.5682 Y27.2447
G01 X52.6123 Y27.1516
G01 X52.6470 Y27.0546
G01 X52.6715 Y26.9570
G01 X52.6872 Y26.8515
G01 X52.6922 Y26.7498
G01 X52.6873 Y26.6493
G01 X52.6720 Y26.5449
G01 X52.6462 Y26.4426
G01 X52.6123 Y26.3480
G01 X52.5688 Y26.2559
G01 X52.5138 Y26.1644
G01 X52.4539 Y26.0837
G01 X52.3855 Y26.0082
G01 X52.3074 Y25.9373
G01 X52.2266 Y25.8774
G01 X52.1994 Y25.8610
G01 X52.1994 Y23.8279
G01 X52.2255 Y23.8121
G01 X52.3063 Y23.7522
G01 X52.3845 Y23.6814
G01 X52.4544 Y23.6039
G01 X52.5142 Y23.5231
G01 X52.5666 Y23.4358
G01 X52.6113 Y23.3416
G01 X52.6466 Y23.2422
G01 X52.6710 Y23.1446
G01 X52.6858 Y23.0451
G01 X52.6912 Y22.9398
G01 X52.6858 Y22.8344
G01 X52.6710 Y22.7349
G01 X52.6466 Y22.6373
G01 X52.6113 Y22.5380
G01 X52.5672 Y22.4448
G01 X52.5128 Y22.3544
G01 X52.4528 Y22.2737
G01 X52.3853 Y22.1991
G01 X52.3073 Y22.1281
G01 X52.2235 Y22.0661
G01 X52.1362 Y22.0138
G01 X52.0430 Y21.9697
G01 X51.9460 Y21.9350
G01 X51.8460 Y21.9099
G01 X51.7441 Y21.8948
G01 X51.6412 Y21.8898
G01 X51.5383 Y21.8948
G01 X51.4363 Y21.9099
G01 X51.3364 Y21.9350
G01 X51.2394 Y21.9697
G01 X51.1462 Y22.0138
G01 X51.0578 Y22.0667
G01 X50.9751 Y22.1281
G01 X50.8987 Y22.1973
G01 X50.8295 Y22.2737
G01 X50.7675 Y22.3575
G01 X50.7152 Y22.4448
G01 X50.6711 Y22.5380
G01 X50.6364 Y22.6350
G01 X50.6114 Y22.7349
G01 X50.5962 Y22.8369
G01 X50.5912 Y22.9398
G01 X50.5962 Y23.0427
G01 X50.6116 Y23.1458
G01 X50.6364 Y23.2446
G01 X50.6711 Y23.3416
G01 X50.7152 Y23.4347
G01 X50.7688 Y23.5241
G01 X50.8295 Y23.6059
G01 X50.8996 Y23.6831
G01 X50.9760 Y23.7522
G01 X51.0568 Y23.8121
G01 X51.0829 Y23.8279
G00 Z2.0000
G00 X51.6073 Y21.8880
G01 F60.00
G01 Z-0.0500
G01 F120.00
G01 X51.4735 Y21.9011
G01 X51.3420 Y21.9312
G01 X51.2154 Y21.9777
G01 X51.0956 Y22.0398
G01 X50.9851 Y22.1169
G01 X50.8852 Y22.2075
G01 X50.7979 Y22.3103
G01 X50.7242 Y22.4233
G01 X50.6660 Y22.5450
G01 X50.6233 Y22.6731
G01 X50.5977 Y22.8050
G01 X50.5889 Y22.9398
G01 X50.5977 Y23.0746
G01 X50.6233 Y23.2064
G01 X50.6660 Y23.3345
G01 X50.7242 Y23.4562
G01 X50.7979 Y23.5692
G01 X50.8852 Y23.6720
G01 X50.9850 Y23.7626
G01 X51.0153 Y23.7836
G01 X51.0201 Y23.7873
G01 X51.0487 Y23.8156
G01 X51.0517 Y23.8196
G01 X51.0543 Y23.8240
G01 X51.0701 Y23.8535
G01 X51.0725 Y23.8589
G01 X51.0747 Y23.8670
G01 X51.0799 Y23.9002
G01 X51.0806 Y23.9080
G01 X51.0806 Y25.7825
G01 X51.0799 Y25.7906
G01 X51.0746 Y25.8228
G01 X51.0731 Y25.8288
G01 X51.0709 Y25.8345
G01 X51.0566 Y25.8635
G01 X51.0515 Y25.8718
G01 X51.0475 Y25.8764
G01 X51.0219 Y25.9023
G01 X50.9600 Y25.9487
G01 X50.8634 Y26.0423
G01 X50.7790 Y26.1475
G01 X50.7092 Y26.2629
G01 X50.6544 Y26.3866
G01 X50.6161 Y26.5155
G01 X50.5948 Y26.6489
G01 X50.5904 Y26.7837
G01 X50.6035 Y26.9175
G01 X50.6336 Y27.0489
G01 X50.6802 Y27.1756
G01 X50.7422 Y27.2954
G01 X50.8193 Y27.4059
G01 X50.9100 Y27.5057
G01 X51.0128 Y27.5930
G01 X51.1257 Y27.6667
G01 X51.2474 Y27.7249
G01 X51.3755 Y27.7676
G01 X51.5074 Y27.7933
G01 X51.6422 Y27.8020
G01 X51.7770 Y27.7933
G01 X51.9089 Y27.7676
G01 X52.0369 Y27.7249
G01 X52.1587 Y27.6667
G01 X52.2716 Y27.5930
G01 X52.3744 Y27.5057
G01 X52.4651 Y27.4059
G01 X52.5422 Y27.2954
G01 X52.6042 Y27.1756
G01 X52.6508 Y27.0489
G01 X52.6809 Y26.9175
G01 X52.6940 Y26.7837
G01 X52.6896 Y26.6489
G01 X52.6683 Y26.5155
G01 X52.6300 Y26.3866
G01 X52.5752 Y26.2629
G01 X52.5054 Y26.1475
G01 X52.4210 Y26.0423
G01 X52.3244 Y25.9487
G01 X52.2605 Y25.9007
G01 X52.2324 Y25.8722
G01 X52.2287 Y25.8673
G01 X52.2263 Y25.8631
G01 X52.2120 Y25.8340
G01 X52.2096 Y25.8284
G01 X52.2077 Y25.8213
G01 X52.2025 Y25.7891
G01 X52.2018 Y25.7810
G01 X52.2018 Y23.9090
G01 X52.2024 Y23.9015
G01 X52.2071 Y23.8703
G01 X52.2086 Y23.8643
G01 X52.2108 Y23.8585
G01 X52.2245 Y23.8299
G01 X52.2295 Y23.8217
G01 X52.2529 Y23.7956
G01 X52.2570 Y23.7916
G01 X52.3487 Y23.7185
G01 X52.4423 Y23.6220
G01 X52.5233 Y23.5139
G01 X52.5892 Y23.3966
G01 X52.6401 Y23.2715
G01 X52.6740 Y23.1410
G01 X52.6915 Y23.0071
G01 X52.6915 Y22.8724
G01 X52.6740 Y22.7385
G01 X52.6401 Y22.6081
G01 X52.5892 Y22.4830
G01 X52.5233 Y22.3657
G01 X52.4423 Y22.2575
G01 X52.3486 Y22.1610
G01 X52.2434 Y22.0766
G01 X52.1281 Y22.0068
G01 X52.0044 Y21.9520
G01 X51.8754 Y21.9137
G01 X51.7421 Y21.8924
G01 X51.6073 Y21.8880
G00 Z2.0000
G00 X54.1473 Y21.8880
G01 F60.00
G01 Z-0.0500
G01 F120.00
G01 X54.0135 Y21.9011
G01 X53.8820 Y21.9312
G01 X53.7554 Y21.9777
G01 X53.6356 Y22.0398
G01 X53.5251 Y22.1169
G01 X53.4252 Y22.2075
G01 X53.3379 Y22.3103
G01 X53.2642 Y22.4233
G01 X53.2060 Y22.5450
G01 X53.1633 Y22.6731
G01 X53.1377 Y22.8050
G01 X53.1289 Y22.9398
G01 X53.1377 Y23.0746
G01 X53.1633 Y23.2064
G01 X53.2060 Y23.3345
G01 X53.2642 Y23.4562
G01 X53.3379 Y23.5692
G01 X53.4252 Y23.6720
G01 X53.5250 Y23.7626
G01 X53.5553 Y23.7836
G01 X53.5601 Y23.7873
G01 X53.5887 Y23.8156
G01 X53.5917 Y23.8196
G01 X53.5943 Y23.8240
G01 X53.6101 Y23.8535
G01 X53.6125 Y23.8589
G01 X53.6147 Y23.8670
G01 X53.6199 Y23.9002
G01 X53.6206 Y23.9080
G01 X53.6206 Y25.7825
G01 X53.6199 Y25.7906
G01 X53.6146 Y25.8228
G01 X53.6131 Y25.8288
G01 X53.6109 Y25.8345
G01 X53.5966 Y25.8635
G01 X53.5915 Y25.8718
G01 X53.5875 Y25.8764
G01 X53.5619 Y25.9023
G01 X53.5000 Y25.9487
G01 X53.4034 Y26.0423
G01 X53.3190 Y26.1475
G01 X53.2492 Y26.2629
G01 X53.1944 Y26.3866
G01 X53.1561 Y26.5155
G01 X53.1348 Y26.6489
G01 X53.1304 Y26.7837
G01 X53.1435 Y26.9175
G01 X53.1736 Y27.0489
G01 X53.2202 Y27.1756
G01 X53.2822 Y27.2954
G01 X53.3593 Y27.4059
G01 X53.4500 Y27.5057
G01 X53.5528 Y27.5930
G01 X53.6657 Y27.6667
G01 X53.7874 Y27.7249
G01 X53.9155 Y27.7676
G01 X54.0474 Y27.7933
G01 X54.1822 Y27.8020
G01 X54.3170 Y27.7933
G01 X54.4489 Y27.7676
G01 X54.5769 Y27.7249
G01 X54.6987 Y27.6667
G01 X54.8116 Y27.5930
G01 X54.9144 Y27.5057
G01 X55.0051 Y27.4059
G01 X55.0822 Y27.2954
G01 X55.1442 Y27.1756
G01 X55.1908 Y27.0489
G01 X55.2209 Y26.9175
G01 X55.2340 Y26.7837
G01 X55.2296 Y26.6489
G01 X55.2083 Y26.5155
G01 X55.1700 Y26.3866
G01 X55.1152 Y26.2629
G01 X55.0454 Y26.1475
G01 X54.9610 Y26.0423
G01 X54.8644 Y25.9487
G01 X54.8005 Y25.9007
G01 X54.7724 Y25.8722
G01 X54.7687 Y25.8673
G01 X54.7663 Y25.8631
G01 X54.7520 Y25.8340
G01 X54.7496 Y25.8284
G01 X54.7477 Y25.8213
G01 X54.7425 Y25.7891
G01 X54.7418 Y25.7810
G01 X54.7418 Y23.9090
G01 X54.7424 Y23.9015
G01 X54.7471 Y23.8703
G01 X54.7486 Y23.8643
G01 X54.7508 Y23.8585
G01 X54.7645 Y23.8299
G01 X54.7695 Y23.8217
G01 X54.7929 Y23.7956
G01 X54.7970 Y23.7916
G01 X54.8887 Y23.7185
G01 X54.9823 Y23.6220
G01 X55.0633 Y23.5139
G01 X55.1292 Y23.3966
G01 X55.1801 Y23.2715
G01 X55.2140 Y23.1410
G01 X55.2315 Y23.0071
G01 X55.2315 Y22.8724
G01 X55.2140 Y22.7385
G01 X55.1801 Y22.6081
G01 X55.1292 Y22.4830
G01 X55.0633 Y22.3657
G01 X54.9823 Y22.2575
G01 X54.8886 Y22.1610
G01 X54.7834 Y22.0766
G01 X54.6681 Y22.0068
G01 X54.5444 Y21.9520
G01 X54.4154 Y21.9137
G01 X54.2821 Y21.8924
G01 X54.1473 Y21.8880
G00 Z2.0000
G00 X53.6229 Y23.8279
G01 F60.00
G01 Z-0.0500
G01 F120.00
G01 X53.6229 Y25.8622
G01 X53.5978 Y25.8774
G01 X53.5151 Y25.9389
G01 X53.4397 Y26.0073
G01 X53.3713 Y26.0827
G01 X53.3078 Y26.1685
G01 X53.2562 Y26.2548
G01 X53.2126 Y26.3468
G01 X53.1768 Y26.4473
G01 X53.1524 Y26.5449
G01 X53.1373 Y26.6469
G01 X53.1322 Y26.7498
G01 X53.1371 Y26.8502
G01 X53.1524 Y26.9546
G01 X53.1774 Y27.0546
G01 X53.2121 Y27.1516
G01 X53.2562 Y27.2447
G01 X53.3092 Y27.3331
G01 X53.3705 Y27.4159
G01 X53.4397 Y27.4922
G01 X53.5161 Y27.5614
G01 X53.5988 Y27.6228
G01 X53.6872 Y27.6758
G01 X53.7804 Y27.7198
G01 X53.8774 Y27.7546
G01 X53.9774 Y27.7796
G01 X54.0793 Y27.7947
G01 X54.1822 Y27.7998
G01 X54.2851 Y27.7947
G01 X54.3870 Y27.7796
G01 X54.4870 Y27.7546
G01 X54.5817 Y27.7207
G01 X54.6793 Y27.6746
G01 X54.7655 Y27.6228
G01 X54.8483 Y27.5614
G01 X54.9247 Y27.4922
G01 X54.9923 Y27.4177
G01 X55.0566 Y27.3310
G01 X55.1082 Y27.2447
G01 X55.1523 Y27.1516
G01 X55.1870 Y27.0546
G01 X55.2115 Y26.9570
G01 X55.2272 Y26.8515
G01 X55.2322 Y26.7498
G01 X55.2273 Y26.6493
G01 X55.2120 Y26.5449
G01 X55.1862 Y26.4426
G01 X55.1523 Y26.3480
G01 X55.1088 Y26.2559
G01 X55.0538 Y26.1644
G01 X54.9939 Y26.0837
G01 X54.9255 Y26.0082
G01 X54.8474 Y25.9373
G01 X54.7666 Y25.8774
G01 X54.7394 Y25.8610
G01 X54.7394 Y23.8279
G01 X54.7655 Y23.8121
G01 X54.8463 Y23.7522
G01 X54.9245 Y23.6814
G01 X54.9944 Y23.6039
G01 X55.0542 Y23.5231
G01 X55.1066 Y23.4358
G01 X55.1513 Y23.3416
G01 X55.1866 Y23.2422
G01 X55.2110 Y23.1446
G01 X55.2258 Y23.0451
G01 X55.2312 Y22.9398
G01 X55.2258 Y22.8344
G01 X55.2110 Y22.7349
G01 X55.1866 Y22.6373
G01 X55.1513 Y22.5380
G01 X55.1072 Y22.4448
G01 X55.0528 Y22.3544
G01 X54.9928 Y22.2737
G01 X54.9253 Y22.1991
G01 X54.8473 Y22.1281
G01 X54.7635 Y22.0661
G01 X54.6762 Y22.0138
G01 X54.5830 Y21.9697
G01 X54.4860 Y21.9350
G01 X54.3860 Y21.9099
G01 X54.2841 Y21.8948
G01 X54.1812 Y21.8898
G01 X54.0783 Y21.8948
G01 X53.9763 Y21.9099
G01 X53.8764 Y21.9350
G01 X53.7794 Y21.9697
G01 X53.6862 Y22.0138
G01 X53.5978 Y22.0667
G01 X53.5151 Y22.1281
G01 X53.4387 Y22.1973
G01 X53.3695 Y22.2737
G01 X53.3075 Y22.3575
G01 X53.2552 Y22.4448
G01 X53.2111 Y22.5380
G01 X53.1764 Y22.6350
G01 X53.1514 Y22.7349
G01 X53.1362 Y22.8369
G01 X53.1312 Y22.9398
G01 X53.1362 Y23.0427
G01 X53.1516 Y23.1458
G01 X53.1764 Y23.2446
G01 X53.2111 Y23.3416
G01 X53.2552 Y23.4347
G01 X53.3088 Y23.5241
G01 X53.3695 Y23.6059
G01 X53.4396 Y23.6831
G01 X53.5160 Y23.7522
G01 X53.5968 Y23.8121
G01 X53.6229 Y23.8279
G00 Z2.0000
G00 X56.1629 Y23.8279
G01 F60.00
G01 Z-0.0500
G01 F120.00
G01 X56.1629 Y25.8622
G01 X56.1378 Y25.8774
G01 X56.0551 Y25.9389
G01 X55.9797 Y26.0073
G01 X55.9113 Y26.0827
G01 X55.8478 Y26.1685
G01 X55.7962 Y26.2548
G01 X55.7526 Y26.3468
G01 X55.7168 Y26.4473
G01 X55.6924 Y26.5449
G01 X55.6773 Y26.6469
G01 X55.6723 Y26.7522
G01 X55.6773 Y26.8527
G01 X55.6924 Y26.9546
G01 X55.7174 Y27.0546
G01 X55.7521 Y27.1516
G01 X55.7962 Y27.2447
G01 X55.8492 Y27.3331
G01 X55.9105 Y27.4159
G01 X55.9797 Y27.4922
G01 X56.0561 Y27.5614
G01 X56.1388 Y27.6228
G01 X56.2272 Y27.6758
G01 X56.3204 Y27.7198
G01 X56.4174 Y27.7546
G01 X56.5174 Y27.7796
G01 X56.6193 Y27.7947
G01 X56.7222 Y27.7998
G01 X56.8251 Y27.7947
G01 X56.9270 Y27.7796
G01 X57.0270 Y27.7546
G01 X57.1217 Y27.7207
G01 X57.2193 Y27.6746
G01 X57.3055 Y27.6228
G01 X57.3883 Y27.5614
G01 X57.4647 Y27.4922
G01 X57.5323 Y27.4177
G01 X57.5966 Y27.3310
G01 X57.6482 Y27.2447
G01 X57.6923 Y27.1516
G01 X57.7270 Y27.0546
G01 X57.7515 Y26.9570
G01 X57.7672 Y26.8515
G01 X57.7722 Y26.7498
G01 X57.7673 Y26.6493
G01 X57.7520 Y26.5449
G01 X57.7262 Y26.4426
G01 X57.6923 Y26.3480
G01 X57.6488 Y26.2559
G01 X57.5938 Y26.1644
G01 X57.5339 Y26.0837
G01 X57.4655 Y26.0082
G01 X57.3874 Y25.9373
G01 X57.3066 Y25.8774
G01 X57.2794 Y25.8610
G01 X57.2794 Y23.8279
G01 X57.3055 Y23.8121
G01 X57.3863 Y23.7522
G01 X57.4645 Y23.6814
G01 X57.5344 Y23.6039
G01 X57.5942 Y23.5231
G01 X57.6466 Y23.4358
G01 X57.6913 Y23.3416
G01 X57.7266 Y23.2422
G01 X57.7510 Y23.1446
G01 X57.7658 Y23.0451
G01 X57.7712 Y22.9398
G01 X57.7658 Y22.8344
G01 X57.7510 Y22.7349
G01 X57.7266 Y22.6373
G01 X57.6913 Y22.5380
G01 X57.6472 Y22.4448
G01 X57.5928 Y22.3544
G01 X57.5328 Y22.2737
G01 X57.4653 Y22.1991
G01 X57.3873 Y22.1281
G01 X57.3035 Y22.0661
G01 X57.2162 Y22.0138
G01 X57.1230 Y21.9697
G01 X57.0260 Y21.9350
G01 X56.9260 Y21.9099
G01 X56.8241 Y21.8948
G01 X56.7212 Y21.8898
G01 X56.6183 Y21.8948
G01 X56.5163 Y21.9099
G01 X56.4164 Y21.9350
G01 X56.3194 Y21.9697
G01 X56.2262 Y22.0138
G01 X56.1378 Y22.0667
G01 X56.0551 Y22.1281
G01 X55.9787 Y22.1973
G01 X55.9095 Y22.2737
G01 X55.8475 Y22.3575
G01 X55.7952 Y22.4448
G01 X55.7511 Y22.5380
G01 X55.7164 Y22.6350
G01 X55.6914 Y22.7349
G01 X55.6762 Y22.8369
G01 X55.6712 Y22.9398
G01 X55.6762 Y23.0427
G01 X55.6916 Y23.1458
G01 X55.7164 Y23.2446
G01 X55.7511 Y23.3416
G01 X55.7952 Y23.4347
G01 X55.8488 Y23.5241
G01 X55.9095 Y23.6059
G01 X55.9796 Y23.6831
G01 X56.0560 Y23.7522
G01 X56.1368 Y23.8121
G01 X56.1629 Y23.8279
G00 Z2.0000
G00 X56.6873 Y21.8880
G01 F60.00
G01 Z-0.0500
G01 F120.00
G01 X56.5535 Y21.9011
G01 X56.4220 Y21.9312
G01 X56.2954 Y21.9777
G01 X56.1756 Y22.0398
G01 X56.0651 Y22.1169
G01 X55.9652 Y22.2075
G01 X55.8779 Y22.3103
G01 X55.8042 Y22.4233
G01 X55.7460 Y22.5450
G01 X55.7033 Y22.6731
G01 X55.6777 Y22.8050
G01 X55.6689 Y22.9398
G01 X55.6777 Y23.0746
G01 X55.7033 Y23.2064
G01 X55.7460 Y23.3345
G01 X55.8042 Y23.4562
G01 X55.8779 Y23.5692
G01 X55.9652 Y23.6720
G01 X56.0650 Y23.7626
G01 X56.0953 Y23.7836
G01 X56.1001 Y23.7873
G01 X56.1287 Y23.8156
G01 X56.1317 Y23.8196
G01 X56.1343 Y23.8240
G01 X56.1501 Y23.8535
G01 X56.1525 Y23.8589
G01 X56.1547 Y23.8670
G01 X56.1599 Y23.9002
G01 X56.1606 Y23.9080
G01 X56.1606 Y25.7825
G01 X56.1599 Y25.7906
G01 X56.1546 Y25.8228
G01 X56.1531 Y25.8288
G01 X56.1509 Y25.8345
G01 X56.1366 Y25.8635
G01 X56.1315 Y25.8718
G01 X56.1275 Y25.8764
G01 X56.1019 Y25.9023
G01 X56.0400 Y25.9487
G01 X55.9434 Y26.0423
G01 X55.8590 Y26.1475
G01 X55.7892 Y26.2629
G01 X55.7344 Y26.3866
G01 X55.6961 Y26.5155
G01 X55.6748 Y26.6489
G01 X55.6704 Y26.7837
G01 X55.6835 Y26.9175
G01 X55.7136 Y27.0489
G01 X55.7602 Y27.1756
G01 X55.8222 Y27.2954
G01 X55.8993 Y27.4059
G01 X55.9900 Y27.5057
G01 X56.0928 Y27.5930
G01 X56.2057 Y27.6667
G01 X56.3274 Y27.7249
G01 X56.4555 Y27.7676
G01 X56.5874 Y27.7933
G01 X56.7222 Y27.8020
G01 X56.8570 Y27.7933
G01 X56.9889 Y27.7676
G01 X57.1169 Y27.7249
G01 X57.2387 Y27.6667
G01 X57.3516 Y27.5930
G01 X57.4544 Y27.5057
G01 X57.5451 Y27.4059
G01 X57.6222 Y27.2954
G01 X57.6842 Y27.1756
G01 X57.7308 Y27.0489
G01 X57.7609 Y26.9175
G01 X57.7740 Y26.7837
G01 X57.7696 Y26.6489
G01 X57.7483 Y26.5155
G01 X57.7100 Y26.3866
G01 X57.6552 Y26.2629
G01 X57.5854 Y26.1475
G01 X57.5010 Y26.0423
G01 X57.4044 Y25.9487
G01 X57.3405 Y25.9007
G01 X57.3124 Y25.8722
G01 X57.3087 Y25.8673
G01 X57.3063 Y25.8631
G01 X57.2920 Y25.8340
G01 X57.2896 Y25.8284
G01 X57.2877 Y25.8213
G01 X57.2825 Y25.7891
G01 X57.2818 Y25.7810
G01 X57.2818 Y23.9090
G01 X57.2824 Y23.9015
G01 X57.2871 Y23.8703
G01 X57.2886 Y23.8643
G01 X57.2908 Y23.8585
G01 X57.3045 Y23.8299
G01 X57.3095 Y23.8217
G01 X57.3329 Y23.7956
G01 X57.3370 Y23.7916
G01 X57.4287 Y23.7185
G01 X57.5223 Y23.6220
G01 X57.6033 Y23.5139
G01 X57.6692 Y23.3966
G01 X57.7201 Y23.2715
G01 X57.7540 Y23.1410
G01 X57.7715 Y23.0071
G01 X57.7715 Y22.8724
G01 X57.7540 Y22.7385
G01 X57.7201 Y22.6081
G01 X57.6692 Y22.4830
G01 X57.6033 Y22.3657
G01 X57.5223 Y22.2575
G01 X57.4286 Y22.1610
G01 X57.3234 Y22.0766
G01 X57.2081 Y22.0068
G01 X57.0844 Y21.9520
G01 X56.9554 Y21.9137
G01 X56.8221 Y21.8924
G01 X56.6873 Y21.8880
G00 Z2.0000
G00 X59.2273 Y21.8880
G01 F60.00
G01 Z-0.0500
G01 F120.00
G01 X59.0935 Y21.9011
G01 X58.9620 Y21.9312
G01 X58.8354 Y21.9777
G01 X58.7156 Y22.0398
G01 X58.6051 Y22.1169
G01 X58.5052 Y22.2075
G01 X58.4179 Y22.3103
G01 X58.3442 Y22.4233
G01 X58.2860 Y22.5450
G01 X58.2433 Y22.6731
G01 X58.2177 Y22.8050
G01 X58.2089 Y22.9398
G01 X58.2177 Y23.0746
G01 X58.2433 Y23.2064
G01 X58.2860 Y23.3345
G01 X58.3442 Y23.4562
G01 X58.4179 Y23.5692
G01 X58.5052 Y23.6720
G01 X58.6050 Y23.7626
G01 X58.6353 Y23.7836
G01 X58.6401 Y23.7873
G01 X58.6687 Y23.8156
G01 X58.6717 Y23.8196
G01 X58.6743 Y23.8240
G01 X58.6901 Y23.8535
G01 X58.6925 Y23.8589
G01 X58.6947 Y23.8670
G01 X58.6999 Y23.9002
G01 X58.7006 Y23.9080
G01 X58.7006 Y25.7825
G01 X58.6999 Y25.7906
G01 X58.6946 Y25.8228
G01 X58.6931 Y25.8288
G01 X58.6909 Y25.8345
G01 X58.6766 Y25.8635
G01 X58.6715 Y25.8718
G01 X58.6675 Y25.8764
G01 X58.6419 Y25.9023
G01 X58.5800 Y25.9487
G01 X58.4834 Y26.0423
G01 X58.3990 Y26.1475
G01 X58.3292 Y26.2629
G01 X58.2744 Y26.3866
G01 X58.2361 Y26.5155
G01 X58.2148 Y26.6489
G01 X58.2104 Y26.7837
G01 X58.2235 Y26.9175
G01 X58.2536 Y27.0489
G01 X58.3002 Y27.1756
G01 X58.3622 Y27.2954
G01 X58.4393 Y27.4059
G01 X58.5300 Y27.5057
G01 X58.6328 Y27.5930
G01 X58.7457 Y27.6667
G01 X58.8674 Y27.7249
G01 X58.9955 Y27.7676
G01 X59.1274 Y27.7933
G01 X59.2622 Y27.8020
G01 X59.3970 Y27.7933
G01 X59.5289 Y27.7676
G01 X59.6569 Y27.7249
G01 X59.7787 Y27.6667
G01 X59.8916 Y27.5930
G01 X59.9944 Y27.5057
G01 X60.0851 Y27.4059
G01 X60.1622 Y27.2954
G01 X60.2242 Y27.1756
G01 X60.2708 Y27.0489
G01 X60.3009 Y26.9175
G01 X60.3140 Y26.7837
G01 X60.3096 Y26.6489
G01 X60.2883 Y26.5155
G01 X60.2500 Y26.3866
G01 X60.1952 Y26.2629
G01 X60.1254 Y26.1475
G01 X60.0410 Y26.0423
G01 X59.9444 Y25.9487
G01 X59.8805 Y25.9007
G01 X59.8524 Y25.8722
G01 X59.8487 Y25.8673
G01 X59.8463 Y25.8631
G01 X59.8320 Y25.8340
G01 X59.8296 Y25.8284
G01 X59.8277 Y25.8213
G01 X59.8225 Y25.7891
G01 X59.8218 Y25.7810
G01 X59.8218 Y23.9090
G01 X59.8224 Y23.9015
G01 X59.8271 Y23.8703
G01 X59.8286 Y23.8643
G01 X59.8308 Y23.8585
G01 X59.8445 Y23.8299
G01 X59.8495 Y23.8217
G01 X59.8729 Y23.7956
G01 X59.8770 Y23.7916
G01 X59.9687 Y23.7185
G01 X60.0623 Y23.6220
G01 X60.1433 Y23.5139
G01 X60.2092 Y23.3966
G01 X60.2601 Y23.2715
G01 X60.2940 Y23.1410
G01 X60.3115 Y23.0071
G01 X60.3115 Y22.8724
G01 X60.2940 Y22.7385
G01 X60.2601 Y22.6081
G01 X60.2092 Y22.4830
G01 X60.1433 Y22.3657
G01 X60.0623 Y22.2575
G01 X59.9686 Y22.1610
G01 X59.8634 Y22.0766
G01 X59.7481 Y22.0068
G01 X59.6244 Y21.9520
G01 X59.4954 Y21.9137
G01 X59.3621 Y21.8924
G01 X59.2273 Y21.8880
G00 Z2.0000
G00 X58.7029 Y23.8279
G01 F60.00
G01 Z-0.0500
G01 F120.00
G01 X58.7029 Y25.8622
G01 X58.6778 Y25.8774
G01 X58.5951 Y25.9389
G01 X58.5197 Y26.0073
G01 X58.4513 Y26.0827
G01 X58.3878 Y26.1685
G01 X58.3362 Y26.2548
G01 X58.2926 Y26.3468
G01 X58.2568 Y26.4473
G01 X58.2324 Y26.5449
G01 X58.2173 Y26.6469
G01 X58.2123 Y26.7522
G01 X58.2173 Y26.8527
G01 X58.2324 Y26.9546
G01 X58.2574 Y27.0546
G01 X58.2921 Y27.1516
G01 X58.3362 Y27.2447
G01 X58.3892 Y27.3331
G01 X58.4505 Y27.4159
G01 X58.5197 Y27.4922
G01 X58.5961 Y27.5614
G01 X58.6788 Y27.6228
G01 X58.7672 Y27.6758
G01 X58.8604 Y27.7198
G01 X58.9574 Y27.7546
G01 X59.0574 Y27.7796
G01 X59.1593 Y27.7947
G01 X59.2622 Y27.7998
G01 X59.3651 Y27.7947
G01 X59.4670 Y27.7796
G01 X59.5670 Y27.7546
G01 X59.6617 Y27.7207
G01 X59.7593 Y27.6746
G01 X59.8455 Y27.6228
G01 X59.9283 Y27.5614
G01 X60.0047 Y27.4922
G01 X60.0723 Y27.4177
G01 X60.1366 Y27.3310
G01 X60.1882 Y27.2447
G01 X60.2323 Y27.1516
G01 X60.2670 Y27.0546
G01 X60.2915 Y26.9570
G01 X60.3072 Y26.8515
G01 X60.3122 Y26.7498
G01 X60.3073 Y26.6493
G01 X60.2920 Y26.5449
G01 X60.2662 Y26.4426
G01 X60.2323 Y26.3480
G01 X60.1888 Y26.2559
G01 X60.1338 Y26.1644
G01 X60.0739 Y26.0837
G01 X60.0055 Y26.0082
G01 X59.9274 Y25.9373
G01 X59.8466 Y25.8774
G01 X59.8194 Y25.8610
G01 X59.8194 Y23.8279
G01 X59.8455 Y23.8121
G01 X59.9263 Y23.7522
G01 X60.0045 Y23.6814
G01 X60.0728 Y23.6059
G01 X60.1328 Y23.5251
G01 X60.1866 Y23.4358
G01 X60.2313 Y23.3416
G01 X60.2666 Y23.2422
G01 X60.2910 Y23.1446
G01 X60.3058 Y23.0451
G01 X60.3112 Y22.9398
G01 X60.3058 Y22.8344
G01 X60.2910 Y22.7349
G01 X60.2666 Y22.6373
G01 X60.2313 Y22.5380
G01 X60.1872 Y22.4448
G01 X60.1328 Y22.3544
G01 X60.0728 Y22.2737
G01 X60.0053 Y22.1991
G01 X59.9273 Y22.1281
G01 X59.8435 Y22.0661
G01 X59.7562 Y22.0138
G01 X59.6630 Y21.9697
G01 X59.5660 Y21.9350
G01 X59.4660 Y21.9099
G01 X59.3641 Y21.8948
G01 X59.2612 Y21.8898
G01 X59.1583 Y21.8948
G01 X59.0563 Y21.9099
G01 X58.9564 Y21.9350
G01 X58.8594 Y21.9697
G01 X58.7662 Y22.0138
G01 X58.6778 Y22.0667
G01 X58.5951 Y22.1281
G01 X58.5187 Y22.1973
G01 X58.4495 Y22.2737
G01 X58.3875 Y22.3575
G01 X58.3352 Y22.4448
G01 X58.2911 Y22.5380
G01 X58.2564 Y22.6350
G01 X58.2314 Y22.7349
G01 X58.2162 Y22.8369
G01 X58.2112 Y22.9398
G01 X58.2162 Y23.0427
G01 X58.2316 Y23.1458
G01 X58.2564 Y23.2446
G01 X58.2911 Y23.3416
G01 X58.3352 Y23.4347
G01 X58.3888 Y23.5241
G01 X58.4495 Y23.6059
G01 X58.5196 Y23.6831
G01 X58.5960 Y23.7522
G01 X58.6768 Y23.8121
G01 X58.7029 Y23.8279
G00 Z2.0000
G00 X61.2429 Y23.8279
G01 F60.00
G01 Z-0.0500
G01 F120.00
G01 X61.2429 Y25.8622
G01 X61.2178 Y25.8774
G01 X61.1351 Y25.9389
G01 X61.0597 Y26.0073
G01 X60.9913 Y26.0827
G01 X60.9278 Y26.1685
G01 X60.8762 Y26.2548
G01 X60.8326 Y26.3468
G01 X60.7968 Y26.4473
G01 X60.7724 Y26.5449
G01 X60.7573 Y26.6469
G01 X60.7522 Y26.7498
G01 X60.7571 Y26.8502
G01 X60.7724 Y26.9546
G01 X60.7974 Y27.0546
G01 X60.8321 Y27.1516
G01 X60.8762 Y27.2447
G01 X60.9292 Y27.3331
G01 X60.9905 Y27.4159
G01 X61.0597 Y27.4922
G01 X61.1361 Y27.5614
G01 X61.2188 Y27.6228
G01 X61.3072 Y27.6758
G01 X61.4004 Y27.7198
G01 X61.4974 Y27.7546
G01 X61.5974 Y27.7796
G01 X61.6993 Y27.7947
G01 X61.8022 Y27.7998
G01 X61.9051 Y27.7947
G01 X62.0070 Y27.7796
G01 X62.1070 Y27.7546
G01 X62.2017 Y27.7207
G01 X62.2993 Y27.6746
G01 X62.3855 Y27.6228
G01 X62.4683 Y27.5614
G01 X62.5447 Y27.4922
G01 X62.6123 Y27.4177
G01 X62.6766 Y27.3310
G01 X62.7282 Y27.2447
G01 X62.7723 Y27.1516
G01 X62.8070 Y27.0546
G01 X62.8315 Y26.9570
G01 X62.8472 Y26.8515
G01 X62.8522 Y26.7498
G01 X62.8473 Y26.6493
G01 X62.8320 Y26.5449
G01 X62.8062 Y26.4426
G01 X62.7723 Y26.3480
G01 X62.7288 Y26.2559
G01 X62.6738 Y26.1644
G01 X62.6139 Y26.0837
G01 X62.5455 Y26.0082
G01 X62.4674 Y25.9373
G01 X62.3866 Y25.8774
G01 X62.3594 Y25.8610
G01 X62.3594 Y23.8279
G01 X62.3855 Y23.8121
G01 X62.4663 Y23.7522
G01 X62.5445 Y23.6814
G01 X62.6128 Y23.6059
G01 X62.6728 Y23.5251
G01 X62.7266 Y23.4358
G01 X62.7713 Y23.3416
G01 X62.8066 Y23.2422
G01 X62.8310 Y23.1446
G01 X62.8458 Y23.0451
G01 X62.8512 Y22.9398
G01 X62.8458 Y22.8344
G01 X62.8310 Y22.7349
G01 X62.8066 Y22.6373
G01 X62.7713 Y22.5380
G01 X62.7272 Y22.4448
G01 X62.6728 Y22.3544
G01 X62.6128 Y22.2737
G01 X62.5453 Y22.1991
G01 X62.4673 Y22.1281
G01 X62.3835 Y22.0661
G01 X62.2962 Y22.0138
G01 X62.2030 Y21.9697
G01 X62.1060 Y21.9350
G01 X62.0060 Y21.9099
G01 X61.9041 Y21.8948
G01 X61.8012 Y21.8898
G01 X61.6983 Y21.8948
G01 X61.5963 Y21.9099
G01 X61.4964 Y21.9350
G01 X61.3994 Y21.9697
G01 X61.3062 Y22.0138
G01 X61.2178 Y22.0667
G01 X61.1351 Y22.1281
G01 X61.0587 Y22.1973
G01 X60.9895 Y22.2737
G01 X60.9275 Y22.3575
G01 X60.8752 Y22.4448
G01 X60.8311 Y22.5380
G01 X60.7964 Y22.6350
G01 X60.7714 Y22.7349
G01 X60.7562 Y22.8369
G01 X60.7512 Y22.9398
G01 X60.7562 Y23.0427
G01 X60.7716 Y23.1458
G01 X60.7964 Y23.2446
G01 X60.8311 Y23.3416
G01 X60.8752 Y23.4347
G01 X60.9288 Y23.5241
G01 X60.9895 Y23.6059
G01 X61.0596 Y23.6831
G01 X61.1360 Y23.7522
G01 X61.2168 Y23.8121
G01 X61.2429 Y23.8279
G00 Z2.0000
G00 X61.7673 Y21.8880
G01 F60.00
G01 Z-0.0500
G01 F120.00
G01 X61.6335 Y21.9011
G01 X61.5020 Y21.9312
G01 X61.3754 Y21.9777
G01 X61.2556 Y22.0398
G01 X61.1451 Y22.1169
G01 X61.0452 Y22.2075
G01 X60.9579 Y22.3103
G01 X60.8842 Y22.4233
G01 X60.8260 Y22.5450
G01 X60.7833 Y22.6731
G01 X60.7577 Y22.8050
G01 X60.7489 Y22.9398
G01 X60.7577 Y23.0746
G01 X60.7833 Y23.2064
G01 X60.8260 Y23.3345
G01 X60.8842 Y23.4562
G01 X60.9579 Y23.5692
G01 X61.0452 Y23.6720
G01 X61.1450 Y23.7626
G01 X61.1753 Y23.7836
G01 X61.1801 Y23.7873
G01 X61.2087 Y23.8156
G01 X61.2117 Y23.8196
G01 X61.2143 Y23.8240
G01 X61.2301 Y23.8535
G01 X61.2325 Y23.8589
G01 X61.2347 Y23.8670
G01 X61.2399 Y23.9002
G01 X61.2406 Y23.9080
G01 X61.2406 Y25.7825
G01 X61.2399 Y25.7906
G01 X61.2346 Y25.8228
G01 X61.2331 Y25.8288
G01 X61.2309 Y25.8345
G01 X61.2166 Y25.8635
G01 X61.2115 Y25.8718
G01 X61.2075 Y25.8764
G01 X61.1819 Y25.9023
G01 X61.1200 Y25.9487
G01 X61.0234 Y26.0423
G01 X60.9390 Y26.1475
G01 X60.8692 Y26.2629
G01 X60.8144 Y26.3866
G01 X60.7761 Y26.5155
G01 X60.7548 Y26.6489
G01 X60.7504 Y26.7837
G01 X60.7635 Y26.9175
G01 X60.7936 Y27.0489
G01 X60.8402 Y27.1756
G01 X60.9022 Y27.2954
G01 X60.9793 Y27.4059
G01 X61.0700 Y27.5057
G01 X61.1728 Y27.5930
G01 X61.2857 Y27.6667
G01 X61.4074 Y27.7249
G01 X61.5355 Y27.7676
G01 X61.6674 Y27.7933
G01 X61.8022 Y27.8020
G01 X61.9370 Y27.7933
G01 X62.0689 Y27.7676
G01 X62.1969 Y27.7249
G01 X62.3187 Y27.6667
G01 X62.4316 Y27.5930
G01 X62.5344 Y27.5057
G01 X62.6251 Y27.4059
G01 X62.7022 Y27.2954
G01 X62.7642 Y27.1756
G01 X62.8108 Y27.0489
G01 X62.8409 Y26.9175
G01 X62.8540 Y26.7837
G01 X62.8496 Y26.6489
G01 X62.8283 Y26.5155
G01 X62.7900 Y26.3866
G01 X62.7352 Y26.2629
G01 X62.6654 Y26.1475
G01 X62.5810 Y26.0423
G01 X62.4844 Y25.9487
G01 X62.4205 Y25.9007
G01 X62.3924 Y25.8722
G01 X62.3894 Y25.8683
G01 X62.3863 Y25.8631
G01 X62.3720 Y25.8340
G01 X62.3696 Y25.8284
G01 X62.3677 Y25.8213
G01 X62.3625 Y25.7891
G01 X62.3618 Y25.7810
G01 X62.3618 Y23.9090
G01 X62.3624 Y23.9015
G01 X62.3671 Y23.8703
G01 X62.3686 Y23.8643
G01 X62.3708 Y23.8585
G01 X62.3845 Y23.8299
G01 X62.3895 Y23.8217
G01 X62.4129 Y23.7956
G01 X62.4170 Y23.7916
G01 X62.5087 Y23.7185
G01 X62.6023 Y23.6220
G01 X62.6833 Y23.5139
G01 X62.7492 Y23.3966
G01 X62.8001 Y23.2715
G01 X62.8340 Y23.1410
G01 X62.8515 Y23.0071
G01 X62.8515 Y22.8724
G01 X62.8340 Y22.7385
G01 X62.8001 Y22.6081
G01 X62.7492 Y22.4830
G01 X62.6833 Y22.3657
G01 X62.6023 Y22.2575
G01 X62.5086 Y22.1610
G01 X62.4034 Y22.0766
G01 X62.2881 Y22.0068
G01 X62.1644 Y21.9520
G01 X62.0354 Y21.9137
G01 X61.9021 Y21.8924
G01 X61.7673 Y21.8880
G00 Z2.0000
G00 X64.3073 Y21.8880
G01 F60.00
G01 Z-0.0500
G01 F120.00
G01 X64.1735 Y21.9011
G01 X64.0420 Y21.9312
G01 X63.9154 Y21.9777
G01 X63.7956 Y22.0398
G01 X63.6851 Y22.1169
G01 X63.5852 Y22.2075
G01 X63.4979 Y22.3103
G01 X63.4242 Y22.4233
G01 X63.3660 Y22.5450
G01 X63.3233 Y22.6731
G01 X63.2977 Y22.8050
G01 X63.2889 Y22.9398
G01 X63.2977 Y23.0746
G01 X63.3233 Y23.2064
G01 X63.3660 Y23.3345
G01 X63.4242 Y23.4562
G01 X63.4979 Y23.5692
G01 X63.5852 Y23.6720
G01 X63.6850 Y23.7626
G01 X63.7153 Y23.7836
G01 X63.7201 Y23.7873
G01 X63.7487 Y23.8156
G01 X63.7517 Y23.8196
G01 X63.7543 Y23.8240
G01 X63.7701 Y23.8535
G01 X63.7725 Y23.8589
G01 X63.7747 Y23.8670
G01 X63.7799 Y23.9002
G01 X63.7806 Y23.9080
G01 X63.7806 Y25.7825
G01 X63.7799 Y25.7906
G01 X63.7746 Y25.8228
G01 X63.7731 Y25.8288
G01 X63.7709 Y25.8345
G01 X63.7566 Y25.8635
G01 X63.7515 Y25.8718
G01 X63.7475 Y25.8764
G01 X63.7219 Y25.9023
G01 X63.6600 Y25.9487
G01 X63.5634 Y26.0423
G01 X63.4790 Y26.1475
G01 X63.4092 Y26.2629
G01 X63.3544 Y26.3866
G01 X63.3161 Y26.5155
G01 X63.2948 Y26.6489
G01 X63.2904 Y26.7837
G01 X63.3035 Y26.9175
G01 X63.3336 Y27.0489
G01 X63.3802 Y27.1756
G01 X63.4422 Y27.2954
G01 X63.5193 Y27.4059
G01 X63.6100 Y27.5057
G01 X63.7128 Y27.5930
G01 X63.8257 Y27.6667
G01 X63.9474 Y27.7249
G01 X64.0755 Y27.7676
G01 X64.2074 Y27.7933
G01 X64.3422 Y27.8020
G01 X64.4770 Y27.7933
G01 X64.6089 Y27.7676
G01 X64.7369 Y27.7249
G01 X64.8587 Y27.6667
G01 X64.9716 Y27.5930
G01 X65.0744 Y27.5057
G01 X65.1651 Y27.4059
G01 X65.2422 Y27.2954
G01 X65.3042 Y27.1756
G01 X65.3508 Y27.0489
G01 X65.3809 Y26.9175
G01 X65.3940 Y26.7837
G01 X65.3896 Y26.6489
G01 X65.3683 Y26.5155
G01 X65.3300 Y26.3866
G01 X65.2752 Y26.2629
G01 X65.2054 Y26.1475
G01 X65.1210 Y26.0423
G01 X65.0244 Y25.9487
G01 X64.9605 Y25.9007
G01 X64.9324 Y25.8722
G01 X64.9294 Y25.8683
G01 X64.9263 Y25.8631
G01 X64.9120 Y25.8340
G01 X64.9096 Y25.8284
G01 X64.9077 Y25.8213
G01 X64.9025 Y25.7891
G01 X64.9018 Y25.7810
G01 X64.9018 Y23.9090
G01 X64.9024 Y23.9015
G01 X64.9071 Y23.8703
G01 X64.9086 Y23.8643
G01 X64.9108 Y23.8585
G01 X64.9245 Y23.8299
G01 X64.9295 Y23.8217
G01 X64.9529 Y23.7956
G01 X64.9570 Y23.7916
G01 X65.0487 Y23.7185
G01 X65.1423 Y23.6220
G01 X65.2233 Y23.5139
G01 X65.2892 Y23.3966
G01 X65.3401 Y23.2715
G01 X65.3740 Y23.1410
G01 X65.3915 Y23.0071
G01 X65.3915 Y22.8724
G01 X65.3740 Y22.7385
G01 X65.3401 Y22.6081
G01 X65.2892 Y22.4830
G01 X65.2233 Y22.3657
G01 X65.1423 Y22.2575
G01 X65.0486 Y22.1610
G01 X64.9434 Y22.0766
G01 X64.8281 Y22.0068
G01 X64.7044 Y21.9520
G01 X64.5754 Y21.9137
G01 X64.4421 Y21.8924
G01 X64.3073 Y21.8880
G00 Z2.0000
G00 X63.7829 Y23.8279
G01 F60.00
G01 Z-0.0500
G01 F120.00
G01 X63.7829 Y25.8622
G01 X63.7578 Y25.8774
G01 X63.6751 Y25.9389
G01 X63.5997 Y26.0073
G01 X63.5313 Y26.0827
G01 X63.4678 Y26.1685
G01 X63.4162 Y26.2548
G01 X63.3726 Y26.3468
G01 X63.3368 Y26.4473
G01 X63.3124 Y26.5449
G01 X63.2973 Y26.6469
G01 X63.2922 Y26.7498
G01 X63.2971 Y26.8502
G01 X63.3124 Y26.9546
G01 X63.3374 Y27.0546
G01 X63.3721 Y27.1516
G01 X63.4162 Y27.2447
G01 X63.4692 Y27.3331
G01 X63.5305 Y27.4159
G01 X63.5997 Y27.4922
G01 X63.6761 Y27.5614
G01 X63.7588 Y27.6228
G01 X63.8472 Y27.6758
G01 X63.9404 Y27.7198
G01 X64.0374 Y27.7546
G01 X64.1374 Y27.7796
G01 X64.2393 Y27.7947
G01 X64.3422 Y27.7998
G01 X64.4451 Y27.7947
G01 X64.5470 Y27.7796
G01 X64.6470 Y27.7546
G01 X64.7417 Y27.7207
G01 X64.8393 Y27.6746
G01 X64.9255 Y27.6228
G01 X65.0083 Y27.5614
G01 X65.0847 Y27.4922
G01 X65.1523 Y27.4177
G01 X65.2166 Y27.3310
G01 X65.2682 Y27.2447
G01 X65.3123 Y27.1516
G01 X65.3470 Y27.0546
G01 X65.3715 Y26.9570
G01 X65.3872 Y26.8515
G01 X65.3922 Y26.7498
G01 X65.3873 Y26.6493
G01 X65.3720 Y26.5449
G01 X65.3462 Y26.4426
G01 X65.3123 Y26.3480
G01 X65.2688 Y26.2559
G01 X65.2138 Y26.1644
G01 X65.1539 Y26.0837
G01 X65.0855 Y26.0082
G01 X65.0074 Y25.9373
G01 X64.9266 Y25.8774
G01 X64.8994 Y25.8610
G01 X64.8994 Y23.8279
G01 X64.9255 Y23.8121
G01 X65.0063 Y23.7522
G01 X65.0845 Y23.6814
G01 X65.1544 Y23.6039
G01 X65.2142 Y23.5231
G01 X65.2666 Y23.4358
G01 X65.3113 Y23.3416
G01 X65.3466 Y23.2422
G01 X65.3710 Y23.1446
G01 X65.3858 Y23.0451
G01 X65.3912 Y22.9398
G01 X65.3858 Y22.8344
G01 X65.3710 Y22.7349
G01 X65.3466 Y22.6373
G01 X65.3113 Y22.5380
G01 X65.2672 Y22.4448
G01 X65.2128 Y22.3544
G01 X65.1528 Y22.2737
G01 X65.0853 Y22.1991
G01 X65.0073 Y22.1281
G01 X64.9235 Y22.0661
G01 X64.8362 Y22.0138
G01 X64.7430 Y21.9697
G01 X64.6460 Y21.9350
G01 X64.5460 Y21.9099
G01 X64.4441 Y21.8948
G01 X64.3412 Y21.8898
G01 X64.2383 Y21.8948
G01 X64.1363 Y21.9099
G01 X64.0364 Y21.9350
G01 X63.9394 Y21.9697
G01 X63.8462 Y22.0138
G01 X63.7578 Y22.0667
G01 X63.6751 Y22.1281
G01 X63.5987 Y22.1973
G01 X63.5295 Y22.2737
G01 X63.4675 Y22.3575
G01 X63.4152 Y22.4448
G01 X63.3711 Y22.5380
G01 X63.3364 Y22.6350
G01 X63.3114 Y22.7349
G01 X63.2962 Y22.8369
G01 X63.2912 Y22.9398
G01 X63.2962 Y23.0427
G01 X63.3116 Y23.1458
G01 X63.3364 Y23.2446
G01 X63.3711 Y23.3416
G01 X63.4152 Y23.4347
G01 X63.4688 Y23.5241
G01 X63.5295 Y23.6059
G01 X63.5996 Y23.6831
G01 X63.6760 Y23.7522
G01 X63.7568 Y23.8121
G01 X63.7829 Y23.8279
G00 Z2.0000
G00 X66.3229 Y23.8279
G01 F60.00
G01 Z-0.0500
G01 F120.00
G01 X66.3229 Y25.8622
G01 X66.2978 Y25.8774
G01 X66.2151 Y25.9389
G01 X66.1397 Y26.0073
G01 X66.0713 Y26.0827
G01 X66.0078 Y26.1685
G01 X65.9562 Y26.2548
G01 X65.9126 Y26.3468
G01 X65.8768 Y26.4473
G01 X65.8524 Y26.5449
G01 X65.8373 Y26.6469
G01 X65.8322 Y26.7498
G01 X65.8371 Y26.8502
G01 X65.8524 Y26.9546
G01 X65.8774 Y27.0546
G01 X65.9121 Y27.1516
G01 X65.9562 Y27.2447
G01 X66.0092 Y27.3331
G01 X66.0705 Y27.4159
G01 X66.1397 Y27.4922
G01 X66.2161 Y27.5614
G01 X66.2988 Y27.6228
G01 X66.3872 Y27.6758
G01 X66.4804 Y27.7198
G01 X66.5774 Y27.7546
G01 X66.6774 Y27.7796
G01 X66.7793 Y27.7947
G01 X66.8822 Y27.7998
G01 X66.9851 Y27.7947
G01 X67.0870 Y27.7796
G01 X67.1870 Y27.7546
G01 X67.2817 Y27.7207
G01 X67.3793 Y27.6746
G01 X67.4655 Y27.6228
G01 X67.5483 Y27.5614
G01 X67.6247 Y27.4922
G01 X67.6923 Y27.4177
G01 X67.7566 Y27.3310
G01 X67.8082 Y27.2447
G01 X67.8523 Y27.1516
G01 X67.8870 Y27.0546
G01 X67.9115 Y26.9570
G01 X67.9272 Y26.8515
G01 X67.9322 Y26.7498
G01 X67.9273 Y26.6493
G01 X67.9120 Y26.5449
G01 X67.8862 Y26.4426
G01 X67.8523 Y26.3480
G01 X67.8088 Y26.2559
G01 X67.7538 Y26.1644
G01 X67.6939 Y26.0837
G01 X67.6255 Y26.0082
G01 X67.5474 Y25.9373
G01 X67.4666 Y25.8774
G01 X67.4394 Y25.8610
G01 X67.4394 Y23.8279
G01 X67.4655 Y23.8121
G01 X67.5463 Y23.7522
G01 X67.6245 Y23.6814
G01 X67.6928 Y23.6059
G01 X67.7528 Y23.5251
G01 X67.8066 Y23.4358
G01 X67.8513 Y23.3416
G01 X67.8866 Y23.2422
G01 X67.9110 Y23.1446
G01 X67.9258 Y23.0451
G01 X67.9312 Y22.9398
G01 X67.9258 Y22.8344
G01 X67.9110 Y22.7349
G01 X67.8866 Y22.6373
G01 X67.8513 Y22.5380
G01 X67.8072 Y22.4448
G01 X67.7528 Y22.3544
G01 X67.6928 Y22.2737
G01 X67.6253 Y22.1991
G01 X67.5473 Y22.1281
G01 X67.4635 Y22.0661
G01 X67.3762 Y22.0138
G01 X67.2830 Y21.9697
G01 X67.1860 Y21.9350
G01 X67.0860 Y21.9099
G01 X66.9841 Y21.8948
G01 X66.8812 Y21.8898
G01 X66.7783 Y21.8948
G01 X66.6763 Y21.9099
G01 X66.5764 Y21.9350
G01 X66.4794 Y21.9697
G01 X66.3862 Y22.0138
G01 X66.2978 Y22.0667
G01 X66.2151 Y22.1281
G01 X66.1387 Y22.1973
G01 X66.0695 Y22.2737
G01 X66.0075 Y22.3575
G01 X65.9552 Y22.4448
G01 X65.9111 Y22.5380
G01 X65.8764 Y22.6350
G01 X65.8514 Y22.7349
G01 X65.8362 Y22.8369
G01 X65.8312 Y22.9398
G01 X65.8362 Y23.0427
G01 X65.8516 Y23.1458
G01 X65.8764 Y23.2446
G01 X65.9111 Y23.3416
G01 X65.9552 Y23.4347
G01 X66.0088 Y23.5241
G01 X66.0695 Y23.6059
G01 X66.1396 Y23.6831
G01 X66.2160 Y23.7522
G01 X66.2968 Y23.8121
G01 X66.3229 Y23.8279
G00 Z2.0000
G00 X66.8473 Y21.8880
G01 F60.00
G01 Z-0.0500
G01 F120.00
G01 X66.7135 Y21.9011
G01 X66.5820 Y21.9312
G01 X66.4554 Y21.9777
G01 X66.3356 Y22.0398
G01 X66.2251 Y22.1169
G01 X66.1252 Y22.2075
G01 X66.0379 Y22.3103
G01 X65.9642 Y22.4233
G01 X65.9060 Y22.5450
G01 X65.8633 Y22.6731
G01 X65.8377 Y22.8050
G01 X65.8289 Y22.9398
G01 X65.8377 Y23.0746
G01 X65.8633 Y23.2064
G01 X65.9060 Y23.3345
G01 X65.9642 Y23.4562
G01 X66.0379 Y23.5692
G01 X66.1252 Y23.6720
G01 X66.2250 Y23.7626
G01 X66.2553 Y23.7836
G01 X66.2601 Y23.7873
G01 X66.2887 Y23.8156
G01 X66.2917 Y23.8196
G01 X66.2943 Y23.8240
G01 X66.3101 Y23.8535
G01 X66.3125 Y23.8589
G01 X66.3147 Y23.8670
G01 X66.3199 Y23.9002
G01 X66.3206 Y23.9080
G01 X66.3206 Y25.7825
G01 X66.3199 Y25.7906
G01 X66.3146 Y25.8228
G01 X66.3131 Y25.8288
G01 X66.3109 Y25.8345
G01 X66.2966 Y25.8635
G01 X66.2915 Y25.8718
G01 X66.2875 Y25.8764
G01 X66.2619 Y25.9023
G01 X66.2000 Y25.9487
G01 X66.1034 Y26.0423
G01 X66.0190 Y26.1475
G01 X65.9492 Y26.2629
G01 X65.8944 Y26.3866
G01 X65.8561 Y26.5155
G01 X65.8348 Y26.6489
G01 X65.8304 Y26.7837
G01 X65.8435 Y26.9175
G01 X65.8736 Y27.0489
G01 X65.9202 Y27.1756
G01 X65.9822 Y27.2954
G01 X66.0593 Y27.4059
G01 X66.1500 Y27.5057
G01 X66.2528 Y27.5930
G01 X66.3657 Y27.6667
G01 X66.4874 Y27.7249
G01 X66.6155 Y27.7676
G01 X66.7474 Y27.7933
G01 X66.8822 Y27.8020
G01 X67.0170 Y27.7933
G01 X67.1489 Y27.7676
G01 X67.2769 Y27.7249
G01 X67.3987 Y27.6667
G01 X67.5116 Y27.5930
G01 X67.6144 Y27.5057
G01 X67.7051 Y27.4059
G01 X67.7822 Y27.2954
G01 X67.8442 Y27.1756
G01 X67.8908 Y27.0489
G01 X67.9209 Y26.9175
G01 X67.9340 Y26.7837
G01 X67.9296 Y26.6489
G01 X67.9083 Y26.5155
G01 X67.8700 Y26.3866
G01 X67.8152 Y26.2629
G01 X67.7454 Y26.1475
G01 X67.6610 Y26.0423
G01 X67.5644 Y25.9487
G01 X67.5005 Y25.9007
G01 X67.4724 Y25.8722
G01 X67.4694 Y25.8683
G01 X67.4663 Y25.8631
G01 X67.4520 Y25.8340
G01 X67.4496 Y25.8284
G01 X67.4477 Y25.8213
G01 X67.4425 Y25.7891
G01 X67.4418 Y25.7810
G01 X67.4418 Y23.9090
G01 X67.4424 Y23.9015
G01 X67.4471 Y23.8703
G01 X67.4486 Y23.8643
G01 X67.4508 Y23.8585
G01 X67.4645 Y23.8299
G01 X67.4695 Y23.8217
G01 X67.4929 Y23.7956
G01 X67.4970 Y23.7916
G01 X67.5887 Y23.7185
G01 X67.6823 Y23.6220
G01 X67.7633 Y23.5139
G01 X67.8292 Y23.3966
G01 X67.8801 Y23.2715
G01 X67.9140 Y23.1410
G01 X67.9315 Y23.0071
G01 X67.9315 Y22.8724
G01 X67.9140 Y22.7385
G01 X67.8801 Y22.6081
G01 X67.8292 Y22.4830
G01 X67.7633 Y22.3657
G01 X67.6823 Y22.2575
G01 X67.5886 Y22.1610
G01 X67.4834 Y22.0766
G01 X67.3681 Y22.0068
G01 X67.2444 Y21.9520
G01 X67.1154 Y21.9137
G01 X66.9821 Y21.8924
G01 X66.8473 Y21.8880
G00 Z2.0000
G00 X68.4212 Y21.8898
G01 F60.00
G01 Z-0.0500
G01 F120.00
G01 X70.4212 Y21.8898
G01 X70.4309 Y21.8907
G01 X70.4403 Y21.8936
G01 X70.4490 Y21.8982
G01 X70.4529 Y21.9011
G01 X70.4574 Y21.9053
G01 X70.4634 Y21.9130
G01 X70.4678 Y21.9218
G01 X70.4704 Y21.9312
G01 X70.4712 Y21.9398
G01 X70.4712 Y23.9410
G01 X70.4702 Y23.9495
G01 X70.4683 Y23.9566
G01 X70.4647 Y23.9644
G01 X70.4598 Y23.9715
G01 X70.4538 Y23.9776
G01 X70.4469 Y23.9827
G01 X70.4392 Y23.9864
G01 X70.4314 Y23.9887
G01 X70.4370 Y23.9878
G01 X70.4512 Y23.9807
G01 X70.4621 Y23.9698
G01 X70.4694 Y23.9553
G01 X70.4740 Y23.9277
G01 X70.4740 Y21.9518
G01 X70.4694 Y21.9242
G01 X70.4621 Y21.9097
G01 X70.4512 Y21.8988
G01 X70.4367 Y21.8916
G01 X70.4091 Y21.8869
G01 X68.4332 Y21.8869
G01 X68.4056 Y21.8916
G01 X68.3911 Y21.8988
G01 X68.3802 Y21.9097
G01 X68.3731 Y21.9239
G01 X68.3722 Y21.9295
G01 X68.3745 Y21.9218
G01 X68.3783 Y21.9141
G01 X68.3833 Y21.9071
G01 X68.3895 Y21.9011
G01 X68.3965 Y21.8963
G01 X68.4043 Y21.8927
G01 X68.4126 Y21.8905
G01 X68.4212 Y21.8898
G00 Z2.0000
G00 X68.3715 Y23.9449
G01 F60.00
G01 Z-0.0500
G01 F120.00
G01 X68.3712 Y23.9398
G01 X68.3712 Y21.9398
G01 X68.3714 Y21.9347
G01 X68.3688 Y21.9515
G01 X68.3688 Y23.9280
G01 X68.3715 Y23.9449
G00 Z2.0000
G00 X68.4110 Y23.9887
G01 F60.00
G01 Z-0.0500
G01 F120.00
G01 X68.4043 Y23.9868
G01 X68.3976 Y23.9839
G01 X68.3914 Y23.9799
G01 X68.3858 Y23.9751
G01 X68.3810 Y23.9696
G01 X68.3771 Y23.9633
G01 X68.3741 Y23.9566
G01 X68.3722 Y23.9500
G01 X68.3731 Y23.9556
G01 X68.3802 Y23.9698
G01 X68.3911 Y23.9807
G01 X68.4053 Y23.9878
G01 X68.4110 Y23.9887
G00 Z2.0000
G00 X70.4263 Y23.9895
G01 F60.00
G01 Z-0.0500
G01 F120.00
G01 X70.4212 Y23.9898
G01 X69.9794 Y23.9898
G01 X69.9794 Y25.8610
G01 X70.0066 Y25.8774
G01 X70.0892 Y25.9389
G01 X70.1647 Y26.0073
G01 X70.2331 Y26.0827
G01 X70.2966 Y26.1685
G01 X70.3482 Y26.2548
G01 X70.3927 Y26.3491
G01 X70.4270 Y26.4450
G01 X70.4515 Y26.5425
G01 X70.4673 Y26.6493
G01 X70.4722 Y26.7498
G01 X70.4671 Y26.8527
G01 X70.4520 Y26.9546
G01 X70.4276 Y27.0522
G01 X70.3913 Y27.1538
G01 X70.3482 Y27.2447
G01 X70.2952 Y27.3331
G01 X70.2339 Y27.4159
G01 X70.1663 Y27.4905
G01 X70.0864 Y27.5629
G01 X70.0055 Y27.6228
G01 X69.9172 Y27.6758
G01 X69.8240 Y27.7198
G01 X69.7293 Y27.7538
G01 X69.6246 Y27.7800
G01 X69.5251 Y27.7947
G01 X69.4222 Y27.7998
G01 X69.3193 Y27.7947
G01 X69.2198 Y27.7800
G01 X69.1151 Y27.7538
G01 X69.0204 Y27.7198
G01 X68.9272 Y27.6758
G01 X68.8388 Y27.6228
G01 X68.7580 Y27.5629
G01 X68.6780 Y27.4905
G01 X68.6105 Y27.4159
G01 X68.5492 Y27.3331
G01 X68.4962 Y27.2447
G01 X68.4531 Y27.1538
G01 X68.4171 Y27.0534
G01 X68.3924 Y26.9546
G01 X68.3776 Y26.8551
G01 X68.3723 Y26.7473
G01 X68.3773 Y26.6469
G01 X68.3924 Y26.5449
G01 X68.4174 Y26.4450
G01 X68.4517 Y26.3491
G01 X68.4974 Y26.2527
G01 X68.5492 Y26.1664
G01 X68.6113 Y26.0827
G01 X68.6797 Y26.0073
G01 X68.7551 Y25.9389
G01 X68.8378 Y25.8774
G01 X68.8629 Y25.8622
G01 X68.8629 Y23.9898
G01 X68.4212 Y23.9898
G01 X68.4161 Y23.9895
G01 X68.4329 Y23.9921
G01 X68.7102 Y23.9921
G01 X68.7179 Y23.9929
G01 X68.7594 Y24.0016
G01 X68.7675 Y24.0042
G01 X68.7750 Y24.0081
G01 X68.8095 Y24.0313
G01 X68.8159 Y24.0367
G01 X68.8213 Y24.0431
G01 X68.8450 Y24.0781
G01 X68.8486 Y24.0847
G01 X68.8515 Y24.0930
G01 X68.8598 Y24.1352
G01 X68.8606 Y24.1437
G01 X68.8606 Y25.7825
G01 X68.8601 Y25.7895
G01 X68.8548 Y25.8216
G01 X68.8527 Y25.8299
G01 X68.8504 Y25.8356
G01 X68.8361 Y25.8646
G01 X68.8336 Y25.8688
G01 X68.8300 Y25.8737
G01 X68.8019 Y25.9023
G01 X68.7400 Y25.9487
G01 X68.6434 Y26.0423
G01 X68.5590 Y26.1475
G01 X68.4892 Y26.2629
G01 X68.4344 Y26.3866
G01 X68.3961 Y26.5155
G01 X68.3748 Y26.6489
G01 X68.3704 Y26.7837
G01 X68.3835 Y26.9175
G01 X68.4136 Y27.0489
G01 X68.4602 Y27.1756
G01 X68.5222 Y27.2954
G01 X68.5993 Y27.4059
G01 X68.6900 Y27.5057
G01 X68.7928 Y27.5930
G01 X68.9057 Y27.6667
G01 X69.0274 Y27.7249
G01 X69.1555 Y27.7676
G01 X69.2874 Y27.7933
G01 X69.4222 Y27.8020
G01 X69.5570 Y27.7933
G01 X69.6889 Y27.7676
G01 X69.8169 Y27.7249
G01 X69.9387 Y27.6667
G01 X70.0516 Y27.5930
G01 X70.1544 Y27.5057
G01 X70.2451 Y27.4059
G01 X70.3222 Y27.2954
G01 X70.3842 Y27.1756
G01 X70.4308 Y27.0489
G01 X70.4609 Y26.9175
G01 X70.4740 Y26.7837
G01 X70.4696 Y26.6489
G01 X70.4483 Y26.5155
G01 X70.4100 Y26.3866
G01 X70.3552 Y26.2629
G01 X70.2854 Y26.1475
G01 X70.2010 Y26.0423
G01 X70.1044 Y25.9487
G01 X70.0405 Y25.9007
G01 X70.0124 Y25.8722
G01 X70.0087 Y25.8673
G01 X70.0063 Y25.8631
G01 X69.9920 Y25.8340
G01 X69.9896 Y25.8284
G01 X69.9877 Y25.8213
G01 X69.9823 Y25.7880
G01 X69.9818 Y25.7810
G01 X69.9818 Y24.1425
G01 X69.9825 Y24.1352
G01 X69.9904 Y24.0954
G01 X69.9928 Y24.0871
G01 X69.9973 Y24.0781
G01 X70.0204 Y24.0441
G01 X70.0265 Y24.0367
G01 X70.0329 Y24.0313
G01 X70.0674 Y24.0081
G01 X70.0727 Y24.0052
G01 X70.0783 Y24.0029
G01 X70.0841 Y24.0013
G01 X70.1232 Y23.9932
G01 X70.1308 Y23.9922
G01 X70.4094 Y23.9921
G01 X70.4263 Y23.9895
G00 Z2.0000
G00 X73.9429 Y23.8279
G01 F60.00
G01 Z-0.0500
G01 F120.00
G01 X73.9429 Y25.8622
G01 X73.9178 Y25.8774
G01 X73.8351 Y25.9389
G01 X73.7597 Y26.0073
G01 X73.6913 Y26.0827
G01 X73.6278 Y26.1685
G01 X73.5762 Y26.2548
G01 X73.5326 Y26.3468
G01 X73.4968 Y26.4473
G01 X73.4724 Y26.5449
G01 X73.4573 Y26.6469
G01 X73.4523 Y26.7522
G01 X73.4573 Y26.8527
G01 X73.4724 Y26.9546
G01 X73.4974 Y27.0546
G01 X73.5321 Y27.1516
G01 X73.5762 Y27.2447
G01 X73.6292 Y27.3331
G01 X73.6905 Y27.4159
G01 X73.7597 Y27.4922
G01 X73.8361 Y27.5614
G01 X73.9188 Y27.6228
G01 X74.0072 Y27.6758
G01 X74.1004 Y27.7198
G01 X74.1974 Y27.7546
G01 X74.2974 Y27.7796
G01 X74.3993 Y27.7947
G01 X74.5022 Y27.7998
G01 X74.6051 Y27.7947
G01 X74.7070 Y27.7796
G01 X74.8070 Y27.7546
G01 X74.9017 Y27.7207
G01 X74.9993 Y27.6746
G01 X75.0855 Y27.6228
G01 X75.1683 Y27.5614
G01 X75.2447 Y27.4922
G01 X75.3123 Y27.4177
G01 X75.3766 Y27.3310
G01 X75.4282 Y27.2447
G01 X75.4723 Y27.1516
G01 X75.5070 Y27.0546
G01 X75.5315 Y26.9570
G01 X75.5472 Y26.8515
G01 X75.5522 Y26.7498
G01 X75.5473 Y26.6493
G01 X75.5320 Y26.5449
G01 X75.5062 Y26.4426
G01 X75.4723 Y26.3480
G01 X75.4288 Y26.2559
G01 X75.3738 Y26.1644
G01 X75.3139 Y26.0837
G01 X75.2455 Y26.0082
G01 X75.1674 Y25.9373
G01 X75.0866 Y25.8774
G01 X75.0594 Y25.8610
G01 X75.0594 Y23.8279
G01 X75.0855 Y23.8121
G01 X75.1663 Y23.7522
G01 X75.2445 Y23.6814
G01 X75.3128 Y23.6059
G01 X75.3728 Y23.5251
G01 X75.4266 Y23.4358
G01 X75.4713 Y23.3416
G01 X75.5066 Y23.2422
G01 X75.5310 Y23.1446
G01 X75.5458 Y23.0451
G01 X75.5512 Y22.9398
G01 X75.5458 Y22.8344
G01 X75.5310 Y22.7349
G01 X75.5066 Y22.6373
G01 X75.4713 Y22.5380
G01 X75.4272 Y22.4448
G01 X75.3728 Y22.3544
G01 X75.3128 Y22.2737
G01 X75.2453 Y22.1991
G01 X75.1673 Y22.1281
G01 X75.0835 Y22.0661
G01 X74.9962 Y22.0138
G01 X74.9030 Y21.9697
G01 X74.8060 Y21.9350
G01 X74.7060 Y21.9099
G01 X74.6041 Y21.8948
G01 X74.5012 Y21.8898
G01 X74.3983 Y21.8948
G01 X74.2963 Y21.9099
G01 X74.1964 Y21.9350
G01 X74.0994 Y21.9697
G01 X74.0062 Y22.0138
G01 X73.9178 Y22.0667
G01 X73.8351 Y22.1281
G01 X73.7587 Y22.1973
G01 X73.6895 Y22.2737
G01 X73.6275 Y22.3575
G01 X73.5752 Y22.4448
G01 X73.5311 Y22.5380
G01 X73.4964 Y22.6350
G01 X73.4714 Y22.7349
G01 X73.4562 Y22.8369
G01 X73.4512 Y22.9398
G01 X73.4562 Y23.0427
G01 X73.4716 Y23.1458
G01 X73.4964 Y23.2446
G01 X73.5311 Y23.3416
G01 X73.5752 Y23.4347
G01 X73.6288 Y23.5241
G01 X73.6895 Y23.6059
G01 X73.7596 Y23.6831
G01 X73.8360 Y23.7522
G01 X73.9168 Y23.8121
G01 X73.9429 Y23.8279
G00 Z2.0000
G00 X74.4673 Y21.8880
G01 F60.00
G01 Z-0.0500
G01 F120.00
G01 X74.3335 Y21.9011
G01 X74.2020 Y21.9312
G01 X74.0754 Y21.9777
G01 X73.9556 Y22.0398
G01 X73.8451 Y22.1169
G01 X73.7452 Y22.2075
G01 X73.6579 Y22.3103
G01 X73.5842 Y22.4233
G01 X73.5260 Y22.5450
G01 X73.4833 Y22.6731
G01 X73.4577 Y22.8050
G01 X73.4489 Y22.9398
G01 X73.4577 Y23.0746
G01 X73.4833 Y23.2064
G01 X73.5260 Y23.3345
G01 X73.5842 Y23.4562
G01 X73.6579 Y23.5692
G01 X73.7452 Y23.6720
G01 X73.8450 Y23.7626
G01 X73.8753 Y23.7836
G01 X73.8801 Y23.7873
G01 X73.9087 Y23.8156
G01 X73.9117 Y23.8196
G01 X73.9143 Y23.8240
G01 X73.9301 Y23.8535
G01 X73.9325 Y23.8589
G01 X73.9347 Y23.8670
G01 X73.9399 Y23.9002
G01 X73.9406 Y23.9080
G01 X73.9406 Y25.7825
G01 X73.9399 Y25.7906
G01 X73.9346 Y25.8228
G01 X73.9331 Y25.8288
G01 X73.9309 Y25.8345
G01 X73.9166 Y25.8635
G01 X73.9115 Y25.8718
G01 X73.9075 Y25.8764
G01 X73.8819 Y25.9023
G01 X73.8199 Y25.9487
G01 X73.7234 Y26.0423
G01 X73.6390 Y26.1475
G01 X73.5692 Y26.2629
G01 X73.5144 Y26.3866
G01 X73.4761 Y26.5155
G01 X73.4548 Y26.6489
G01 X73.4504 Y26.7837
G01 X73.4635 Y26.9175
G01 X73.4936 Y27.0489
G01 X73.5402 Y27.1756
G01 X73.6022 Y27.2954
G01 X73.6793 Y27.4059
G01 X73.7700 Y27.5057
G01 X73.8728 Y27.5930
G01 X73.9857 Y27.6667
G01 X74.1074 Y27.7249
G01 X74.2355 Y27.7676
G01 X74.3674 Y27.7933
G01 X74.5022 Y27.8020
G01 X74.6370 Y27.7933
G01 X74.7689 Y27.7676
G01 X74.8969 Y27.7249
G01 X75.0187 Y27.6667
G01 X75.1316 Y27.5930
G01 X75.2344 Y27.5057
G01 X75.3251 Y27.4059
G01 X75.4022 Y27.2954
G01 X75.4642 Y27.1756
G01 X75.5108 Y27.0489
G01 X75.5409 Y26.9175
G01 X75.5540 Y26.7837
G01 X75.5496 Y26.6489
G01 X75.5283 Y26.5155
G01 X75.4900 Y26.3866
G01 X75.4352 Y26.2629
G01 X75.3654 Y26.1475
G01 X75.2810 Y26.0423
G01 X75.1844 Y25.9487
G01 X75.1205 Y25.9007
G01 X75.0924 Y25.8722
G01 X75.0887 Y25.8673
G01 X75.0863 Y25.8631
G01 X75.0720 Y25.8340
G01 X75.0696 Y25.8284
G01 X75.0677 Y25.8213
G01 X75.0625 Y25.7891
G01 X75.0618 Y25.7810
G01 X75.0618 Y23.9090
G01 X75.0624 Y23.9015
G01 X75.0671 Y23.8703
G01 X75.0686 Y23.8643
G01 X75.0708 Y23.8585
G01 X75.0845 Y23.8299
G01 X75.0895 Y23.8217
G01 X75.1129 Y23.7956
G01 X75.1170 Y23.7916
G01 X75.2087 Y23.7185
G01 X75.3023 Y23.6220
G01 X75.3833 Y23.5139
G01 X75.4492 Y23.3966
G01 X75.5001 Y23.2715
G01 X75.5340 Y23.1410
G01 X75.5515 Y23.0071
G01 X75.5515 Y22.8724
G01 X75.5340 Y22.7385
G01 X75.5001 Y22.6081
G01 X75.4492 Y22.4830
G01 X75.3833 Y22.3657
G01 X75.3023 Y22.2575
G01 X75.2086 Y22.1610
G01 X75.1034 Y22.0766
G01 X74.9881 Y22.0068
G01 X74.8644 Y21.9520
G01 X74.7354 Y21.9137
G01 X74.6021 Y21.8924
G01 X74.4673 Y21.8880
G00 Z2.0000
G00 X77.0073 Y21.8880
G01 F60.00
G01 Z-0.0500
G01 F120.00
G01 X76.8735 Y21.9011
G01 X76.7420 Y21.9312
G01 X76.6154 Y21.9777
G01 X76.4956 Y22.0398
G01 X76.3851 Y22.1169
G01 X76.2852 Y22.2075
G01 X76.1979 Y22.3103
G01 X76.1242 Y22.4233
G01 X76.0660 Y22.5450
G01 X76.0233 Y22.6731
G01 X75.9977 Y22.8050
G01 X75.9889 Y22.9398
G01 X75.9977 Y23.0746
G01 X76.0233 Y23.2064
G01 X76.0660 Y23.3345
G01 X76.1242 Y23.4562
G01 X76.1979 Y23.5692
G01 X76.2852 Y23.6720
G01 X76.3850 Y23.7626
G01 X76.4153 Y23.7836
G01 X76.4201 Y23.7873
G01 X76.4487 Y23.8156
G01 X76.4517 Y23.8196
G01 X76.4543 Y23.8240
G01 X76.4701 Y23.8535
G01 X76.4725 Y23.8589
G01 X76.4747 Y23.8670
G01 X76.4799 Y23.9002
G01 X76.4806 Y23.9080
G01 X76.4806 Y25.7825
G01 X76.4799 Y25.7906
G01 X76.4746 Y25.8228
G01 X76.4731 Y25.8288
G01 X76.4709 Y25.8345
G01 X76.4566 Y25.8635
G01 X76.4515 Y25.8718
G01 X76.4475 Y25.8764
G01 X76.4219 Y25.9023
G01 X76.3599 Y25.9487
G01 X76.2634 Y26.0423
G01 X76.1790 Y26.1475
G01 X76.1092 Y26.2629
G01 X76.0544 Y26.3866
G01 X76.0161 Y26.5155
G01 X75.9948 Y26.6489
G01 X75.9904 Y26.7837
G01 X76.0035 Y26.9175
G01 X76.0336 Y27.0489
G01 X76.0802 Y27.1756
G01 X76.1422 Y27.2954
G01 X76.2193 Y27.4059
G01 X76.3100 Y27.5057
G01 X76.4128 Y27.5930
G01 X76.5257 Y27.6667
G01 X76.6474 Y27.7249
G01 X76.7755 Y27.7676
G01 X76.9074 Y27.7933
G01 X77.0422 Y27.8020
G01 X77.1770 Y27.7933
G01 X77.3089 Y27.7676
G01 X77.4369 Y27.7249
G01 X77.5587 Y27.6667
G01 X77.6716 Y27.5930
G01 X77.7744 Y27.5057
G01 X77.8651 Y27.4059
G01 X77.9422 Y27.2954
G01 X78.0042 Y27.1756
G01 X78.0508 Y27.0489
G01 X78.0809 Y26.9175
G01 X78.0940 Y26.7837
G01 X78.0896 Y26.6489
G01 X78.0683 Y26.5155
G01 X78.0300 Y26.3866
G01 X77.9752 Y26.2629
G01 X77.9054 Y26.1475
G01 X77.8210 Y26.0423
G01 X77.7244 Y25.9487
G01 X77.6605 Y25.9007
G01 X77.6324 Y25.8722
G01 X77.6287 Y25.8673
G01 X77.6263 Y25.8631
G01 X77.6120 Y25.8340
G01 X77.6096 Y25.8284
G01 X77.6077 Y25.8213
G01 X77.6025 Y25.7891
G01 X77.6018 Y25.7810
G01 X77.6018 Y23.9090
G01 X77.6024 Y23.9015
G01 X77.6071 Y23.8703
G01 X77.6086 Y23.8643
G01 X77.6108 Y23.8585
G01 X77.6245 Y23.8299
G01 X77.6295 Y23.8217
G01 X77.6529 Y23.7956
G01 X77.6570 Y23.7916
G01 X77.7487 Y23.7185
G01 X77.8423 Y23.6220
G01 X77.9233 Y23.5139
G01 X77.9892 Y23.3966
G01 X78.0401 Y23.2715
G01 X78.0740 Y23.1410
G01 X78.0915 Y23.0071
G01 X78.0915 Y22.8724
G01 X78.0740 Y22.7385
G01 X78.0401 Y22.6081
G01 X77.9892 Y22.4830
G01 X77.9233 Y22.3657
G01 X77.8423 Y22.2575
G01 X77.7486 Y22.1610
G01 X77.6434 Y22.0766
G01 X77.5281 Y22.0068
G01 X77.4044 Y21.9520
G01 X77.2754 Y21.9137
G01 X77.1421 Y21.8924
G01 X77.0073 Y21.8880
G00 Z2.0000
G00 X76.4829 Y23.8279
G01 F60.00
G01 Z-0.0500
G01 F120.00
G01 X76.4829 Y25.8622
G01 X76.4578 Y25.8774
G01 X76.3751 Y25.9389
G01 X76.2997 Y26.0073
G01 X76.2313 Y26.0827
G01 X76.1678 Y26.1685
G01 X76.1162 Y26.2548
G01 X76.0726 Y26.3468
G01 X76.0368 Y26.4473
G01 X76.0124 Y26.5449
G01 X75.9973 Y26.6469
G01 X75.9923 Y26.7522
G01 X75.9973 Y26.8527
G01 X76.0124 Y26.9546
G01 X76.0374 Y27.0546
G01 X76.0721 Y27.1516
G01 X76.1162 Y27.2447
G01 X76.1692 Y27.3331
G01 X76.2305 Y27.4159
G01 X76.2997 Y27.4922
G01 X76.3761 Y27.5614
G01 X76.4588 Y27.6228
G01 X76.5472 Y27.6758
G01 X76.6404 Y27.7198
G01 X76.7374 Y27.7546
G01 X76.8374 Y27.7796
G01 X76.9393 Y27.7947
G01 X77.0422 Y27.7998
G01 X77.1451 Y27.7947
G01 X77.2470 Y27.7796
G01 X77.3470 Y27.7546
G01 X77.4417 Y27.7207
G01 X77.5393 Y27.6746
G01 X77.6255 Y27.6228
G01 X77.7083 Y27.5614
G01 X77.7847 Y27.4922
G01 X77.8523 Y27.4177
G01 X77.9166 Y27.3310
G01 X77.9682 Y27.2447
G01 X78.0123 Y27.1516
G01 X78.0470 Y27.0546
G01 X78.0715 Y26.9570
G01 X78.0872 Y26.8515
G01 X78.0922 Y26.7498
G01 X78.0873 Y26.6493
G01 X78.0720 Y26.5449
G01 X78.0462 Y26.4426
G01 X78.0123 Y26.3480
G01 X77.9688 Y26.2559
G01 X77.9138 Y26.1644
G01 X77.8539 Y26.0837
G01 X77.7855 Y26.0082
G01 X77.7074 Y25.9373
G01 X77.6266 Y25.8774
G01 X77.5994 Y25.8610
G01 X77.5994 Y23.8279
G01 X77.6255 Y23.8121
G01 X77.7063 Y23.7522
G01 X77.7845 Y23.6814
G01 X77.8528 Y23.6059
G01 X77.9128 Y23.5251
G01 X77.9666 Y23.4358
G01 X78.0113 Y23.3416
G01 X78.0466 Y23.2422
G01 X78.0710 Y23.1446
G01 X78.0858 Y23.0451
G01 X78.0912 Y22.9398
G01 X78.0858 Y22.8344
G01 X78.0710 Y22.7349
G01 X78.0466 Y22.6373
G01 X78.0113 Y22.5380
G01 X77.9672 Y22.4448
G01 X77.9128 Y22.3544
G01 X77.8528 Y22.2737
G01 X77.7853 Y22.1991
G01 X77.7073 Y22.1281
G01 X77.6235 Y22.0661
G01 X77.5362 Y22.0138
G01 X77.4430 Y21.9697
G01 X77.3460 Y21.9350
G01 X77.2460 Y21.9099
G01 X77.1441 Y21.8948
G01 X77.0412 Y21.8898
G01 X76.9383 Y21.8948
G01 X76.8363 Y21.9099
G01 X76.7364 Y21.9350
G01 X76.6394 Y21.9697
G01 X76.5462 Y22.0138
G01 X76.4578 Y22.0667
G01 X76.3751 Y22.1281
G01 X76.2987 Y22.1973
G01 X76.2295 Y22.2737
G01 X76.1675 Y22.3575
G01 X76.1152 Y22.4448
G01 X76.0711 Y22.5380
G01 X76.0364 Y22.6350
G01 X76.0114 Y22.7349
G01 X75.9962 Y22.8369
G01 X75.9912 Y22.9398
G01 X75.9962 Y23.0427
G01 X76.0116 Y23.1458
G01 X76.0364 Y23.2446
G01 X76.0711 Y23.3416
G01 X76.1152 Y23.4347
G01 X76.1688 Y23.5241
G01 X76.2295 Y23.6059
G01 X76.2996 Y23.6831
G01 X76.3760 Y23.7522
G01 X76.4568 Y23.8121
G01 X76.4829 Y23.8279
G00 Z2.0000
G00 X79.0229 Y23.8279
G01 F60.00
G01 Z-0.0500
G01 F120.00
G01 X79.0229 Y25.8622
G01 X78.9978 Y25.8774
G01 X78.9151 Y25.9389
G01 X78.8397 Y26.0073
G01 X78.7713 Y26.0827
G01 X78.7078 Y26.1685
G01 X78.6562 Y26.2548
G01 X78.6126 Y26.3468
G01 X78.5768 Y26.4473
G01 X78.5524 Y26.5449
G01 X78.5373 Y26.6469
G01 X78.5323 Y26.7522
G01 X78.5373 Y26.8527
G01 X78.5524 Y26.9546
G01 X78.5774 Y27.0546
G01 X78.6121 Y27.1516
G01 X78.6562 Y27.2447
G01 X78.7092 Y27.3331
G01 X78.7705 Y27.4159
G01 X78.8397 Y27.4922
G01 X78.9161 Y27.5614
G01 X78.9988 Y27.6228
G01 X79.0872 Y27.6758
G01 X79.1804 Y27.7198
G01 X79.2774 Y27.7546
G01 X79.3774 Y27.7796
G01 X79.4793 Y27.7947
G01 X79.5822 Y27.7998
G01 X79.6851 Y27.7947
G01 X79.7870 Y27.7796
G01 X79.8870 Y27.7546
G01 X79.9817 Y27.7207
G01 X80.0793 Y27.6746
G01 X80.1655 Y27.6228
G01 X80.2483 Y27.5614
G01 X80.3247 Y27.4922
G01 X80.3923 Y27.4177
G01 X80.4566 Y27.3310
G01 X80.5082 Y27.2447
G01 X80.5523 Y27.1516
G01 X80.5870 Y27.0546
G01 X80.6115 Y26.9570
G01 X80.6272 Y26.8515
G01 X80.6322 Y26.7498
G01 X80.6273 Y26.6493
G01 X80.6120 Y26.5449
G01 X80.5862 Y26.4426
G01 X80.5523 Y26.3480
G01 X80.5088 Y26.2559
G01 X80.4538 Y26.1644
G01 X80.3939 Y26.0837
G01 X80.3255 Y26.0082
G01 X80.2474 Y25.9373
G01 X80.1666 Y25.8774
G01 X80.1394 Y25.8610
G01 X80.1394 Y23.8279
G01 X80.1655 Y23.8121
G01 X80.2463 Y23.7522
G01 X80.3245 Y23.6814
G01 X80.3928 Y23.6059
G01 X80.4528 Y23.5251
G01 X80.5066 Y23.4358
G01 X80.5513 Y23.3416
G01 X80.5866 Y23.2422
G01 X80.6110 Y23.1446
G01 X80.6258 Y23.0451
G01 X80.6312 Y22.9398
G01 X80.6258 Y22.8344
G01 X80.6110 Y22.7349
G01 X80.5866 Y22.6373
G01 X80.5513 Y22.5380
G01 X80.5072 Y22.4448
G01 X80.4528 Y22.3544
G01 X80.3928 Y22.2737
G01 X80.3253 Y22.1991
G01 X80.2473 Y22.1281
G01 X80.1635 Y22.0661
G01 X80.0762 Y22.0138
G01 X79.9830 Y21.9697
G01 X79.8860 Y21.9350
G01 X79.7860 Y21.9099
G01 X79.6841 Y21.8948
G01 X79.5812 Y21.8898
G01 X79.4783 Y21.8948
G01 X79.3763 Y21.9099
G01 X79.2764 Y21.9350
G01 X79.1794 Y21.9697
G01 X79.0862 Y22.0138
G01 X78.9978 Y22.0667
G01 X78.9151 Y22.1281
G01 X78.8387 Y22.1973
G01 X78.7695 Y22.2737
G01 X78.7075 Y22.3575
G01 X78.6552 Y22.4448
G01 X78.6111 Y22.5380
G01 X78.5764 Y22.6350
G01 X78.5514 Y22.7349
G01 X78.5362 Y22.8369
G01 X78.5312 Y22.9398
G01 X78.5362 Y23.0427
G01 X78.5516 Y23.1458
G01 X78.5764 Y23.2446
G01 X78.6111 Y23.3416
G01 X78.6552 Y23.4347
G01 X78.7088 Y23.5241
G01 X78.7695 Y23.6059
G01 X78.8396 Y23.6831
G01 X78.9160 Y23.7522
G01 X78.9968 Y23.8121
G01 X79.0229 Y23.8279
G00 Z2.0000
G00 X79.5473 Y21.8880
G01 F60.00
G01 Z-0.0500
G01 F120.00
G01 X79.4135 Y21.9011
G01 X79.2820 Y21.9312
G01 X79.1554 Y21.9777
G01 X79.0356 Y22.0398
G01 X78.9251 Y22.1169
G01 X78.8252 Y22.2075
G01 X78.7379 Y22.3103
G01 X78.6642 Y22.4233
G01 X78.6060 Y22.5450
G01 X78.5633 Y22.6731
G01 X78.5377 Y22.8050
G01 X78.5289 Y22.9398
G01 X78.5377 Y23.0746
G01 X78.5633 Y23.2064
G01 X78.6060 Y23.3345
G01 X78.6642 Y23.4562
G01 X78.7379 Y23.5692
G01 X78.8252 Y23.6720
G01 X78.9250 Y23.7626
G01 X78.9553 Y23.7836
G01 X78.9601 Y23.7873
G01 X78.9887 Y23.8156
G01 X78.9917 Y23.8196
G01 X78.9943 Y23.8240
G01 X79.0101 Y23.8535
G01 X79.0125 Y23.8589
G01 X79.0147 Y23.8670
G01 X79.0199 Y23.9002
G01 X79.0206 Y23.9080
G01 X79.0206 Y25.7825
G01 X79.0199 Y25.7906
G01 X79.0146 Y25.8228
G01 X79.0131 Y25.8288
G01 X79.0109 Y25.8345
G01 X78.9966 Y25.8635
G01 X78.9915 Y25.8718
G01 X78.9875 Y25.8764
G01 X78.9619 Y25.9023
G01 X78.8999 Y25.9487
G01 X78.8034 Y26.0423
G01 X78.7190 Y26.1475
G01 X78.6492 Y26.2629
G01 X78.5944 Y26.3866
G01 X78.5561 Y26.5155
G01 X78.5348 Y26.6489
G01 X78.5304 Y26.7837
G01 X78.5435 Y26.9175
G01 X78.5736 Y27.0489
G01 X78.6202 Y27.1756
G01 X78.6822 Y27.2954
G01 X78.7593 Y27.4059
G01 X78.8500 Y27.5057
G01 X78.9528 Y27.5930
G01 X79.0657 Y27.6667
G01 X79.1874 Y27.7249
G01 X79.3155 Y27.7676
G01 X79.4474 Y27.7933
G01 X79.5822 Y27.8020
G01 X79.7170 Y27.7933
G01 X79.8489 Y27.7676
G01 X79.9769 Y27.7249
G01 X80.0987 Y27.6667
G01 X80.2116 Y27.5930
G01 X80.3144 Y27.5057
G01 X80.4051 Y27.4059
G01 X80.4822 Y27.2954
G01 X80.5442 Y27.1756
G01 X80.5908 Y27.0489
G01 X80.6209 Y26.9175
G01 X80.6340 Y26.7837
G01 X80.6296 Y26.6489
G01 X80.6083 Y26.5155
G01 X80.5700 Y26.3866
G01 X80.5152 Y26.2629
G01 X80.4454 Y26.1475
G01 X80.3610 Y26.0423
G01 X80.2644 Y25.9487
G01 X80.2005 Y25.9007
G01 X80.1724 Y25.8722
G01 X80.1694 Y25.8683
G01 X80.1663 Y25.8631
G01 X80.1520 Y25.8340
G01 X80.1496 Y25.8284
G01 X80.1477 Y25.8213
G01 X80.1425 Y25.7891
G01 X80.1418 Y25.7810
G01 X80.1418 Y23.9090
G01 X80.1424 Y23.9015
G01 X80.1471 Y23.8703
G01 X80.1486 Y23.8643
G01 X80.1508 Y23.8585
G01 X80.1645 Y23.8299
G01 X80.1695 Y23.8217
G01 X80.1929 Y23.7956
G01 X80.1970 Y23.7916
G01 X80.2887 Y23.7185
G01 X80.3823 Y23.6220
G01 X80.4633 Y23.5139
G01 X80.5292 Y23.3966
G01 X80.5801 Y23.2715
G01 X80.6140 Y23.1410
G01 X80.6315 Y23.0071
G01 X80.6315 Y22.8724
G01 X80.6140 Y22.7385
G01 X80.5801 Y22.6081
G01 X80.5292 Y22.4830
G01 X80.4633 Y22.3657
G01 X80.3823 Y22.2575
G01 X80.2886 Y22.1610
G01 X80.1834 Y22.0766
G01 X80.0681 Y22.0068
G01 X79.9444 Y21.9520
G01 X79.8154 Y21.9137
G01 X79.6821 Y21.8924
G01 X79.5473 Y21.8880
G00 Z2.0000
G00 X82.0873 Y21.8880
G01 F60.00
G01 Z-0.0500
G01 F120.00
G01 X81.9535 Y21.9011
G01 X81.8220 Y21.9312
G01 X81.6954 Y21.9777
G01 X81.5756 Y22.0398
G01 X81.4651 Y22.1169
G01 X81.3652 Y22.2075
G01 X81.2779 Y22.3103
G01 X81.2042 Y22.4233
G01 X81.1460 Y22.5450
G01 X81.1033 Y22.6731
G01 X81.0777 Y22.8050
G01 X81.0689 Y22.9398
G01 X81.0777 Y23.0746
G01 X81.1033 Y23.2064
G01 X81.1460 Y23.3345
G01 X81.2042 Y23.4562
G01 X81.2779 Y23.5692
G01 X81.3652 Y23.6720
G01 X81.4650 Y23.7626
G01 X81.4953 Y23.7836
G01 X81.5001 Y23.7873
G01 X81.5287 Y23.8156
G01 X81.5317 Y23.8196
G01 X81.5343 Y23.8240
G01 X81.5501 Y23.8535
G01 X81.5525 Y23.8589
G01 X81.5547 Y23.8670
G01 X81.5599 Y23.9002
G01 X81.5606 Y23.9080
G01 X81.5606 Y25.7825
G01 X81.5599 Y25.7906
G01 X81.5546 Y25.8228
G01 X81.5531 Y25.8288
G01 X81.5509 Y25.8345
G01 X81.5366 Y25.8635
G01 X81.5315 Y25.8718
G01 X81.5275 Y25.8764
G01 X81.5019 Y25.9023
G01 X81.4399 Y25.9487
G01 X81.3434 Y26.0423
G01 X81.2590 Y26.1475
G01 X81.1892 Y26.2629
G01 X81.1344 Y26.3866
G01 X81.0961 Y26.5155
G01 X81.0748 Y26.6489
G01 X81.0704 Y26.7837
G01 X81.0835 Y26.9175
G01 X81.1136 Y27.0489
G01 X81.1602 Y27.1756
G01 X81.2222 Y27.2954
G01 X81.2993 Y27.4059
G01 X81.3900 Y27.5057
G01 X81.4928 Y27.5930
G01 X81.6057 Y27.6667
G01 X81.7274 Y27.7249
G01 X81.8555 Y27.7676
G01 X81.9874 Y27.7933
G01 X82.1222 Y27.8020
G01 X82.2570 Y27.7933
G01 X82.3889 Y27.7676
G01 X82.5169 Y27.7249
G01 X82.6387 Y27.6667
G01 X82.7516 Y27.5930
G01 X82.8544 Y27.5057
G01 X82.9451 Y27.4059
G01 X83.0222 Y27.2954
G01 X83.0842 Y27.1756
G01 X83.1308 Y27.0489
G01 X83.1609 Y26.9175
G01 X83.1740 Y26.7837
G01 X83.1696 Y26.6489
G01 X83.1483 Y26.5155
G01 X83.1100 Y26.3866
G01 X83.0552 Y26.2629
G01 X82.9854 Y26.1475
G01 X82.9010 Y26.0423
G01 X82.8044 Y25.9487
G01 X82.7405 Y25.9007
G01 X82.7124 Y25.8722
G01 X82.7087 Y25.8673
G01 X82.7063 Y25.8631
G01 X82.6920 Y25.8340
G01 X82.6896 Y25.8284
G01 X82.6877 Y25.8213
G01 X82.6825 Y25.7891
G01 X82.6818 Y25.7810
G01 X82.6818 Y23.9090
G01 X82.6824 Y23.9015
G01 X82.6871 Y23.8703
G01 X82.6886 Y23.8643
G01 X82.6908 Y23.8585
G01 X82.7045 Y23.8299
G01 X82.7095 Y23.8217
G01 X82.7329 Y23.7956
G01 X82.7370 Y23.7916
G01 X82.8287 Y23.7185
G01 X82.9223 Y23.6220
G01 X83.0033 Y23.5139
G01 X83.0692 Y23.3966
G01 X83.1201 Y23.2715
G01 X83.1540 Y23.1410
G01 X83.1715 Y23.0071
G01 X83.1715 Y22.8724
G01 X83.1540 Y22.7385
G01 X83.1201 Y22.6081
G01 X83.0692 Y22.4830
G01 X83.0033 Y22.3657
G01 X82.9223 Y22.2575
G01 X82.8286 Y22.1610
G01 X82.7234 Y22.0766
G01 X82.6081 Y22.0068
G01 X82.4844 Y21.9520
G01 X82.3554 Y21.9137
G01 X82.2221 Y21.8924
G01 X82.0873 Y21.8880
G00 Z2.0000
G00 X81.5629 Y23.8279
G01 F60.00
G01 Z-0.0500
G01 F120.00
G01 X81.5629 Y25.8622
G01 X81.5378 Y25.8774
G01 X81.4551 Y25.9389
G01 X81.3797 Y26.0073
G01 X81.3113 Y26.0827
G01 X81.2478 Y26.1685
G01 X81.1962 Y26.2548
G01 X81.1526 Y26.3468
G01 X81.1168 Y26.4473
G01 X81.0924 Y26.5449
G01 X81.0773 Y26.6469
G01 X81.0723 Y26.7522
G01 X81.0773 Y26.8527
G01 X81.0924 Y26.9546
G01 X81.1174 Y27.0546
G01 X81.1521 Y27.1516
G01 X81.1962 Y27.2447
G01 X81.2492 Y27.3331
G01 X81.3105 Y27.4159
G01 X81.3797 Y27.4922
G01 X81.4561 Y27.5614
G01 X81.5388 Y27.6228
G01 X81.6272 Y27.6758
G01 X81.7204 Y27.7198
G01 X81.8174 Y27.7546
G01 X81.9174 Y27.7796
G01 X82.0193 Y27.7947
G01 X82.1222 Y27.7998
G01 X82.2251 Y27.7947
G01 X82.3270 Y27.7796
G01 X82.4270 Y27.7546
G01 X82.5217 Y27.7207
G01 X82.6193 Y27.6746
G01 X82.7055 Y27.6228
G01 X82.7883 Y27.5614
G01 X82.8647 Y27.4922
G01 X82.9323 Y27.4177
G01 X82.9966 Y27.3310
G01 X83.0482 Y27.2447
G01 X83.0923 Y27.1516
G01 X83.1270 Y27.0546
G01 X83.1515 Y26.9570
G01 X83.1672 Y26.8515
G01 X83.1722 Y26.7498
G01 X83.1673 Y26.6493
G01 X83.1520 Y26.5449
G01 X83.1262 Y26.4426
G01 X83.0923 Y26.3480
G01 X83.0488 Y26.2559
G01 X82.9938 Y26.1644
G01 X82.9339 Y26.0837
G01 X82.8655 Y26.0082
G01 X82.7874 Y25.9373
G01 X82.7066 Y25.8774
G01 X82.6794 Y25.8610
G01 X82.6794 Y23.8279
G01 X82.7055 Y23.8121
G01 X82.7863 Y23.7522
G01 X82.8645 Y23.6814
G01 X82.9328 Y23.6059
G01 X82.9928 Y23.5251
G01 X83.0466 Y23.4358
G01 X83.0913 Y23.3416
G01 X83.1266 Y23.2422
G01 X83.1510 Y23.1446
G01 X83.1658 Y23.0451
G01 X83.1712 Y22.9398
G01 X83.1658 Y22.8344
G01 X83.1510 Y22.7349
G01 X83.1266 Y22.6373
G01 X83.0913 Y22.5380
G01 X83.0472 Y22.4448
G01 X82.9928 Y22.3544
G01 X82.9328 Y22.2737
G01 X82.8653 Y22.1991
G01 X82.7873 Y22.1281
