(G-CODE GENERATED BY FLATCAM v8.993 - www.flatcam.org - Version Date: 2020/06/05)

(Name: Gerber_BoardOutline.GKO_cutout_cnc)
(Type: G-code from Geometry)
(Units: MM)

(Created on Thursday, 27 May 2021 at 22:37)

(This preprocessor is the default preprocessor used by FlatCAM.)
(It is made to work with MACH3 compatible motion controllers.)

(TOOL DIAMETER: 2.4 mm)
(Feedrate_XY: 120.0 mm/min)
(Feedrate_Z: 60.0 mm/min)
(Feedrate rapids 1500.0 mm/min)

(Z_Cut: -1.8 mm)
(DepthPerCut: 0.6 mm <=>3 passes)
(Z_Move: 2.0 mm)
(Z Start: None mm)
(Z End: 15.0 mm)
(Steps per circle: 64)
(Preprocessor Geometry: default)

(X range:   -6.4000 ...  173.0384  mm)
(Y range:   -7.9000 ...   90.0046  mm)

(Spindle Speed: None RPM)
G21
G90
G94



G01 F120.00
G00 Z2.0000

M03
G00 X31.8000 Y-7.8986
G01 F60.00
G01 Z-0.6000
G01 F120.00
G01 X0.7551 Y-7.9000
G01 X0.5153 Y-7.8998
G01 X0.4564 Y-7.8984
G01 X0.4190 Y-7.8965
G01 X0.3018 Y-7.8850
G01 X0.2599 Y-7.8786
G01 X0.1806 Y-7.8749
G01 X0.1253 Y-7.8710
G01 X0.0902 Y-7.8678
G01 X0.0351 Y-7.8614
G01 X-0.4761 Y-7.7901
G01 X-0.5308 Y-7.7812
G01 X-0.5654 Y-7.7747
G01 X-0.6196 Y-7.7633
G01 X-1.1221 Y-7.6451
G01 X-1.1757 Y-7.6312
G01 X-1.2096 Y-7.6215
G01 X-1.2625 Y-7.6051
G01 X-1.7519 Y-7.4411
G01 X-1.8041 Y-7.4223
G01 X-1.8369 Y-7.4095
G01 X-1.8881 Y-7.3883
G01 X-2.3603 Y-7.1799
G01 X-2.4105 Y-7.1563
G01 X-2.4420 Y-7.1406
G01 X-2.4910 Y-7.1148
G01 X-2.9419 Y-6.8636
G01 X-2.9897 Y-6.8355
G01 X-3.0197 Y-6.8170
G01 X-3.0661 Y-6.7867
G01 X-3.4919 Y-6.4950
G01 X-3.5369 Y-6.4626
G01 X-3.5650 Y-6.4414
G01 X-3.6085 Y-6.4070
G01 X-4.0056 Y-6.0773
G01 X-4.0474 Y-6.0409
G01 X-4.0734 Y-6.0172
G01 X-4.1135 Y-5.9789
G01 X-4.4785 Y-5.6139
G01 X-4.5167 Y-5.5738
G01 X-4.5405 Y-5.5478
G01 X-4.5769 Y-5.5060
G01 X-4.9066 Y-5.1089
G01 X-4.9410 Y-5.0654
G01 X-4.9622 Y-5.0373
G01 X-4.9946 Y-4.9923
G01 X-5.2863 Y-4.5665
G01 X-5.3166 Y-4.5201
G01 X-5.3351 Y-4.4901
G01 X-5.3632 Y-4.4423
G01 X-5.6143 Y-3.9914
G01 X-5.6402 Y-3.9424
G01 X-5.6559 Y-3.9109
G01 X-5.6794 Y-3.8607
G01 X-5.8879 Y-3.3885
G01 X-5.9091 Y-3.3373
G01 X-5.9219 Y-3.3045
G01 X-5.9407 Y-3.2523
G01 X-6.1047 Y-2.7629
G01 X-6.1211 Y-2.7100
G01 X-6.1307 Y-2.6761
G01 X-6.1447 Y-2.6225
G01 X-6.2629 Y-2.1200
G01 X-6.2743 Y-2.0658
G01 X-6.2808 Y-2.0312
G01 X-6.2897 Y-1.9765
G01 X-6.3610 Y-1.4653
G01 X-6.3674 Y-1.4102
G01 X-6.3706 Y-1.3751
G01 X-6.3745 Y-1.3199
G01 X-6.3780 Y-1.2435
G01 X-6.3797 Y-1.2351
G01 X-6.3852 Y-1.1981
G01 X-6.3967 Y-1.0809
G01 X-6.3986 Y-1.0435
G01 X-6.4000 Y-0.9846
G01 X-6.4000 Y39.3000
G00 X-6.4000 Y39.3000
G01 F60.00
G01 Z-1.2000
G01 F120.00
G01 X-6.4000 Y-0.9846
G01 X-6.3986 Y-1.0435
G01 X-6.3967 Y-1.0809
G01 X-6.3852 Y-1.1981
G01 X-6.3797 Y-1.2351
G01 X-6.3780 Y-1.2435
G01 X-6.3745 Y-1.3199
G01 X-6.3706 Y-1.3751
G01 X-6.3674 Y-1.4102
G01 X-6.3610 Y-1.4653
G01 X-6.2897 Y-1.9765
G01 X-6.2808 Y-2.0312
G01 X-6.2743 Y-2.0658
G01 X-6.2629 Y-2.1200
G01 X-6.1447 Y-2.6225
G01 X-6.1307 Y-2.6761
G01 X-6.1211 Y-2.7100
G01 X-6.1047 Y-2.7629
G01 X-5.9407 Y-3.2523
G01 X-5.9219 Y-3.3045
G01 X-5.9091 Y-3.3373
G01 X-5.8879 Y-3.3885
G01 X-5.6794 Y-3.8607
G01 X-5.6559 Y-3.9109
G01 X-5.6402 Y-3.9424
G01 X-5.6143 Y-3.9914
G01 X-5.3632 Y-4.4423
G01 X-5.3351 Y-4.4901
G01 X-5.3166 Y-4.5201
G01 X-5.2863 Y-4.5665
G01 X-4.9946 Y-4.9923
G01 X-4.9622 Y-5.0373
G01 X-4.9410 Y-5.0654
G01 X-4.9066 Y-5.1089
G01 X-4.5769 Y-5.5060
G01 X-4.5405 Y-5.5478
G01 X-4.5167 Y-5.5738
G01 X-4.4785 Y-5.6139
G01 X-4.1135 Y-5.9789
G01 X-4.0734 Y-6.0172
G01 X-4.0474 Y-6.0409
G01 X-4.0056 Y-6.0773
G01 X-3.6085 Y-6.4070
G01 X-3.5650 Y-6.4414
G01 X-3.5369 Y-6.4626
G01 X-3.4919 Y-6.4950
G01 X-3.0661 Y-6.7867
G01 X-3.0197 Y-6.8170
G01 X-2.9897 Y-6.8355
G01 X-2.9419 Y-6.8636
G01 X-2.4910 Y-7.1148
G01 X-2.4420 Y-7.1406
G01 X-2.4105 Y-7.1563
G01 X-2.3603 Y-7.1799
G01 X-1.8881 Y-7.3883
G01 X-1.8369 Y-7.4095
G01 X-1.8041 Y-7.4223
G01 X-1.7519 Y-7.4411
G01 X-1.2625 Y-7.6051
G01 X-1.2096 Y-7.6215
G01 X-1.1757 Y-7.6312
G01 X-1.1221 Y-7.6451
G01 X-0.6196 Y-7.7633
G01 X-0.5654 Y-7.7747
G01 X-0.5308 Y-7.7812
G01 X-0.4761 Y-7.7901
G01 X0.0351 Y-7.8614
G01 X0.0902 Y-7.8678
G01 X0.1253 Y-7.8710
G01 X0.1806 Y-7.8749
G01 X0.2599 Y-7.8786
G01 X0.3018 Y-7.8850
G01 X0.4190 Y-7.8965
G01 X0.4564 Y-7.8984
G01 X0.5153 Y-7.8998
G01 X0.7551 Y-7.9000
G01 X31.8000 Y-7.8986
G00 X31.8000 Y-7.8986
G01 F60.00
G01 Z-1.8000
G01 F120.00
G01 X0.7551 Y-7.9000
G01 X0.5153 Y-7.8998
G01 X0.4564 Y-7.8984
G01 X0.4190 Y-7.8965
G01 X0.3018 Y-7.8850
G01 X0.2599 Y-7.8786
G01 X0.1806 Y-7.8749
G01 X0.1253 Y-7.8710
G01 X0.0902 Y-7.8678
G01 X0.0351 Y-7.8614
G01 X-0.4761 Y-7.7901
G01 X-0.5308 Y-7.7812
G01 X-0.5654 Y-7.7747
G01 X-0.6196 Y-7.7633
G01 X-1.1221 Y-7.6451
G01 X-1.1757 Y-7.6312
G01 X-1.2096 Y-7.6215
G01 X-1.2625 Y-7.6051
G01 X-1.7519 Y-7.4411
G01 X-1.8041 Y-7.4223
G01 X-1.8369 Y-7.4095
G01 X-1.8881 Y-7.3883
G01 X-2.3603 Y-7.1799
G01 X-2.4105 Y-7.1563
G01 X-2.4420 Y-7.1406
G01 X-2.4910 Y-7.1148
G01 X-2.9419 Y-6.8636
G01 X-2.9897 Y-6.8355
G01 X-3.0197 Y-6.8170
G01 X-3.0661 Y-6.7867
G01 X-3.4919 Y-6.4950
G01 X-3.5369 Y-6.4626
G01 X-3.5650 Y-6.4414
G01 X-3.6085 Y-6.4070
G01 X-4.0056 Y-6.0773
G01 X-4.0474 Y-6.0409
G01 X-4.0734 Y-6.0172
G01 X-4.1135 Y-5.9789
G01 X-4.4785 Y-5.6139
G01 X-4.5167 Y-5.5738
G01 X-4.5405 Y-5.5478
G01 X-4.5769 Y-5.5060
G01 X-4.9066 Y-5.1089
G01 X-4.9410 Y-5.0654
G01 X-4.9622 Y-5.0373
G01 X-4.9946 Y-4.9923
G01 X-5.2863 Y-4.5665
G01 X-5.3166 Y-4.5201
G01 X-5.3351 Y-4.4901
G01 X-5.3632 Y-4.4423
G01 X-5.6143 Y-3.9914
G01 X-5.6402 Y-3.9424
G01 X-5.6559 Y-3.9109
G01 X-5.6794 Y-3.8607
G01 X-5.8879 Y-3.3885
G01 X-5.9091 Y-3.3373
G01 X-5.9219 Y-3.3045
G01 X-5.9407 Y-3.2523
G01 X-6.1047 Y-2.7629
G01 X-6.1211 Y-2.7100
G01 X-6.1307 Y-2.6761
G01 X-6.1447 Y-2.6225
G01 X-6.2629 Y-2.1200
G01 X-6.2743 Y-2.0658
G01 X-6.2808 Y-2.0312
G01 X-6.2897 Y-1.9765
G01 X-6.3610 Y-1.4653
G01 X-6.3674 Y-1.4102
G01 X-6.3706 Y-1.3751
G01 X-6.3745 Y-1.3199
G01 X-6.3780 Y-1.2435
G01 X-6.3797 Y-1.2351
G01 X-6.3852 Y-1.1981
G01 X-6.3967 Y-1.0809
G01 X-6.3986 Y-1.0435
G01 X-6.4000 Y-0.9846
G01 X-6.4000 Y39.3000
G00 Z2.0000
G00 X-6.4000 Y45.3000
G01 F60.00
G01 Z-0.6000
G01 F120.00
G01 X-6.4000 Y82.8354
G01 X-6.3996 Y82.8648
G01 X-6.3981 Y82.9129
G01 X-6.3712 Y83.4607
G01 X-6.3669 Y83.5194
G01 X-6.3632 Y83.5566
G01 X-6.3560 Y83.6151
G01 X-6.2755 Y84.1575
G01 X-6.2654 Y84.2156
G01 X-6.2581 Y84.2523
G01 X-6.2452 Y84.3097
G01 X-6.1120 Y84.8417
G01 X-6.0963 Y84.8984
G01 X-6.0854 Y84.9342
G01 X-6.0670 Y84.9902
G01 X-5.8822 Y85.5065
G01 X-5.8610 Y85.5614
G01 X-5.8467 Y85.5960
G01 X-5.8228 Y85.6498
G01 X-5.5884 Y86.1456
G01 X-5.5619 Y86.1982
G01 X-5.5442 Y86.2312
G01 X-5.5152 Y86.2824
G01 X-5.2333 Y86.7528
G01 X-5.2018 Y86.8025
G01 X-5.1810 Y86.8336
G01 X-5.1471 Y86.8818
G01 X-4.8204 Y87.3223
G01 X-4.7842 Y87.3687
G01 X-4.7604 Y87.3976
G01 X-4.7220 Y87.4422
G01 X-4.3537 Y87.8485
G01 X-4.3131 Y87.8912
G01 X-4.2866 Y87.9176
G01 X-4.2440 Y87.9583
G01 X-3.8377 Y88.3265
G01 X-3.7931 Y88.3650
G01 X-3.7641 Y88.3887
G01 X-3.7177 Y88.4250
G01 X-3.2773 Y88.7516
G01 X-3.2291 Y88.7856
G01 X-3.1980 Y88.8063
G01 X-3.1482 Y88.8378
G01 X-2.6779 Y89.1198
G01 X-2.6266 Y89.1488
G01 X-2.5936 Y89.1664
G01 X-2.5410 Y89.1929
G01 X-2.0453 Y89.4274
G01 X-1.9914 Y89.4513
G01 X-1.9569 Y89.4656
G01 X-1.9019 Y89.4868
G01 X-1.3856 Y89.6715
G01 X-1.3297 Y89.6900
G01 X-1.2939 Y89.7008
G01 X-1.2371 Y89.7166
G01 X-0.7052 Y89.8498
G01 X-0.6477 Y89.8627
G01 X-0.6110 Y89.8700
G01 X-0.5530 Y89.8801
G01 X-0.0105 Y89.9605
G01 X0.0479 Y89.9677
G01 X0.0851 Y89.9714
G01 X0.1377 Y89.9754
G01 X0.2515 Y89.9816
G01 X0.2647 Y89.9842
G01 X0.3018 Y89.9897
G01 X0.4189 Y90.0013
G01 X0.4563 Y90.0031
G01 X0.5152 Y90.0046
G01 X30.8000 Y90.0046
G00 X30.8000 Y90.0046
G01 F60.00
G01 Z-1.2000
G01 F120.00
G01 X0.5152 Y90.0046
G01 X0.4563 Y90.0031
G01 X0.4189 Y90.0013
G01 X0.3018 Y89.9897
G01 X0.2647 Y89.9842
G01 X0.2515 Y89.9816
G01 X0.1377 Y89.9754
G01 X0.0851 Y89.9714
G01 X0.0479 Y89.9677
G01 X-0.0105 Y89.9605
G01 X-0.5530 Y89.8801
G01 X-0.6110 Y89.8700
G01 X-0.6477 Y89.8627
G01 X-0.7052 Y89.8498
G01 X-1.2371 Y89.7166
G01 X-1.2939 Y89.7008
G01 X-1.3297 Y89.6900
G01 X-1.3856 Y89.6715
G01 X-1.9019 Y89.4868
G01 X-1.9569 Y89.4656
G01 X-1.9914 Y89.4513
G01 X-2.0453 Y89.4274
G01 X-2.5410 Y89.1929
G01 X-2.5936 Y89.1664
G01 X-2.6266 Y89.1488
G01 X-2.6779 Y89.1198
G01 X-3.1482 Y88.8378
G01 X-3.1980 Y88.8063
G01 X-3.2291 Y88.7856
G01 X-3.2773 Y88.7516
G01 X-3.7177 Y88.4250
G01 X-3.7641 Y88.3887
G01 X-3.7931 Y88.3650
G01 X-3.8377 Y88.3265
G01 X-4.2440 Y87.9583
G01 X-4.2866 Y87.9176
G01 X-4.3131 Y87.8912
G01 X-4.3537 Y87.8485
G01 X-4.7220 Y87.4422
G01 X-4.7604 Y87.3976
G01 X-4.7842 Y87.3687
G01 X-4.8204 Y87.3223
G01 X-5.1471 Y86.8818
G01 X-5.1810 Y86.8336
G01 X-5.2018 Y86.8025
G01 X-5.2333 Y86.7528
G01 X-5.5152 Y86.2824
G01 X-5.5442 Y86.2312
G01 X-5.5619 Y86.1982
G01 X-5.5884 Y86.1456
G01 X-5.8228 Y85.6498
G01 X-5.8467 Y85.5960
G01 X-5.8610 Y85.5614
G01 X-5.8822 Y85.5065
G01 X-6.0670 Y84.9902
G01 X-6.0854 Y84.9342
G01 X-6.0963 Y84.8984
G01 X-6.1120 Y84.8417
G01 X-6.2452 Y84.3097
G01 X-6.2581 Y84.2523
G01 X-6.2654 Y84.2156
G01 X-6.2755 Y84.1575
G01 X-6.3560 Y83.6151
G01 X-6.3632 Y83.5566
G01 X-6.3669 Y83.5194
G01 X-6.3712 Y83.4607
G01 X-6.3981 Y82.9129
G01 X-6.3996 Y82.8648
G01 X-6.4000 Y82.8354
G01 X-6.4000 Y45.3000
G00 X-6.4000 Y45.3000
G01 F60.00
G01 Z-1.8000
G01 F120.00
G01 X-6.4000 Y82.8354
G01 X-6.3996 Y82.8648
G01 X-6.3981 Y82.9129
G01 X-6.3712 Y83.4607
G01 X-6.3669 Y83.5194
G01 X-6.3632 Y83.5566
G01 X-6.3560 Y83.6151
G01 X-6.2755 Y84.1575
G01 X-6.2654 Y84.2156
G01 X-6.2581 Y84.2523
G01 X-6.2452 Y84.3097
G01 X-6.1120 Y84.8417
G01 X-6.0963 Y84.8984
G01 X-6.0854 Y84.9342
G01 X-6.0670 Y84.9902
G01 X-5.8822 Y85.5065
G01 X-5.8610 Y85.5614
G01 X-5.8467 Y85.5960
G01 X-5.8228 Y85.6498
G01 X-5.5884 Y86.1456
G01 X-5.5619 Y86.1982
G01 X-5.5442 Y86.2312
G01 X-5.5152 Y86.2824
G01 X-5.2333 Y86.7528
G01 X-5.2018 Y86.8025
G01 X-5.1810 Y86.8336
G01 X-5.1471 Y86.8818
G01 X-4.8204 Y87.3223
G01 X-4.7842 Y87.3687
G01 X-4.7604 Y87.3976
G01 X-4.7220 Y87.4422
G01 X-4.3537 Y87.8485
G01 X-4.3131 Y87.8912
G01 X-4.2866 Y87.9176
G01 X-4.2440 Y87.9583
G01 X-3.8377 Y88.3265
G01 X-3.7931 Y88.3650
G01 X-3.7641 Y88.3887
G01 X-3.7177 Y88.4250
G01 X-3.2773 Y88.7516
G01 X-3.2291 Y88.7856
G01 X-3.1980 Y88.8063
G01 X-3.1482 Y88.8378
G01 X-2.6779 Y89.1198
G01 X-2.6266 Y89.1488
G01 X-2.5936 Y89.1664
G01 X-2.5410 Y89.1929
G01 X-2.0453 Y89.4274
G01 X-1.9914 Y89.4513
G01 X-1.9569 Y89.4656
G01 X-1.9019 Y89.4868
G01 X-1.3856 Y89.6715
G01 X-1.3297 Y89.6900
G01 X-1.2939 Y89.7008
G01 X-1.2371 Y89.7166
G01 X-0.7052 Y89.8498
G01 X-0.6477 Y89.8627
G01 X-0.6110 Y89.8700
G01 X-0.5530 Y89.8801
G01 X-0.0105 Y89.9605
G01 X0.0479 Y89.9677
G01 X0.0851 Y89.9714
G01 X0.1377 Y89.9754
G01 X0.2515 Y89.9816
G01 X0.2647 Y89.9842
G01 X0.3018 Y89.9897
G01 X0.4189 Y90.0013
G01 X0.4563 Y90.0031
G01 X0.5152 Y90.0046
G01 X30.8000 Y90.0046
G00 Z2.0000
G00 X38.8000 Y90.0046
G01 F60.00
G01 Z-0.6000
G01 F120.00
G01 X72.5242 Y90.0046
G01 X72.5877 Y90.0029
G01 X72.7101 Y90.0031
G01 X72.7474 Y90.0013
G01 X72.8646 Y89.9897
G01 X72.9016 Y89.9842
G01 X73.0171 Y89.9613
G01 X73.0534 Y89.9522
G01 X73.1661 Y89.9180
G01 X73.2013 Y89.9054
G01 X73.3101 Y89.8603
G01 X73.3439 Y89.8443
G01 X73.4478 Y89.7888
G01 X73.4799 Y89.7696
G01 X73.5778 Y89.7042
G01 X73.6079 Y89.6819
G01 X73.6989 Y89.6072
G01 X73.7266 Y89.5820
G01 X73.7693 Y89.5414
G01 X90.0702 Y73.2405
G01 X121.8000 Y73.2396
G00 X121.8000 Y73.2396
G01 F60.00
G01 Z-1.2000
G01 F120.00
G01 X90.0702 Y73.2405
G01 X73.7693 Y89.5414
G01 X73.7266 Y89.5820
G01 X73.6989 Y89.6072
G01 X73.6079 Y89.6819
G01 X73.5778 Y89.7042
G01 X73.4799 Y89.7696
G01 X73.4478 Y89.7888
G01 X73.3439 Y89.8443
G01 X73.3101 Y89.8603
G01 X73.2013 Y89.9054
G01 X73.1661 Y89.9180
G01 X73.0534 Y89.9522
G01 X73.0171 Y89.9613
G01 X72.9016 Y89.9842
G01 X72.8646 Y89.9897
G01 X72.7474 Y90.0013
G01 X72.7101 Y90.0031
G01 X72.5877 Y90.0029
G01 X72.5242 Y90.0046
G01 X38.8000 Y90.0046
G00 X38.8000 Y90.0046
G01 F60.00
G01 Z-1.8000
G01 F120.00
G01 X72.5242 Y90.0046
G01 X72.5877 Y90.0029
G01 X72.7101 Y90.0031
G01 X72.7474 Y90.0013
G01 X72.8646 Y89.9897
G01 X72.9016 Y89.9842
G01 X73.0171 Y89.9613
G01 X73.0534 Y89.9522
G01 X73.1661 Y89.9180
G01 X73.2013 Y89.9054
G01 X73.3101 Y89.8603
G01 X73.3439 Y89.8443
G01 X73.4478 Y89.7888
G01 X73.4799 Y89.7696
G01 X73.5778 Y89.7042
G01 X73.6079 Y89.6819
G01 X73.6989 Y89.6072
G01 X73.7266 Y89.5820
G01 X73.7693 Y89.5414
G01 X90.0702 Y73.2405
G01 X121.8000 Y73.2396
G00 Z2.0000
G00 X127.8000 Y73.2394
G01 F60.00
G01 Z-0.6000
G01 F120.00
G01 X165.6152 Y73.2382
G01 X165.6634 Y73.2374
G01 X165.6928 Y73.2363
G01 X166.2405 Y73.2094
G01 X166.2992 Y73.2051
G01 X166.3365 Y73.2014
G01 X166.3949 Y73.1942
G01 X166.9374 Y73.1137
G01 X166.9954 Y73.1037
G01 X167.0321 Y73.0964
G01 X167.0896 Y73.0835
G01 X167.6215 Y72.9502
G01 X167.6783 Y72.9345
G01 X167.7141 Y72.9236
G01 X167.7700 Y72.9052
G01 X168.2863 Y72.7204
G01 X168.3413 Y72.6992
G01 X168.3758 Y72.6849
G01 X168.4297 Y72.6610
G01 X168.9254 Y72.4266
G01 X168.9780 Y72.4001
G01 X169.0110 Y72.3825
G01 X169.0622 Y72.3534
G01 X169.5326 Y72.0715
G01 X169.5824 Y72.0400
G01 X169.6135 Y72.0192
G01 X169.6616 Y71.9853
G01 X170.1021 Y71.6586
G01 X170.1485 Y71.6224
G01 X170.1774 Y71.5987
G01 X170.2220 Y71.5602
G01 X170.6284 Y71.1919
G01 X170.6710 Y71.1513
G01 X170.6975 Y71.1249
G01 X170.7381 Y71.0822
G01 X171.1064 Y70.6759
G01 X171.1448 Y70.6313
G01 X171.1686 Y70.6024
G01 X171.2048 Y70.5559
G01 X171.5315 Y70.1155
G01 X171.5654 Y70.0673
G01 X171.5862 Y70.0362
G01 X171.6177 Y69.9864
G01 X171.8996 Y69.5161
G01 X171.9286 Y69.4648
G01 X171.9463 Y69.4318
G01 X171.9727 Y69.3792
G01 X172.2072 Y68.8835
G01 X172.2311 Y68.8297
G01 X172.2454 Y68.7951
G01 X172.2666 Y68.7401
G01 X172.4513 Y68.2238
G01 X172.4698 Y68.1679
G01 X172.4807 Y68.1321
G01 X172.4964 Y68.0753
G01 X172.6296 Y67.5434
G01 X172.6425 Y67.4859
G01 X172.6498 Y67.4492
G01 X172.6599 Y67.3912
G01 X172.7404 Y66.8488
G01 X172.7476 Y66.7903
G01 X172.7512 Y66.7531
G01 X172.7556 Y66.6943
G01 X172.7825 Y66.1466
G01 X172.7838 Y66.1111
G01 X172.7844 Y66.0794
G01 X172.8898 Y45.3000
G00 X172.8898 Y45.3000
G01 F60.00
G01 Z-1.2000
G01 F120.00
G01 X172.7844 Y66.0794
G01 X172.7838 Y66.1111
G01 X172.7825 Y66.1466
G01 X172.7556 Y66.6943
G01 X172.7512 Y66.7531
G01 X172.7476 Y66.7903
G01 X172.7404 Y66.8488
G01 X172.6599 Y67.3912
G01 X172.6498 Y67.4492
G01 X172.6425 Y67.4859
G01 X172.6296 Y67.5434
G01 X172.4964 Y68.0753
G01 X172.4807 Y68.1321
G01 X172.4698 Y68.1679
G01 X172.4513 Y68.2238
G01 X172.2666 Y68.7401
G01 X172.2454 Y68.7951
G01 X172.2311 Y68.8297
G01 X172.2072 Y68.8835
G01 X171.9727 Y69.3792
G01 X171.9463 Y69.4318
G01 X171.9286 Y69.4648
G01 X171.8996 Y69.5161
G01 X171.6177 Y69.9864
G01 X171.5862 Y70.0362
G01 X171.5654 Y70.0673
G01 X171.5315 Y70.1155
G01 X171.2048 Y70.5559
G01 X171.1686 Y70.6024
G01 X171.1448 Y70.6313
G01 X171.1064 Y70.6759
G01 X170.7381 Y71.0822
G01 X170.6975 Y71.1249
G01 X170.6710 Y71.1513
G01 X170.6284 Y71.1919
G01 X170.2220 Y71.5602
G01 X170.1774 Y71.5987
G01 X170.1485 Y71.6224
G01 X170.1021 Y71.6586
G01 X169.6616 Y71.9853
G01 X169.6135 Y72.0192
G01 X169.5824 Y72.0400
G01 X169.5326 Y72.0715
G01 X169.0622 Y72.3534
G01 X169.0110 Y72.3825
G01 X168.9780 Y72.4001
G01 X168.9254 Y72.4266
G01 X168.4297 Y72.6610
G01 X168.3758 Y72.6849
G01 X168.3413 Y72.6992
G01 X168.2863 Y72.7204
G01 X167.7700 Y72.9052
G01 X167.7141 Y72.9236
G01 X167.6783 Y72.9345
G01 X167.6215 Y72.9502
G01 X167.0896 Y73.0835
G01 X167.0321 Y73.0964
G01 X166.9954 Y73.1037
G01 X166.9374 Y73.1137
G01 X166.3949 Y73.1942
G01 X166.3365 Y73.2014
G01 X166.2992 Y73.2051
G01 X166.2405 Y73.2094
G01 X165.6928 Y73.2363
G01 X165.6634 Y73.2374
G01 X165.6152 Y73.2382
G01 X127.8000 Y73.2394
G00 X127.8000 Y73.2394
G01 F60.00
G01 Z-1.8000
G01 F120.00
G01 X165.6152 Y73.2382
G01 X165.6634 Y73.2374
G01 X165.6928 Y73.2363
G01 X166.2405 Y73.2094
G01 X166.2992 Y73.2051
G01 X166.3365 Y73.2014
G01 X166.3949 Y73.1942
G01 X166.9374 Y73.1137
G01 X166.9954 Y73.1037
G01 X167.0321 Y73.0964
G01 X167.0896 Y73.0835
G01 X167.6215 Y72.9502
G01 X167.6783 Y72.9345
G01 X167.7141 Y72.9236
G01 X167.7700 Y72.9052
G01 X168.2863 Y72.7204
G01 X168.3413 Y72.6992
G01 X168.3758 Y72.6849
G01 X168.4297 Y72.6610
G01 X168.9254 Y72.4266
G01 X168.9780 Y72.4001
G01 X169.0110 Y72.3825
G01 X169.0622 Y72.3534
G01 X169.5326 Y72.0715
G01 X169.5824 Y72.0400
G01 X169.6135 Y72.0192
G01 X169.6616 Y71.9853
G01 X170.1021 Y71.6586
G01 X170.1485 Y71.6224
G01 X170.1774 Y71.5987
G01 X170.2220 Y71.5602
G01 X170.6284 Y71.1919
G01 X170.6710 Y71.1513
G01 X170.6975 Y71.1249
G01 X170.7381 Y71.0822
G01 X171.1064 Y70.6759
G01 X171.1448 Y70.6313
G01 X171.1686 Y70.6024
G01 X171.2048 Y70.5559
G01 X171.5315 Y70.1155
G01 X171.5654 Y70.0673
G01 X171.5862 Y70.0362
G01 X171.6177 Y69.9864
G01 X171.8996 Y69.5161
G01 X171.9286 Y69.4648
G01 X171.9463 Y69.4318
G01 X171.9727 Y69.3792
G01 X172.2072 Y68.8835
G01 X172.2311 Y68.8297
G01 X172.2454 Y68.7951
G01 X172.2666 Y68.7401
G01 X172.4513 Y68.2238
G01 X172.4698 Y68.1679
G01 X172.4807 Y68.1321
G01 X172.4964 Y68.0753
G01 X172.6296 Y67.5434
G01 X172.6425 Y67.4859
G01 X172.6498 Y67.4492
G01 X172.6599 Y67.3912
G01 X172.7404 Y66.8488
G01 X172.7476 Y66.7903
G01 X172.7512 Y66.7531
G01 X172.7556 Y66.6943
G01 X172.7825 Y66.1466
G01 X172.7838 Y66.1111
G01 X172.7844 Y66.0794
G01 X172.8898 Y45.3000
G00 Z2.0000
G00 X172.9203 Y39.3000
G01 F60.00
G01 Z-0.6000
G01 F120.00
G01 X173.0384 Y16.0414
G01 X173.0381 Y16.0089
G01 X173.0365 Y15.9558
G01 X173.0096 Y15.4081
G01 X173.0052 Y15.3493
G01 X173.0016 Y15.3121
G01 X172.9944 Y15.2536
G01 X172.9139 Y14.7112
G01 X172.9038 Y14.6532
G01 X172.8965 Y14.6165
G01 X172.8836 Y14.5590
G01 X172.7504 Y14.0271
G01 X172.7347 Y13.9703
G01 X172.7238 Y13.9345
G01 X172.7053 Y13.8786
G01 X172.5206 Y13.3622
G01 X172.4994 Y13.3073
G01 X172.4851 Y13.2727
G01 X172.4612 Y13.2189
G01 X172.2267 Y12.7232
G01 X172.2003 Y12.6705
G01 X172.1826 Y12.6376
G01 X172.1536 Y12.5863
G01 X171.8717 Y12.1159
G01 X171.8402 Y12.0662
G01 X171.8194 Y12.0351
G01 X171.7855 Y11.9869
G01 X171.4588 Y11.5465
G01 X171.4226 Y11.5000
G01 X171.3988 Y11.4711
G01 X171.3604 Y11.4265
G01 X170.9921 Y11.0202
G01 X170.9515 Y10.9775
G01 X170.9250 Y10.9511
G01 X170.8824 Y10.9105
G01 X170.4760 Y10.5422
G01 X170.4314 Y10.5037
G01 X170.4025 Y10.4800
G01 X170.3561 Y10.4438
G01 X169.9156 Y10.1171
G01 X169.8675 Y10.0832
G01 X169.8364 Y10.0624
G01 X169.7866 Y10.0309
G01 X169.3162 Y9.7490
G01 X169.2650 Y9.7199
G01 X169.2320 Y9.7023
G01 X169.1794 Y9.6758
G01 X168.6837 Y9.4413
G01 X168.6298 Y9.4175
G01 X168.5953 Y9.4032
G01 X168.5403 Y9.3820
G01 X168.0240 Y9.1972
G01 X167.9681 Y9.1787
G01 X167.9323 Y9.1679
G01 X167.8755 Y9.1522
G01 X167.3436 Y9.0189
G01 X167.2861 Y9.0060
G01 X167.2494 Y8.9987
G01 X167.1914 Y8.9887
G01 X166.6489 Y8.9082
G01 X166.5905 Y8.9010
G01 X166.5532 Y8.8973
G01 X166.4945 Y8.8930
G01 X165.9468 Y8.8661
G01 X165.8879 Y8.8646
G01 X165.8505 Y8.8646
G01 X165.7386 Y8.8701
G01 X165.7114 Y8.8675
G01 X165.6740 Y8.8656
G01 X165.6151 Y8.8642
G01 X131.8000 Y8.8652
G00 X131.8000 Y8.8652
G01 F60.00
G01 Z-1.2000
G01 F120.00
G01 X165.6151 Y8.8642
G01 X165.6740 Y8.8656
G01 X165.7114 Y8.8675
G01 X165.7386 Y8.8701
G01 X165.8505 Y8.8646
G01 X165.8879 Y8.8646
G01 X165.9468 Y8.8661
G01 X166.4945 Y8.8930
G01 X166.5532 Y8.8973
G01 X166.5905 Y8.9010
G01 X166.6489 Y8.9082
G01 X167.1914 Y8.9887
G01 X167.2494 Y8.9987
G01 X167.2861 Y9.0060
G01 X167.3436 Y9.0189
G01 X167.8755 Y9.1522
G01 X167.9323 Y9.1679
G01 X167.9681 Y9.1787
G01 X168.0240 Y9.1972
G01 X168.5403 Y9.3820
G01 X168.5953 Y9.4032
G01 X168.6298 Y9.4175
G01 X168.6837 Y9.4413
G01 X169.1794 Y9.6758
G01 X169.2320 Y9.7023
G01 X169.2650 Y9.7199
G01 X169.3162 Y9.7490
G01 X169.7866 Y10.0309
G01 X169.8364 Y10.0624
G01 X169.8675 Y10.0832
G01 X169.9156 Y10.1171
G01 X170.3561 Y10.4438
G01 X170.4025 Y10.4800
G01 X170.4314 Y10.5037
G01 X170.4760 Y10.5422
G01 X170.8824 Y10.9105
G01 X170.9250 Y10.9511
G01 X170.9515 Y10.9775
G01 X170.9921 Y11.0202
G01 X171.3604 Y11.4265
G01 X171.3988 Y11.4711
G01 X171.4226 Y11.5000
G01 X171.4588 Y11.5465
G01 X171.7855 Y11.9869
G01 X171.8194 Y12.0351
G01 X171.8402 Y12.0662
G01 X171.8717 Y12.1159
G01 X172.1536 Y12.5863
G01 X172.1826 Y12.6376
G01 X172.2003 Y12.6705
G01 X172.2267 Y12.7232
G01 X172.4612 Y13.2189
G01 X172.4851 Y13.2727
G01 X172.4994 Y13.3073
G01 X172.5206 Y13.3622
G01 X172.7053 Y13.8786
G01 X172.7238 Y13.9345
G01 X172.7347 Y13.9703
G01 X172.7504 Y14.0271
G01 X172.8836 Y14.5590
G01 X172.8965 Y14.6165
G01 X172.9038 Y14.6532
G01 X172.9139 Y14.7112
G01 X172.9944 Y15.2536
G01 X173.0016 Y15.3121
G01 X173.0052 Y15.3493
G01 X173.0096 Y15.4081
G01 X173.0365 Y15.9558
G01 X173.0381 Y16.0089
G01 X173.0384 Y16.0414
G01 X172.9203 Y39.3000
G00 X172.9203 Y39.3000
G01 F60.00
G01 Z-1.8000
G01 F120.00
G01 X173.0384 Y16.0414
G01 X173.0381 Y16.0089
G01 X173.0365 Y15.9558
G01 X173.0096 Y15.4081
G01 X173.0052 Y15.3493
G01 X173.0016 Y15.3121
G01 X172.9944 Y15.2536
G01 X172.9139 Y14.7112
G01 X172.9038 Y14.6532
G01 X172.8965 Y14.6165
G01 X172.8836 Y14.5590
G01 X172.7504 Y14.0271
G01 X172.7347 Y13.9703
G01 X172.7238 Y13.9345
G01 X172.7053 Y13.8786
G01 X172.5206 Y13.3622
G01 X172.4994 Y13.3073
G01 X172.4851 Y13.2727
G01 X172.4612 Y13.2189
G01 X172.2267 Y12.7232
G01 X172.2003 Y12.6705
G01 X172.1826 Y12.6376
G01 X172.1536 Y12.5863
G01 X171.8717 Y12.1159
G01 X171.8402 Y12.0662
G01 X171.8194 Y12.0351
G01 X171.7855 Y11.9869
G01 X171.4588 Y11.5465
G01 X171.4226 Y11.5000
G01 X171.3988 Y11.4711
G01 X171.3604 Y11.4265
G01 X170.9921 Y11.0202
G01 X170.9515 Y10.9775
G01 X170.9250 Y10.9511
G01 X170.8824 Y10.9105
G01 X170.4760 Y10.5422
G01 X170.4314 Y10.5037
G01 X170.4025 Y10.4800
G01 X170.3561 Y10.4438
G01 X169.9156 Y10.1171
G01 X169.8675 Y10.0832
G01 X169.8364 Y10.0624
G01 X169.7866 Y10.0309
G01 X169.3162 Y9.7490
G01 X169.2650 Y9.7199
G01 X169.2320 Y9.7023
G01 X169.1794 Y9.6758
G01 X168.6837 Y9.4413
G01 X168.6298 Y9.4175
G01 X168.5953 Y9.4032
G01 X168.5403 Y9.3820
G01 X168.0240 Y9.1972
G01 X167.9681 Y9.1787
G01 X167.9323 Y9.1679
G01 X167.8755 Y9.1522
G01 X167.3436 Y9.0189
G01 X167.2861 Y9.0060
G01 X167.2494 Y8.9987
G01 X167.1914 Y8.9887
G01 X166.6489 Y8.9082
G01 X166.5905 Y8.9010
G01 X166.5532 Y8.8973
G01 X166.4945 Y8.8930
G01 X165.9468 Y8.8661
G01 X165.8879 Y8.8646
G01 X165.8505 Y8.8646
G01 X165.7386 Y8.8701
G01 X165.7114 Y8.8675
G01 X165.6740 Y8.8656
G01 X165.6151 Y8.8642
G01 X131.8000 Y8.8652
G00 Z2.0000
G00 X123.8000 Y8.8655
G01 F60.00
G01 Z-0.6000
G01 F120.00
G01 X90.0725 Y8.8665
G01 X73.7693 Y-7.4367
G01 X73.7266 Y-7.4773
G01 X73.6989 Y-7.5024
G01 X73.6079 Y-7.5771
G01 X73.5778 Y-7.5994
G01 X73.4799 Y-7.6649
G01 X73.4478 Y-7.6841
G01 X73.3439 Y-7.7396
G01 X73.3101 Y-7.7556
G01 X73.2013 Y-7.8007
G01 X73.1661 Y-7.8133
G01 X73.0534 Y-7.8475
G01 X73.0171 Y-7.8565
G01 X72.9016 Y-7.8795
G01 X72.8646 Y-7.8850
G01 X72.7474 Y-7.8965
G01 X72.7101 Y-7.8984
G01 X72.5923 Y-7.8984
G01 X72.5517 Y-7.8962
G01 X72.5243 Y-7.8969
G01 X38.8000 Y-7.8983
G00 X38.8000 Y-7.8983
G01 F60.00
G01 Z-1.2000
G01 F120.00
G01 X72.5243 Y-7.8969
G01 X72.5517 Y-7.8962
G01 X72.5923 Y-7.8984
G01 X72.7101 Y-7.8984
G01 X72.7474 Y-7.8965
G01 X72.8646 Y-7.8850
G01 X72.9016 Y-7.8795
G01 X73.0171 Y-7.8565
G01 X73.0534 Y-7.8475
G01 X73.1661 Y-7.8133
G01 X73.2013 Y-7.8007
G01 X73.3101 Y-7.7556
G01 X73.3439 Y-7.7396
G01 X73.4478 Y-7.6841
G01 X73.4799 Y-7.6649
G01 X73.5778 Y-7.5994
G01 X73.6079 Y-7.5771
G01 X73.6989 Y-7.5024
G01 X73.7266 Y-7.4773
G01 X73.7693 Y-7.4367
G01 X90.0725 Y8.8665
G01 X123.8000 Y8.8655
G00 X123.8000 Y8.8655
G01 F60.00
G01 Z-1.8000
G01 F120.00
G01 X90.0725 Y8.8665
G01 X73.7693 Y-7.4367
G01 X73.7266 Y-7.4773
G01 X73.6989 Y-7.5024
G01 X73.6079 Y-7.5771
G01 X73.5778 Y-7.5994
G01 X73.4799 Y-7.6649
G01 X73.4478 Y-7.6841
G01 X73.3439 Y-7.7396
G01 X73.3101 Y-7.7556
G01 X73.2013 Y-7.8007
G01 X73.1661 Y-7.8133
G01 X73.0534 Y-7.8475
G01 X73.0171 Y-7.8565
G01 X72.9016 Y-7.8795
G01 X72.8646 Y-7.8850
G01 X72.7474 Y-7.8965
G01 X72.7101 Y-7.8984
G01 X72.5923 Y-7.8984
G01 X72.5517 Y-7.8962
G01 X72.5243 Y-7.8969
G01 X38.8000 Y-7.8983
G00 Z2.0000
M05
G00 Z2.0000
G00 Z15.00

