(G-CODE GENERATED BY FLATCAM v8.993 - www.flatcam.org - Version Date: 2020/06/05)

(Name: Gerber_Drill_PTH.DRL_mill_slot_cnc)
(Type: G-code from Geometry)
(Units: MM)

(Created on Thursday, 27 May 2021 at 22:33)

(This preprocessor is the default preprocessor used by FlatCAM.)
(It is made to work with MACH3 compatible motion controllers.)

(TOOL DIAMETER: 1.0 mm)
(Feedrate_XY: 120.0 mm/min)
(Feedrate_Z: 60.0 mm/min)
(Feedrate rapids 1500.0 mm/min)

(Z_Cut: -1.8 mm)
(Z_Move: 2.0 mm)
(Z Start: None mm)
(Z End: 15.0 mm)
(Steps per circle: 64)
(Preprocessor Geometry: default)

(X range:  113.5201 ...  113.5703  mm)
(Y range:   32.1623 ...   54.1335  mm)

(Spindle Speed: None RPM)
G21
G90
G94



G01 F120.00
G00 Z2.0000

M03
G00 X113.5202 Y32.1623
G01 F60.00
G01 Z-1.8000
G01 F120.00
G01 X113.5202 Y32.1625
G01 X113.5703 Y32.1624
G01 X113.5702 Y32.1623
G01 X113.5202 Y32.1623
G00 Z2.0000
G00 X113.5202 Y40.4173
G01 F60.00
G01 Z-1.8000
G01 F120.00
G01 X113.5202 Y40.4175
G01 X113.5703 Y40.4174
G01 X113.5702 Y40.4173
G01 X113.5202 Y40.4173
G00 Z2.0000
G00 X113.5202 Y45.8783
G01 F60.00
G01 Z-1.8000
G01 F120.00
G01 X113.5202 Y45.8785
G01 X113.5703 Y45.8784
G01 X113.5702 Y45.8783
G01 X113.5202 Y45.8783
G00 Z2.0000
G00 X113.5202 Y54.1333
G01 F60.00
G01 Z-1.8000
G01 F120.00
G01 X113.5202 Y54.1335
G01 X113.5703 Y54.1334
G01 X113.5702 Y54.1333
G01 X113.5202 Y54.1333
G00 Z2.0000
M05
G00 Z2.0000
G00 Z15.00

