(G-CODE GENERATED BY FLATCAM v8.993 - www.flatcam.org - Version Date: 2020/06/05)

(Name: Outline_2.4)
(Type: G-code from Geometry)
(Units: MM)

(Created on Thursday, 27 May 2021 at 14:23)

(This preprocessor is the default preprocessor used by FlatCAM.)
(It is made to work with MACH3 compatible motion controllers.)

(TOOL DIAMETER: 2.4 mm)
(Feedrate_XY: 120.0 mm/min)
(Feedrate_Z: 60.0 mm/min)
(Feedrate rapids 1500.0 mm/min)

(Z_Cut: -1.8 mm)
(DepthPerCut: 0.6 mm <=>3 passes)
(Z_Move: 2.0 mm)
(Z Start: None mm)
(Z End: 15.0 mm)
(Steps per circle: 64)
(Preprocessor Geometry: default)

(X range:   -1.2000 ...  178.2384  mm)
(Y range:   -1.2000 ...   96.7046  mm)

(Spindle Speed: None RPM)
G21
G90
G94



G01 F120.00
G00 Z2.0000

M03
G00 X37.0000 Y-1.1986
G01 F60.00
G01 Z-0.6000
G01 F120.00
G01 X5.9551 Y-1.2000
G01 X5.7153 Y-1.1998
G01 X5.6564 Y-1.1984
G01 X5.6190 Y-1.1965
G01 X5.5018 Y-1.1850
G01 X5.4599 Y-1.1786
G01 X5.3806 Y-1.1749
G01 X5.3253 Y-1.1710
G01 X5.2902 Y-1.1678
G01 X5.2351 Y-1.1614
G01 X4.7239 Y-1.0901
G01 X4.6692 Y-1.0812
G01 X4.6346 Y-1.0747
G01 X4.5804 Y-1.0633
G01 X4.0779 Y-0.9451
G01 X4.0243 Y-0.9312
G01 X3.9904 Y-0.9215
G01 X3.9375 Y-0.9051
G01 X3.4481 Y-0.7411
G01 X3.3959 Y-0.7223
G01 X3.3631 Y-0.7095
G01 X3.3119 Y-0.6883
G01 X2.8397 Y-0.4799
G01 X2.7895 Y-0.4563
G01 X2.7580 Y-0.4406
G01 X2.7090 Y-0.4148
G01 X2.2581 Y-0.1636
G01 X2.2103 Y-0.1355
G01 X2.1803 Y-0.1170
G01 X2.1339 Y-0.0867
G01 X1.7081 Y0.2050
G01 X1.6631 Y0.2374
G01 X1.6350 Y0.2586
G01 X1.5915 Y0.2930
G01 X1.1944 Y0.6227
G01 X1.1526 Y0.6591
G01 X1.1266 Y0.6828
G01 X1.0865 Y0.7211
G01 X0.7215 Y1.0861
G01 X0.6833 Y1.1262
G01 X0.6595 Y1.1522
G01 X0.6231 Y1.1940
G01 X0.2934 Y1.5911
G01 X0.2590 Y1.6346
G01 X0.2378 Y1.6627
G01 X0.2054 Y1.7077
G01 X-0.0863 Y2.1335
G01 X-0.1166 Y2.1799
G01 X-0.1351 Y2.2099
G01 X-0.1632 Y2.2577
G01 X-0.4143 Y2.7086
G01 X-0.4402 Y2.7576
G01 X-0.4559 Y2.7891
G01 X-0.4794 Y2.8393
G01 X-0.6879 Y3.3115
G01 X-0.7091 Y3.3627
G01 X-0.7219 Y3.3955
G01 X-0.7407 Y3.4477
G01 X-0.9047 Y3.9371
G01 X-0.9211 Y3.9900
G01 X-0.9307 Y4.0239
G01 X-0.9447 Y4.0775
G01 X-1.0629 Y4.5800
G01 X-1.0743 Y4.6342
G01 X-1.0808 Y4.6688
G01 X-1.0897 Y4.7235
G01 X-1.1610 Y5.2347
G01 X-1.1674 Y5.2898
G01 X-1.1706 Y5.3249
G01 X-1.1745 Y5.3801
G01 X-1.1780 Y5.4565
G01 X-1.1797 Y5.4649
G01 X-1.1852 Y5.5019
G01 X-1.1967 Y5.6191
G01 X-1.1986 Y5.6565
G01 X-1.2000 Y5.7154
G01 X-1.2000 Y46.0000
G00 X-1.2000 Y46.0000
G01 F60.00
G01 Z-1.2000
G01 F120.00
G01 X-1.2000 Y5.7154
G01 X-1.1986 Y5.6565
G01 X-1.1967 Y5.6191
G01 X-1.1852 Y5.5019
G01 X-1.1797 Y5.4649
G01 X-1.1780 Y5.4565
G01 X-1.1745 Y5.3801
G01 X-1.1706 Y5.3249
G01 X-1.1674 Y5.2898
G01 X-1.1610 Y5.2347
G01 X-1.0897 Y4.7235
G01 X-1.0808 Y4.6688
G01 X-1.0743 Y4.6342
G01 X-1.0629 Y4.5800
G01 X-0.9447 Y4.0775
G01 X-0.9307 Y4.0239
G01 X-0.9211 Y3.9900
G01 X-0.9047 Y3.9371
G01 X-0.7407 Y3.4477
G01 X-0.7219 Y3.3955
G01 X-0.7091 Y3.3627
G01 X-0.6879 Y3.3115
G01 X-0.4794 Y2.8393
G01 X-0.4559 Y2.7891
G01 X-0.4402 Y2.7576
G01 X-0.4143 Y2.7086
G01 X-0.1632 Y2.2577
G01 X-0.1351 Y2.2099
G01 X-0.1166 Y2.1799
G01 X-0.0863 Y2.1335
G01 X0.2054 Y1.7077
G01 X0.2378 Y1.6627
G01 X0.2590 Y1.6346
G01 X0.2934 Y1.5911
G01 X0.6231 Y1.1940
G01 X0.6595 Y1.1522
G01 X0.6833 Y1.1262
G01 X0.7215 Y1.0861
G01 X1.0865 Y0.7211
G01 X1.1266 Y0.6828
G01 X1.1526 Y0.6591
G01 X1.1944 Y0.6227
G01 X1.5915 Y0.2930
G01 X1.6350 Y0.2586
G01 X1.6631 Y0.2374
G01 X1.7081 Y0.2050
G01 X2.1339 Y-0.0867
G01 X2.1803 Y-0.1170
G01 X2.2103 Y-0.1355
G01 X2.2581 Y-0.1636
G01 X2.7090 Y-0.4148
G01 X2.7580 Y-0.4406
G01 X2.7895 Y-0.4563
G01 X2.8397 Y-0.4799
G01 X3.3119 Y-0.6883
G01 X3.3631 Y-0.7095
G01 X3.3959 Y-0.7223
G01 X3.4481 Y-0.7411
G01 X3.9375 Y-0.9051
G01 X3.9904 Y-0.9215
G01 X4.0243 Y-0.9312
G01 X4.0779 Y-0.9451
G01 X4.5804 Y-1.0633
G01 X4.6346 Y-1.0747
G01 X4.6692 Y-1.0812
G01 X4.7239 Y-1.0901
G01 X5.2351 Y-1.1614
G01 X5.2902 Y-1.1678
G01 X5.3253 Y-1.1710
G01 X5.3806 Y-1.1749
G01 X5.4599 Y-1.1786
G01 X5.5018 Y-1.1850
G01 X5.6190 Y-1.1965
G01 X5.6564 Y-1.1984
G01 X5.7153 Y-1.1998
G01 X5.9551 Y-1.2000
G01 X37.0000 Y-1.1986
G00 X37.0000 Y-1.1986
G01 F60.00
G01 Z-1.8000
G01 F120.00
G01 X5.9551 Y-1.2000
G01 X5.7153 Y-1.1998
G01 X5.6564 Y-1.1984
G01 X5.6190 Y-1.1965
G01 X5.5018 Y-1.1850
G01 X5.4599 Y-1.1786
G01 X5.3806 Y-1.1749
G01 X5.3253 Y-1.1710
G01 X5.2902 Y-1.1678
G01 X5.2351 Y-1.1614
G01 X4.7239 Y-1.0901
G01 X4.6692 Y-1.0812
G01 X4.6346 Y-1.0747
G01 X4.5804 Y-1.0633
G01 X4.0779 Y-0.9451
G01 X4.0243 Y-0.9312
G01 X3.9904 Y-0.9215
G01 X3.9375 Y-0.9051
G01 X3.4481 Y-0.7411
G01 X3.3959 Y-0.7223
G01 X3.3631 Y-0.7095
G01 X3.3119 Y-0.6883
G01 X2.8397 Y-0.4799
G01 X2.7895 Y-0.4563
G01 X2.7580 Y-0.4406
G01 X2.7090 Y-0.4148
G01 X2.2581 Y-0.1636
G01 X2.2103 Y-0.1355
G01 X2.1803 Y-0.1170
G01 X2.1339 Y-0.0867
G01 X1.7081 Y0.2050
G01 X1.6631 Y0.2374
G01 X1.6350 Y0.2586
G01 X1.5915 Y0.2930
G01 X1.1944 Y0.6227
G01 X1.1526 Y0.6591
G01 X1.1266 Y0.6828
G01 X1.0865 Y0.7211
G01 X0.7215 Y1.0861
G01 X0.6833 Y1.1262
G01 X0.6595 Y1.1522
G01 X0.6231 Y1.1940
G01 X0.2934 Y1.5911
G01 X0.2590 Y1.6346
G01 X0.2378 Y1.6627
G01 X0.2054 Y1.7077
G01 X-0.0863 Y2.1335
G01 X-0.1166 Y2.1799
G01 X-0.1351 Y2.2099
G01 X-0.1632 Y2.2577
G01 X-0.4143 Y2.7086
G01 X-0.4402 Y2.7576
G01 X-0.4559 Y2.7891
G01 X-0.4794 Y2.8393
G01 X-0.6879 Y3.3115
G01 X-0.7091 Y3.3627
G01 X-0.7219 Y3.3955
G01 X-0.7407 Y3.4477
G01 X-0.9047 Y3.9371
G01 X-0.9211 Y3.9900
G01 X-0.9307 Y4.0239
G01 X-0.9447 Y4.0775
G01 X-1.0629 Y4.5800
G01 X-1.0743 Y4.6342
G01 X-1.0808 Y4.6688
G01 X-1.0897 Y4.7235
G01 X-1.1610 Y5.2347
G01 X-1.1674 Y5.2898
G01 X-1.1706 Y5.3249
G01 X-1.1745 Y5.3801
G01 X-1.1780 Y5.4565
G01 X-1.1797 Y5.4649
G01 X-1.1852 Y5.5019
G01 X-1.1967 Y5.6191
G01 X-1.1986 Y5.6565
G01 X-1.2000 Y5.7154
G01 X-1.2000 Y46.0000
G00 Z2.0000
G00 X-1.2000 Y52.0000
G01 F60.00
G01 Z-0.6000
G01 F120.00
G01 X-1.2000 Y89.5354
G01 X-1.1996 Y89.5648
G01 X-1.1981 Y89.6129
G01 X-1.1712 Y90.1607
G01 X-1.1669 Y90.2194
G01 X-1.1632 Y90.2566
G01 X-1.1560 Y90.3151
G01 X-1.0755 Y90.8575
G01 X-1.0654 Y90.9156
G01 X-1.0581 Y90.9523
G01 X-1.0452 Y91.0097
G01 X-0.9120 Y91.5417
G01 X-0.8963 Y91.5984
G01 X-0.8854 Y91.6342
G01 X-0.8670 Y91.6902
G01 X-0.6822 Y92.2065
G01 X-0.6610 Y92.2614
G01 X-0.6467 Y92.2960
G01 X-0.6228 Y92.3498
G01 X-0.3884 Y92.8456
G01 X-0.3619 Y92.8982
G01 X-0.3442 Y92.9312
G01 X-0.3152 Y92.9824
G01 X-0.0333 Y93.4528
G01 X-0.0018 Y93.5025
G01 X0.0190 Y93.5336
G01 X0.0529 Y93.5818
G01 X0.3796 Y94.0223
G01 X0.4158 Y94.0687
G01 X0.4396 Y94.0976
G01 X0.4780 Y94.1422
G01 X0.8463 Y94.5485
G01 X0.8869 Y94.5912
G01 X0.9134 Y94.6176
G01 X0.9560 Y94.6583
G01 X1.3623 Y95.0265
G01 X1.4069 Y95.0650
G01 X1.4359 Y95.0887
G01 X1.4823 Y95.1250
G01 X1.9227 Y95.4516
G01 X1.9709 Y95.4856
G01 X2.0020 Y95.5063
G01 X2.0518 Y95.5378
G01 X2.5221 Y95.8198
G01 X2.5734 Y95.8488
G01 X2.6064 Y95.8664
G01 X2.6590 Y95.8929
G01 X3.1547 Y96.1274
G01 X3.2086 Y96.1513
G01 X3.2431 Y96.1656
G01 X3.2981 Y96.1868
G01 X3.8144 Y96.3715
G01 X3.8703 Y96.3900
G01 X3.9061 Y96.4008
G01 X3.9629 Y96.4166
G01 X4.4948 Y96.5498
G01 X4.5523 Y96.5627
G01 X4.5890 Y96.5700
G01 X4.6470 Y96.5801
G01 X5.1895 Y96.6605
G01 X5.2479 Y96.6677
G01 X5.2851 Y96.6714
G01 X5.3377 Y96.6754
G01 X5.4515 Y96.6816
G01 X5.4647 Y96.6842
G01 X5.5018 Y96.6897
G01 X5.6189 Y96.7013
G01 X5.6563 Y96.7031
G01 X5.7152 Y96.7046
G01 X36.0000 Y96.7046
G00 X36.0000 Y96.7046
G01 F60.00
G01 Z-1.2000
G01 F120.00
G01 X5.7152 Y96.7046
G01 X5.6563 Y96.7031
G01 X5.6189 Y96.7013
G01 X5.5018 Y96.6897
G01 X5.4647 Y96.6842
G01 X5.4515 Y96.6816
G01 X5.3377 Y96.6754
G01 X5.2851 Y96.6714
G01 X5.2479 Y96.6677
G01 X5.1895 Y96.6605
G01 X4.6470 Y96.5801
G01 X4.5890 Y96.5700
G01 X4.5523 Y96.5627
G01 X4.4948 Y96.5498
G01 X3.9629 Y96.4166
G01 X3.9061 Y96.4008
G01 X3.8703 Y96.3900
G01 X3.8144 Y96.3715
G01 X3.2981 Y96.1868
G01 X3.2431 Y96.1656
G01 X3.2086 Y96.1513
G01 X3.1547 Y96.1274
G01 X2.6590 Y95.8929
G01 X2.6064 Y95.8664
G01 X2.5734 Y95.8488
G01 X2.5221 Y95.8198
G01 X2.0518 Y95.5378
G01 X2.0020 Y95.5063
G01 X1.9709 Y95.4856
G01 X1.9227 Y95.4516
G01 X1.4823 Y95.1250
G01 X1.4359 Y95.0887
G01 X1.4069 Y95.0650
G01 X1.3623 Y95.0265
G01 X0.9560 Y94.6583
G01 X0.9134 Y94.6176
G01 X0.8869 Y94.5912
G01 X0.8463 Y94.5485
G01 X0.4780 Y94.1422
G01 X0.4396 Y94.0976
G01 X0.4158 Y94.0687
G01 X0.3796 Y94.0223
G01 X0.0529 Y93.5818
G01 X0.0190 Y93.5336
G01 X-0.0018 Y93.5025
G01 X-0.0333 Y93.4528
G01 X-0.3152 Y92.9824
G01 X-0.3442 Y92.9312
G01 X-0.3619 Y92.8982
G01 X-0.3884 Y92.8456
G01 X-0.6228 Y92.3498
G01 X-0.6467 Y92.2960
G01 X-0.6610 Y92.2614
G01 X-0.6822 Y92.2065
G01 X-0.8670 Y91.6902
G01 X-0.8854 Y91.6342
G01 X-0.8963 Y91.5984
G01 X-0.9120 Y91.5417
G01 X-1.0452 Y91.0097
G01 X-1.0581 Y90.9523
G01 X-1.0654 Y90.9156
G01 X-1.0755 Y90.8575
G01 X-1.1560 Y90.3151
G01 X-1.1632 Y90.2566
G01 X-1.1669 Y90.2194
G01 X-1.1712 Y90.1607
G01 X-1.1981 Y89.6129
G01 X-1.1996 Y89.5648
G01 X-1.2000 Y89.5354
G01 X-1.2000 Y52.0000
G00 X-1.2000 Y52.0000
G01 F60.00
G01 Z-1.8000
G01 F120.00
G01 X-1.2000 Y89.5354
G01 X-1.1996 Y89.5648
G01 X-1.1981 Y89.6129
G01 X-1.1712 Y90.1607
G01 X-1.1669 Y90.2194
G01 X-1.1632 Y90.2566
G01 X-1.1560 Y90.3151
G01 X-1.0755 Y90.8575
G01 X-1.0654 Y90.9156
G01 X-1.0581 Y90.9523
G01 X-1.0452 Y91.0097
G01 X-0.9120 Y91.5417
G01 X-0.8963 Y91.5984
G01 X-0.8854 Y91.6342
G01 X-0.8670 Y91.6902
G01 X-0.6822 Y92.2065
G01 X-0.6610 Y92.2614
G01 X-0.6467 Y92.2960
G01 X-0.6228 Y92.3498
G01 X-0.3884 Y92.8456
G01 X-0.3619 Y92.8982
G01 X-0.3442 Y92.9312
G01 X-0.3152 Y92.9824
G01 X-0.0333 Y93.4528
G01 X-0.0018 Y93.5025
G01 X0.0190 Y93.5336
G01 X0.0529 Y93.5818
G01 X0.3796 Y94.0223
G01 X0.4158 Y94.0687
G01 X0.4396 Y94.0976
G01 X0.4780 Y94.1422
G01 X0.8463 Y94.5485
G01 X0.8869 Y94.5912
G01 X0.9134 Y94.6176
G01 X0.9560 Y94.6583
G01 X1.3623 Y95.0265
G01 X1.4069 Y95.0650
G01 X1.4359 Y95.0887
G01 X1.4823 Y95.1250
G01 X1.9227 Y95.4516
G01 X1.9709 Y95.4856
G01 X2.0020 Y95.5063
G01 X2.0518 Y95.5378
G01 X2.5221 Y95.8198
G01 X2.5734 Y95.8488
G01 X2.6064 Y95.8664
G01 X2.6590 Y95.8929
G01 X3.1547 Y96.1274
G01 X3.2086 Y96.1513
G01 X3.2431 Y96.1656
G01 X3.2981 Y96.1868
G01 X3.8144 Y96.3715
G01 X3.8703 Y96.3900
G01 X3.9061 Y96.4008
G01 X3.9629 Y96.4166
G01 X4.4948 Y96.5498
G01 X4.5523 Y96.5627
G01 X4.5890 Y96.5700
G01 X4.6470 Y96.5801
G01 X5.1895 Y96.6605
G01 X5.2479 Y96.6677
G01 X5.2851 Y96.6714
G01 X5.3377 Y96.6754
G01 X5.4515 Y96.6816
G01 X5.4647 Y96.6842
G01 X5.5018 Y96.6897
G01 X5.6189 Y96.7013
G01 X5.6563 Y96.7031
G01 X5.7152 Y96.7046
G01 X36.0000 Y96.7046
G00 Z2.0000
G00 X44.0000 Y96.7046
G01 F60.00
G01 Z-0.6000
G01 F120.00
G01 X77.7242 Y96.7046
G01 X77.7877 Y96.7029
G01 X77.9101 Y96.7031
G01 X77.9474 Y96.7013
G01 X78.0646 Y96.6897
G01 X78.1016 Y96.6842
G01 X78.2171 Y96.6613
G01 X78.2534 Y96.6522
G01 X78.3661 Y96.6180
G01 X78.4013 Y96.6054
G01 X78.5101 Y96.5603
G01 X78.5439 Y96.5443
G01 X78.6478 Y96.4888
G01 X78.6799 Y96.4696
G01 X78.7778 Y96.4042
G01 X78.8079 Y96.3819
G01 X78.8989 Y96.3072
G01 X78.9266 Y96.2820
G01 X78.9693 Y96.2414
G01 X95.2702 Y79.9405
G01 X127.0000 Y79.9396
G00 X127.0000 Y79.9396
G01 F60.00
G01 Z-1.2000
G01 F120.00
G01 X95.2702 Y79.9405
G01 X78.9693 Y96.2414
G01 X78.9266 Y96.2820
G01 X78.8989 Y96.3072
G01 X78.8079 Y96.3819
G01 X78.7778 Y96.4042
G01 X78.6799 Y96.4696
G01 X78.6478 Y96.4888
G01 X78.5439 Y96.5443
G01 X78.5101 Y96.5603
G01 X78.4013 Y96.6054
G01 X78.3661 Y96.6180
G01 X78.2534 Y96.6522
G01 X78.2171 Y96.6613
G01 X78.1016 Y96.6842
G01 X78.0646 Y96.6897
G01 X77.9474 Y96.7013
G01 X77.9101 Y96.7031
G01 X77.7877 Y96.7029
G01 X77.7242 Y96.7046
G01 X44.0000 Y96.7046
G00 X44.0000 Y96.7046
G01 F60.00
G01 Z-1.8000
G01 F120.00
G01 X77.7242 Y96.7046
G01 X77.7877 Y96.7029
G01 X77.9101 Y96.7031
G01 X77.9474 Y96.7013
G01 X78.0646 Y96.6897
G01 X78.1016 Y96.6842
G01 X78.2171 Y96.6613
G01 X78.2534 Y96.6522
G01 X78.3661 Y96.6180
G01 X78.4013 Y96.6054
G01 X78.5101 Y96.5603
G01 X78.5439 Y96.5443
G01 X78.6478 Y96.4888
G01 X78.6799 Y96.4696
G01 X78.7778 Y96.4042
G01 X78.8079 Y96.3819
G01 X78.8989 Y96.3072
G01 X78.9266 Y96.2820
G01 X78.9693 Y96.2414
G01 X95.2702 Y79.9405
G01 X127.0000 Y79.9396
G00 Z2.0000
G00 X133.0000 Y79.9394
G01 F60.00
G01 Z-0.6000
G01 F120.00
G01 X170.8152 Y79.9382
G01 X170.8634 Y79.9374
G01 X170.8928 Y79.9363
G01 X171.4405 Y79.9094
G01 X171.4992 Y79.9051
G01 X171.5365 Y79.9014
G01 X171.5949 Y79.8942
G01 X172.1374 Y79.8137
G01 X172.1954 Y79.8037
G01 X172.2321 Y79.7964
G01 X172.2896 Y79.7835
G01 X172.8215 Y79.6502
G01 X172.8783 Y79.6345
G01 X172.9141 Y79.6236
G01 X172.9700 Y79.6052
G01 X173.4863 Y79.4204
G01 X173.5413 Y79.3992
G01 X173.5758 Y79.3849
G01 X173.6297 Y79.3610
G01 X174.1254 Y79.1266
G01 X174.1780 Y79.1001
G01 X174.2110 Y79.0825
G01 X174.2622 Y79.0534
G01 X174.7326 Y78.7715
G01 X174.7824 Y78.7400
G01 X174.8135 Y78.7192
G01 X174.8616 Y78.6853
G01 X175.3021 Y78.3586
G01 X175.3485 Y78.3224
G01 X175.3774 Y78.2987
G01 X175.4220 Y78.2602
G01 X175.8284 Y77.8919
G01 X175.8710 Y77.8513
G01 X175.8975 Y77.8249
G01 X175.9381 Y77.7822
G01 X176.3064 Y77.3759
G01 X176.3448 Y77.3313
G01 X176.3686 Y77.3024
G01 X176.4048 Y77.2559
G01 X176.7315 Y76.8155
G01 X176.7654 Y76.7673
G01 X176.7862 Y76.7362
G01 X176.8177 Y76.6864
G01 X177.0996 Y76.2161
G01 X177.1286 Y76.1648
G01 X177.1463 Y76.1318
G01 X177.1727 Y76.0792
G01 X177.4072 Y75.5835
G01 X177.4311 Y75.5297
G01 X177.4454 Y75.4951
G01 X177.4666 Y75.4401
G01 X177.6513 Y74.9238
G01 X177.6698 Y74.8679
G01 X177.6807 Y74.8321
G01 X177.6964 Y74.7753
G01 X177.8296 Y74.2434
G01 X177.8425 Y74.1859
G01 X177.8498 Y74.1492
G01 X177.8599 Y74.0912
G01 X177.9404 Y73.5488
G01 X177.9476 Y73.4903
G01 X177.9512 Y73.4531
G01 X177.9556 Y73.3943
G01 X177.9825 Y72.8466
G01 X177.9838 Y72.8111
G01 X177.9844 Y72.7794
G01 X178.0898 Y52.0000
G00 X178.0898 Y52.0000
G01 F60.00
G01 Z-1.2000
G01 F120.00
G01 X177.9844 Y72.7794
G01 X177.9838 Y72.8111
G01 X177.9825 Y72.8466
G01 X177.9556 Y73.3943
G01 X177.9512 Y73.4531
G01 X177.9476 Y73.4903
G01 X177.9404 Y73.5488
G01 X177.8599 Y74.0912
G01 X177.8498 Y74.1492
G01 X177.8425 Y74.1859
G01 X177.8296 Y74.2434
G01 X177.6964 Y74.7753
G01 X177.6807 Y74.8321
G01 X177.6698 Y74.8679
G01 X177.6513 Y74.9238
G01 X177.4666 Y75.4401
G01 X177.4454 Y75.4951
G01 X177.4311 Y75.5297
G01 X177.4072 Y75.5835
G01 X177.1727 Y76.0792
G01 X177.1463 Y76.1318
G01 X177.1286 Y76.1648
G01 X177.0996 Y76.2161
G01 X176.8177 Y76.6864
G01 X176.7862 Y76.7362
G01 X176.7654 Y76.7673
G01 X176.7315 Y76.8155
G01 X176.4048 Y77.2559
G01 X176.3686 Y77.3024
G01 X176.3448 Y77.3313
G01 X176.3064 Y77.3759
G01 X175.9381 Y77.7822
G01 X175.8975 Y77.8249
G01 X175.8710 Y77.8513
G01 X175.8284 Y77.8919
G01 X175.4220 Y78.2602
G01 X175.3774 Y78.2987
G01 X175.3485 Y78.3224
G01 X175.3021 Y78.3586
G01 X174.8616 Y78.6853
G01 X174.8135 Y78.7192
G01 X174.7824 Y78.7400
G01 X174.7326 Y78.7715
G01 X174.2622 Y79.0534
G01 X174.2110 Y79.0825
G01 X174.1780 Y79.1001
G01 X174.1254 Y79.1266
G01 X173.6297 Y79.3610
G01 X173.5758 Y79.3849
G01 X173.5413 Y79.3992
G01 X173.4863 Y79.4204
G01 X172.9700 Y79.6052
G01 X172.9141 Y79.6236
G01 X172.8783 Y79.6345
G01 X172.8215 Y79.6502
G01 X172.2896 Y79.7835
G01 X172.2321 Y79.7964
G01 X172.1954 Y79.8037
G01 X172.1374 Y79.8137
G01 X171.5949 Y79.8942
G01 X171.5365 Y79.9014
G01 X171.4992 Y79.9051
G01 X171.4405 Y79.9094
G01 X170.8928 Y79.9363
G01 X170.8634 Y79.9374
G01 X170.8152 Y79.9382
G01 X133.0000 Y79.9394
G00 X133.0000 Y79.9394
G01 F60.00
G01 Z-1.8000
G01 F120.00
G01 X170.8152 Y79.9382
G01 X170.8634 Y79.9374
G01 X170.8928 Y79.9363
G01 X171.4405 Y79.9094
G01 X171.4992 Y79.9051
G01 X171.5365 Y79.9014
G01 X171.5949 Y79.8942
G01 X172.1374 Y79.8137
G01 X172.1954 Y79.8037
G01 X172.2321 Y79.7964
G01 X172.2896 Y79.7835
G01 X172.8215 Y79.6502
G01 X172.8783 Y79.6345
G01 X172.9141 Y79.6236
G01 X172.9700 Y79.6052
G01 X173.4863 Y79.4204
G01 X173.5413 Y79.3992
G01 X173.5758 Y79.3849
G01 X173.6297 Y79.3610
G01 X174.1254 Y79.1266
G01 X174.1780 Y79.1001
G01 X174.2110 Y79.0825
G01 X174.2622 Y79.0534
G01 X174.7326 Y78.7715
G01 X174.7824 Y78.7400
G01 X174.8135 Y78.7192
G01 X174.8616 Y78.6853
G01 X175.3021 Y78.3586
G01 X175.3485 Y78.3224
G01 X175.3774 Y78.2987
G01 X175.4220 Y78.2602
G01 X175.8284 Y77.8919
G01 X175.8710 Y77.8513
G01 X175.8975 Y77.8249
G01 X175.9381 Y77.7822
G01 X176.3064 Y77.3759
G01 X176.3448 Y77.3313
G01 X176.3686 Y77.3024
G01 X176.4048 Y77.2559
G01 X176.7315 Y76.8155
G01 X176.7654 Y76.7673
G01 X176.7862 Y76.7362
G01 X176.8177 Y76.6864
G01 X177.0996 Y76.2161
G01 X177.1286 Y76.1648
G01 X177.1463 Y76.1318
G01 X177.1727 Y76.0792
G01 X177.4072 Y75.5835
G01 X177.4311 Y75.5297
G01 X177.4454 Y75.4951
G01 X177.4666 Y75.4401
G01 X177.6513 Y74.9238
G01 X177.6698 Y74.8679
G01 X177.6807 Y74.8321
G01 X177.6964 Y74.7753
G01 X177.8296 Y74.2434
G01 X177.8425 Y74.1859
G01 X177.8498 Y74.1492
G01 X177.8599 Y74.0912
G01 X177.9404 Y73.5488
G01 X177.9476 Y73.4903
G01 X177.9512 Y73.4531
G01 X177.9556 Y73.3943
G01 X177.9825 Y72.8466
G01 X177.9838 Y72.8111
G01 X177.9844 Y72.7794
G01 X178.0898 Y52.0000
G00 Z2.0000
G00 X178.1203 Y46.0000
G01 F60.00
G01 Z-0.6000
G01 F120.00
G01 X178.2384 Y22.7414
G01 X178.2381 Y22.7089
G01 X178.2365 Y22.6558
G01 X178.2096 Y22.1081
G01 X178.2052 Y22.0493
G01 X178.2016 Y22.0121
G01 X178.1944 Y21.9536
G01 X178.1139 Y21.4112
G01 X178.1038 Y21.3532
G01 X178.0965 Y21.3165
G01 X178.0836 Y21.2590
G01 X177.9504 Y20.7271
G01 X177.9347 Y20.6703
G01 X177.9238 Y20.6345
G01 X177.9053 Y20.5786
G01 X177.7206 Y20.0622
G01 X177.6994 Y20.0073
G01 X177.6851 Y19.9727
G01 X177.6612 Y19.9189
G01 X177.4267 Y19.4232
G01 X177.4003 Y19.3705
G01 X177.3826 Y19.3376
G01 X177.3536 Y19.2863
G01 X177.0717 Y18.8159
G01 X177.0402 Y18.7662
G01 X177.0194 Y18.7351
G01 X176.9855 Y18.6869
G01 X176.6588 Y18.2465
G01 X176.6226 Y18.2000
G01 X176.5988 Y18.1711
G01 X176.5604 Y18.1265
G01 X176.1921 Y17.7202
G01 X176.1515 Y17.6775
G01 X176.1250 Y17.6511
G01 X176.0824 Y17.6105
G01 X175.6760 Y17.2422
G01 X175.6314 Y17.2037
G01 X175.6025 Y17.1800
G01 X175.5561 Y17.1438
G01 X175.1156 Y16.8171
G01 X175.0675 Y16.7832
G01 X175.0364 Y16.7624
G01 X174.9866 Y16.7309
G01 X174.5162 Y16.4490
G01 X174.4650 Y16.4199
G01 X174.4320 Y16.4023
G01 X174.3794 Y16.3758
G01 X173.8837 Y16.1413
G01 X173.8298 Y16.1175
G01 X173.7953 Y16.1032
G01 X173.7403 Y16.0820
G01 X173.2240 Y15.8972
G01 X173.1681 Y15.8787
G01 X173.1323 Y15.8679
G01 X173.0755 Y15.8522
G01 X172.5436 Y15.7189
G01 X172.4861 Y15.7060
G01 X172.4494 Y15.6987
G01 X172.3914 Y15.6887
G01 X171.8489 Y15.6082
G01 X171.7905 Y15.6010
G01 X171.7532 Y15.5973
G01 X171.6945 Y15.5930
G01 X171.1468 Y15.5661
G01 X171.0879 Y15.5646
G01 X171.0505 Y15.5646
G01 X170.9386 Y15.5701
G01 X170.9114 Y15.5675
G01 X170.8740 Y15.5656
G01 X170.8151 Y15.5642
G01 X137.0000 Y15.5652
G00 X137.0000 Y15.5652
G01 F60.00
G01 Z-1.2000
G01 F120.00
G01 X170.8151 Y15.5642
G01 X170.8740 Y15.5656
G01 X170.9114 Y15.5675
G01 X170.9386 Y15.5701
G01 X171.0505 Y15.5646
G01 X171.0879 Y15.5646
G01 X171.1468 Y15.5661
G01 X171.6945 Y15.5930
G01 X171.7532 Y15.5973
G01 X171.7905 Y15.6010
G01 X171.8489 Y15.6082
G01 X172.3914 Y15.6887
G01 X172.4494 Y15.6987
G01 X172.4861 Y15.7060
G01 X172.5436 Y15.7189
G01 X173.0755 Y15.8522
G01 X173.1323 Y15.8679
G01 X173.1681 Y15.8787
G01 X173.2240 Y15.8972
G01 X173.7403 Y16.0820
G01 X173.7953 Y16.1032
G01 X173.8298 Y16.1175
G01 X173.8837 Y16.1413
G01 X174.3794 Y16.3758
G01 X174.4320 Y16.4023
G01 X174.4650 Y16.4199
G01 X174.5162 Y16.4490
G01 X174.9866 Y16.7309
G01 X175.0364 Y16.7624
G01 X175.0675 Y16.7832
G01 X175.1156 Y16.8171
G01 X175.5561 Y17.1438
G01 X175.6025 Y17.1800
G01 X175.6314 Y17.2037
G01 X175.6760 Y17.2422
G01 X176.0824 Y17.6105
G01 X176.1250 Y17.6511
G01 X176.1515 Y17.6775
G01 X176.1921 Y17.7202
G01 X176.5604 Y18.1265
G01 X176.5988 Y18.1711
G01 X176.6226 Y18.2000
G01 X176.6588 Y18.2465
G01 X176.9855 Y18.6869
G01 X177.0194 Y18.7351
G01 X177.0402 Y18.7662
G01 X177.0717 Y18.8159
G01 X177.3536 Y19.2863
G01 X177.3826 Y19.3376
G01 X177.4003 Y19.3705
G01 X177.4267 Y19.4232
G01 X177.6612 Y19.9189
G01 X177.6851 Y19.9727
G01 X177.6994 Y20.0073
G01 X177.7206 Y20.0622
G01 X177.9053 Y20.5786
G01 X177.9238 Y20.6345
G01 X177.9347 Y20.6703
G01 X177.9504 Y20.7271
G01 X178.0836 Y21.2590
G01 X178.0965 Y21.3165
G01 X178.1038 Y21.3532
G01 X178.1139 Y21.4112
G01 X178.1944 Y21.9536
G01 X178.2016 Y22.0121
G01 X178.2052 Y22.0493
G01 X178.2096 Y22.1081
G01 X178.2365 Y22.6558
G01 X178.2381 Y22.7089
G01 X178.2384 Y22.7414
G01 X178.1203 Y46.0000
G00 X178.1203 Y46.0000
G01 F60.00
G01 Z-1.8000
G01 F120.00
G01 X178.2384 Y22.7414
G01 X178.2381 Y22.7089
G01 X178.2365 Y22.6558
G01 X178.2096 Y22.1081
G01 X178.2052 Y22.0493
G01 X178.2016 Y22.0121
G01 X178.1944 Y21.9536
G01 X178.1139 Y21.4112
G01 X178.1038 Y21.3532
G01 X178.0965 Y21.3165
G01 X178.0836 Y21.2590
G01 X177.9504 Y20.7271
G01 X177.9347 Y20.6703
G01 X177.9238 Y20.6345
G01 X177.9053 Y20.5786
G01 X177.7206 Y20.0622
G01 X177.6994 Y20.0073
G01 X177.6851 Y19.9727
G01 X177.6612 Y19.9189
G01 X177.4267 Y19.4232
G01 X177.4003 Y19.3705
G01 X177.3826 Y19.3376
G01 X177.3536 Y19.2863
G01 X177.0717 Y18.8159
G01 X177.0402 Y18.7662
G01 X177.0194 Y18.7351
G01 X176.9855 Y18.6869
G01 X176.6588 Y18.2465
G01 X176.6226 Y18.2000
G01 X176.5988 Y18.1711
G01 X176.5604 Y18.1265
G01 X176.1921 Y17.7202
G01 X176.1515 Y17.6775
G01 X176.1250 Y17.6511
G01 X176.0824 Y17.6105
G01 X175.6760 Y17.2422
G01 X175.6314 Y17.2037
G01 X175.6025 Y17.1800
G01 X175.5561 Y17.1438
G01 X175.1156 Y16.8171
G01 X175.0675 Y16.7832
G01 X175.0364 Y16.7624
G01 X174.9866 Y16.7309
G01 X174.5162 Y16.4490
G01 X174.4650 Y16.4199
G01 X174.4320 Y16.4023
G01 X174.3794 Y16.3758
G01 X173.8837 Y16.1413
G01 X173.8298 Y16.1175
G01 X173.7953 Y16.1032
G01 X173.7403 Y16.0820
G01 X173.2240 Y15.8972
G01 X173.1681 Y15.8787
G01 X173.1323 Y15.8679
G01 X173.0755 Y15.8522
G01 X172.5436 Y15.7189
G01 X172.4861 Y15.7060
G01 X172.4494 Y15.6987
G01 X172.3914 Y15.6887
G01 X171.8489 Y15.6082
G01 X171.7905 Y15.6010
G01 X171.7532 Y15.5973
G01 X171.6945 Y15.5930
G01 X171.1468 Y15.5661
G01 X171.0879 Y15.5646
G01 X171.0505 Y15.5646
G01 X170.9386 Y15.5701
G01 X170.9114 Y15.5675
G01 X170.8740 Y15.5656
G01 X170.8151 Y15.5642
G01 X137.0000 Y15.5652
G00 Z2.0000
G00 X129.0000 Y15.5655
G01 F60.00
G01 Z-0.6000
G01 F120.00
G01 X95.2725 Y15.5665
G01 X78.9693 Y-0.7367
G01 X78.9266 Y-0.7773
G01 X78.8989 Y-0.8024
G01 X78.8079 Y-0.8771
G01 X78.7778 Y-0.8994
G01 X78.6799 Y-0.9649
G01 X78.6478 Y-0.9841
G01 X78.5439 Y-1.0396
G01 X78.5101 Y-1.0556
G01 X78.4013 Y-1.1007
G01 X78.3661 Y-1.1133
G01 X78.2534 Y-1.1475
G01 X78.2171 Y-1.1565
G01 X78.1016 Y-1.1795
G01 X78.0646 Y-1.1850
G01 X77.9474 Y-1.1965
G01 X77.9101 Y-1.1984
G01 X77.7923 Y-1.1984
G01 X77.7517 Y-1.1962
G01 X77.7243 Y-1.1969
G01 X44.0000 Y-1.1983
G00 X44.0000 Y-1.1983
G01 F60.00
G01 Z-1.2000
G01 F120.00
G01 X77.7243 Y-1.1969
G01 X77.7517 Y-1.1962
G01 X77.7923 Y-1.1984
G01 X77.9101 Y-1.1984
G01 X77.9474 Y-1.1965
G01 X78.0646 Y-1.1850
G01 X78.1016 Y-1.1795
G01 X78.2171 Y-1.1565
G01 X78.2534 Y-1.1475
G01 X78.3661 Y-1.1133
G01 X78.4013 Y-1.1007
G01 X78.5101 Y-1.0556
G01 X78.5439 Y-1.0396
G01 X78.6478 Y-0.9841
G01 X78.6799 Y-0.9649
G01 X78.7778 Y-0.8994
G01 X78.8079 Y-0.8771
G01 X78.8989 Y-0.8024
G01 X78.9266 Y-0.7773
G01 X78.9693 Y-0.7367
G01 X95.2725 Y15.5665
G01 X129.0000 Y15.5655
G00 X129.0000 Y15.5655
G01 F60.00
G01 Z-1.8000
G01 F120.00
G01 X95.2725 Y15.5665
G01 X78.9693 Y-0.7367
G01 X78.9266 Y-0.7773
G01 X78.8989 Y-0.8024
G01 X78.8079 Y-0.8771
G01 X78.7778 Y-0.8994
G01 X78.6799 Y-0.9649
G01 X78.6478 Y-0.9841
G01 X78.5439 Y-1.0396
G01 X78.5101 Y-1.0556
G01 X78.4013 Y-1.1007
G01 X78.3661 Y-1.1133
G01 X78.2534 Y-1.1475
G01 X78.2171 Y-1.1565
G01 X78.1016 Y-1.1795
G01 X78.0646 Y-1.1850
G01 X77.9474 Y-1.1965
G01 X77.9101 Y-1.1984
G01 X77.7923 Y-1.1984
G01 X77.7517 Y-1.1962
G01 X77.7243 Y-1.1969
G01 X44.0000 Y-1.1983
G00 Z2.0000
M05
G00 Z2.0000
G00 Z15.00

