(G-CODE GENERATED BY FLATCAM v8.993 - www.flatcam.org - Version Date: 2020/06/05)

(Name: Alignment_2.4)
(Type: G-code from Geometry)
(Units: MM)

(Created on Thursday, 15 April 2021 at 19:11)

(This preprocessor is the default preprocessor used by FlatCAM.)
(It is made to work with MACH3 compatible motion controllers.)

(TOOL DIAMETER: 2.4 mm)
(Feedrate_XY: 120.0 mm/min)
(Feedrate_Z: 60.0 mm/min)
(Feedrate rapids 1500.0 mm/min)

(Z_Cut: -8.0 mm)
(Z_Move: 2.0 mm)
(Z Start: None mm)
(Z End: 15.0 mm)
(Steps per circle: 64)
(Preprocessor Geometry: default)

(X range:    7.0000 ...  195.0000  mm)
(Y range:   14.0000 ...   86.5045  mm)

(Spindle Speed: None RPM)
G21
G90
G94



G01 F120.00
G00 Z2.0000

M03
G00 X7.0000 Y14.0000
G01 F60.00
G01 Z-8.0000
G01 F120.00
G01 X7.0000 Y14.0000
G01 X7.0000 Y14.0000
G01 X7.0000 Y14.0000
G01 X7.0000 Y14.0000
G00 Z2.0000
G00 X7.0000 Y40.0000
G01 F60.00
G01 Z-8.0000
G01 F120.00
G01 X7.0000 Y40.0000
G01 X7.0000 Y40.0000
G01 X7.0000 Y40.0000
G01 X7.0000 Y40.0000
G00 Z2.0000
G00 X7.0000 Y60.5045
G01 F60.00
G01 Z-8.0000
G01 F120.00
G01 X7.0000 Y60.5045
G01 X7.0000 Y60.5045
G01 X7.0000 Y60.5045
G01 X7.0000 Y60.5045
G00 Z2.0000
G00 X7.0000 Y86.5045
G01 F60.00
G01 Z-8.0000
G01 F120.00
G01 X7.0000 Y86.5045
G01 X7.0000 Y86.5045
G01 X7.0000 Y86.5045
G01 X7.0000 Y86.5045
G00 Z2.0000
G00 X120.0000 Y86.5045
G01 F60.00
G01 Z-8.0000
G01 F120.00
G01 X120.0000 Y86.5045
G01 X120.0000 Y86.5045
G01 X120.0000 Y86.5045
G01 X120.0000 Y86.5045
G00 Z2.0000
G00 X120.0000 Y14.0000
G01 F60.00
G01 Z-8.0000
G01 F120.00
G01 X120.0000 Y14.0000
G01 X120.0000 Y14.0000
G01 X120.0000 Y14.0000
G01 X120.0000 Y14.0000
G00 Z2.0000
G00 X195.0000 Y14.0000
G01 F60.00
G01 Z-8.0000
G01 F120.00
G01 X195.0000 Y14.0000
G01 X195.0000 Y14.0000
G01 X195.0000 Y14.0000
G01 X195.0000 Y14.0000
G00 Z2.0000
G00 X195.0000 Y40.0000
G01 F60.00
G01 Z-8.0000
G01 F120.00
G01 X195.0000 Y40.0000
G01 X195.0000 Y40.0000
G01 X195.0000 Y40.0000
G01 X195.0000 Y40.0000
G00 Z2.0000
G00 X195.0000 Y60.5045
G01 F60.00
G01 Z-8.0000
G01 F120.00
G01 X195.0000 Y60.5045
G01 X195.0000 Y60.5045
G01 X195.0000 Y60.5045
G01 X195.0000 Y60.5045
G00 Z2.0000
G00 X195.0000 Y86.5045
G01 F60.00
G01 Z-8.0000
G01 F120.00
G01 X195.0000 Y86.5045
G01 X195.0000 Y86.5045
G01 X195.0000 Y86.5045
G01 X195.0000 Y86.5045
G00 Z2.0000
M05
G00 Z2.0000
G00 Z15.00

