(G-CODE GENERATED BY FLATCAM v8.993 - www.flatcam.org - Version Date: 2020/06/05)

(Name: BottomLayer_0.1)
(Type: G-code from Geometry)
(Units: MM)

(Created on Thursday, 15 April 2021 at 19:11)

(This preprocessor is the default preprocessor used by FlatCAM.)
(It is made to work with MACH3 compatible motion controllers.)

(TOOL DIAMETER: 0.1 mm)
(Feedrate_XY: 120.0 mm/min)
(Feedrate_Z: 60.0 mm/min)
(Feedrate rapids 1500.0 mm/min)

(Z_Cut: -0.05 mm)
(Z_Move: 2.0 mm)
(Z Start: None mm)
(Z End: 15.0 mm)
(Steps per circle: 64)
(Preprocessor Geometry: default)

(X range:   13.0877 ...  188.9506  mm)
(Y range:    3.0877 ...   97.4166  mm)

(Spindle Speed: None RPM)
G21
G90
G94



G01 F120.00
G00 Z2.0000

M03
G00 X16.6578 Y9.2287
G01 F60.00
G01 Z-0.0500
G01 F120.00
G01 X16.6628 Y9.1283
G01 X16.6779 Y9.0264
G01 X16.7029 Y8.9265
G01 X16.7376 Y8.8296
G01 X16.7816 Y8.7365
G01 X16.8346 Y8.6481
G01 X16.8959 Y8.5654
G01 X16.9651 Y8.4891
G01 X17.0414 Y8.4199
G01 X17.1241 Y8.3586
G01 X17.2125 Y8.3056
G01 X17.3056 Y8.2616
G01 X17.4025 Y8.2269
G01 X17.5024 Y8.2019
G01 X17.6043 Y8.1868
G01 X17.7072 Y8.1817
G01 X17.8101 Y8.1868
G01 X17.9119 Y8.2019
G01 X18.0118 Y8.2269
G01 X18.1088 Y8.2616
G01 X18.2019 Y8.3056
G01 X18.2903 Y8.3586
G01 X18.3730 Y8.4199
G01 X18.4493 Y8.4891
G01 X18.5185 Y8.5654
G01 X18.5798 Y8.6481
G01 X18.6328 Y8.7365
G01 X18.6768 Y8.8296
G01 X18.7115 Y8.9265
G01 X18.7365 Y9.0264
G01 X18.7516 Y9.1283
G01 X18.7567 Y9.2312
G01 X18.7516 Y9.3341
G01 X18.7365 Y9.4359
G01 X18.7115 Y9.5358
G01 X18.6768 Y9.6328
G01 X18.6328 Y9.7259
G01 X18.5798 Y9.8143
G01 X18.5185 Y9.8970
G01 X18.4493 Y9.9733
G01 X18.3730 Y10.0425
G01 X18.2903 Y10.1038
G01 X18.2019 Y10.1568
G01 X18.1088 Y10.2008
G01 X18.0118 Y10.2355
G01 X17.9119 Y10.2605
G01 X17.8101 Y10.2756
G01 X17.7072 Y10.2807
G01 X17.6043 Y10.2756
G01 X17.5024 Y10.2605
G01 X17.4025 Y10.2355
G01 X17.3056 Y10.2008
G01 X17.2125 Y10.1568
G01 X17.1241 Y10.1038
G01 X17.0414 Y10.0425
G01 X16.9651 Y9.9733
G01 X16.8959 Y9.8970
G01 X16.8346 Y9.8143
G01 X16.7816 Y9.7259
G01 X16.7376 Y9.6328
G01 X16.7029 Y9.5358
G01 X16.6779 Y9.4359
G01 X16.6628 Y9.3341
G01 X16.6578 Y9.2287
G00 Z2.0000
G00 X17.6733 Y10.2830
G01 F60.00
G01 Z-0.0500
G01 F120.00
G01 X17.5395 Y10.2699
G01 X17.4080 Y10.2398
G01 X17.2814 Y10.1932
G01 X17.1616 Y10.1312
G01 X17.0511 Y10.0541
G01 X16.9512 Y9.9634
G01 X16.8640 Y9.8606
G01 X16.7902 Y9.7477
G01 X16.7320 Y9.6259
G01 X16.6894 Y9.4978
G01 X16.6637 Y9.3660
G01 X16.6549 Y9.2312
G01 X16.6637 Y9.0964
G01 X16.6894 Y8.9645
G01 X16.7320 Y8.8364
G01 X16.7902 Y8.7147
G01 X16.8640 Y8.6018
G01 X16.9512 Y8.4989
G01 X17.0511 Y8.4083
G01 X17.1616 Y8.3312
G01 X17.2814 Y8.2692
G01 X17.4080 Y8.2226
G01 X17.5395 Y8.1925
G01 X17.6733 Y8.1794
G01 X17.8081 Y8.1838
G01 X17.9414 Y8.2051
G01 X18.0704 Y8.2434
G01 X18.1941 Y8.2982
G01 X18.3094 Y8.3680
G01 X18.4146 Y8.4524
G01 X18.5083 Y8.5490
G01 X18.5893 Y8.6571
G01 X18.6552 Y8.7744
G01 X18.7061 Y8.8995
G01 X18.7401 Y9.0299
G01 X18.7575 Y9.1638
G01 X18.7575 Y9.2986
G01 X18.7401 Y9.4324
G01 X18.7061 Y9.5629
G01 X18.6552 Y9.6880
G01 X18.5893 Y9.8053
G01 X18.5083 Y9.9134
G01 X18.4146 Y10.0100
G01 X18.3094 Y10.0944
G01 X18.1941 Y10.1642
G01 X18.0704 Y10.2190
G01 X17.9414 Y10.2573
G01 X17.8081 Y10.2786
G01 X17.6733 Y10.2830
G00 Z2.0000
G00 X19.6338 Y10.1454
G01 F60.00
G01 Z-0.0500
G01 F120.00
G01 X19.5445 Y10.0806
G01 X19.4435 Y9.9858
G01 X19.3555 Y9.8789
G01 X19.3336 Y9.8446
G01 X19.3970 Y9.8446
G01 X19.4359 Y9.8970
G01 X19.5051 Y9.9733
G01 X19.5814 Y10.0425
G01 X19.6338 Y10.0814
G01 X19.6338 Y10.1454
G00 Z2.0000
G00 X20.8606 Y10.1454
G01 F60.00
G01 Z-0.0500
G01 F120.00
G01 X20.8606 Y10.0814
G01 X20.9130 Y10.0425
G01 X20.9893 Y9.9733
G01 X21.0585 Y9.8970
G01 X21.0974 Y9.8446
G01 X21.1608 Y9.8446
G01 X21.1388 Y9.8789
G01 X21.0509 Y9.9859
G01 X20.9499 Y10.0806
G01 X20.8606 Y10.1454
G00 Z2.0000
G00 X20.8606 Y8.3170
G01 F60.00
G01 Z-0.0500
G01 F120.00
G01 X20.9499 Y8.3818
G01 X21.0509 Y8.4765
G01 X21.1388 Y8.5835
G01 X21.1608 Y8.6178
G01 X21.0974 Y8.6178
G01 X21.0585 Y8.5654
G01 X20.9893 Y8.4891
G01 X20.9130 Y8.4199
G01 X20.8606 Y8.3810
G01 X20.8606 Y8.3170
G00 Z2.0000
G00 X19.3970 Y8.6178
G01 F60.00
G01 Z-0.0500
G01 F120.00
G01 X19.3336 Y8.6178
G01 X19.3555 Y8.5835
G01 X19.4435 Y8.4765
G01 X19.5445 Y8.3818
G01 X19.6338 Y8.3170
G01 X19.6338 Y8.3810
G01 X19.5814 Y8.4199
G01 X19.5051 Y8.4891
G01 X19.4359 Y8.5654
G01 X19.3970 Y8.6178
G00 Z2.0000
G00 X23.7930 Y8.1816
G01 F60.00
G01 Z-0.0500
G01 F120.00
G01 X23.7872 Y8.1812
G01 X21.7872 Y8.1812
G01 X21.7814 Y8.1816
G01 X21.7990 Y8.1788
G01 X23.7754 Y8.1788
G01 X23.7930 Y8.1816
G00 Z2.0000
G00 X23.8362 Y8.2211
G01 F60.00
G01 Z-0.0500
G01 F120.00
G01 X23.8343 Y8.2144
G01 X23.8313 Y8.2076
G01 X23.8273 Y8.2014
G01 X23.8225 Y8.1959
G01 X23.8170 Y8.1911
G01 X23.8108 Y8.1871
G01 X23.8040 Y8.1841
G01 X23.7968 Y8.1822
G01 X23.8030 Y8.1831
G01 X23.8173 Y8.1902
G01 X23.8281 Y8.2011
G01 X23.8353 Y8.2153
G01 X23.8362 Y8.2211
G00 Z2.0000
G00 X23.8369 Y10.2364
G01 F60.00
G01 Z-0.0500
G01 F120.00
G01 X23.8372 Y10.2312
G01 X23.8372 Y8.2312
G01 X23.8369 Y8.2259
G01 X23.8396 Y8.2429
G01 X23.8396 Y10.2194
G01 X23.8369 Y10.2364
G00 Z2.0000
G00 X31.8978 Y9.2287
G01 F60.00
G01 Z-0.0500
G01 F120.00
G01 X31.9028 Y9.1283
G01 X31.9179 Y9.0264
G01 X31.9429 Y8.9265
G01 X31.9776 Y8.8296
G01 X32.0216 Y8.7365
G01 X32.0746 Y8.6481
G01 X32.1359 Y8.5654
G01 X32.2051 Y8.4891
G01 X32.2814 Y8.4199
G01 X32.3641 Y8.3586
G01 X32.4525 Y8.3056
G01 X32.5456 Y8.2616
G01 X32.6425 Y8.2269
G01 X32.7424 Y8.2019
G01 X32.8443 Y8.1868
G01 X32.9472 Y8.1817
G01 X33.0501 Y8.1868
G01 X33.1519 Y8.2019
G01 X33.2518 Y8.2269
G01 X33.3488 Y8.2616
G01 X33.4419 Y8.3056
G01 X33.5303 Y8.3586
G01 X33.6130 Y8.4199
G01 X33.6893 Y8.4891
G01 X33.7585 Y8.5654
G01 X33.8198 Y8.6481
G01 X33.8728 Y8.7365
G01 X33.9168 Y8.8296
G01 X33.9515 Y8.9265
G01 X33.9765 Y9.0264
G01 X33.9916 Y9.1283
G01 X33.9967 Y9.2312
G01 X33.9916 Y9.3341
G01 X33.9765 Y9.4359
G01 X33.9515 Y9.5358
G01 X33.9168 Y9.6328
G01 X33.8728 Y9.7259
G01 X33.8198 Y9.8143
G01 X33.7585 Y9.8970
G01 X33.6893 Y9.9733
G01 X33.6130 Y10.0425
G01 X33.5303 Y10.1038
G01 X33.4419 Y10.1568
G01 X33.3488 Y10.2008
G01 X33.2518 Y10.2355
G01 X33.1519 Y10.2605
G01 X33.0501 Y10.2756
G01 X32.9472 Y10.2807
G01 X32.8443 Y10.2756
G01 X32.7424 Y10.2605
G01 X32.6425 Y10.2355
G01 X32.5456 Y10.2008
G01 X32.4525 Y10.1568
G01 X32.3641 Y10.1038
G01 X32.2814 Y10.0425
G01 X32.2051 Y9.9733
G01 X32.1359 Y9.8970
G01 X32.0746 Y9.8143
G01 X32.0216 Y9.7259
G01 X31.9776 Y9.6328
G01 X31.9429 Y9.5358
G01 X31.9179 Y9.4359
G01 X31.9028 Y9.3341
G01 X31.8978 Y9.2287
G00 Z2.0000
G00 X32.9133 Y10.2830
G01 F60.00
G01 Z-0.0500
G01 F120.00
G01 X32.7795 Y10.2699
G01 X32.6480 Y10.2398
G01 X32.5214 Y10.1932
G01 X32.4016 Y10.1312
G01 X32.2911 Y10.0541
G01 X32.1912 Y9.9634
G01 X32.1040 Y9.8606
G01 X32.0302 Y9.7477
G01 X31.9720 Y9.6259
G01 X31.9294 Y9.4978
G01 X31.9037 Y9.3660
G01 X31.8949 Y9.2312
G01 X31.9037 Y9.0964
G01 X31.9294 Y8.9645
G01 X31.9720 Y8.8364
G01 X32.0302 Y8.7147
G01 X32.1040 Y8.6018
G01 X32.1912 Y8.4989
G01 X32.2911 Y8.4083
G01 X32.4016 Y8.3312
G01 X32.5214 Y8.2692
G01 X32.6480 Y8.2226
G01 X32.7795 Y8.1925
G01 X32.9133 Y8.1794
G01 X33.0481 Y8.1838
G01 X33.1814 Y8.2051
G01 X33.3104 Y8.2434
G01 X33.4341 Y8.2982
G01 X33.5494 Y8.3680
G01 X33.6546 Y8.4524
G01 X33.7483 Y8.5490
G01 X33.8293 Y8.6571
G01 X33.8952 Y8.7744
G01 X33.9461 Y8.8995
G01 X33.9801 Y9.0299
G01 X33.9975 Y9.1638
G01 X33.9975 Y9.2986
G01 X33.9801 Y9.4324
G01 X33.9461 Y9.5629
G01 X33.8952 Y9.6880
G01 X33.8293 Y9.8053
G01 X33.7483 Y9.9134
G01 X33.6546 Y10.0100
G01 X33.5494 Y10.0944
G01 X33.4341 Y10.1642
G01 X33.3104 Y10.2190
G01 X33.1814 Y10.2573
G01 X33.0481 Y10.2786
G01 X32.9133 Y10.2830
G00 Z2.0000
G00 X34.8738 Y10.1454
G01 F60.00
G01 Z-0.0500
G01 F120.00
G01 X34.7845 Y10.0806
G01 X34.6835 Y9.9858
G01 X34.5955 Y9.8789
G01 X34.5736 Y9.8446
G01 X34.6370 Y9.8446
G01 X34.6759 Y9.8970
G01 X34.7451 Y9.9733
G01 X34.8214 Y10.0425
G01 X34.8738 Y10.0814
G01 X34.8738 Y10.1454
G00 Z2.0000
G00 X36.1006 Y10.1454
G01 F60.00
G01 Z-0.0500
G01 F120.00
G01 X36.1006 Y10.0814
G01 X36.1530 Y10.0425
G01 X36.2293 Y9.9733
G01 X36.2985 Y9.8970
G01 X36.3374 Y9.8446
G01 X36.4008 Y9.8446
G01 X36.3788 Y9.8789
G01 X36.2909 Y9.9859
G01 X36.1899 Y10.0806
G01 X36.1006 Y10.1454
G00 Z2.0000
G00 X36.1006 Y8.3170
G01 F60.00
G01 Z-0.0500
G01 F120.00
G01 X36.1899 Y8.3818
G01 X36.2909 Y8.4765
G01 X36.3788 Y8.5835
G01 X36.4008 Y8.6178
G01 X36.3374 Y8.6178
G01 X36.2985 Y8.5654
G01 X36.2293 Y8.4891
G01 X36.1530 Y8.4199
G01 X36.1006 Y8.3810
G01 X36.1006 Y8.3170
G00 Z2.0000
G00 X37.0176 Y8.1822
G01 F60.00
G01 Z-0.0500
G01 F120.00
G01 X37.0104 Y8.1841
G01 X37.0026 Y8.1877
G01 X36.9955 Y8.1926
G01 X36.9894 Y8.1986
G01 X36.9843 Y8.2055
G01 X36.9806 Y8.2132
G01 X36.9782 Y8.2215
G01 X36.9772 Y8.2300
G01 X36.9772 Y10.2312
G01 X36.9775 Y10.2361
G01 X36.9784 Y10.2421
G01 X36.9806 Y10.2492
G01 X36.9843 Y10.2569
G01 X36.9894 Y10.2638
G01 X36.9946 Y10.2690
G01 X37.0015 Y10.2741
G01 X37.0081 Y10.2774
G01 X37.0151 Y10.2797
G01 X37.0235 Y10.2810
G01 X37.4689 Y10.2812
G01 X37.4689 Y13.6776
G01 X37.4431 Y13.6933
G01 X37.3624 Y13.7532
G01 X37.2842 Y13.8240
G01 X37.2144 Y13.9013
G01 X37.1546 Y13.9821
G01 X37.1022 Y14.0694
G01 X37.0576 Y14.1636
G01 X37.0222 Y14.2629
G01 X36.9979 Y14.3604
G01 X36.9831 Y14.4599
G01 X36.9777 Y14.5652
G01 X36.9831 Y14.6705
G01 X36.9979 Y14.7699
G01 X37.0222 Y14.8675
G01 X37.0576 Y14.9668
G01 X37.1022 Y15.0610
G01 X37.1560 Y15.1503
G01 X37.2159 Y15.2310
G01 X37.2842 Y15.3064
G01 X37.3624 Y15.3772
G01 X37.4431 Y15.4371
G01 X37.4689 Y15.4527
G01 X37.4689 Y17.7416
G01 X37.4431 Y17.7573
G01 X37.3624 Y17.8172
G01 X37.2842 Y17.8880
G01 X37.2159 Y17.9634
G01 X37.1560 Y18.0441
G01 X37.1011 Y18.1356
G01 X37.0576 Y18.2276
G01 X37.0237 Y18.3222
G01 X36.9979 Y18.4244
G01 X36.9826 Y18.5288
G01 X36.9777 Y18.6292
G01 X36.9826 Y18.7308
G01 X36.9979 Y18.8339
G01 X37.0222 Y18.9315
G01 X37.0586 Y19.0331
G01 X37.1016 Y19.1239
G01 X37.1546 Y19.2123
G01 X37.2159 Y19.2950
G01 X37.2851 Y19.3713
G01 X37.3614 Y19.4405
G01 X37.4421 Y19.5004
G01 X37.5347 Y19.5559
G01 X37.6256 Y19.5988
G01 X37.7225 Y19.6335
G01 X37.8224 Y19.6585
G01 X37.9231 Y19.6735
G01 X38.0272 Y19.6787
G01 X38.1301 Y19.6736
G01 X38.2319 Y19.6585
G01 X38.3318 Y19.6335
G01 X38.4288 Y19.5988
G01 X38.5219 Y19.5548
G01 X38.6103 Y19.5018
G01 X38.6930 Y19.4405
G01 X38.7693 Y19.3713
G01 X38.8385 Y19.2950
G01 X38.8998 Y19.2123
G01 X38.9528 Y19.1239
G01 X38.9968 Y19.0308
G01 X39.0315 Y18.9338
G01 X39.0565 Y18.8339
G01 X39.0715 Y18.7333
G01 X39.0766 Y18.6267
G01 X39.0716 Y18.5263
G01 X39.0565 Y18.4244
G01 X39.0307 Y18.3222
G01 X38.9968 Y18.2276
G01 X38.9533 Y18.1356
G01 X38.8984 Y18.0441
G01 X38.8385 Y17.9634
G01 X38.7701 Y17.8880
G01 X38.6920 Y17.8172
G01 X38.6113 Y17.7573
G01 X38.5854 Y17.7416
G01 X38.5854 Y15.4527
G01 X38.6113 Y15.4371
G01 X38.6920 Y15.3772
G01 X38.7701 Y15.3064
G01 X38.8400 Y15.2290
G01 X38.8998 Y15.1483
G01 X38.9522 Y15.0610
G01 X38.9968 Y14.9668
G01 X39.0321 Y14.8675
G01 X39.0565 Y14.7699
G01 X39.0713 Y14.6705
G01 X39.0767 Y14.5652
G01 X39.0713 Y14.4599
G01 X39.0565 Y14.3604
G01 X39.0321 Y14.2629
G01 X38.9968 Y14.1636
G01 X38.9522 Y14.0694
G01 X38.8984 Y13.9801
G01 X38.8385 Y13.8994
G01 X38.7701 Y13.8240
G01 X38.6920 Y13.7532
G01 X38.6113 Y13.6933
G01 X38.5854 Y13.6776
G01 X38.5854 Y10.2812
G01 X39.0309 Y10.2810
G01 X39.0393 Y10.2797
G01 X39.0463 Y10.2774
G01 X39.0529 Y10.2741
G01 X39.0598 Y10.2690
G01 X39.0658 Y10.2629
G01 X39.0701 Y10.2569
G01 X39.0738 Y10.2492
G01 X39.0761 Y10.2413
G01 X39.0753 Y10.2470
G01 X39.0681 Y10.2613
G01 X39.0573 Y10.2721
G01 X39.0427 Y10.2794
G01 X39.0151 Y10.2841
G01 X38.7382 Y10.2841
G01 X38.7310 Y10.2848
G01 X38.6907 Y10.2926
G01 X38.6823 Y10.2950
G01 X38.6778 Y10.2970
G01 X38.6724 Y10.3002
G01 X38.6389 Y10.3227
G01 X38.6334 Y10.3273
G01 X38.6271 Y10.3345
G01 X38.6040 Y10.3685
G01 X38.5998 Y10.3762
G01 X38.5969 Y10.3845
G01 X38.5885 Y10.4273
G01 X38.5878 Y10.4357
G01 X38.5878 Y13.5969
G01 X38.5882 Y13.6035
G01 X38.5937 Y13.6380
G01 X38.5959 Y13.6460
G01 X38.5983 Y13.6515
G01 X38.6141 Y13.6810
G01 X38.6189 Y13.6884
G01 X38.6232 Y13.6931
G01 X38.6483 Y13.7176
G01 X38.6530 Y13.7214
G01 X38.6833 Y13.7423
G01 X38.7832 Y13.8329
G01 X38.8704 Y13.9358
G01 X38.9441 Y14.0487
G01 X39.0024 Y14.1704
G01 X39.0450 Y14.2985
G01 X39.0707 Y14.4304
G01 X39.0794 Y14.5652
G01 X39.0707 Y14.7000
G01 X39.0450 Y14.8319
G01 X39.0024 Y14.9599
G01 X38.9441 Y15.0817
G01 X38.8704 Y15.1946
G01 X38.7832 Y15.2975
G01 X38.6834 Y15.3880
G01 X38.6530 Y15.4090
G01 X38.6483 Y15.4127
G01 X38.6232 Y15.4372
G01 X38.6189 Y15.4420
G01 X38.6141 Y15.4494
G01 X38.5983 Y15.4789
G01 X38.5959 Y15.4844
G01 X38.5937 Y15.4924
G01 X38.5884 Y15.5256
G01 X38.5878 Y15.5334
G01 X38.5879 Y17.6636
G01 X38.5937 Y17.7020
G01 X38.5959 Y17.7100
G01 X38.5983 Y17.7155
G01 X38.6141 Y17.7450
G01 X38.6167 Y17.7493
G01 X38.6197 Y17.7534
G01 X38.6483 Y17.7816
G01 X38.6530 Y17.7854
G01 X38.6833 Y17.8063
G01 X38.7832 Y17.8969
G01 X38.8704 Y17.9998
G01 X38.9441 Y18.1127
G01 X39.0024 Y18.2344
G01 X39.0450 Y18.3625
G01 X39.0707 Y18.4944
G01 X39.0794 Y18.6292
G01 X39.0707 Y18.7640
G01 X39.0450 Y18.8959
G01 X39.0024 Y19.0239
G01 X38.9441 Y19.1457
G01 X38.8704 Y19.2586
G01 X38.7832 Y19.3614
G01 X38.6833 Y19.4521
G01 X38.5728 Y19.5292
G01 X38.4530 Y19.5912
G01 X38.3264 Y19.6378
G01 X38.1949 Y19.6679
G01 X38.0611 Y19.6810
G01 X37.9263 Y19.6766
G01 X37.7929 Y19.6553
G01 X37.6640 Y19.6170
G01 X37.5403 Y19.5622
G01 X37.4250 Y19.4924
G01 X37.3197 Y19.4080
G01 X37.2261 Y19.3114
G01 X37.1451 Y19.2033
G01 X37.0792 Y19.0860
G01 X37.0283 Y18.9609
G01 X36.9943 Y18.8304
G01 X36.9769 Y18.6966
G01 X36.9769 Y18.5618
G01 X36.9943 Y18.4280
G01 X37.0283 Y18.2975
G01 X37.0792 Y18.1724
G01 X37.1451 Y18.0551
G01 X37.2261 Y17.9470
G01 X37.3197 Y17.8504
G01 X37.4114 Y17.7773
G01 X37.4155 Y17.7733
G01 X37.4389 Y17.7472
G01 X37.4438 Y17.7390
G01 X37.4576 Y17.7105
G01 X37.4598 Y17.7047
G01 X37.4612 Y17.6987
G01 X37.4660 Y17.6675
G01 X37.4666 Y17.6599
G01 X37.4666 Y15.5345
G01 X37.4662 Y15.5282
G01 X37.4614 Y15.4969
G01 X37.4601 Y15.4909
G01 X37.4581 Y15.4850
G01 X37.4415 Y15.4511
G01 X37.4366 Y15.4444
G01 X37.4147 Y15.4202
G01 X37.4096 Y15.4156
G01 X37.3197 Y15.3440
G01 X37.2261 Y15.2474
G01 X37.1451 Y15.1393
G01 X37.0792 Y15.0220
G01 X37.0283 Y14.8969
G01 X36.9943 Y14.7664
G01 X36.9769 Y14.6326
G01 X36.9769 Y14.4978
G01 X36.9943 Y14.3639
G01 X37.0283 Y14.2335
G01 X37.0792 Y14.1084
G01 X37.1451 Y13.9911
G01 X37.2261 Y13.8830
G01 X37.3197 Y13.7864
G01 X37.4114 Y13.7133
G01 X37.4155 Y13.7093
G01 X37.4389 Y13.6832
G01 X37.4438 Y13.6750
G01 X37.4576 Y13.6465
G01 X37.4598 Y13.6407
G01 X37.4612 Y13.6347
G01 X37.4660 Y13.6035
G01 X37.4666 Y13.5959
G01 X37.4664 Y10.4321
G01 X37.4656 Y10.4261
G01 X37.4580 Y10.3870
G01 X37.4556 Y10.3785
G01 X37.4535 Y10.3739
G01 X37.4510 Y10.3696
G01 X37.4280 Y10.3355
G01 X37.4219 Y10.3281
G01 X37.4155 Y10.3227
G01 X37.3809 Y10.2995
G01 X37.3720 Y10.2950
G01 X37.3636 Y10.2926
G01 X37.3233 Y10.2848
G01 X37.3162 Y10.2841
G01 X37.0393 Y10.2841
G01 X37.0116 Y10.2794
G01 X36.9971 Y10.2721
G01 X36.9862 Y10.2613
G01 X36.9790 Y10.2467
G01 X36.9743 Y10.2191
G01 X36.9743 Y8.2433
G01 X36.9790 Y8.2156
G01 X36.9862 Y8.2011
G01 X36.9971 Y8.1902
G01 X37.0114 Y8.1831
G01 X37.0176 Y8.1822
G00 Z2.0000
G00 X39.0330 Y8.1816
G01 F60.00
G01 Z-0.0500
G01 F120.00
G01 X39.0272 Y8.1812
G01 X37.0272 Y8.1812
G01 X37.0214 Y8.1816
G01 X37.0390 Y8.1788
G01 X39.0154 Y8.1788
G01 X39.0330 Y8.1816
G00 Z2.0000
G00 X39.0762 Y8.2211
G01 F60.00
G01 Z-0.0500
G01 F120.00
G01 X39.0743 Y8.2144
G01 X39.0713 Y8.2076
G01 X39.0673 Y8.2014
G01 X39.0625 Y8.1959
G01 X39.0570 Y8.1911
G01 X39.0508 Y8.1871
G01 X39.0440 Y8.1841
G01 X39.0368 Y8.1822
G01 X39.0430 Y8.1831
G01 X39.0573 Y8.1902
G01 X39.0681 Y8.2011
G01 X39.0753 Y8.2153
G01 X39.0762 Y8.2211
G00 Z2.0000
G00 X39.0772 Y8.2312
G01 F60.00
G01 Z-0.0500
G01 F120.00
G01 X39.0769 Y8.2259
G01 X39.0796 Y8.2429
G01 X39.0796 Y10.2194
G01 X39.0769 Y10.2364
G01 X39.0772 Y10.2312
G01 X39.0772 Y8.2312
G00 Z2.0000
G00 X34.6370 Y8.6178
G01 F60.00
G01 Z-0.0500
G01 F120.00
G01 X34.5736 Y8.6178
G01 X34.5955 Y8.5835
G01 X34.6835 Y8.4765
G01 X34.7845 Y8.3818
G01 X34.8738 Y8.3170
G01 X34.8738 Y8.3810
G01 X34.8214 Y8.4199
G01 X34.7451 Y8.4891
G01 X34.6759 Y8.5654
G01 X34.6370 Y8.6178
G00 Z2.0000
G00 X31.8978 Y14.5627
G01 F60.00
G01 Z-0.0500
G01 F120.00
G01 X31.9028 Y14.4623
G01 X31.9179 Y14.3604
G01 X31.9429 Y14.2605
G01 X31.9776 Y14.1636
G01 X32.0216 Y14.0705
G01 X32.0746 Y13.9821
G01 X32.1359 Y13.8994
G01 X32.2051 Y13.8231
G01 X32.2814 Y13.7539
G01 X32.3641 Y13.6926
G01 X32.4525 Y13.6396
G01 X32.5456 Y13.5956
G01 X32.6425 Y13.5609
G01 X32.7424 Y13.5359
G01 X32.8443 Y13.5208
G01 X32.9472 Y13.5157
G01 X33.0501 Y13.5208
G01 X33.1519 Y13.5359
G01 X33.2518 Y13.5609
G01 X33.3488 Y13.5956
G01 X33.4419 Y13.6396
G01 X33.5303 Y13.6926
G01 X33.6130 Y13.7539
G01 X33.6893 Y13.8231
G01 X33.7585 Y13.8994
G01 X33.8198 Y13.9821
G01 X33.8728 Y14.0705
G01 X33.9168 Y14.1636
G01 X33.9515 Y14.2605
G01 X33.9765 Y14.3604
G01 X33.9916 Y14.4623
G01 X33.9967 Y14.5652
G01 X33.9916 Y14.6681
G01 X33.9765 Y14.7699
G01 X33.9515 Y14.8698
G01 X33.9168 Y14.9668
G01 X33.8728 Y15.0599
G01 X33.8198 Y15.1483
G01 X33.7585 Y15.2310
G01 X33.6893 Y15.3073
G01 X33.6130 Y15.3765
G01 X33.5303 Y15.4378
G01 X33.4419 Y15.4908
G01 X33.3488 Y15.5348
G01 X33.2518 Y15.5695
G01 X33.1519 Y15.5945
G01 X33.0501 Y15.6096
G01 X32.9472 Y15.6147
G01 X32.8443 Y15.6096
G01 X32.7424 Y15.5945
G01 X32.6425 Y15.5695
G01 X32.5456 Y15.5348
G01 X32.4525 Y15.4908
G01 X32.3641 Y15.4378
G01 X32.2814 Y15.3765
G01 X32.2051 Y15.3073
G01 X32.1359 Y15.2310
G01 X32.0746 Y15.1483
G01 X32.0216 Y15.0599
G01 X31.9776 Y14.9668
G01 X31.9429 Y14.8698
G01 X31.9179 Y14.7699
G01 X31.9028 Y14.6681
G01 X31.8978 Y14.5627
G00 Z2.0000
G00 X32.9811 Y15.6170
G01 F60.00
G01 Z-0.0500
G01 F120.00
G01 X32.8463 Y15.6126
G01 X32.7129 Y15.5913
G01 X32.5840 Y15.5530
G01 X32.4603 Y15.4982
G01 X32.3450 Y15.4284
G01 X32.2397 Y15.3440
G01 X32.1461 Y15.2474
G01 X32.0651 Y15.1393
G01 X31.9992 Y15.0220
G01 X31.9483 Y14.8969
G01 X31.9143 Y14.7664
G01 X31.8969 Y14.6326
G01 X31.8969 Y14.4978
G01 X31.9143 Y14.3639
G01 X31.9483 Y14.2335
G01 X31.9992 Y14.1084
G01 X32.0651 Y13.9911
G01 X32.1461 Y13.8830
G01 X32.2397 Y13.7864
G01 X32.3450 Y13.7020
G01 X32.4603 Y13.6322
G01 X32.5840 Y13.5774
G01 X32.7129 Y13.5391
G01 X32.8463 Y13.5178
G01 X32.9811 Y13.5134
G01 X33.1149 Y13.5265
G01 X33.2464 Y13.5566
G01 X33.3730 Y13.6032
G01 X33.4928 Y13.6652
G01 X33.6033 Y13.7423
G01 X33.7032 Y13.8329
G01 X33.7904 Y13.9358
G01 X33.8641 Y14.0487
G01 X33.9224 Y14.1704
G01 X33.9650 Y14.2985
G01 X33.9907 Y14.4304
G01 X33.9994 Y14.5652
G01 X33.9907 Y14.7000
G01 X33.9650 Y14.8319
G01 X33.9224 Y14.9599
G01 X33.8641 Y15.0817
G01 X33.7904 Y15.1946
G01 X33.7032 Y15.2975
G01 X33.6033 Y15.3881
G01 X33.4928 Y15.4652
G01 X33.3730 Y15.5272
G01 X33.2464 Y15.5738
G01 X33.1149 Y15.6039
G01 X32.9811 Y15.6170
G00 Z2.0000
G00 X33.0608 Y17.6993
G01 F60.00
G01 Z-0.0500
G01 F120.00
G01 X29.5319 Y14.1704
G01 X29.4913 Y14.1337
G01 X29.4473 Y14.1010
G01 X29.4003 Y14.0729
G01 X29.3497 Y14.0490
G01 X29.2992 Y14.0310
G01 X29.2461 Y14.0177
G01 X29.1919 Y14.0096
G01 X29.1372 Y14.0069
G01 X23.6747 Y14.0069
G01 X23.6591 Y13.9811
G01 X23.5992 Y13.9004
G01 X23.5293 Y13.8231
G01 X23.4520 Y13.7532
G01 X23.3713 Y13.6933
G01 X23.3454 Y13.6776
G01 X23.3454 Y10.2812
G01 X23.7909 Y10.2810
G01 X23.7993 Y10.2797
G01 X23.8063 Y10.2774
G01 X23.8139 Y10.2734
G01 X23.8198 Y10.2690
G01 X23.8258 Y10.2629
G01 X23.8301 Y10.2569
G01 X23.8338 Y10.2492
G01 X23.8361 Y10.2413
G01 X23.8353 Y10.2470
G01 X23.8281 Y10.2613
G01 X23.8173 Y10.2721
G01 X23.8027 Y10.2794
G01 X23.7751 Y10.2841
G01 X23.4982 Y10.2841
G01 X23.4910 Y10.2848
G01 X23.4507 Y10.2926
G01 X23.4423 Y10.2950
G01 X23.4334 Y10.2995
G01 X23.3989 Y10.3227
G01 X23.3925 Y10.3281
G01 X23.3864 Y10.3355
G01 X23.3633 Y10.3695
G01 X23.3608 Y10.3739
G01 X23.3588 Y10.3785
G01 X23.3563 Y10.3870
G01 X23.3487 Y10.4261
G01 X23.3479 Y10.4333
G01 X23.3480 Y13.6009
G01 X23.3537 Y13.6380
G01 X23.3559 Y13.6460
G01 X23.3583 Y13.6515
G01 X23.3741 Y13.6810
G01 X23.3767 Y13.6853
G01 X23.3797 Y13.6894
G01 X23.4083 Y13.7176
G01 X23.4130 Y13.7214
G01 X23.4433 Y13.7423
G01 X23.5433 Y13.8330
G01 X23.6570 Y13.9658
G01 X23.6623 Y13.9710
G01 X23.6703 Y13.9767
G01 X23.7020 Y13.9937
G01 X23.7077 Y13.9961
G01 X23.7161 Y13.9983
G01 X23.7503 Y14.0041
G01 X23.7575 Y14.0046
G01 X29.1326 Y14.0046
G01 X29.2097 Y14.0094
G01 X29.2265 Y14.0119
G01 X29.2986 Y14.0284
G01 X29.3853 Y14.0626
G01 X29.4645 Y14.1101
G01 X29.5370 Y14.1722
G01 X33.0085 Y17.6434
G01 X33.0379 Y17.6653
G01 X33.0444 Y17.6692
G01 X33.0503 Y17.6716
G01 X33.0820 Y17.6817
G01 X33.0907 Y17.6836
G01 X33.0970 Y17.6840
G01 X33.1337 Y17.6838
G01 X33.1929 Y17.6742
G01 X33.3276 Y17.6699
G01 X33.4614 Y17.6830
G01 X33.5928 Y17.7130
G01 X33.7195 Y17.7596
G01 X33.8392 Y17.8217
G01 X33.9498 Y17.8987
G01 X34.0496 Y17.9894
G01 X34.1369 Y18.0922
G01 X34.2106 Y18.2053
G01 X34.2693 Y18.3269
G01 X34.3115 Y18.4549
G01 X34.3372 Y18.5873
G01 X34.3459 Y18.7217
G01 X34.3372 Y18.8565
G01 X34.3115 Y18.9889
G01 X34.2693 Y19.1164
G01 X34.2106 Y19.2380
G01 X34.1369 Y19.3511
G01 X34.0496 Y19.4539
G01 X33.9498 Y19.5445
G01 X33.8392 Y19.6216
G01 X33.7195 Y19.6837
G01 X33.5928 Y19.7303
G01 X33.4614 Y19.7603
G01 X33.3276 Y19.7734
G01 X33.1928 Y19.7691
G01 X33.0594 Y19.7477
G01 X32.9305 Y19.7094
G01 X32.8068 Y19.6546
G01 X32.6918 Y19.5848
G01 X32.5861 Y19.5009
G01 X32.4926 Y19.4039
G01 X32.4116 Y19.2958
G01 X32.3457 Y19.1785
G01 X32.2952 Y19.0533
G01 X32.2608 Y18.9228
G01 X32.2433 Y18.7890
G01 X32.2433 Y18.6543
G01 X32.2559 Y18.5576
G01 X32.2553 Y18.5180
G01 X32.2546 Y18.5131
G01 X32.2531 Y18.5071
G01 X32.2425 Y18.4770
G01 X32.2401 Y18.4713
G01 X32.2364 Y18.4650
G01 X32.2150 Y18.4361
G01 X28.9495 Y15.1704
G01 X28.9432 Y15.1651
G01 X28.9081 Y15.1413
G01 X28.9015 Y15.1377
G01 X28.8956 Y15.1356
G01 X28.8504 Y15.1265
G01 X28.8420 Y15.1258
G01 X23.7539 Y15.1260
G01 X23.7162 Y15.1321
G01 X23.7077 Y15.1343
G01 X23.7020 Y15.1367
G01 X23.6714 Y15.1530
G01 X23.6632 Y15.1585
G01 X23.6570 Y15.1646
G01 X23.5433 Y15.2974
G01 X23.4433 Y15.3881
G01 X23.3328 Y15.4652
G01 X23.2130 Y15.5272
G01 X23.0864 Y15.5738
G01 X22.9549 Y15.6039
G01 X22.8211 Y15.6170
G01 X22.6863 Y15.6126
G01 X22.5529 Y15.5913
G01 X22.4240 Y15.5530
G01 X22.3003 Y15.4982
G01 X22.1850 Y15.4284
G01 X22.0797 Y15.3440
G01 X21.9861 Y15.2474
G01 X21.9051 Y15.1393
G01 X21.8392 Y15.0220
G01 X21.7883 Y14.8969
G01 X21.7543 Y14.7664
G01 X21.7369 Y14.6326
G01 X21.7369 Y14.4978
G01 X21.7543 Y14.3639
G01 X21.7883 Y14.2335
G01 X21.8392 Y14.1084
G01 X21.9051 Y13.9911
G01 X21.9861 Y13.8830
G01 X22.0797 Y13.7864
G01 X22.1714 Y13.7133
G01 X22.1755 Y13.7093
G01 X22.1989 Y13.6832
G01 X22.2038 Y13.6750
G01 X22.2170 Y13.6476
G01 X22.2194 Y13.6419
G01 X22.2212 Y13.6347
G01 X22.2262 Y13.6022
G01 X22.2266 Y13.5959
G01 X22.2265 Y10.4333
G01 X22.2256 Y10.4261
G01 X22.2180 Y10.3870
G01 X22.2156 Y10.3785
G01 X22.2135 Y10.3739
G01 X22.2110 Y10.3696
G01 X22.1880 Y10.3355
G01 X22.1827 Y10.3290
G01 X22.1755 Y10.3227
G01 X22.1409 Y10.2995
G01 X22.1320 Y10.2950
G01 X22.1236 Y10.2926
G01 X22.0833 Y10.2848
G01 X22.0762 Y10.2841
G01 X21.7993 Y10.2841
G01 X21.7716 Y10.2794
G01 X21.7571 Y10.2721
G01 X21.7462 Y10.2613
G01 X21.7390 Y10.2467
G01 X21.7343 Y10.2191
G01 X21.7343 Y8.2433
G01 X21.7390 Y8.2156
G01 X21.7462 Y8.2011
G01 X21.7571 Y8.1902
G01 X21.7714 Y8.1831
G01 X21.7776 Y8.1822
G01 X21.7704 Y8.1841
G01 X21.7626 Y8.1877
G01 X21.7555 Y8.1926
G01 X21.7494 Y8.1986
G01 X21.7443 Y8.2055
G01 X21.7406 Y8.2132
G01 X21.7382 Y8.2215
G01 X21.7372 Y8.2300
G01 X21.7372 Y10.2312
G01 X21.7376 Y10.2373
G01 X21.7384 Y10.2421
G01 X21.7406 Y10.2492
G01 X21.7443 Y10.2569
G01 X21.7494 Y10.2638
G01 X21.7546 Y10.2690
G01 X21.7615 Y10.2741
G01 X21.7681 Y10.2774
G01 X21.7751 Y10.2797
G01 X21.7835 Y10.2810
G01 X22.2289 Y10.2812
G01 X22.2289 Y13.6776
G01 X22.2031 Y13.6933
G01 X22.1224 Y13.7532
G01 X22.0442 Y13.8240
G01 X21.9759 Y13.8994
G01 X21.9160 Y13.9801
G01 X21.8622 Y14.0694
G01 X21.8176 Y14.1636
G01 X21.7822 Y14.2629
G01 X21.7579 Y14.3604
G01 X21.7431 Y14.4599
G01 X21.7377 Y14.5640
G01 X21.7428 Y14.6681
G01 X21.7579 Y14.7699
G01 X21.7829 Y14.8698
G01 X21.8186 Y14.9691
G01 X21.8628 Y15.0620
G01 X21.9146 Y15.1483
G01 X21.9744 Y15.2290
G01 X22.0451 Y15.3073
G01 X22.1214 Y15.3765
G01 X22.2041 Y15.4378
G01 X22.2925 Y15.4908
G01 X22.3856 Y15.5348
G01 X22.4802 Y15.5687
G01 X22.5849 Y15.5949
G01 X22.6843 Y15.6096
G01 X22.7896 Y15.6146
G01 X22.8901 Y15.6096
G01 X22.9895 Y15.5949
G01 X23.0895 Y15.5701
G01 X23.1888 Y15.5348
G01 X23.2830 Y15.4902
G01 X23.3703 Y15.4378
G01 X23.4510 Y15.3780
G01 X23.5284 Y15.3081
G01 X23.5992 Y15.2300
G01 X23.6591 Y15.1493
G01 X23.6747 Y15.1234
G01 X28.9060 Y15.1234
G01 X32.2713 Y18.4888
G01 X32.2641 Y18.5181
G01 X32.2494 Y18.6176
G01 X32.2442 Y18.7229
G01 X32.2492 Y18.8245
G01 X32.2639 Y18.9240
G01 X32.2890 Y19.0251
G01 X32.3241 Y19.1233
G01 X32.3693 Y19.2185
G01 X32.4211 Y19.3047
G01 X32.4809 Y19.3855
G01 X32.5516 Y19.4638
G01 X32.6298 Y19.5344
G01 X32.7106 Y19.5943
G01 X32.7968 Y19.6460
G01 X32.8920 Y19.6913
G01 X32.9890 Y19.7260
G01 X33.0913 Y19.7514
G01 X33.1908 Y19.7661
G01 X33.2912 Y19.7711
G01 X33.3965 Y19.7661
G01 X33.4996 Y19.7507
G01 X33.5983 Y19.7260
G01 X33.6953 Y19.6913
G01 X33.7884 Y19.6472
G01 X33.8767 Y19.5943
G01 X33.9595 Y19.5329
G01 X34.0358 Y19.4638
G01 X34.1049 Y19.3875
G01 X34.1663 Y19.3047
G01 X34.2192 Y19.2164
G01 X34.2633 Y19.1233
G01 X34.2980 Y19.0263
G01 X34.3230 Y18.9264
G01 X34.3381 Y18.8245
G01 X34.3432 Y18.7217
G01 X34.3381 Y18.6188
G01 X34.3227 Y18.5157
G01 X34.2980 Y18.4170
G01 X34.2633 Y18.3200
G01 X34.2192 Y18.2269
G01 X34.1663 Y18.1386
G01 X34.1049 Y18.0559
G01 X34.0358 Y17.9796
G01 X33.9595 Y17.9104
G01 X33.8757 Y17.8484
G01 X33.7884 Y17.7961
G01 X33.6953 Y17.7521
G01 X33.5983 Y17.7174
G01 X33.4972 Y17.6921
G01 X33.3965 Y17.6772
G01 X33.2924 Y17.6722
G01 X33.1896 Y17.6774
G01 X33.0901 Y17.6921
G01 X33.0608 Y17.6993
G00 Z2.0000
G00 X34.6911 Y24.3658
G01 F60.00
G01 Z-0.0500
G01 F120.00
G01 X34.6385 Y24.3658
G01 X34.6385 Y23.9893
G01 X34.6433 Y23.9529
G01 X34.6536 Y23.9284
G01 X34.6694 Y23.9074
G01 X34.6904 Y23.8916
G01 X34.7149 Y23.8813
G01 X34.7513 Y23.8765
G01 X35.1278 Y23.8765
G01 X35.1278 Y23.9293
G01 X34.7386 Y23.9294
G01 X34.7289 Y23.9308
G01 X34.7197 Y23.9341
G01 X34.7113 Y23.9392
G01 X34.7040 Y23.9458
G01 X34.6982 Y23.9536
G01 X34.6944 Y23.9614
G01 X34.6920 Y23.9696
G01 X34.6911 Y23.9781
G01 X34.6911 Y24.3658
G00 Z2.0000
G00 X34.8019 Y26.0818
G01 F60.00
G01 Z-0.0500
G01 F120.00
G01 X34.7513 Y26.0818
G01 X34.7149 Y26.0770
G01 X34.6904 Y26.0668
G01 X34.6694 Y26.0509
G01 X34.6536 Y26.0300
G01 X34.6433 Y26.0054
G01 X34.6385 Y25.9690
G01 X34.6385 Y25.5926
G01 X34.6911 Y25.5926
G01 X34.6911 Y25.9793
G01 X34.6918 Y25.9879
G01 X34.6936 Y25.9950
G01 X34.6959 Y26.0007
G01 X34.6988 Y26.0061
G01 X34.7016 Y26.0101
G01 X34.7057 Y26.0147
G01 X34.7093 Y26.0180
G01 X34.7143 Y26.0216
G01 X34.7197 Y26.0245
G01 X34.7254 Y26.0268
G01 X34.7325 Y26.0286
G01 X34.7398 Y26.0293
G01 X34.8019 Y26.0293
G01 X34.8019 Y26.0818
G00 Z2.0000
G00 X33.1673 Y26.0310
G01 F60.00
G01 Z-0.0500
G01 F120.00
G01 X33.0335 Y26.0179
G01 X32.9020 Y25.9878
G01 X32.7754 Y25.9412
G01 X32.6556 Y25.8792
G01 X32.5451 Y25.8021
G01 X32.4452 Y25.7114
G01 X32.3580 Y25.6086
G01 X32.2842 Y25.4957
G01 X32.2260 Y25.3739
G01 X32.1834 Y25.2458
G01 X32.1577 Y25.1140
G01 X32.1489 Y24.9792
G01 X32.1577 Y24.8444
G01 X32.1834 Y24.7125
G01 X32.2260 Y24.5844
G01 X32.2842 Y24.4627
G01 X32.3580 Y24.3498
G01 X32.4452 Y24.2469
G01 X32.5451 Y24.1563
G01 X32.6556 Y24.0792
G01 X32.7754 Y24.0172
G01 X32.9020 Y23.9706
G01 X33.0335 Y23.9405
G01 X33.1673 Y23.9274
G01 X33.3021 Y23.9318
G01 X33.4354 Y23.9531
G01 X33.5644 Y23.9914
G01 X33.6881 Y24.0462
G01 X33.8034 Y24.1160
G01 X33.9086 Y24.2004
G01 X34.0023 Y24.2970
G01 X34.0833 Y24.4051
G01 X34.1492 Y24.5224
G01 X34.2001 Y24.6475
G01 X34.2341 Y24.7779
G01 X34.2515 Y24.9118
G01 X34.2515 Y25.0466
G01 X34.2341 Y25.1804
G01 X34.2001 Y25.3109
G01 X34.1492 Y25.4360
G01 X34.0833 Y25.5533
G01 X34.0023 Y25.6614
G01 X33.9086 Y25.7580
G01 X33.8034 Y25.8423
G01 X33.6881 Y25.9122
G01 X33.5644 Y25.9670
G01 X33.4354 Y26.0053
G01 X33.3021 Y26.0266
G01 X33.1673 Y26.0310
G00 Z2.0000
G00 X32.1516 Y24.9767
G01 F60.00
G01 Z-0.0500
G01 F120.00
G01 X32.1566 Y24.8763
G01 X32.1717 Y24.7744
G01 X32.1968 Y24.6745
G01 X32.2315 Y24.5776
G01 X32.2755 Y24.4845
G01 X32.3284 Y24.3961
G01 X32.3898 Y24.3134
G01 X32.4590 Y24.2371
G01 X32.5353 Y24.1679
G01 X32.6180 Y24.1066
G01 X32.7063 Y24.0536
G01 X32.7994 Y24.0096
G01 X32.8964 Y23.9749
G01 X32.9963 Y23.9499
G01 X33.0982 Y23.9348
G01 X33.2011 Y23.9297
G01 X33.3039 Y23.9348
G01 X33.4058 Y23.9499
G01 X33.5057 Y23.9749
G01 X33.6027 Y24.0096
G01 X33.6958 Y24.0536
G01 X33.7841 Y24.1066
G01 X33.8668 Y24.1679
G01 X33.9432 Y24.2371
G01 X34.0123 Y24.3134
G01 X34.0737 Y24.3961
G01 X34.1266 Y24.4845
G01 X34.1707 Y24.5776
G01 X34.2054 Y24.6745
G01 X34.2304 Y24.7744
G01 X34.2455 Y24.8763
G01 X34.2505 Y24.9792
G01 X34.2455 Y25.0821
G01 X34.2304 Y25.1839
G01 X34.2054 Y25.2838
G01 X34.1707 Y25.3808
G01 X34.1266 Y25.4739
G01 X34.0737 Y25.5623
G01 X34.0123 Y25.6450
G01 X33.9432 Y25.7213
G01 X33.8668 Y25.7905
G01 X33.7841 Y25.8518
G01 X33.6958 Y25.9048
G01 X33.6027 Y25.9488
G01 X33.5057 Y25.9835
G01 X33.4058 Y26.0085
G01 X33.3039 Y26.0236
G01 X33.2011 Y26.0287
G01 X33.0982 Y26.0236
G01 X32.9963 Y26.0085
G01 X32.8964 Y25.9835
G01 X32.7994 Y25.9488
G01 X32.7063 Y25.9048
G01 X32.6180 Y25.8518
G01 X32.5353 Y25.7905
G01 X32.4590 Y25.7213
G01 X32.3898 Y25.6450
G01 X32.3284 Y25.5623
G01 X32.2755 Y25.4739
G01 X32.2315 Y25.3808
G01 X32.1968 Y25.2838
G01 X32.1717 Y25.1839
G01 X32.1566 Y25.0821
G01 X32.1516 Y24.9767
G00 Z2.0000
G00 X30.6273 Y26.0310
G01 F60.00
G01 Z-0.0500
G01 F120.00
G01 X30.4935 Y26.0179
G01 X30.3620 Y25.9878
G01 X30.2354 Y25.9412
G01 X30.1156 Y25.8792
G01 X30.0051 Y25.8021
G01 X29.9052 Y25.7114
G01 X29.8180 Y25.6086
G01 X29.7442 Y25.4957
G01 X29.6860 Y25.3739
G01 X29.6434 Y25.2458
G01 X29.6177 Y25.1140
G01 X29.6089 Y24.9792
G01 X29.6177 Y24.8444
G01 X29.6434 Y24.7125
G01 X29.6860 Y24.5844
G01 X29.7442 Y24.4627
G01 X29.8180 Y24.3498
G01 X29.9052 Y24.2469
G01 X30.0051 Y24.1563
G01 X30.1156 Y24.0792
G01 X30.2354 Y24.0172
G01 X30.3620 Y23.9706
G01 X30.4935 Y23.9405
G01 X30.6273 Y23.9274
G01 X30.7621 Y23.9318
G01 X30.8954 Y23.9531
G01 X31.0244 Y23.9914
G01 X31.1481 Y24.0462
G01 X31.2634 Y24.1160
G01 X31.3686 Y24.2004
G01 X31.4623 Y24.2970
G01 X31.5433 Y24.4051
G01 X31.6092 Y24.5224
G01 X31.6601 Y24.6475
G01 X31.6941 Y24.7779
G01 X31.7115 Y24.9118
G01 X31.7115 Y25.0466
G01 X31.6941 Y25.1804
G01 X31.6601 Y25.3109
G01 X31.6092 Y25.4360
G01 X31.5433 Y25.5533
G01 X31.4623 Y25.6614
G01 X31.3686 Y25.7580
G01 X31.2634 Y25.8423
G01 X31.1481 Y25.9122
G01 X31.0244 Y25.9670
G01 X30.8954 Y26.0053
G01 X30.7621 Y26.0266
G01 X30.6273 Y26.0310
G00 Z2.0000
G00 X29.6116 Y24.9767
G01 F60.00
G01 Z-0.0500
G01 F120.00
G01 X29.6166 Y24.8763
G01 X29.6317 Y24.7744
G01 X29.6568 Y24.6745
G01 X29.6915 Y24.5776
G01 X29.7355 Y24.4845
G01 X29.7884 Y24.3961
G01 X29.8498 Y24.3134
G01 X29.9190 Y24.2371
G01 X29.9953 Y24.1679
G01 X30.0780 Y24.1066
G01 X30.1663 Y24.0536
G01 X30.2594 Y24.0096
G01 X30.3564 Y23.9749
G01 X30.4563 Y23.9499
G01 X30.5582 Y23.9348
G01 X30.6611 Y23.9297
G01 X30.7639 Y23.9348
G01 X30.8658 Y23.9499
G01 X30.9657 Y23.9749
G01 X31.0627 Y24.0096
G01 X31.1558 Y24.0536
G01 X31.2441 Y24.1066
G01 X31.3268 Y24.1679
G01 X31.4032 Y24.2371
G01 X31.4723 Y24.3134
G01 X31.5337 Y24.3961
G01 X31.5866 Y24.4845
G01 X31.6307 Y24.5776
G01 X31.6654 Y24.6745
G01 X31.6904 Y24.7744
G01 X31.7055 Y24.8763
G01 X31.7105 Y24.9792
G01 X31.7055 Y25.0821
G01 X31.6904 Y25.1839
G01 X31.6654 Y25.2838
G01 X31.6307 Y25.3808
G01 X31.5866 Y25.4739
G01 X31.5337 Y25.5623
G01 X31.4723 Y25.6450
G01 X31.4032 Y25.7213
G01 X31.3268 Y25.7905
G01 X31.2441 Y25.8518
G01 X31.1558 Y25.9048
G01 X31.0627 Y25.9488
G01 X30.9657 Y25.9835
G01 X30.8658 Y26.0085
G01 X30.7639 Y26.0236
G01 X30.6611 Y26.0287
G01 X30.5582 Y26.0236
G01 X30.4563 Y26.0085
G01 X30.3564 Y25.9835
G01 X30.2594 Y25.9488
G01 X30.1663 Y25.9048
G01 X30.0780 Y25.8518
G01 X29.9953 Y25.7905
G01 X29.9190 Y25.7213
G01 X29.8498 Y25.6450
G01 X29.7884 Y25.5623
G01 X29.7355 Y25.4739
G01 X29.6915 Y25.3808
G01 X29.6568 Y25.2838
G01 X29.6317 Y25.1839
G01 X29.6166 Y25.0821
G01 X29.6116 Y24.9767
G00 Z2.0000
G00 X28.0873 Y26.0310
G01 F60.00
G01 Z-0.0500
G01 F120.00
G01 X27.9535 Y26.0179
G01 X27.8220 Y25.9878
G01 X27.6954 Y25.9412
G01 X27.5756 Y25.8792
G01 X27.4651 Y25.8021
G01 X27.3652 Y25.7114
G01 X27.2780 Y25.6086
G01 X27.2042 Y25.4957
G01 X27.1460 Y25.3739
G01 X27.1034 Y25.2458
G01 X27.0777 Y25.1140
G01 X27.0689 Y24.9792
G01 X27.0777 Y24.8444
G01 X27.1034 Y24.7125
G01 X27.1460 Y24.5844
G01 X27.2042 Y24.4627
G01 X27.2780 Y24.3498
G01 X27.3652 Y24.2469
G01 X27.4651 Y24.1563
G01 X27.5756 Y24.0792
G01 X27.6954 Y24.0172
G01 X27.8220 Y23.9706
G01 X27.9535 Y23.9405
G01 X28.0873 Y23.9274
G01 X28.2221 Y23.9318
G01 X28.3554 Y23.9531
G01 X28.4844 Y23.9914
G01 X28.6081 Y24.0462
G01 X28.7234 Y24.1160
G01 X28.8286 Y24.2004
G01 X28.9223 Y24.2970
G01 X29.0033 Y24.4051
G01 X29.0692 Y24.5224
G01 X29.1201 Y24.6475
G01 X29.1541 Y24.7779
G01 X29.1715 Y24.9118
G01 X29.1715 Y25.0466
G01 X29.1541 Y25.1804
G01 X29.1201 Y25.3109
G01 X29.0692 Y25.4360
G01 X29.0033 Y25.5533
G01 X28.9223 Y25.6614
G01 X28.8286 Y25.7580
G01 X28.7234 Y25.8423
G01 X28.6081 Y25.9122
G01 X28.4844 Y25.9670
G01 X28.3554 Y26.0053
G01 X28.2221 Y26.0266
G01 X28.0873 Y26.0310
G00 Z2.0000
G00 X27.0716 Y24.9767
G01 F60.00
G01 Z-0.0500
G01 F120.00
G01 X27.0766 Y24.8763
G01 X27.0917 Y24.7744
G01 X27.1168 Y24.6745
G01 X27.1515 Y24.5776
G01 X27.1955 Y24.4845
G01 X27.2484 Y24.3961
G01 X27.3098 Y24.3134
G01 X27.3790 Y24.2371
G01 X27.4553 Y24.1679
G01 X27.5380 Y24.1066
G01 X27.6263 Y24.0536
G01 X27.7194 Y24.0096
G01 X27.8164 Y23.9749
G01 X27.9163 Y23.9499
G01 X28.0182 Y23.9348
G01 X28.1211 Y23.9297
G01 X28.2239 Y23.9348
G01 X28.3258 Y23.9499
G01 X28.4257 Y23.9749
G01 X28.5227 Y24.0096
G01 X28.6158 Y24.0536
G01 X28.7041 Y24.1066
G01 X28.7868 Y24.1679
G01 X28.8632 Y24.2371
G01 X28.9323 Y24.3134
G01 X28.9937 Y24.3961
G01 X29.0466 Y24.4845
G01 X29.0907 Y24.5776
G01 X29.1254 Y24.6745
G01 X29.1504 Y24.7744
G01 X29.1655 Y24.8763
G01 X29.1705 Y24.9792
G01 X29.1655 Y25.0821
G01 X29.1504 Y25.1839
G01 X29.1254 Y25.2838
G01 X29.0907 Y25.3808
G01 X29.0466 Y25.4739
G01 X28.9937 Y25.5623
G01 X28.9323 Y25.6450
G01 X28.8632 Y25.7213
G01 X28.7868 Y25.7905
G01 X28.7041 Y25.8518
G01 X28.6158 Y25.9048
G01 X28.5227 Y25.9488
G01 X28.4257 Y25.9835
G01 X28.3258 Y26.0085
G01 X28.2239 Y26.0236
G01 X28.1211 Y26.0287
G01 X28.0182 Y26.0236
G01 X27.9163 Y26.0085
G01 X27.8164 Y25.9835
G01 X27.7194 Y25.9488
G01 X27.6263 Y25.9048
G01 X27.5380 Y25.8518
G01 X27.4553 Y25.7905
G01 X27.3790 Y25.7213
G01 X27.3098 Y25.6450
G01 X27.2484 Y25.5623
G01 X27.1955 Y25.4739
G01 X27.1515 Y25.3808
G01 X27.1168 Y25.2838
G01 X27.0917 Y25.1839
G01 X27.0766 Y25.0821
G01 X27.0716 Y24.9767
G00 Z2.0000
G00 X25.5473 Y26.0310
G01 F60.00
G01 Z-0.0500
G01 F120.00
G01 X25.4135 Y26.0179
G01 X25.2820 Y25.9878
G01 X25.1554 Y25.9412
G01 X25.0356 Y25.8792
G01 X24.9251 Y25.8021
G01 X24.8252 Y25.7114
G01 X24.7380 Y25.6086
G01 X24.6642 Y25.4957
G01 X24.6060 Y25.3739
G01 X24.5634 Y25.2458
G01 X24.5377 Y25.1140
G01 X24.5289 Y24.9792
G01 X24.5377 Y24.8444
G01 X24.5634 Y24.7125
G01 X24.6060 Y24.5844
G01 X24.6642 Y24.4627
G01 X24.7380 Y24.3498
G01 X24.8252 Y24.2469
G01 X24.9251 Y24.1563
G01 X25.0356 Y24.0792
G01 X25.1554 Y24.0172
G01 X25.2820 Y23.9706
G01 X25.4135 Y23.9405
G01 X25.5473 Y23.9274
G01 X25.6821 Y23.9318
G01 X25.8154 Y23.9531
G01 X25.9444 Y23.9914
G01 X26.0681 Y24.0462
G01 X26.1834 Y24.1160
G01 X26.2886 Y24.2004
G01 X26.3823 Y24.2970
G01 X26.4633 Y24.4051
G01 X26.5292 Y24.5224
G01 X26.5801 Y24.6475
G01 X26.6141 Y24.7779
G01 X26.6315 Y24.9118
G01 X26.6315 Y25.0466
G01 X26.6141 Y25.1804
G01 X26.5801 Y25.3109
G01 X26.5292 Y25.4360
G01 X26.4633 Y25.5533
G01 X26.3823 Y25.6614
G01 X26.2886 Y25.7580
G01 X26.1834 Y25.8423
G01 X26.0681 Y25.9122
G01 X25.9444 Y25.9670
G01 X25.8154 Y26.0053
G01 X25.6821 Y26.0266
G01 X25.5473 Y26.0310
G00 Z2.0000
G00 X24.5316 Y24.9767
G01 F60.00
G01 Z-0.0500
G01 F120.00
G01 X24.5366 Y24.8763
G01 X24.5517 Y24.7744
G01 X24.5768 Y24.6745
G01 X24.6115 Y24.5776
G01 X24.6555 Y24.4845
G01 X24.7084 Y24.3961
G01 X24.7698 Y24.3134
G01 X24.8390 Y24.2371
G01 X24.9153 Y24.1679
G01 X24.9980 Y24.1066
G01 X25.0863 Y24.0536
G01 X25.1794 Y24.0096
G01 X25.2764 Y23.9749
G01 X25.3763 Y23.9499
G01 X25.4782 Y23.9348
G01 X25.5811 Y23.9297
G01 X25.6839 Y23.9348
G01 X25.7858 Y23.9499
G01 X25.8857 Y23.9749
G01 X25.9827 Y24.0096
G01 X26.0758 Y24.0536
G01 X26.1641 Y24.1066
G01 X26.2468 Y24.1679
G01 X26.3232 Y24.2371
G01 X26.3923 Y24.3134
G01 X26.4537 Y24.3961
G01 X26.5066 Y24.4845
G01 X26.5507 Y24.5776
G01 X26.5854 Y24.6745
G01 X26.6104 Y24.7744
G01 X26.6255 Y24.8763
G01 X26.6305 Y24.9792
G01 X26.6255 Y25.0821
G01 X26.6104 Y25.1839
G01 X26.5854 Y25.2838
G01 X26.5507 Y25.3808
G01 X26.5066 Y25.4739
G01 X26.4537 Y25.5623
G01 X26.3923 Y25.6450
G01 X26.3232 Y25.7213
G01 X26.2468 Y25.7905
G01 X26.1641 Y25.8518
G01 X26.0758 Y25.9048
G01 X25.9827 Y25.9488
G01 X25.8857 Y25.9835
G01 X25.7858 Y26.0085
G01 X25.6839 Y26.0236
G01 X25.5811 Y26.0287
G01 X25.4782 Y26.0236
G01 X25.3763 Y26.0085
G01 X25.2764 Y25.9835
G01 X25.1794 Y25.9488
G01 X25.0863 Y25.9048
G01 X24.9980 Y25.8518
G01 X24.9153 Y25.7905
G01 X24.8390 Y25.7213
G01 X24.7698 Y25.6450
G01 X24.7084 Y25.5623
G01 X24.6555 Y25.4739
G01 X24.6115 Y25.3808
G01 X24.5768 Y25.2838
G01 X24.5517 Y25.1839
G01 X24.5366 Y25.0821
G01 X24.5316 Y24.9767
G00 Z2.0000
G00 X23.0073 Y26.0310
G01 F60.00
G01 Z-0.0500
G01 F120.00
G01 X22.8735 Y26.0179
G01 X22.7420 Y25.9878
G01 X22.6154 Y25.9412
G01 X22.4956 Y25.8792
G01 X22.3851 Y25.8021
G01 X22.2852 Y25.7114
G01 X22.1980 Y25.6086
G01 X22.1242 Y25.4957
G01 X22.0660 Y25.3739
G01 X22.0234 Y25.2458
G01 X21.9977 Y25.1140
G01 X21.9889 Y24.9792
G01 X21.9977 Y24.8444
G01 X22.0234 Y24.7125
G01 X22.0660 Y24.5844
G01 X22.1242 Y24.4627
G01 X22.1980 Y24.3498
G01 X22.2852 Y24.2469
G01 X22.3851 Y24.1563
G01 X22.4956 Y24.0792
G01 X22.6154 Y24.0172
G01 X22.7420 Y23.9706
G01 X22.8735 Y23.9405
G01 X23.0073 Y23.9274
G01 X23.1421 Y23.9318
G01 X23.2754 Y23.9531
G01 X23.4044 Y23.9914
G01 X23.5281 Y24.0462
G01 X23.6434 Y24.1160
G01 X23.7486 Y24.2004
G01 X23.8423 Y24.2970
G01 X23.9233 Y24.4051
G01 X23.9892 Y24.5224
G01 X24.0401 Y24.6475
G01 X24.0741 Y24.7779
G01 X24.0915 Y24.9118
G01 X24.0915 Y25.0466
G01 X24.0741 Y25.1804
G01 X24.0401 Y25.3109
G01 X23.9892 Y25.4360
G01 X23.9233 Y25.5533
G01 X23.8423 Y25.6614
G01 X23.7486 Y25.7580
G01 X23.6434 Y25.8423
G01 X23.5281 Y25.9122
G01 X23.4044 Y25.9670
G01 X23.2754 Y26.0053
G01 X23.1421 Y26.0266
G01 X23.0073 Y26.0310
G00 Z2.0000
G00 X21.9916 Y24.9767
G01 F60.00
G01 Z-0.0500
G01 F120.00
G01 X21.9966 Y24.8763
G01 X22.0117 Y24.7744
G01 X22.0368 Y24.6745
G01 X22.0715 Y24.5776
G01 X22.1155 Y24.4845
G01 X22.1684 Y24.3961
G01 X22.2298 Y24.3134
G01 X22.2990 Y24.2371
G01 X22.3753 Y24.1679
G01 X22.4580 Y24.1066
G01 X22.5463 Y24.0536
G01 X22.6394 Y24.0096
G01 X22.7364 Y23.9749
G01 X22.8363 Y23.9499
G01 X22.9382 Y23.9348
G01 X23.0411 Y23.9297
G01 X23.1439 Y23.9348
G01 X23.2458 Y23.9499
G01 X23.3457 Y23.9749
G01 X23.4427 Y24.0096
G01 X23.5358 Y24.0536
G01 X23.6241 Y24.1066
G01 X23.7068 Y24.1679
G01 X23.7832 Y24.2371
G01 X23.8523 Y24.3134
G01 X23.9137 Y24.3961
G01 X23.9666 Y24.4845
G01 X24.0107 Y24.5776
G01 X24.0454 Y24.6745
G01 X24.0704 Y24.7744
G01 X24.0855 Y24.8763
G01 X24.0905 Y24.9792
G01 X24.0855 Y25.0821
G01 X24.0704 Y25.1839
G01 X24.0454 Y25.2838
G01 X24.0107 Y25.3808
G01 X23.9666 Y25.4739
G01 X23.9137 Y25.5623
G01 X23.8523 Y25.6450
G01 X23.7832 Y25.7213
G01 X23.7068 Y25.7905
G01 X23.6241 Y25.8518
G01 X23.5358 Y25.9048
G01 X23.4427 Y25.9488
G01 X23.3457 Y25.9835
G01 X23.2458 Y26.0085
G01 X23.1439 Y26.0236
G01 X23.0411 Y26.0287
G01 X22.9382 Y26.0236
G01 X22.8363 Y26.0085
G01 X22.7364 Y25.9835
G01 X22.6394 Y25.9488
G01 X22.5463 Y25.9048
G01 X22.4580 Y25.8518
G01 X22.3753 Y25.7905
G01 X22.2990 Y25.7213
G01 X22.2298 Y25.6450
G01 X22.1684 Y25.5623
G01 X22.1155 Y25.4739
G01 X22.0715 Y25.3808
G01 X22.0368 Y25.2838
G01 X22.0117 Y25.1839
G01 X21.9966 Y25.0821
G01 X21.9916 Y24.9767
G00 Z2.0000
G00 X20.4673 Y26.0310
G01 F60.00
G01 Z-0.0500
G01 F120.00
G01 X20.3335 Y26.0179
G01 X20.2020 Y25.9878
G01 X20.0754 Y25.9412
G01 X19.9556 Y25.8792
G01 X19.8451 Y25.8021
G01 X19.7452 Y25.7114
G01 X19.6580 Y25.6086
G01 X19.5842 Y25.4957
G01 X19.5260 Y25.3739
G01 X19.4834 Y25.2458
G01 X19.4577 Y25.1140
G01 X19.4489 Y24.9792
G01 X19.4577 Y24.8444
G01 X19.4834 Y24.7125
G01 X19.5260 Y24.5844
G01 X19.5842 Y24.4627
G01 X19.6580 Y24.3498
G01 X19.7452 Y24.2469
G01 X19.8451 Y24.1563
G01 X19.9556 Y24.0792
G01 X20.0754 Y24.0172
G01 X20.2020 Y23.9706
G01 X20.3335 Y23.9405
G01 X20.4673 Y23.9274
G01 X20.6021 Y23.9318
G01 X20.7354 Y23.9531
G01 X20.8644 Y23.9914
G01 X20.9881 Y24.0462
G01 X21.1034 Y24.1160
G01 X21.2086 Y24.2004
G01 X21.3023 Y24.2970
G01 X21.3833 Y24.4051
G01 X21.4492 Y24.5224
G01 X21.5001 Y24.6475
G01 X21.5341 Y24.7779
G01 X21.5515 Y24.9118
G01 X21.5515 Y25.0466
G01 X21.5341 Y25.1804
G01 X21.5001 Y25.3109
G01 X21.4492 Y25.4360
G01 X21.3833 Y25.5533
G01 X21.3023 Y25.6614
G01 X21.2086 Y25.7580
G01 X21.1034 Y25.8423
G01 X20.9881 Y25.9122
G01 X20.8644 Y25.9670
G01 X20.7354 Y26.0053
G01 X20.6021 Y26.0266
G01 X20.4673 Y26.0310
G00 Z2.0000
G00 X19.4516 Y24.9767
G01 F60.00
G01 Z-0.0500
G01 F120.00
G01 X19.4566 Y24.8763
G01 X19.4717 Y24.7744
G01 X19.4968 Y24.6745
G01 X19.5315 Y24.5776
G01 X19.5755 Y24.4845
G01 X19.6284 Y24.3961
G01 X19.6898 Y24.3134
G01 X19.7590 Y24.2371
G01 X19.8353 Y24.1679
G01 X19.9180 Y24.1066
G01 X20.0063 Y24.0536
G01 X20.0994 Y24.0096
G01 X20.1964 Y23.9749
G01 X20.2963 Y23.9499
G01 X20.3982 Y23.9348
G01 X20.5011 Y23.9297
G01 X20.6039 Y23.9348
G01 X20.7058 Y23.9499
G01 X20.8057 Y23.9749
G01 X20.9027 Y24.0096
G01 X20.9958 Y24.0536
G01 X21.0841 Y24.1066
G01 X21.1668 Y24.1679
G01 X21.2432 Y24.2371
G01 X21.3123 Y24.3134
G01 X21.3737 Y24.3961
G01 X21.4266 Y24.4845
G01 X21.4707 Y24.5776
G01 X21.5054 Y24.6745
G01 X21.5304 Y24.7744
G01 X21.5455 Y24.8763
G01 X21.5505 Y24.9792
G01 X21.5455 Y25.0821
G01 X21.5304 Y25.1839
G01 X21.5054 Y25.2838
G01 X21.4707 Y25.3808
G01 X21.4266 Y25.4739
G01 X21.3737 Y25.5623
G01 X21.3123 Y25.6450
G01 X21.2432 Y25.7213
G01 X21.1668 Y25.7905
G01 X21.0841 Y25.8518
G01 X20.9958 Y25.9048
G01 X20.9027 Y25.9488
G01 X20.8057 Y25.9835
G01 X20.7058 Y26.0085
G01 X20.6039 Y26.0236
G01 X20.5011 Y26.0287
G01 X20.3982 Y26.0236
G01 X20.2963 Y26.0085
G01 X20.1964 Y25.9835
G01 X20.0994 Y25.9488
G01 X20.0063 Y25.9048
G01 X19.9180 Y25.8518
G01 X19.8353 Y25.7905
G01 X19.7590 Y25.7213
G01 X19.6898 Y25.6450
G01 X19.6284 Y25.5623
G01 X19.5755 Y25.4739
G01 X19.5315 Y25.3808
G01 X19.4968 Y25.2838
G01 X19.4717 Y25.1839
G01 X19.4566 Y25.0821
G01 X19.4516 Y24.9767
G00 Z2.0000
G00 X17.9273 Y26.0310
G01 F60.00
G01 Z-0.0500
G01 F120.00
G01 X17.7935 Y26.0179
G01 X17.6620 Y25.9878
G01 X17.5354 Y25.9412
G01 X17.4156 Y25.8792
G01 X17.3051 Y25.8021
G01 X17.2052 Y25.7114
G01 X17.1180 Y25.6086
G01 X17.0442 Y25.4957
G01 X16.9860 Y25.3739
G01 X16.9434 Y25.2458
G01 X16.9177 Y25.1140
G01 X16.9089 Y24.9792
G01 X16.9177 Y24.8444
G01 X16.9434 Y24.7125
G01 X16.9860 Y24.5844
G01 X17.0442 Y24.4627
G01 X17.1180 Y24.3498
G01 X17.2052 Y24.2469
G01 X17.3051 Y24.1563
G01 X17.4156 Y24.0792
G01 X17.5354 Y24.0172
G01 X17.6620 Y23.9706
G01 X17.7935 Y23.9405
G01 X17.9273 Y23.9274
G01 X18.0621 Y23.9318
G01 X18.1954 Y23.9531
G01 X18.3244 Y23.9914
G01 X18.4481 Y24.0462
G01 X18.5634 Y24.1160
G01 X18.6686 Y24.2004
G01 X18.7623 Y24.2970
G01 X18.8433 Y24.4051
G01 X18.9092 Y24.5224
G01 X18.9601 Y24.6475
G01 X18.9941 Y24.7779
G01 X19.0115 Y24.9118
G01 X19.0115 Y25.0466
G01 X18.9941 Y25.1804
G01 X18.9601 Y25.3109
G01 X18.9092 Y25.4360
G01 X18.8433 Y25.5533
G01 X18.7623 Y25.6614
G01 X18.6686 Y25.7580
G01 X18.5634 Y25.8423
G01 X18.4481 Y25.9122
G01 X18.3244 Y25.9670
G01 X18.1954 Y26.0053
G01 X18.0621 Y26.0266
G01 X17.9273 Y26.0310
G00 Z2.0000
G00 X16.9116 Y24.9767
G01 F60.00
G01 Z-0.0500
G01 F120.00
G01 X16.9166 Y24.8763
G01 X16.9317 Y24.7744
G01 X16.9568 Y24.6745
G01 X16.9915 Y24.5776
G01 X17.0355 Y24.4845
G01 X17.0884 Y24.3961
G01 X17.1498 Y24.3134
G01 X17.2190 Y24.2371
G01 X17.2953 Y24.1679
G01 X17.3780 Y24.1066
G01 X17.4663 Y24.0536
G01 X17.5594 Y24.0096
G01 X17.6564 Y23.9749
G01 X17.7563 Y23.9499
G01 X17.8582 Y23.9348
G01 X17.9611 Y23.9297
G01 X18.0639 Y23.9348
G01 X18.1658 Y23.9499
G01 X18.2657 Y23.9749
G01 X18.3627 Y24.0096
G01 X18.4558 Y24.0536
G01 X18.5441 Y24.1066
G01 X18.6268 Y24.1679
G01 X18.7032 Y24.2371
G01 X18.7723 Y24.3134
G01 X18.8337 Y24.3961
G01 X18.8866 Y24.4845
G01 X18.9307 Y24.5776
G01 X18.9654 Y24.6745
G01 X18.9904 Y24.7744
G01 X19.0055 Y24.8763
G01 X19.0105 Y24.9792
G01 X19.0055 Y25.0821
G01 X18.9904 Y25.1839
G01 X18.9654 Y25.2838
G01 X18.9307 Y25.3808
G01 X18.8866 Y25.4739
G01 X18.8337 Y25.5623
G01 X18.7723 Y25.6450
G01 X18.7032 Y25.7213
G01 X18.6268 Y25.7905
G01 X18.5441 Y25.8518
G01 X18.4558 Y25.9048
G01 X18.3627 Y25.9488
G01 X18.2657 Y25.9835
G01 X18.1658 Y26.0085
G01 X18.0639 Y26.0236
G01 X17.9611 Y26.0287
G01 X17.8582 Y26.0236
G01 X17.7563 Y26.0085
G01 X17.6564 Y25.9835
G01 X17.5594 Y25.9488
G01 X17.4663 Y25.9048
G01 X17.3780 Y25.8518
G01 X17.2953 Y25.7905
G01 X17.2190 Y25.7213
G01 X17.1498 Y25.6450
G01 X17.0884 Y25.5623
G01 X17.0355 Y25.4739
G01 X16.9915 Y25.3808
G01 X16.9568 Y25.2838
G01 X16.9317 Y25.1839
G01 X16.9166 Y25.0821
G01 X16.9116 Y24.9767
G00 Z2.0000
G00 X14.3716 Y24.9767
G01 F60.00
G01 Z-0.0500
G01 F120.00
G01 X14.3766 Y24.8763
G01 X14.3917 Y24.7744
G01 X14.4168 Y24.6745
G01 X14.4515 Y24.5776
G01 X14.4955 Y24.4845
G01 X14.5484 Y24.3961
G01 X14.6098 Y24.3134
G01 X14.6790 Y24.2371
G01 X14.7553 Y24.1679
G01 X14.8380 Y24.1066
G01 X14.9263 Y24.0536
G01 X15.0194 Y24.0096
G01 X15.1164 Y23.9749
G01 X15.2163 Y23.9499
G01 X15.3182 Y23.9348
G01 X15.4211 Y23.9297
G01 X15.5239 Y23.9348
G01 X15.6258 Y23.9499
G01 X15.7257 Y23.9749
G01 X15.8227 Y24.0096
G01 X15.9158 Y24.0536
G01 X16.0041 Y24.1066
G01 X16.0868 Y24.1679
G01 X16.1632 Y24.2371
G01 X16.2323 Y24.3134
G01 X16.2937 Y24.3961
G01 X16.3466 Y24.4845
G01 X16.3907 Y24.5776
G01 X16.4254 Y24.6745
G01 X16.4504 Y24.7744
G01 X16.4655 Y24.8763
G01 X16.4705 Y24.9792
G01 X16.4655 Y25.0821
G01 X16.4504 Y25.1839
G01 X16.4254 Y25.2838
G01 X16.3907 Y25.3808
G01 X16.3466 Y25.4739
G01 X16.2937 Y25.5623
G01 X16.2323 Y25.6450
G01 X16.1632 Y25.7213
G01 X16.0868 Y25.7905
G01 X16.0041 Y25.8518
G01 X15.9158 Y25.9048
G01 X15.8227 Y25.9488
G01 X15.7257 Y25.9835
G01 X15.6258 Y26.0085
G01 X15.5239 Y26.0236
G01 X15.4211 Y26.0287
G01 X15.3182 Y26.0236
G01 X15.2163 Y26.0085
G01 X15.1164 Y25.9835
G01 X15.0194 Y25.9488
G01 X14.9263 Y25.9048
G01 X14.8380 Y25.8518
G01 X14.7553 Y25.7905
G01 X14.6790 Y25.7213
G01 X14.6098 Y25.6450
G01 X14.5484 Y25.5623
G01 X14.4955 Y25.4739
G01 X14.4515 Y25.3808
G01 X14.4168 Y25.2838
G01 X14.3917 Y25.1839
G01 X14.3766 Y25.0821
G01 X14.3716 Y24.9767
G00 Z2.0000
G00 X17.7411 Y15.6170
G01 F60.00
G01 Z-0.0500
G01 F120.00
G01 X17.6063 Y15.6126
G01 X17.4729 Y15.5913
G01 X17.3440 Y15.5530
G01 X17.2203 Y15.4982
G01 X17.1050 Y15.4284
G01 X16.9997 Y15.3440
G01 X16.9061 Y15.2474
G01 X16.8251 Y15.1393
G01 X16.7592 Y15.0220
G01 X16.7083 Y14.8969
G01 X16.6743 Y14.7664
G01 X16.6569 Y14.6326
G01 X16.6569 Y14.4978
G01 X16.6743 Y14.3639
G01 X16.7083 Y14.2335
G01 X16.7592 Y14.1084
G01 X16.8251 Y13.9911
G01 X16.9061 Y13.8830
G01 X16.9997 Y13.7864
G01 X17.1050 Y13.7020
G01 X17.2203 Y13.6322
G01 X17.3440 Y13.5774
G01 X17.4729 Y13.5391
G01 X17.6063 Y13.5178
G01 X17.7411 Y13.5134
G01 X17.8749 Y13.5265
G01 X18.0064 Y13.5566
G01 X18.1330 Y13.6032
G01 X18.2528 Y13.6652
G01 X18.3633 Y13.7423
G01 X18.4632 Y13.8329
G01 X18.5504 Y13.9358
G01 X18.6241 Y14.0487
G01 X18.6824 Y14.1704
G01 X18.7250 Y14.2985
G01 X18.7507 Y14.4304
G01 X18.7594 Y14.5652
G01 X18.7507 Y14.7000
G01 X18.7250 Y14.8319
G01 X18.6824 Y14.9599
G01 X18.6241 Y15.0817
G01 X18.5504 Y15.1946
G01 X18.4632 Y15.2975
G01 X18.3633 Y15.3881
G01 X18.2528 Y15.4652
G01 X18.1330 Y15.5272
G01 X18.0064 Y15.5738
G01 X17.8749 Y15.6039
G01 X17.7411 Y15.6170
G00 Z2.0000
G00 X16.6578 Y14.5627
G01 F60.00
G01 Z-0.0500
G01 F120.00
G01 X16.6628 Y14.4623
G01 X16.6779 Y14.3604
G01 X16.7029 Y14.2605
G01 X16.7376 Y14.1636
G01 X16.7816 Y14.0705
G01 X16.8346 Y13.9821
G01 X16.8959 Y13.8994
G01 X16.9651 Y13.8231
G01 X17.0414 Y13.7539
G01 X17.1241 Y13.6926
G01 X17.2125 Y13.6396
G01 X17.3056 Y13.5956
G01 X17.4025 Y13.5609
G01 X17.5024 Y13.5359
G01 X17.6043 Y13.5208
G01 X17.7072 Y13.5157
G01 X17.8101 Y13.5208
G01 X17.9119 Y13.5359
G01 X18.0118 Y13.5609
G01 X18.1088 Y13.5956
G01 X18.2019 Y13.6396
G01 X18.2903 Y13.6926
G01 X18.3730 Y13.7539
G01 X18.4493 Y13.8231
G01 X18.5185 Y13.8994
G01 X18.5798 Y13.9821
G01 X18.6328 Y14.0705
G01 X18.6768 Y14.1636
G01 X18.7115 Y14.2605
G01 X18.7365 Y14.3604
G01 X18.7516 Y14.4623
G01 X18.7567 Y14.5652
G01 X18.7516 Y14.6681
G01 X18.7365 Y14.7699
G01 X18.7115 Y14.8698
G01 X18.6768 Y14.9668
G01 X18.6328 Y15.0599
G01 X18.5798 Y15.1483
G01 X18.5185 Y15.2310
G01 X18.4493 Y15.3073
G01 X18.3730 Y15.3765
G01 X18.2903 Y15.4378
G01 X18.2019 Y15.4908
G01 X18.1088 Y15.5348
G01 X18.0118 Y15.5695
G01 X17.9119 Y15.5945
G01 X17.8101 Y15.6096
G01 X17.7072 Y15.6147
G01 X17.6043 Y15.6096
G01 X17.5024 Y15.5945
G01 X17.4025 Y15.5695
G01 X17.3056 Y15.5348
G01 X17.2125 Y15.4908
G01 X17.1241 Y15.4378
G01 X17.0414 Y15.3765
G01 X16.9651 Y15.3073
G01 X16.8959 Y15.2310
G01 X16.8346 Y15.1483
G01 X16.7816 Y15.0599
G01 X16.7376 Y14.9668
G01 X16.7029 Y14.8698
G01 X16.6779 Y14.7699
G01 X16.6628 Y14.6681
G01 X16.6578 Y14.5627
G00 Z2.0000
G00 X36.8438 Y24.3658
G01 F60.00
G01 Z-0.0500
G01 F120.00
G01 X36.7911 Y24.3658
G01 X36.7910 Y23.9781
G01 X36.7898 Y23.9684
G01 X36.7873 Y23.9602
G01 X36.7826 Y23.9516
G01 X36.7764 Y23.9440
G01 X36.7688 Y23.9378
G01 X36.7602 Y23.9332
G01 X36.7508 Y23.9303
G01 X36.7423 Y23.9294
G01 X36.3546 Y23.9293
G01 X36.3546 Y23.8765
G01 X36.7310 Y23.8765
G01 X36.7674 Y23.8813
G01 X36.7920 Y23.8916
G01 X36.8129 Y23.9074
G01 X36.8288 Y23.9284
G01 X36.8390 Y23.9529
G01 X36.8438 Y23.9893
G01 X36.8438 Y24.3658
G00 Z2.0000
G00 X36.7310 Y26.0818
G01 F60.00
G01 Z-0.0500
G01 F120.00
G01 X36.3546 Y26.0818
G01 X36.3546 Y26.0293
G01 X36.7423 Y26.0293
G01 X36.7508 Y26.0283
G01 X36.7602 Y26.0255
G01 X36.7678 Y26.0216
G01 X36.7746 Y26.0164
G01 X36.7812 Y26.0091
G01 X36.7863 Y26.0007
G01 X36.7896 Y25.9915
G01 X36.7910 Y25.9818
G01 X36.7911 Y25.5926
G01 X36.8438 Y25.5926
G01 X36.8438 Y25.9690
G01 X36.8390 Y26.0054
G01 X36.8288 Y26.0300
G01 X36.8129 Y26.0509
G01 X36.7920 Y26.0668
G01 X36.7674 Y26.0770
G01 X36.7310 Y26.0818
G00 Z2.0000
G00 X40.2083 Y25.9548
G01 F60.00
G01 Z-0.0500
G01 F120.00
G01 X39.8319 Y25.9548
G01 X39.7960 Y25.9501
G01 X39.7714 Y25.9398
G01 X39.7505 Y25.9239
G01 X39.7346 Y25.9030
G01 X39.7243 Y25.8784
G01 X39.7195 Y25.8420
G01 X39.7195 Y25.4656
G01 X39.7727 Y25.4656
G01 X39.7727 Y25.8532
G01 X39.7739 Y25.8629
G01 X39.7770 Y25.8722
G01 X39.7818 Y25.8807
G01 X39.7874 Y25.8873
G01 X39.7949 Y25.8935
G01 X39.8025 Y25.8976
G01 X39.8118 Y25.9007
G01 X39.8215 Y25.9019
G01 X40.2083 Y25.9019
G01 X40.2083 Y25.9548
G00 Z2.0000
G00 X41.8121 Y25.9548
G01 F60.00
G01 Z-0.0500
G01 F120.00
G01 X41.4356 Y25.9548
G01 X41.4356 Y25.9019
G01 X41.8229 Y25.9019
G01 X41.8314 Y25.9010
G01 X41.8397 Y25.8986
G01 X41.8484 Y25.8942
G01 X41.8553 Y25.8890
G01 X41.8619 Y25.8817
G01 X41.8669 Y25.8733
G01 X41.8702 Y25.8641
G01 X41.8716 Y25.8544
G01 X41.8717 Y25.4656
G01 X41.9249 Y25.4656
G01 X41.9249 Y25.8420
G01 X41.9201 Y25.8784
G01 X41.9098 Y25.9030
G01 X41.8940 Y25.9239
G01 X41.8730 Y25.9398
G01 X41.8485 Y25.9500
G01 X41.8121 Y25.9548
G00 Z2.0000
G00 X42.3128 Y24.8500
G01 F60.00
G01 Z-0.0500
G01 F120.00
G01 X42.3178 Y24.7496
G01 X42.3329 Y24.6477
G01 X42.3579 Y24.5478
G01 X42.3926 Y24.4508
G01 X42.4366 Y24.3577
G01 X42.4896 Y24.2694
G01 X42.5509 Y24.1867
G01 X42.6201 Y24.1103
G01 X42.6964 Y24.0412
G01 X42.7791 Y23.9798
G01 X42.8675 Y23.9269
G01 X42.9606 Y23.8828
G01 X43.0576 Y23.8481
G01 X43.1575 Y23.8231
G01 X43.2593 Y23.8080
G01 X43.3622 Y23.8030
G01 X43.4651 Y23.8080
G01 X43.5669 Y23.8231
G01 X43.6669 Y23.8481
G01 X43.7638 Y23.8828
G01 X43.8569 Y23.9269
G01 X43.9453 Y23.9798
G01 X44.0280 Y24.0412
G01 X44.1043 Y24.1103
G01 X44.1735 Y24.1867
G01 X44.2348 Y24.2694
G01 X44.2878 Y24.3577
G01 X44.3318 Y24.4508
G01 X44.3665 Y24.5478
G01 X44.3915 Y24.6477
G01 X44.4066 Y24.7496
G01 X44.4117 Y24.8524
G01 X44.4066 Y24.9553
G01 X44.3915 Y25.0572
G01 X44.3665 Y25.1571
G01 X44.3318 Y25.2541
G01 X44.2878 Y25.3472
G01 X44.2348 Y25.4355
G01 X44.1735 Y25.5182
G01 X44.1043 Y25.5945
G01 X44.0280 Y25.6637
G01 X43.9453 Y25.7251
G01 X43.8569 Y25.7780
G01 X43.7638 Y25.8220
G01 X43.6669 Y25.8567
G01 X43.5669 Y25.8818
G01 X43.4651 Y25.8969
G01 X43.3622 Y25.9019
G01 X43.2593 Y25.8969
G01 X43.1575 Y25.8818
G01 X43.0576 Y25.8567
G01 X42.9606 Y25.8220
G01 X42.8675 Y25.7780
G01 X42.7791 Y25.7251
G01 X42.6964 Y25.6637
G01 X42.6201 Y25.5945
G01 X42.5509 Y25.5182
G01 X42.4896 Y25.4355
G01 X42.4366 Y25.3472
G01 X42.3926 Y25.2541
G01 X42.3579 Y25.1571
G01 X42.3329 Y25.0572
G01 X42.3178 Y24.9553
G01 X42.3128 Y24.8500
G00 Z2.0000
G00 X41.9249 Y24.2388
G01 F60.00
G01 Z-0.0500
G01 F120.00
G01 X41.8717 Y24.2388
G01 X41.8717 Y23.8517
G01 X41.8705 Y23.8420
G01 X41.8679 Y23.8338
G01 X41.8633 Y23.8252
G01 X41.8570 Y23.8176
G01 X41.8505 Y23.8121
G01 X41.8420 Y23.8072
G01 X41.8326 Y23.8042
G01 X41.8229 Y23.8030
G01 X41.4356 Y23.8030
G01 X41.4356 Y23.7495
G01 X41.8121 Y23.7495
G01 X41.8485 Y23.7543
G01 X41.8730 Y23.7646
G01 X41.8940 Y23.7804
G01 X41.9098 Y23.8014
G01 X41.9201 Y23.8259
G01 X41.9249 Y23.8623
G01 X41.9249 Y24.2388
G00 Z2.0000
G00 X39.7727 Y24.2388
G01 F60.00
G01 Z-0.0500
G01 F120.00
G01 X39.7196 Y24.2388
G01 X39.7195 Y23.8623
G01 X39.7243 Y23.8259
G01 X39.7346 Y23.8014
G01 X39.7505 Y23.7804
G01 X39.7714 Y23.7646
G01 X39.7960 Y23.7543
G01 X39.8319 Y23.7495
G01 X40.2083 Y23.7495
G01 X40.2083 Y23.8030
G01 X39.8203 Y23.8030
G01 X39.8106 Y23.8045
G01 X39.8013 Y23.8078
G01 X39.7929 Y23.8128
G01 X39.7857 Y23.8194
G01 X39.7805 Y23.8262
G01 X39.7765 Y23.8338
G01 X39.7739 Y23.8420
G01 X39.7727 Y23.8517
G01 X39.7727 Y24.2388
G00 Z2.0000
G00 X43.3957 Y25.9040
G01 F60.00
G01 Z-0.0500
G01 F120.00
G01 X43.2608 Y25.8996
G01 X43.1279 Y25.8783
G01 X42.9985 Y25.8400
G01 X42.8754 Y25.7852
G01 X42.7600 Y25.7153
G01 X42.6547 Y25.6309
G01 X42.5606 Y25.5344
G01 X42.4802 Y25.4264
G01 X42.4142 Y25.3090
G01 X42.3633 Y25.1839
G01 X42.3293 Y25.0534
G01 X42.3119 Y24.9196
G01 X42.3119 Y24.7848
G01 X42.3293 Y24.6509
G01 X42.3633 Y24.5205
G01 X42.4142 Y24.3954
G01 X42.4802 Y24.2780
G01 X42.5606 Y24.1700
G01 X42.6547 Y24.0734
G01 X42.7600 Y23.9890
G01 X42.8754 Y23.9192
G01 X42.9985 Y23.8644
G01 X43.1279 Y23.8261
G01 X43.2608 Y23.8048
G01 X43.3957 Y23.8004
G01 X43.5299 Y23.8135
G01 X43.6614 Y23.8436
G01 X43.7880 Y23.8902
G01 X43.9078 Y23.9522
G01 X44.0183 Y24.0293
G01 X44.1182 Y24.1199
G01 X44.2055 Y24.2228
G01 X44.2791 Y24.3357
G01 X44.3373 Y24.4575
G01 X44.3800 Y24.5855
G01 X44.4057 Y24.7174
G01 X44.4145 Y24.8522
G01 X44.4057 Y24.9870
G01 X44.3800 Y25.1188
G01 X44.3373 Y25.2469
G01 X44.2792 Y25.3687
G01 X44.2055 Y25.4816
G01 X44.1182 Y25.5844
G01 X44.0183 Y25.6751
G01 X43.9078 Y25.7522
G01 X43.7880 Y25.8142
G01 X43.6614 Y25.8608
G01 X43.5299 Y25.8909
G01 X43.3957 Y25.9040
G00 Z2.0000
G00 X44.8528 Y24.8500
G01 F60.00
G01 Z-0.0500
G01 F120.00
G01 X44.8578 Y24.7496
G01 X44.8729 Y24.6477
G01 X44.8979 Y24.5478
G01 X44.9326 Y24.4508
G01 X44.9766 Y24.3577
G01 X45.0296 Y24.2694
G01 X45.0909 Y24.1867
G01 X45.1601 Y24.1103
G01 X45.2364 Y24.0412
G01 X45.3191 Y23.9798
G01 X45.4075 Y23.9269
G01 X45.5006 Y23.8828
G01 X45.5976 Y23.8481
G01 X45.6975 Y23.8231
G01 X45.7993 Y23.8080
G01 X45.9022 Y23.8030
G01 X46.0051 Y23.8080
G01 X46.1069 Y23.8231
G01 X46.2069 Y23.8481
G01 X46.3038 Y23.8828
G01 X46.3969 Y23.9269
G01 X46.4853 Y23.9798
G01 X46.5680 Y24.0412
G01 X46.6443 Y24.1103
G01 X46.7135 Y24.1867
G01 X46.7748 Y24.2694
G01 X46.8278 Y24.3577
G01 X46.8718 Y24.4508
G01 X46.9065 Y24.5478
G01 X46.9315 Y24.6477
G01 X46.9466 Y24.7496
G01 X46.9517 Y24.8524
G01 X46.9466 Y24.9553
G01 X46.9315 Y25.0572
G01 X46.9065 Y25.1571
G01 X46.8718 Y25.2541
G01 X46.8278 Y25.3472
G01 X46.7748 Y25.4355
G01 X46.7135 Y25.5182
G01 X46.6443 Y25.5945
G01 X46.5680 Y25.6637
G01 X46.4853 Y25.7251
G01 X46.3969 Y25.7780
G01 X46.3038 Y25.8220
G01 X46.2069 Y25.8567
G01 X46.1069 Y25.8818
G01 X46.0051 Y25.8969
G01 X45.9022 Y25.9019
G01 X45.7993 Y25.8969
G01 X45.6975 Y25.8818
G01 X45.5976 Y25.8567
G01 X45.5006 Y25.8220
G01 X45.4075 Y25.7780
G01 X45.3191 Y25.7251
G01 X45.2364 Y25.6637
G01 X45.1601 Y25.5945
G01 X45.0909 Y25.5182
G01 X45.0296 Y25.4355
G01 X44.9766 Y25.3472
G01 X44.9326 Y25.2541
G01 X44.8979 Y25.1571
G01 X44.8729 Y25.0572
G01 X44.8578 Y24.9553
G01 X44.8528 Y24.8500
G00 Z2.0000
G00 X45.9357 Y25.9040
G01 F60.00
G01 Z-0.0500
G01 F120.00
G01 X45.8008 Y25.8996
G01 X45.6679 Y25.8783
G01 X45.5385 Y25.8400
G01 X45.4154 Y25.7852
G01 X45.3000 Y25.7153
G01 X45.1947 Y25.6309
G01 X45.1006 Y25.5344
G01 X45.0202 Y25.4264
G01 X44.9542 Y25.3090
G01 X44.9033 Y25.1839
G01 X44.8693 Y25.0534
G01 X44.8519 Y24.9196
G01 X44.8519 Y24.7848
G01 X44.8693 Y24.6509
G01 X44.9033 Y24.5205
G01 X44.9542 Y24.3954
G01 X45.0202 Y24.2780
G01 X45.1006 Y24.1700
G01 X45.1947 Y24.0734
G01 X45.3000 Y23.9890
G01 X45.4154 Y23.9192
G01 X45.5385 Y23.8644
G01 X45.6679 Y23.8261
G01 X45.8008 Y23.8048
G01 X45.9357 Y23.8004
G01 X46.0699 Y23.8135
G01 X46.2014 Y23.8436
G01 X46.3280 Y23.8902
G01 X46.4478 Y23.9522
G01 X46.5583 Y24.0293
G01 X46.6582 Y24.1199
G01 X46.7455 Y24.2228
G01 X46.8191 Y24.3357
G01 X46.8773 Y24.4575
G01 X46.9200 Y24.5855
G01 X46.9457 Y24.7174
G01 X46.9545 Y24.8522
G01 X46.9457 Y24.9870
G01 X46.9200 Y25.1188
G01 X46.8773 Y25.2469
G01 X46.8192 Y25.3687
G01 X46.7455 Y25.4816
G01 X46.6582 Y25.5844
G01 X46.5583 Y25.6751
G01 X46.4478 Y25.7522
G01 X46.3280 Y25.8142
G01 X46.2014 Y25.8608
G01 X46.0699 Y25.8909
G01 X45.9357 Y25.9040
G00 Z2.0000
G00 X47.3928 Y24.8500
G01 F60.00
G01 Z-0.0500
G01 F120.00
G01 X47.3978 Y24.7496
G01 X47.4129 Y24.6477
G01 X47.4379 Y24.5478
G01 X47.4726 Y24.4508
G01 X47.5166 Y24.3577
G01 X47.5696 Y24.2694
G01 X47.6309 Y24.1867
G01 X47.7001 Y24.1103
G01 X47.7764 Y24.0412
G01 X47.8591 Y23.9798
G01 X47.9475 Y23.9269
G01 X48.0406 Y23.8828
G01 X48.1376 Y23.8481
G01 X48.2375 Y23.8231
G01 X48.3393 Y23.8080
G01 X48.4422 Y23.8030
G01 X48.5451 Y23.8080
G01 X48.6469 Y23.8231
G01 X48.7469 Y23.8481
G01 X48.8438 Y23.8828
G01 X48.9369 Y23.9269
G01 X49.0253 Y23.9798
G01 X49.1080 Y24.0412
G01 X49.1843 Y24.1103
G01 X49.2535 Y24.1867
G01 X49.3148 Y24.2694
G01 X49.3678 Y24.3577
G01 X49.4118 Y24.4508
G01 X49.4465 Y24.5478
G01 X49.4715 Y24.6477
G01 X49.4866 Y24.7496
G01 X49.4917 Y24.8524
G01 X49.4866 Y24.9553
G01 X49.4715 Y25.0572
G01 X49.4465 Y25.1571
G01 X49.4118 Y25.2541
G01 X49.3678 Y25.3472
G01 X49.3148 Y25.4355
G01 X49.2535 Y25.5182
G01 X49.1843 Y25.5945
G01 X49.1080 Y25.6637
G01 X49.0253 Y25.7251
G01 X48.9369 Y25.7780
G01 X48.8438 Y25.8220
G01 X48.7469 Y25.8567
G01 X48.6469 Y25.8818
G01 X48.5451 Y25.8969
G01 X48.4422 Y25.9019
G01 X48.3393 Y25.8969
G01 X48.2375 Y25.8818
G01 X48.1376 Y25.8567
G01 X48.0406 Y25.8220
G01 X47.9475 Y25.7780
G01 X47.8591 Y25.7251
G01 X47.7764 Y25.6637
G01 X47.7001 Y25.5945
G01 X47.6309 Y25.5182
G01 X47.5696 Y25.4355
G01 X47.5166 Y25.3472
G01 X47.4726 Y25.2541
G01 X47.4379 Y25.1571
G01 X47.4129 Y25.0572
G01 X47.3978 Y24.9553
G01 X47.3928 Y24.8500
G00 Z2.0000
G00 X48.4757 Y25.9040
G01 F60.00
G01 Z-0.0500
G01 F120.00
G01 X48.3408 Y25.8996
G01 X48.2079 Y25.8783
G01 X48.0785 Y25.8400
G01 X47.9554 Y25.7852
G01 X47.8400 Y25.7153
G01 X47.7347 Y25.6309
G01 X47.6406 Y25.5344
G01 X47.5602 Y25.4264
G01 X47.4942 Y25.3090
G01 X47.4433 Y25.1839
G01 X47.4093 Y25.0534
G01 X47.3919 Y24.9196
G01 X47.3919 Y24.7848
G01 X47.4093 Y24.6509
G01 X47.4433 Y24.5205
G01 X47.4942 Y24.3954
G01 X47.5602 Y24.2780
G01 X47.6406 Y24.1700
G01 X47.7347 Y24.0734
G01 X47.8400 Y23.9890
G01 X47.9554 Y23.9192
G01 X48.0785 Y23.8644
G01 X48.2079 Y23.8261
G01 X48.3408 Y23.8048
G01 X48.4757 Y23.8004
G01 X48.6099 Y23.8135
G01 X48.7414 Y23.8436
G01 X48.8680 Y23.8902
G01 X48.9878 Y23.9522
G01 X49.0983 Y24.0293
G01 X49.1982 Y24.1199
G01 X49.2855 Y24.2228
G01 X49.3591 Y24.3357
G01 X49.4173 Y24.4575
G01 X49.4600 Y24.5855
G01 X49.4857 Y24.7174
G01 X49.4945 Y24.8522
G01 X49.4857 Y24.9870
G01 X49.4600 Y25.1188
G01 X49.4173 Y25.2469
G01 X49.3592 Y25.3687
G01 X49.2855 Y25.4816
G01 X49.1982 Y25.5844
G01 X49.0983 Y25.6751
G01 X48.9878 Y25.7522
G01 X48.8680 Y25.8142
G01 X48.7414 Y25.8608
G01 X48.6099 Y25.8909
G01 X48.4757 Y25.9040
G00 Z2.0000
G00 X49.9328 Y24.8500
G01 F60.00
G01 Z-0.0500
G01 F120.00
G01 X49.9378 Y24.7496
G01 X49.9529 Y24.6477
G01 X49.9779 Y24.5478
G01 X50.0126 Y24.4508
G01 X50.0566 Y24.3577
G01 X50.1096 Y24.2694
G01 X50.1709 Y24.1867
G01 X50.2401 Y24.1103
G01 X50.3164 Y24.0412
G01 X50.3991 Y23.9798
G01 X50.4875 Y23.9269
G01 X50.5806 Y23.8828
G01 X50.6776 Y23.8481
G01 X50.7775 Y23.8231
G01 X50.8793 Y23.8080
G01 X50.9822 Y23.8030
G01 X51.0851 Y23.8080
G01 X51.1869 Y23.8231
G01 X51.2869 Y23.8481
G01 X51.3838 Y23.8828
G01 X51.4769 Y23.9269
G01 X51.5653 Y23.9798
G01 X51.6480 Y24.0412
G01 X51.7243 Y24.1103
G01 X51.7935 Y24.1867
G01 X51.8548 Y24.2694
G01 X51.9078 Y24.3577
G01 X51.9518 Y24.4508
G01 X51.9865 Y24.5478
G01 X52.0115 Y24.6477
G01 X52.0266 Y24.7496
G01 X52.0317 Y24.8524
G01 X52.0266 Y24.9553
G01 X52.0115 Y25.0572
G01 X51.9865 Y25.1571
G01 X51.9518 Y25.2541
G01 X51.9078 Y25.3472
G01 X51.8548 Y25.4355
G01 X51.7935 Y25.5182
G01 X51.7243 Y25.5945
G01 X51.6480 Y25.6637
G01 X51.5653 Y25.7251
G01 X51.4769 Y25.7780
G01 X51.3838 Y25.8220
G01 X51.2869 Y25.8567
G01 X51.1869 Y25.8818
G01 X51.0851 Y25.8969
G01 X50.9822 Y25.9019
G01 X50.8793 Y25.8969
G01 X50.7775 Y25.8818
G01 X50.6776 Y25.8567
G01 X50.5806 Y25.8220
G01 X50.4875 Y25.7780
G01 X50.3991 Y25.7251
G01 X50.3164 Y25.6637
G01 X50.2401 Y25.5945
G01 X50.1709 Y25.5182
G01 X50.1096 Y25.4355
G01 X50.0566 Y25.3472
G01 X50.0126 Y25.2541
G01 X49.9779 Y25.1571
G01 X49.9529 Y25.0572
G01 X49.9378 Y24.9553
G01 X49.9328 Y24.8500
G00 Z2.0000
G00 X51.0157 Y25.9040
G01 F60.00
G01 Z-0.0500
G01 F120.00
G01 X50.8808 Y25.8996
G01 X50.7479 Y25.8783
G01 X50.6185 Y25.8400
G01 X50.4954 Y25.7852
G01 X50.3800 Y25.7153
G01 X50.2747 Y25.6309
G01 X50.1806 Y25.5344
G01 X50.1002 Y25.4264
G01 X50.0342 Y25.3090
G01 X49.9833 Y25.1839
G01 X49.9493 Y25.0534
G01 X49.9319 Y24.9196
G01 X49.9319 Y24.7848
G01 X49.9493 Y24.6509
G01 X49.9833 Y24.5205
G01 X50.0342 Y24.3954
G01 X50.1002 Y24.2780
G01 X50.1806 Y24.1700
G01 X50.2747 Y24.0734
G01 X50.3800 Y23.9890
G01 X50.4954 Y23.9192
G01 X50.6185 Y23.8644
G01 X50.7479 Y23.8261
G01 X50.8808 Y23.8048
G01 X51.0157 Y23.8004
G01 X51.1499 Y23.8135
G01 X51.2814 Y23.8436
G01 X51.4080 Y23.8902
G01 X51.5278 Y23.9522
G01 X51.6383 Y24.0293
G01 X51.7382 Y24.1199
G01 X51.8255 Y24.2228
G01 X51.8991 Y24.3357
G01 X51.9573 Y24.4575
G01 X52.0000 Y24.5855
G01 X52.0257 Y24.7174
G01 X52.0345 Y24.8522
G01 X52.0257 Y24.9870
G01 X52.0000 Y25.1188
G01 X51.9573 Y25.2469
G01 X51.8992 Y25.3687
G01 X51.8255 Y25.4816
G01 X51.7382 Y25.5844
G01 X51.6383 Y25.6751
G01 X51.5278 Y25.7522
G01 X51.4080 Y25.8142
G01 X51.2814 Y25.8608
G01 X51.1499 Y25.8909
G01 X51.0157 Y25.9040
G00 Z2.0000
G00 X52.4728 Y24.8500
G01 F60.00
G01 Z-0.0500
G01 F120.00
G01 X52.4778 Y24.7496
G01 X52.4929 Y24.6477
G01 X52.5179 Y24.5478
G01 X52.5526 Y24.4508
G01 X52.5966 Y24.3577
G01 X52.6496 Y24.2694
G01 X52.7109 Y24.1867
G01 X52.7801 Y24.1103
G01 X52.8564 Y24.0412
G01 X52.9391 Y23.9798
G01 X53.0275 Y23.9269
G01 X53.1206 Y23.8828
G01 X53.2176 Y23.8481
G01 X53.3175 Y23.8231
G01 X53.4193 Y23.8080
G01 X53.5222 Y23.8030
G01 X53.6251 Y23.8080
G01 X53.7269 Y23.8231
G01 X53.8269 Y23.8481
G01 X53.9238 Y23.8828
G01 X54.0169 Y23.9269
G01 X54.1053 Y23.9798
G01 X54.1880 Y24.0412
G01 X54.2643 Y24.1103
G01 X54.3335 Y24.1867
G01 X54.3948 Y24.2694
G01 X54.4478 Y24.3577
G01 X54.4918 Y24.4508
G01 X54.5265 Y24.5478
G01 X54.5515 Y24.6477
G01 X54.5666 Y24.7496
G01 X54.5717 Y24.8524
G01 X54.5666 Y24.9553
G01 X54.5515 Y25.0572
G01 X54.5265 Y25.1571
G01 X54.4918 Y25.2541
G01 X54.4478 Y25.3472
G01 X54.3948 Y25.4355
G01 X54.3335 Y25.5182
G01 X54.2643 Y25.5945
G01 X54.1880 Y25.6637
G01 X54.1053 Y25.7251
G01 X54.0169 Y25.7780
G01 X53.9238 Y25.8220
G01 X53.8269 Y25.8567
G01 X53.7269 Y25.8818
G01 X53.6251 Y25.8969
G01 X53.5222 Y25.9019
G01 X53.4193 Y25.8969
G01 X53.3175 Y25.8818
G01 X53.2176 Y25.8567
G01 X53.1206 Y25.8220
G01 X53.0275 Y25.7780
G01 X52.9391 Y25.7251
G01 X52.8564 Y25.6637
G01 X52.7801 Y25.5945
G01 X52.7109 Y25.5182
G01 X52.6496 Y25.4355
G01 X52.5966 Y25.3472
G01 X52.5526 Y25.2541
G01 X52.5179 Y25.1571
G01 X52.4929 Y25.0572
G01 X52.4778 Y24.9553
G01 X52.4728 Y24.8500
G00 Z2.0000
G00 X53.5557 Y25.9040
G01 F60.00
G01 Z-0.0500
G01 F120.00
G01 X53.4208 Y25.8996
G01 X53.2879 Y25.8783
G01 X53.1585 Y25.8400
G01 X53.0354 Y25.7852
G01 X52.9200 Y25.7153
G01 X52.8147 Y25.6309
G01 X52.7206 Y25.5344
G01 X52.6402 Y25.4264
G01 X52.5742 Y25.3090
G01 X52.5233 Y25.1839
G01 X52.4893 Y25.0534
G01 X52.4719 Y24.9196
G01 X52.4719 Y24.7848
G01 X52.4893 Y24.6509
G01 X52.5233 Y24.5205
G01 X52.5742 Y24.3954
G01 X52.6402 Y24.2780
G01 X52.7206 Y24.1700
G01 X52.8147 Y24.0734
G01 X52.9200 Y23.9890
G01 X53.0354 Y23.9192
G01 X53.1585 Y23.8644
G01 X53.2879 Y23.8261
G01 X53.4208 Y23.8048
G01 X53.5557 Y23.8004
G01 X53.6899 Y23.8135
G01 X53.8214 Y23.8436
G01 X53.9480 Y23.8902
G01 X54.0678 Y23.9522
G01 X54.1783 Y24.0293
G01 X54.2782 Y24.1199
G01 X54.3655 Y24.2228
G01 X54.4391 Y24.3357
G01 X54.4973 Y24.4575
G01 X54.5400 Y24.5855
G01 X54.5657 Y24.7174
G01 X54.5745 Y24.8522
G01 X54.5657 Y24.9870
G01 X54.5400 Y25.1188
G01 X54.4973 Y25.2469
G01 X54.4392 Y25.3687
G01 X54.3655 Y25.4816
G01 X54.2782 Y25.5844
G01 X54.1783 Y25.6751
G01 X54.0678 Y25.7522
G01 X53.9480 Y25.8142
G01 X53.8214 Y25.8608
G01 X53.6899 Y25.8909
G01 X53.5557 Y25.9040
G00 Z2.0000
G00 X55.0128 Y24.8500
G01 F60.00
G01 Z-0.0500
G01 F120.00
G01 X55.0178 Y24.7496
G01 X55.0329 Y24.6477
G01 X55.0579 Y24.5478
G01 X55.0926 Y24.4508
G01 X55.1366 Y24.3577
G01 X55.1896 Y24.2694
G01 X55.2509 Y24.1867
G01 X55.3201 Y24.1103
G01 X55.3964 Y24.0412
G01 X55.4791 Y23.9798
G01 X55.5675 Y23.9269
G01 X55.6606 Y23.8828
G01 X55.7576 Y23.8481
G01 X55.8575 Y23.8231
G01 X55.9593 Y23.8080
G01 X56.0622 Y23.8030
G01 X56.1651 Y23.8080
G01 X56.2669 Y23.8231
G01 X56.3669 Y23.8481
G01 X56.4638 Y23.8828
G01 X56.5569 Y23.9269
G01 X56.6453 Y23.9798
G01 X56.7280 Y24.0412
G01 X56.8043 Y24.1103
G01 X56.8735 Y24.1867
G01 X56.9348 Y24.2694
G01 X56.9878 Y24.3577
G01 X57.0318 Y24.4508
G01 X57.0665 Y24.5478
G01 X57.0915 Y24.6477
G01 X57.1066 Y24.7496
G01 X57.1117 Y24.8524
G01 X57.1066 Y24.9553
G01 X57.0915 Y25.0572
G01 X57.0665 Y25.1571
G01 X57.0318 Y25.2541
G01 X56.9878 Y25.3472
G01 X56.9348 Y25.4355
G01 X56.8735 Y25.5182
G01 X56.8043 Y25.5945
G01 X56.7280 Y25.6637
G01 X56.6453 Y25.7251
G01 X56.5569 Y25.7780
G01 X56.4638 Y25.8220
G01 X56.3669 Y25.8567
G01 X56.2669 Y25.8818
G01 X56.1651 Y25.8969
G01 X56.0622 Y25.9019
G01 X55.9593 Y25.8969
G01 X55.8575 Y25.8818
G01 X55.7576 Y25.8567
G01 X55.6606 Y25.8220
G01 X55.5675 Y25.7780
G01 X55.4791 Y25.7251
G01 X55.3964 Y25.6637
G01 X55.3201 Y25.5945
G01 X55.2509 Y25.5182
G01 X55.1896 Y25.4355
G01 X55.1366 Y25.3472
G01 X55.0926 Y25.2541
G01 X55.0579 Y25.1571
G01 X55.0329 Y25.0572
G01 X55.0178 Y24.9553
G01 X55.0128 Y24.8500
G00 Z2.0000
G00 X56.0957 Y25.9040
G01 F60.00
G01 Z-0.0500
G01 F120.00
G01 X55.9608 Y25.8996
G01 X55.8279 Y25.8783
G01 X55.6985 Y25.8400
G01 X55.5754 Y25.7852
G01 X55.4600 Y25.7153
G01 X55.3547 Y25.6309
G01 X55.2606 Y25.5344
G01 X55.1802 Y25.4264
G01 X55.1142 Y25.3090
G01 X55.0633 Y25.1839
G01 X55.0293 Y25.0534
G01 X55.0119 Y24.9196
G01 X55.0119 Y24.7848
G01 X55.0293 Y24.6509
G01 X55.0633 Y24.5205
G01 X55.1142 Y24.3954
G01 X55.1802 Y24.2780
G01 X55.2606 Y24.1700
G01 X55.3547 Y24.0734
G01 X55.4600 Y23.9890
G01 X55.5754 Y23.9192
G01 X55.6985 Y23.8644
G01 X55.8279 Y23.8261
G01 X55.9608 Y23.8048
G01 X56.0957 Y23.8004
G01 X56.2299 Y23.8135
G01 X56.3614 Y23.8436
G01 X56.4880 Y23.8902
G01 X56.6078 Y23.9522
G01 X56.7183 Y24.0293
G01 X56.8182 Y24.1199
G01 X56.9055 Y24.2228
G01 X56.9791 Y24.3357
G01 X57.0373 Y24.4575
G01 X57.0800 Y24.5855
G01 X57.1057 Y24.7174
G01 X57.1145 Y24.8522
G01 X57.1057 Y24.9870
G01 X57.0800 Y25.1188
G01 X57.0373 Y25.2469
G01 X56.9792 Y25.3687
G01 X56.9055 Y25.4816
G01 X56.8182 Y25.5844
G01 X56.7183 Y25.6751
G01 X56.6078 Y25.7522
G01 X56.4880 Y25.8142
G01 X56.3614 Y25.8608
G01 X56.2299 Y25.8909
G01 X56.0957 Y25.9040
G00 Z2.0000
G00 X57.5528 Y24.8500
G01 F60.00
G01 Z-0.0500
G01 F120.00
G01 X57.5578 Y24.7496
G01 X57.5729 Y24.6477
G01 X57.5979 Y24.5478
G01 X57.6326 Y24.4508
G01 X57.6766 Y24.3577
G01 X57.7296 Y24.2694
G01 X57.7909 Y24.1867
G01 X57.8601 Y24.1103
G01 X57.9364 Y24.0412
G01 X58.0191 Y23.9798
G01 X58.1075 Y23.9269
G01 X58.2006 Y23.8828
G01 X58.2976 Y23.8481
G01 X58.3975 Y23.8231
G01 X58.4993 Y23.8080
G01 X58.6022 Y23.8030
G01 X58.7051 Y23.8080
G01 X58.8069 Y23.8231
G01 X58.9069 Y23.8481
G01 X59.0038 Y23.8828
G01 X59.0969 Y23.9269
G01 X59.1853 Y23.9798
G01 X59.2680 Y24.0412
G01 X59.3443 Y24.1103
G01 X59.4135 Y24.1867
G01 X59.4748 Y24.2694
G01 X59.5278 Y24.3577
G01 X59.5718 Y24.4508
G01 X59.6065 Y24.5478
G01 X59.6315 Y24.6477
G01 X59.6466 Y24.7496
G01 X59.6517 Y24.8524
G01 X59.6466 Y24.9553
G01 X59.6315 Y25.0572
G01 X59.6065 Y25.1571
G01 X59.5718 Y25.2541
G01 X59.5278 Y25.3472
G01 X59.4748 Y25.4355
G01 X59.4135 Y25.5182
G01 X59.3443 Y25.5945
G01 X59.2680 Y25.6637
G01 X59.1853 Y25.7251
G01 X59.0969 Y25.7780
G01 X59.0038 Y25.8220
G01 X58.9069 Y25.8567
G01 X58.8069 Y25.8818
G01 X58.7051 Y25.8969
G01 X58.6022 Y25.9019
G01 X58.4993 Y25.8969
G01 X58.3975 Y25.8818
G01 X58.2976 Y25.8567
G01 X58.2006 Y25.8220
G01 X58.1075 Y25.7780
G01 X58.0191 Y25.7251
G01 X57.9364 Y25.6637
G01 X57.8601 Y25.5945
G01 X57.7909 Y25.5182
G01 X57.7296 Y25.4355
G01 X57.6766 Y25.3472
G01 X57.6326 Y25.2541
G01 X57.5979 Y25.1571
G01 X57.5729 Y25.0572
G01 X57.5578 Y24.9553
G01 X57.5528 Y24.8500
G00 Z2.0000
G00 X58.6356 Y25.9040
G01 F60.00
G01 Z-0.0500
G01 F120.00
G01 X58.5008 Y25.8996
G01 X58.3679 Y25.8783
G01 X58.2385 Y25.8400
G01 X58.1154 Y25.7852
G01 X58.0000 Y25.7153
G01 X57.8947 Y25.6309
G01 X57.8006 Y25.5344
G01 X57.7202 Y25.4264
G01 X57.6542 Y25.3090
G01 X57.6033 Y25.1839
G01 X57.5693 Y25.0534
G01 X57.5519 Y24.9196
G01 X57.5519 Y24.7848
G01 X57.5693 Y24.6509
G01 X57.6033 Y24.5205
G01 X57.6542 Y24.3954
G01 X57.7202 Y24.2780
G01 X57.8006 Y24.1700
G01 X57.8947 Y24.0734
G01 X58.0000 Y23.9890
G01 X58.1154 Y23.9192
G01 X58.2385 Y23.8644
G01 X58.3679 Y23.8261
G01 X58.5008 Y23.8048
G01 X58.6356 Y23.8004
G01 X58.7699 Y23.8135
G01 X58.9014 Y23.8436
G01 X59.0280 Y23.8902
G01 X59.1478 Y23.9522
G01 X59.2583 Y24.0293
G01 X59.3582 Y24.1199
G01 X59.4455 Y24.2228
G01 X59.5191 Y24.3357
G01 X59.5773 Y24.4575
G01 X59.6200 Y24.5855
G01 X59.6457 Y24.7174
G01 X59.6545 Y24.8522
G01 X59.6457 Y24.9870
G01 X59.6200 Y25.1188
G01 X59.5773 Y25.2469
G01 X59.5192 Y25.3687
G01 X59.4455 Y25.4816
G01 X59.3582 Y25.5844
G01 X59.2583 Y25.6751
G01 X59.1478 Y25.7522
G01 X59.0280 Y25.8142
G01 X58.9014 Y25.8608
G01 X58.7699 Y25.8909
G01 X58.6356 Y25.9040
G00 Z2.0000
G00 X60.0928 Y24.8500
G01 F60.00
G01 Z-0.0500
G01 F120.00
G01 X60.0978 Y24.7496
G01 X60.1129 Y24.6477
G01 X60.1379 Y24.5478
G01 X60.1726 Y24.4508
G01 X60.2166 Y24.3577
G01 X60.2696 Y24.2694
G01 X60.3309 Y24.1867
G01 X60.4001 Y24.1103
G01 X60.4764 Y24.0412
G01 X60.5591 Y23.9798
G01 X60.6475 Y23.9269
G01 X60.7406 Y23.8828
G01 X60.8376 Y23.8481
G01 X60.9375 Y23.8231
G01 X61.0393 Y23.8080
G01 X61.1422 Y23.8030
G01 X61.2451 Y23.8080
G01 X61.3469 Y23.8231
G01 X61.4469 Y23.8481
G01 X61.5438 Y23.8828
G01 X61.6369 Y23.9269
G01 X61.7253 Y23.9798
G01 X61.8080 Y24.0412
G01 X61.8843 Y24.1103
G01 X61.9535 Y24.1867
G01 X62.0148 Y24.2694
G01 X62.0678 Y24.3577
G01 X62.1118 Y24.4508
G01 X62.1465 Y24.5478
G01 X62.1715 Y24.6477
G01 X62.1866 Y24.7496
G01 X62.1917 Y24.8524
G01 X62.1866 Y24.9553
G01 X62.1715 Y25.0572
G01 X62.1465 Y25.1571
G01 X62.1118 Y25.2541
G01 X62.0678 Y25.3472
G01 X62.0148 Y25.4355
G01 X61.9535 Y25.5182
G01 X61.8843 Y25.5945
G01 X61.8080 Y25.6637
G01 X61.7253 Y25.7251
G01 X61.6369 Y25.7780
G01 X61.5438 Y25.8220
G01 X61.4469 Y25.8567
G01 X61.3469 Y25.8818
G01 X61.2451 Y25.8969
G01 X61.1422 Y25.9019
G01 X61.0393 Y25.8969
G01 X60.9375 Y25.8818
G01 X60.8376 Y25.8567
G01 X60.7406 Y25.8220
G01 X60.6475 Y25.7780
G01 X60.5591 Y25.7251
G01 X60.4764 Y25.6637
G01 X60.4001 Y25.5945
G01 X60.3309 Y25.5182
G01 X60.2696 Y25.4355
G01 X60.2166 Y25.3472
G01 X60.1726 Y25.2541
G01 X60.1379 Y25.1571
G01 X60.1129 Y25.0572
G01 X60.0978 Y24.9553
G01 X60.0928 Y24.8500
G00 Z2.0000
G00 X61.1756 Y25.9040
G01 F60.00
G01 Z-0.0500
G01 F120.00
G01 X61.0408 Y25.8996
G01 X60.9079 Y25.8783
G01 X60.7785 Y25.8400
G01 X60.6554 Y25.7852
G01 X60.5400 Y25.7153
G01 X60.4347 Y25.6309
G01 X60.3406 Y25.5344
G01 X60.2602 Y25.4264
G01 X60.1942 Y25.3090
G01 X60.1433 Y25.1839
G01 X60.1093 Y25.0534
G01 X60.0919 Y24.9196
G01 X60.0919 Y24.7848
G01 X60.1093 Y24.6509
G01 X60.1433 Y24.5205
G01 X60.1942 Y24.3954
G01 X60.2602 Y24.2780
G01 X60.3406 Y24.1700
G01 X60.4347 Y24.0734
G01 X60.5400 Y23.9890
G01 X60.6554 Y23.9192
G01 X60.7785 Y23.8644
G01 X60.9079 Y23.8261
G01 X61.0408 Y23.8048
G01 X61.1756 Y23.8004
G01 X61.3099 Y23.8135
G01 X61.4414 Y23.8436
G01 X61.5680 Y23.8902
G01 X61.6878 Y23.9522
G01 X61.7983 Y24.0293
G01 X61.8982 Y24.1199
G01 X61.9855 Y24.2228
G01 X62.0591 Y24.3357
G01 X62.1173 Y24.4575
G01 X62.1600 Y24.5855
G01 X62.1857 Y24.7174
G01 X62.1945 Y24.8522
G01 X62.1857 Y24.9870
G01 X62.1600 Y25.1188
G01 X62.1173 Y25.2469
G01 X62.0592 Y25.3687
G01 X61.9855 Y25.4816
G01 X61.8982 Y25.5844
G01 X61.7983 Y25.6751
G01 X61.6878 Y25.7522
G01 X61.5680 Y25.8142
G01 X61.4414 Y25.8608
G01 X61.3099 Y25.8909
G01 X61.1756 Y25.9040
G00 Z2.0000
G00 X65.1717 Y24.2388
G01 F60.00
G01 Z-0.0500
G01 F120.00
G01 X65.1185 Y24.2388
G01 X65.1185 Y23.8623
G01 X65.1233 Y23.8259
G01 X65.1336 Y23.8014
G01 X65.1494 Y23.7804
G01 X65.1704 Y23.7646
G01 X65.1949 Y23.7543
G01 X65.2313 Y23.7495
G01 X65.6078 Y23.7495
G01 X65.6078 Y23.8030
G01 X65.2192 Y23.8030
G01 X65.2096 Y23.8045
G01 X65.2003 Y23.8078
G01 X65.1919 Y23.8128
G01 X65.1847 Y23.8194
G01 X65.1795 Y23.8262
G01 X65.1751 Y23.8350
G01 X65.1727 Y23.8432
G01 X65.1717 Y23.8517
G01 X65.1717 Y24.2388
G00 Z2.0000
G00 X65.6078 Y25.9548
G01 F60.00
G01 Z-0.0500
G01 F120.00
G01 X65.2313 Y25.9548
G01 X65.1949 Y25.9500
G01 X65.1704 Y25.9398
G01 X65.1494 Y25.9239
G01 X65.1336 Y25.9030
G01 X65.1233 Y25.8784
G01 X65.1185 Y25.8420
G01 X65.1185 Y25.4656
G01 X65.1717 Y25.4656
G01 X65.1717 Y25.8532
G01 X65.1729 Y25.8629
G01 X65.1760 Y25.8722
G01 X65.1808 Y25.8807
G01 X65.1863 Y25.8873
G01 X65.1939 Y25.8935
G01 X65.2026 Y25.8981
G01 X65.2119 Y25.9010
G01 X65.2205 Y25.9019
G01 X65.6078 Y25.9019
G01 X65.6078 Y25.9548
G00 Z2.0000
G00 X67.2110 Y25.9548
G01 F60.00
G01 Z-0.0500
G01 F120.00
G01 X66.8346 Y25.9548
G01 X66.8346 Y25.9019
G01 X67.2219 Y25.9019
G01 X67.2304 Y25.9010
G01 X67.2387 Y25.8986
G01 X67.2474 Y25.8942
G01 X67.2543 Y25.8890
G01 X67.2608 Y25.8817
G01 X67.2659 Y25.8733
G01 X67.2692 Y25.8641
G01 X67.2706 Y25.8544
G01 X67.2707 Y25.4656
G01 X67.3238 Y25.4656
G01 X67.3238 Y25.8420
G01 X67.3190 Y25.8784
G01 X67.3088 Y25.9030
G01 X67.2929 Y25.9239
G01 X67.2720 Y25.9398
G01 X67.2474 Y25.9500
G01 X67.2110 Y25.9548
G00 Z2.0000
G00 X67.7118 Y24.8500
G01 F60.00
G01 Z-0.0500
G01 F120.00
G01 X67.7168 Y24.7496
G01 X67.7319 Y24.6477
G01 X67.7569 Y24.5478
G01 X67.7916 Y24.4508
G01 X67.8356 Y24.3577
G01 X67.8886 Y24.2694
G01 X67.9499 Y24.1867
G01 X68.0191 Y24.1103
G01 X68.0954 Y24.0412
G01 X68.1781 Y23.9798
G01 X68.2665 Y23.9269
G01 X68.3596 Y23.8828
G01 X68.4565 Y23.8481
G01 X68.5564 Y23.8231
G01 X68.6583 Y23.8080
G01 X68.7612 Y23.8030
G01 X68.8641 Y23.8080
G01 X68.9659 Y23.8231
G01 X69.0658 Y23.8481
G01 X69.1628 Y23.8828
G01 X69.2559 Y23.9269
G01 X69.3443 Y23.9798
G01 X69.4270 Y24.0412
G01 X69.5033 Y24.1103
G01 X69.5725 Y24.1867
G01 X69.6338 Y24.2694
G01 X69.6868 Y24.3577
G01 X69.7308 Y24.4508
G01 X69.7655 Y24.5478
G01 X69.7905 Y24.6477
G01 X69.8056 Y24.7496
G01 X69.8107 Y24.8524
G01 X69.8056 Y24.9553
G01 X69.7905 Y25.0572
G01 X69.7655 Y25.1571
G01 X69.7308 Y25.2541
G01 X69.6868 Y25.3472
G01 X69.6338 Y25.4355
G01 X69.5725 Y25.5182
G01 X69.5033 Y25.5945
G01 X69.4270 Y25.6637
G01 X69.3443 Y25.7251
G01 X69.2559 Y25.7780
G01 X69.1628 Y25.8220
G01 X69.0658 Y25.8567
G01 X68.9659 Y25.8818
G01 X68.8641 Y25.8969
G01 X68.7612 Y25.9019
G01 X68.6583 Y25.8969
G01 X68.5564 Y25.8818
G01 X68.4565 Y25.8567
G01 X68.3596 Y25.8220
G01 X68.2665 Y25.7780
G01 X68.1781 Y25.7251
G01 X68.0954 Y25.6637
G01 X68.0191 Y25.5945
G01 X67.9499 Y25.5182
G01 X67.8886 Y25.4355
G01 X67.8356 Y25.3472
G01 X67.7916 Y25.2541
G01 X67.7569 Y25.1571
G01 X67.7319 Y25.0572
G01 X67.7168 Y24.9553
G01 X67.7118 Y24.8500
G00 Z2.0000
G00 X67.3238 Y24.2388
G01 F60.00
G01 Z-0.0500
G01 F120.00
G01 X67.2707 Y24.2388
G01 X67.2707 Y23.8517
G01 X67.2697 Y23.8432
G01 X67.2669 Y23.8338
G01 X67.2622 Y23.8252
G01 X67.2560 Y23.8176
G01 X67.2485 Y23.8114
G01 X67.2398 Y23.8068
G01 X67.2316 Y23.8042
G01 X67.2219 Y23.8030
G01 X66.8346 Y23.8030
G01 X66.8346 Y23.7495
G01 X67.2110 Y23.7495
G01 X67.2474 Y23.7543
G01 X67.2720 Y23.7646
G01 X67.2929 Y23.7804
G01 X67.3088 Y23.8014
G01 X67.3190 Y23.8259
G01 X67.3238 Y23.8623
G01 X67.3238 Y24.2388
G00 Z2.0000
G00 X68.7951 Y25.9040
G01 F60.00
G01 Z-0.0500
G01 F120.00
G01 X68.6603 Y25.8996
G01 X68.5269 Y25.8783
G01 X68.3980 Y25.8400
G01 X68.2743 Y25.7852
G01 X68.1590 Y25.7153
G01 X68.0537 Y25.6310
G01 X67.9601 Y25.5344
G01 X67.8791 Y25.4263
G01 X67.8132 Y25.3090
G01 X67.7623 Y25.1839
G01 X67.7283 Y25.0534
G01 X67.7109 Y24.9196
G01 X67.7109 Y24.7848
G01 X67.7283 Y24.6509
G01 X67.7623 Y24.5205
G01 X67.8132 Y24.3954
G01 X67.8791 Y24.2781
G01 X67.9601 Y24.1700
G01 X68.0537 Y24.0734
G01 X68.1590 Y23.9890
G01 X68.2743 Y23.9192
G01 X68.3980 Y23.8644
G01 X68.5269 Y23.8261
G01 X68.6603 Y23.8048
G01 X68.7951 Y23.8004
G01 X68.9289 Y23.8135
G01 X69.0604 Y23.8436
G01 X69.1870 Y23.8902
G01 X69.3068 Y23.9522
G01 X69.4173 Y24.0293
G01 X69.5171 Y24.1199
G01 X69.6044 Y24.2228
G01 X69.6781 Y24.3357
G01 X69.7363 Y24.4575
G01 X69.7790 Y24.5855
G01 X69.8047 Y24.7174
G01 X69.8134 Y24.8522
G01 X69.8047 Y24.9870
G01 X69.7790 Y25.1188
G01 X69.7363 Y25.2469
G01 X69.6781 Y25.3687
G01 X69.6044 Y25.4816
G01 X69.5171 Y25.5844
G01 X69.4173 Y25.6751
G01 X69.3068 Y25.7522
G01 X69.1870 Y25.8142
G01 X69.0604 Y25.8608
G01 X68.9289 Y25.8909
G01 X68.7951 Y25.9040
G00 Z2.0000
G00 X70.2518 Y24.8500
G01 F60.00
G01 Z-0.0500
G01 F120.00
G01 X70.2568 Y24.7496
G01 X70.2719 Y24.6477
G01 X70.2969 Y24.5478
G01 X70.3316 Y24.4508
G01 X70.3756 Y24.3577
G01 X70.4286 Y24.2694
G01 X70.4899 Y24.1867
G01 X70.5591 Y24.1103
G01 X70.6354 Y24.0412
G01 X70.7181 Y23.9798
G01 X70.8065 Y23.9269
G01 X70.8996 Y23.8828
G01 X70.9965 Y23.8481
G01 X71.0964 Y23.8231
G01 X71.1983 Y23.8080
G01 X71.3012 Y23.8030
G01 X71.4041 Y23.8080
G01 X71.5059 Y23.8231
G01 X71.6058 Y23.8481
G01 X71.7028 Y23.8828
G01 X71.7959 Y23.9269
G01 X71.8843 Y23.9798
G01 X71.9670 Y24.0412
G01 X72.0433 Y24.1103
G01 X72.1125 Y24.1867
G01 X72.1738 Y24.2694
G01 X72.2268 Y24.3577
G01 X72.2708 Y24.4508
G01 X72.3055 Y24.5478
G01 X72.3305 Y24.6477
G01 X72.3456 Y24.7496
G01 X72.3507 Y24.8524
G01 X72.3456 Y24.9553
G01 X72.3305 Y25.0572
G01 X72.3055 Y25.1571
G01 X72.2708 Y25.2541
G01 X72.2268 Y25.3472
G01 X72.1738 Y25.4355
G01 X72.1125 Y25.5182
G01 X72.0433 Y25.5945
G01 X71.9670 Y25.6637
G01 X71.8843 Y25.7251
G01 X71.7959 Y25.7780
G01 X71.7028 Y25.8220
G01 X71.6058 Y25.8567
G01 X71.5059 Y25.8818
G01 X71.4041 Y25.8969
G01 X71.3012 Y25.9019
G01 X71.1983 Y25.8969
G01 X71.0964 Y25.8818
G01 X70.9965 Y25.8567
G01 X70.8996 Y25.8220
G01 X70.8065 Y25.7780
G01 X70.7181 Y25.7251
G01 X70.6354 Y25.6637
G01 X70.5591 Y25.5945
G01 X70.4899 Y25.5182
G01 X70.4286 Y25.4355
G01 X70.3756 Y25.3472
G01 X70.3316 Y25.2541
G01 X70.2969 Y25.1571
G01 X70.2719 Y25.0572
G01 X70.2568 Y24.9553
G01 X70.2518 Y24.8500
G00 Z2.0000
G00 X71.3351 Y25.9040
G01 F60.00
G01 Z-0.0500
G01 F120.00
G01 X71.2003 Y25.8996
G01 X71.0669 Y25.8783
G01 X70.9380 Y25.8400
G01 X70.8143 Y25.7852
G01 X70.6990 Y25.7153
G01 X70.5937 Y25.6310
G01 X70.5001 Y25.5344
G01 X70.4191 Y25.4263
G01 X70.3532 Y25.3090
G01 X70.3023 Y25.1839
G01 X70.2683 Y25.0534
G01 X70.2509 Y24.9196
G01 X70.2509 Y24.7848
G01 X70.2683 Y24.6509
G01 X70.3023 Y24.5205
G01 X70.3532 Y24.3954
G01 X70.4191 Y24.2781
G01 X70.5001 Y24.1700
G01 X70.5937 Y24.0734
G01 X70.6990 Y23.9890
G01 X70.8143 Y23.9192
G01 X70.9380 Y23.8644
G01 X71.0669 Y23.8261
G01 X71.2003 Y23.8048
G01 X71.3351 Y23.8004
G01 X71.4689 Y23.8135
G01 X71.6004 Y23.8436
G01 X71.7270 Y23.8902
G01 X71.8468 Y23.9522
G01 X71.9573 Y24.0293
G01 X72.0571 Y24.1199
G01 X72.1444 Y24.2228
G01 X72.2181 Y24.3357
G01 X72.2763 Y24.4575
G01 X72.3190 Y24.5855
G01 X72.3447 Y24.7174
G01 X72.3534 Y24.8522
G01 X72.3447 Y24.9870
G01 X72.3190 Y25.1188
G01 X72.2763 Y25.2469
G01 X72.2181 Y25.3687
G01 X72.1444 Y25.4816
G01 X72.0571 Y25.5844
G01 X71.9573 Y25.6751
G01 X71.8468 Y25.7522
G01 X71.7270 Y25.8142
G01 X71.6004 Y25.8608
G01 X71.4689 Y25.8909
G01 X71.3351 Y25.9040
G00 Z2.0000
G00 X72.7918 Y24.8500
G01 F60.00
G01 Z-0.0500
G01 F120.00
G01 X72.7968 Y24.7496
G01 X72.8119 Y24.6477
G01 X72.8369 Y24.5478
G01 X72.8716 Y24.4508
G01 X72.9156 Y24.3577
G01 X72.9686 Y24.2694
G01 X73.0299 Y24.1867
G01 X73.0991 Y24.1103
G01 X73.1754 Y24.0412
G01 X73.2581 Y23.9798
G01 X73.3465 Y23.9269
G01 X73.4396 Y23.8828
G01 X73.5365 Y23.8481
G01 X73.6364 Y23.8231
G01 X73.7383 Y23.8080
G01 X73.8412 Y23.8030
G01 X73.9441 Y23.8080
G01 X74.0459 Y23.8231
G01 X74.1458 Y23.8481
G01 X74.2428 Y23.8828
G01 X74.3359 Y23.9269
G01 X74.4243 Y23.9798
G01 X74.5070 Y24.0412
G01 X74.5833 Y24.1103
G01 X74.6525 Y24.1867
G01 X74.7138 Y24.2694
G01 X74.7668 Y24.3577
G01 X74.8108 Y24.4508
G01 X74.8455 Y24.5478
G01 X74.8705 Y24.6477
G01 X74.8856 Y24.7496
G01 X74.8907 Y24.8524
G01 X74.8856 Y24.9553
G01 X74.8705 Y25.0572
G01 X74.8455 Y25.1571
G01 X74.8108 Y25.2541
G01 X74.7668 Y25.3472
G01 X74.7138 Y25.4355
G01 X74.6525 Y25.5182
G01 X74.5833 Y25.5945
G01 X74.5070 Y25.6637
G01 X74.4243 Y25.7251
G01 X74.3359 Y25.7780
G01 X74.2428 Y25.8220
G01 X74.1458 Y25.8567
G01 X74.0459 Y25.8818
G01 X73.9441 Y25.8969
G01 X73.8412 Y25.9019
G01 X73.7383 Y25.8969
G01 X73.6364 Y25.8818
G01 X73.5365 Y25.8567
G01 X73.4396 Y25.8220
G01 X73.3465 Y25.7780
G01 X73.2581 Y25.7251
G01 X73.1754 Y25.6637
G01 X73.0991 Y25.5945
G01 X73.0299 Y25.5182
G01 X72.9686 Y25.4355
G01 X72.9156 Y25.3472
G01 X72.8716 Y25.2541
G01 X72.8369 Y25.1571
G01 X72.8119 Y25.0572
G01 X72.7968 Y24.9553
G01 X72.7918 Y24.8500
G00 Z2.0000
G00 X73.8751 Y25.9040
G01 F60.00
G01 Z-0.0500
G01 F120.00
G01 X73.7403 Y25.8996
G01 X73.6069 Y25.8783
G01 X73.4780 Y25.8400
G01 X73.3543 Y25.7852
G01 X73.2390 Y25.7153
G01 X73.1337 Y25.6310
G01 X73.0401 Y25.5344
G01 X72.9591 Y25.4263
G01 X72.8932 Y25.3090
G01 X72.8423 Y25.1839
G01 X72.8083 Y25.0534
G01 X72.7909 Y24.9196
G01 X72.7909 Y24.7848
G01 X72.8083 Y24.6509
G01 X72.8423 Y24.5205
G01 X72.8932 Y24.3954
G01 X72.9591 Y24.2781
G01 X73.0401 Y24.1700
G01 X73.1337 Y24.0734
G01 X73.2390 Y23.9890
G01 X73.3543 Y23.9192
G01 X73.4780 Y23.8644
G01 X73.6069 Y23.8261
G01 X73.7403 Y23.8048
G01 X73.8751 Y23.8004
G01 X74.0089 Y23.8135
G01 X74.1404 Y23.8436
G01 X74.2670 Y23.8902
G01 X74.3868 Y23.9522
G01 X74.4973 Y24.0293
G01 X74.5971 Y24.1199
G01 X74.6844 Y24.2228
G01 X74.7581 Y24.3357
G01 X74.8163 Y24.4575
G01 X74.8590 Y24.5855
G01 X74.8847 Y24.7174
G01 X74.8934 Y24.8522
G01 X74.8847 Y24.9870
G01 X74.8590 Y25.1188
G01 X74.8163 Y25.2469
G01 X74.7581 Y25.3687
G01 X74.6844 Y25.4816
G01 X74.5971 Y25.5844
G01 X74.4973 Y25.6751
G01 X74.3868 Y25.7522
G01 X74.2670 Y25.8142
G01 X74.1404 Y25.8608
G01 X74.0089 Y25.8909
G01 X73.8751 Y25.9040
G00 Z2.0000
G00 X75.3318 Y24.8500
G01 F60.00
G01 Z-0.0500
G01 F120.00
G01 X75.3368 Y24.7496
G01 X75.3519 Y24.6477
G01 X75.3769 Y24.5478
G01 X75.4116 Y24.4508
G01 X75.4556 Y24.3577
G01 X75.5086 Y24.2694
G01 X75.5699 Y24.1867
G01 X75.6391 Y24.1103
G01 X75.7154 Y24.0412
G01 X75.7981 Y23.9798
G01 X75.8865 Y23.9269
G01 X75.9796 Y23.8828
G01 X76.0765 Y23.8481
G01 X76.1764 Y23.8231
G01 X76.2783 Y23.8080
G01 X76.3812 Y23.8030
G01 X76.4841 Y23.8080
G01 X76.5859 Y23.8231
G01 X76.6858 Y23.8481
G01 X76.7828 Y23.8828
G01 X76.8759 Y23.9269
G01 X76.9643 Y23.9798
G01 X77.0470 Y24.0412
G01 X77.1233 Y24.1103
G01 X77.1925 Y24.1867
G01 X77.2538 Y24.2694
G01 X77.3068 Y24.3577
G01 X77.3508 Y24.4508
G01 X77.3855 Y24.5478
G01 X77.4105 Y24.6477
G01 X77.4256 Y24.7496
G01 X77.4307 Y24.8524
G01 X77.4256 Y24.9553
G01 X77.4105 Y25.0572
G01 X77.3855 Y25.1571
G01 X77.3508 Y25.2541
G01 X77.3068 Y25.3472
G01 X77.2538 Y25.4355
G01 X77.1925 Y25.5182
G01 X77.1233 Y25.5945
G01 X77.0470 Y25.6637
G01 X76.9643 Y25.7251
G01 X76.8759 Y25.7780
G01 X76.7828 Y25.8220
G01 X76.6858 Y25.8567
G01 X76.5859 Y25.8818
G01 X76.4841 Y25.8969
G01 X76.3812 Y25.9019
G01 X76.2783 Y25.8969
G01 X76.1764 Y25.8818
G01 X76.0765 Y25.8567
G01 X75.9796 Y25.8220
G01 X75.8865 Y25.7780
G01 X75.7981 Y25.7251
G01 X75.7154 Y25.6637
G01 X75.6391 Y25.5945
G01 X75.5699 Y25.5182
G01 X75.5086 Y25.4355
G01 X75.4556 Y25.3472
G01 X75.4116 Y25.2541
G01 X75.3769 Y25.1571
G01 X75.3519 Y25.0572
G01 X75.3368 Y24.9553
G01 X75.3318 Y24.8500
G00 Z2.0000
G00 X76.4151 Y25.9040
G01 F60.00
G01 Z-0.0500
G01 F120.00
G01 X76.2803 Y25.8996
G01 X76.1469 Y25.8783
G01 X76.0180 Y25.8400
G01 X75.8943 Y25.7852
G01 X75.7790 Y25.7153
G01 X75.6737 Y25.6310
G01 X75.5801 Y25.5344
G01 X75.4991 Y25.4263
G01 X75.4332 Y25.3090
G01 X75.3823 Y25.1839
G01 X75.3483 Y25.0534
G01 X75.3309 Y24.9196
G01 X75.3309 Y24.7848
G01 X75.3483 Y24.6509
G01 X75.3823 Y24.5205
G01 X75.4332 Y24.3954
G01 X75.4991 Y24.2781
G01 X75.5801 Y24.1700
G01 X75.6737 Y24.0734
G01 X75.7790 Y23.9890
G01 X75.8943 Y23.9192
G01 X76.0180 Y23.8644
G01 X76.1469 Y23.8261
G01 X76.2803 Y23.8048
G01 X76.4151 Y23.8004
G01 X76.5489 Y23.8135
G01 X76.6804 Y23.8436
G01 X76.8070 Y23.8902
G01 X76.9268 Y23.9522
G01 X77.0373 Y24.0293
G01 X77.1371 Y24.1199
G01 X77.2244 Y24.2228
G01 X77.2981 Y24.3357
G01 X77.3563 Y24.4575
G01 X77.3990 Y24.5855
G01 X77.4247 Y24.7174
G01 X77.4334 Y24.8522
G01 X77.4247 Y24.9870
G01 X77.3990 Y25.1188
G01 X77.3563 Y25.2469
G01 X77.2981 Y25.3687
G01 X77.2244 Y25.4816
G01 X77.1371 Y25.5844
G01 X77.0373 Y25.6751
G01 X76.9268 Y25.7522
G01 X76.8070 Y25.8142
G01 X76.6804 Y25.8608
G01 X76.5489 Y25.8909
G01 X76.4151 Y25.9040
G00 Z2.0000
G00 X77.8718 Y24.8500
G01 F60.00
G01 Z-0.0500
G01 F120.00
G01 X77.8768 Y24.7496
G01 X77.8919 Y24.6477
G01 X77.9169 Y24.5478
G01 X77.9516 Y24.4508
G01 X77.9956 Y24.3577
G01 X78.0486 Y24.2694
G01 X78.1099 Y24.1867
G01 X78.1791 Y24.1103
G01 X78.2554 Y24.0412
G01 X78.3381 Y23.9798
G01 X78.4265 Y23.9269
G01 X78.5196 Y23.8828
G01 X78.6165 Y23.8481
G01 X78.7164 Y23.8231
G01 X78.8183 Y23.8080
G01 X78.9212 Y23.8030
G01 X79.0241 Y23.8080
G01 X79.1259 Y23.8231
G01 X79.2258 Y23.8481
G01 X79.3228 Y23.8828
G01 X79.4159 Y23.9269
G01 X79.5043 Y23.9798
G01 X79.5870 Y24.0412
G01 X79.6633 Y24.1103
G01 X79.7325 Y24.1867
G01 X79.7938 Y24.2694
G01 X79.8468 Y24.3577
G01 X79.8908 Y24.4508
G01 X79.9255 Y24.5478
G01 X79.9505 Y24.6477
G01 X79.9656 Y24.7496
G01 X79.9707 Y24.8524
G01 X79.9656 Y24.9553
G01 X79.9505 Y25.0572
G01 X79.9255 Y25.1571
G01 X79.8908 Y25.2541
G01 X79.8468 Y25.3472
G01 X79.7938 Y25.4355
G01 X79.7325 Y25.5182
G01 X79.6633 Y25.5945
G01 X79.5870 Y25.6637
G01 X79.5043 Y25.7251
G01 X79.4159 Y25.7780
G01 X79.3228 Y25.8220
G01 X79.2258 Y25.8567
G01 X79.1259 Y25.8818
G01 X79.0241 Y25.8969
G01 X78.9212 Y25.9019
G01 X78.8183 Y25.8969
G01 X78.7164 Y25.8818
G01 X78.6165 Y25.8567
G01 X78.5196 Y25.8220
G01 X78.4265 Y25.7780
G01 X78.3381 Y25.7251
G01 X78.2554 Y25.6637
G01 X78.1791 Y25.5945
G01 X78.1099 Y25.5182
G01 X78.0486 Y25.4355
G01 X77.9956 Y25.3472
G01 X77.9516 Y25.2541
G01 X77.9169 Y25.1571
G01 X77.8919 Y25.0572
G01 X77.8768 Y24.9553
G01 X77.8718 Y24.8500
G00 Z2.0000
G00 X78.9551 Y25.9040
G01 F60.00
G01 Z-0.0500
G01 F120.00
G01 X78.8203 Y25.8996
G01 X78.6869 Y25.8783
G01 X78.5580 Y25.8400
G01 X78.4343 Y25.7852
G01 X78.3190 Y25.7153
G01 X78.2137 Y25.6310
G01 X78.1201 Y25.5344
G01 X78.0391 Y25.4263
G01 X77.9732 Y25.3090
G01 X77.9223 Y25.1839
G01 X77.8883 Y25.0534
G01 X77.8709 Y24.9196
G01 X77.8709 Y24.7848
G01 X77.8883 Y24.6509
G01 X77.9223 Y24.5205
G01 X77.9732 Y24.3954
G01 X78.0391 Y24.2781
G01 X78.1201 Y24.1700
G01 X78.2137 Y24.0734
G01 X78.3190 Y23.9890
G01 X78.4343 Y23.9192
G01 X78.5580 Y23.8644
G01 X78.6869 Y23.8261
G01 X78.8203 Y23.8048
G01 X78.9551 Y23.8004
G01 X79.0889 Y23.8135
G01 X79.2204 Y23.8436
G01 X79.3470 Y23.8902
G01 X79.4668 Y23.9522
G01 X79.5773 Y24.0293
G01 X79.6771 Y24.1199
G01 X79.7644 Y24.2228
G01 X79.8381 Y24.3357
G01 X79.8963 Y24.4575
G01 X79.9390 Y24.5855
G01 X79.9647 Y24.7174
G01 X79.9734 Y24.8522
G01 X79.9647 Y24.9870
G01 X79.9390 Y25.1188
G01 X79.8963 Y25.2469
G01 X79.8381 Y25.3687
G01 X79.7644 Y25.4816
G01 X79.6771 Y25.5844
G01 X79.5773 Y25.6751
G01 X79.4668 Y25.7522
G01 X79.3470 Y25.8142
G01 X79.2204 Y25.8608
G01 X79.0889 Y25.8909
G01 X78.9551 Y25.9040
G00 Z2.0000
G00 X80.4118 Y24.8500
G01 F60.00
G01 Z-0.0500
G01 F120.00
G01 X80.4168 Y24.7496
G01 X80.4319 Y24.6477
G01 X80.4569 Y24.5478
G01 X80.4916 Y24.4508
G01 X80.5356 Y24.3577
G01 X80.5886 Y24.2694
G01 X80.6499 Y24.1867
G01 X80.7191 Y24.1103
G01 X80.7954 Y24.0412
G01 X80.8781 Y23.9798
G01 X80.9665 Y23.9269
G01 X81.0596 Y23.8828
G01 X81.1565 Y23.8481
G01 X81.2564 Y23.8231
G01 X81.3583 Y23.8080
G01 X81.4612 Y23.8030
G01 X81.5641 Y23.8080
G01 X81.6659 Y23.8231
G01 X81.7658 Y23.8481
G01 X81.8628 Y23.8828
G01 X81.9559 Y23.9269
G01 X82.0443 Y23.9798
G01 X82.1270 Y24.0412
G01 X82.2033 Y24.1103
G01 X82.2725 Y24.1867
G01 X82.3338 Y24.2694
G01 X82.3868 Y24.3577
G01 X82.4308 Y24.4508
G01 X82.4655 Y24.5478
G01 X82.4905 Y24.6477
G01 X82.5056 Y24.7496
G01 X82.5107 Y24.8524
G01 X82.5056 Y24.9553
G01 X82.4905 Y25.0572
G01 X82.4655 Y25.1571
G01 X82.4308 Y25.2541
G01 X82.3868 Y25.3472
G01 X82.3338 Y25.4355
G01 X82.2725 Y25.5182
G01 X82.2033 Y25.5945
G01 X82.1270 Y25.6637
G01 X82.0443 Y25.7251
G01 X81.9559 Y25.7780
G01 X81.8628 Y25.8220
G01 X81.7658 Y25.8567
G01 X81.6659 Y25.8818
G01 X81.5641 Y25.8969
G01 X81.4612 Y25.9019
G01 X81.3583 Y25.8969
G01 X81.2564 Y25.8818
G01 X81.1565 Y25.8567
G01 X81.0596 Y25.8220
G01 X80.9665 Y25.7780
G01 X80.8781 Y25.7251
G01 X80.7954 Y25.6637
G01 X80.7191 Y25.5945
G01 X80.6499 Y25.5182
G01 X80.5886 Y25.4355
G01 X80.5356 Y25.3472
G01 X80.4916 Y25.2541
G01 X80.4569 Y25.1571
G01 X80.4319 Y25.0572
G01 X80.4168 Y24.9553
G01 X80.4118 Y24.8500
G00 Z2.0000
G00 X81.4951 Y25.9040
G01 F60.00
G01 Z-0.0500
G01 F120.00
G01 X81.3603 Y25.8996
G01 X81.2269 Y25.8783
G01 X81.0980 Y25.8400
G01 X80.9743 Y25.7852
G01 X80.8590 Y25.7153
G01 X80.7537 Y25.6310
G01 X80.6601 Y25.5344
G01 X80.5791 Y25.4263
G01 X80.5132 Y25.3090
G01 X80.4623 Y25.1839
G01 X80.4283 Y25.0534
G01 X80.4109 Y24.9196
G01 X80.4109 Y24.7848
G01 X80.4283 Y24.6509
G01 X80.4623 Y24.5205
G01 X80.5132 Y24.3954
G01 X80.5791 Y24.2781
G01 X80.6601 Y24.1700
G01 X80.7537 Y24.0734
G01 X80.8590 Y23.9890
G01 X80.9743 Y23.9192
G01 X81.0980 Y23.8644
G01 X81.2269 Y23.8261
G01 X81.3603 Y23.8048
G01 X81.4951 Y23.8004
G01 X81.6289 Y23.8135
G01 X81.7604 Y23.8436
G01 X81.8870 Y23.8902
G01 X82.0068 Y23.9522
G01 X82.1173 Y24.0293
G01 X82.2171 Y24.1199
G01 X82.3044 Y24.2228
G01 X82.3781 Y24.3357
G01 X82.4363 Y24.4575
G01 X82.4790 Y24.5855
G01 X82.5047 Y24.7174
G01 X82.5134 Y24.8522
G01 X82.5047 Y24.9870
G01 X82.4790 Y25.1188
G01 X82.4363 Y25.2469
G01 X82.3781 Y25.3687
G01 X82.3044 Y25.4816
G01 X82.2171 Y25.5844
G01 X82.1173 Y25.6751
G01 X82.0068 Y25.7522
G01 X81.8870 Y25.8142
G01 X81.7604 Y25.8608
G01 X81.6289 Y25.8909
G01 X81.4951 Y25.9040
G00 Z2.0000
G00 X82.9518 Y24.8500
G01 F60.00
G01 Z-0.0500
G01 F120.00
G01 X82.9568 Y24.7496
G01 X82.9719 Y24.6477
G01 X82.9969 Y24.5478
G01 X83.0316 Y24.4508
G01 X83.0756 Y24.3577
G01 X83.1286 Y24.2694
G01 X83.1899 Y24.1867
G01 X83.2591 Y24.1103
G01 X83.3354 Y24.0412
G01 X83.4181 Y23.9798
G01 X83.5065 Y23.9269
G01 X83.5996 Y23.8828
G01 X83.6965 Y23.8481
G01 X83.7964 Y23.8231
G01 X83.8983 Y23.8080
G01 X84.0012 Y23.8030
G01 X84.1041 Y23.8080
G01 X84.2059 Y23.8231
G01 X84.3058 Y23.8481
G01 X84.4028 Y23.8828
G01 X84.4959 Y23.9269
G01 X84.5843 Y23.9798
G01 X84.6670 Y24.0412
G01 X84.7433 Y24.1103
G01 X84.8125 Y24.1867
G01 X84.8738 Y24.2694
G01 X84.9268 Y24.3577
G01 X84.9708 Y24.4508
G01 X85.0055 Y24.5478
G01 X85.0305 Y24.6477
G01 X85.0456 Y24.7496
G01 X85.0507 Y24.8524
G01 X85.0456 Y24.9553
G01 X85.0305 Y25.0572
G01 X85.0055 Y25.1571
G01 X84.9708 Y25.2541
G01 X84.9268 Y25.3472
G01 X84.8738 Y25.4355
G01 X84.8125 Y25.5182
G01 X84.7433 Y25.5945
G01 X84.6670 Y25.6637
G01 X84.5843 Y25.7251
G01 X84.4959 Y25.7780
G01 X84.4028 Y25.8220
G01 X84.3058 Y25.8567
G01 X84.2059 Y25.8818
G01 X84.1041 Y25.8969
G01 X84.0012 Y25.9019
G01 X83.8983 Y25.8969
G01 X83.7964 Y25.8818
G01 X83.6965 Y25.8567
G01 X83.5996 Y25.8220
G01 X83.5065 Y25.7780
G01 X83.4181 Y25.7251
G01 X83.3354 Y25.6637
G01 X83.2591 Y25.5945
G01 X83.1899 Y25.5182
G01 X83.1286 Y25.4355
G01 X83.0756 Y25.3472
G01 X83.0316 Y25.2541
G01 X82.9969 Y25.1571
G01 X82.9719 Y25.0572
G01 X82.9568 Y24.9553
G01 X82.9518 Y24.8500
G00 Z2.0000
G00 X84.0351 Y25.9040
G01 F60.00
G01 Z-0.0500
G01 F120.00
G01 X83.9003 Y25.8996
G01 X83.7669 Y25.8783
G01 X83.6380 Y25.8400
G01 X83.5143 Y25.7852
G01 X83.3990 Y25.7153
G01 X83.2937 Y25.6310
G01 X83.2001 Y25.5344
G01 X83.1191 Y25.4263
G01 X83.0532 Y25.3090
G01 X83.0023 Y25.1839
G01 X82.9683 Y25.0534
G01 X82.9509 Y24.9196
G01 X82.9509 Y24.7848
G01 X82.9683 Y24.6509
G01 X83.0023 Y24.5205
G01 X83.0532 Y24.3954
G01 X83.1191 Y24.2781
G01 X83.2001 Y24.1700
G01 X83.2937 Y24.0734
G01 X83.3990 Y23.9890
G01 X83.5143 Y23.9192
G01 X83.6380 Y23.8644
G01 X83.7669 Y23.8261
G01 X83.9003 Y23.8048
G01 X84.0351 Y23.8004
G01 X84.1689 Y23.8135
G01 X84.3004 Y23.8436
G01 X84.4270 Y23.8902
G01 X84.5468 Y23.9522
G01 X84.6573 Y24.0293
G01 X84.7571 Y24.1199
G01 X84.8444 Y24.2228
G01 X84.9181 Y24.3357
G01 X84.9763 Y24.4575
G01 X85.0190 Y24.5855
G01 X85.0447 Y24.7174
G01 X85.0534 Y24.8522
G01 X85.0447 Y24.9870
G01 X85.0190 Y25.1188
G01 X84.9763 Y25.2469
G01 X84.9181 Y25.3687
G01 X84.8444 Y25.4816
G01 X84.7571 Y25.5844
G01 X84.6573 Y25.6751
G01 X84.5468 Y25.7522
G01 X84.4270 Y25.8142
G01 X84.3004 Y25.8608
G01 X84.1689 Y25.8909
G01 X84.0351 Y25.9040
G00 Z2.0000
G00 X85.4918 Y24.8500
G01 F60.00
G01 Z-0.0500
G01 F120.00
G01 X85.4968 Y24.7496
G01 X85.5119 Y24.6477
G01 X85.5369 Y24.5478
G01 X85.5716 Y24.4508
G01 X85.6156 Y24.3577
G01 X85.6686 Y24.2694
G01 X85.7299 Y24.1867
G01 X85.7991 Y24.1103
G01 X85.8754 Y24.0412
G01 X85.9581 Y23.9798
G01 X86.0465 Y23.9269
G01 X86.1396 Y23.8828
G01 X86.2365 Y23.8481
G01 X86.3364 Y23.8231
G01 X86.4383 Y23.8080
G01 X86.5412 Y23.8030
G01 X86.6441 Y23.8080
G01 X86.7459 Y23.8231
G01 X86.8458 Y23.8481
G01 X86.9428 Y23.8828
G01 X87.0359 Y23.9269
G01 X87.1243 Y23.9798
G01 X87.2070 Y24.0412
G01 X87.2833 Y24.1103
G01 X87.3525 Y24.1867
G01 X87.4138 Y24.2694
G01 X87.4668 Y24.3577
G01 X87.5108 Y24.4508
G01 X87.5455 Y24.5478
G01 X87.5705 Y24.6477
G01 X87.5856 Y24.7496
G01 X87.5907 Y24.8524
G01 X87.5856 Y24.9553
G01 X87.5705 Y25.0572
G01 X87.5455 Y25.1571
G01 X87.5108 Y25.2541
G01 X87.4668 Y25.3472
G01 X87.4138 Y25.4355
G01 X87.3525 Y25.5182
G01 X87.2833 Y25.5945
G01 X87.2070 Y25.6637
G01 X87.1243 Y25.7251
G01 X87.0359 Y25.7780
G01 X86.9428 Y25.8220
G01 X86.8458 Y25.8567
G01 X86.7459 Y25.8818
G01 X86.6441 Y25.8969
G01 X86.5412 Y25.9019
G01 X86.4383 Y25.8969
G01 X86.3364 Y25.8818
G01 X86.2365 Y25.8567
G01 X86.1396 Y25.8220
G01 X86.0465 Y25.7780
G01 X85.9581 Y25.7251
G01 X85.8754 Y25.6637
G01 X85.7991 Y25.5945
G01 X85.7299 Y25.5182
G01 X85.6686 Y25.4355
G01 X85.6156 Y25.3472
G01 X85.5716 Y25.2541
G01 X85.5369 Y25.1571
G01 X85.5119 Y25.0572
G01 X85.4968 Y24.9553
G01 X85.4918 Y24.8500
G00 Z2.0000
G00 X86.5751 Y25.9040
G01 F60.00
G01 Z-0.0500
G01 F120.00
G01 X86.4403 Y25.8996
G01 X86.3069 Y25.8783
G01 X86.1780 Y25.8400
G01 X86.0543 Y25.7852
G01 X85.9390 Y25.7153
G01 X85.8337 Y25.6310
G01 X85.7401 Y25.5344
G01 X85.6591 Y25.4263
G01 X85.5932 Y25.3090
G01 X85.5423 Y25.1839
G01 X85.5083 Y25.0534
G01 X85.4909 Y24.9196
G01 X85.4909 Y24.7848
G01 X85.5083 Y24.6509
G01 X85.5423 Y24.5205
G01 X85.5932 Y24.3954
G01 X85.6591 Y24.2781
G01 X85.7401 Y24.1700
G01 X85.8337 Y24.0734
G01 X85.9390 Y23.9890
G01 X86.0543 Y23.9192
G01 X86.1780 Y23.8644
G01 X86.3069 Y23.8261
G01 X86.4403 Y23.8048
G01 X86.5751 Y23.8004
G01 X86.7089 Y23.8135
G01 X86.8404 Y23.8436
G01 X86.9670 Y23.8902
G01 X87.0868 Y23.9522
G01 X87.1973 Y24.0293
G01 X87.2971 Y24.1199
G01 X87.3844 Y24.2228
G01 X87.4581 Y24.3357
G01 X87.5163 Y24.4575
G01 X87.5590 Y24.5855
G01 X87.5847 Y24.7174
G01 X87.5934 Y24.8522
G01 X87.5847 Y24.9870
G01 X87.5590 Y25.1188
G01 X87.5163 Y25.2469
G01 X87.4581 Y25.3687
G01 X87.3844 Y25.4816
G01 X87.2971 Y25.5844
G01 X87.1973 Y25.6751
G01 X87.0868 Y25.7522
G01 X86.9670 Y25.8142
G01 X86.8404 Y25.8608
G01 X86.7089 Y25.8909
G01 X86.5751 Y25.9040
G00 Z2.0000
G00 X91.4011 Y20.1890
G01 F60.00
G01 Z-0.0500
G01 F120.00
G01 X91.2663 Y20.1846
G01 X91.1329 Y20.1633
G01 X91.0040 Y20.1250
G01 X90.8803 Y20.0702
G01 X90.7650 Y20.0004
G01 X90.6597 Y19.9160
G01 X90.5661 Y19.8194
G01 X90.4851 Y19.7113
G01 X90.4192 Y19.5940
G01 X90.3683 Y19.4689
G01 X90.3343 Y19.3384
G01 X90.3169 Y19.2046
G01 X90.3169 Y19.0698
G01 X90.3343 Y18.9360
G01 X90.3683 Y18.8055
G01 X90.4192 Y18.6804
G01 X90.4851 Y18.5631
G01 X90.5661 Y18.4550
G01 X90.6597 Y18.3584
G01 X90.7514 Y18.2853
G01 X90.7555 Y18.2813
G01 X90.7789 Y18.2552
G01 X90.7838 Y18.2470
G01 X90.7970 Y18.2196
G01 X90.7994 Y18.2139
G01 X90.8012 Y18.2067
G01 X90.8064 Y18.1717
G01 X90.8066 Y12.8761
G01 X90.8058 Y12.8676
G01 X90.7980 Y12.8278
G01 X90.7964 Y12.8218
G01 X90.7941 Y12.8160
G01 X90.7904 Y12.8095
G01 X90.7680 Y12.7764
G01 X90.7620 Y12.7691
G01 X88.7854 Y10.7920
G01 X88.7793 Y10.7868
G01 X88.7524 Y10.7673
G01 X88.7471 Y10.7642
G01 X88.7392 Y10.7609
G01 X88.7037 Y10.7499
G01 X88.6949 Y10.7489
G01 X88.6598 Y10.7489
G01 X88.6540 Y10.7495
G01 X88.5983 Y10.7587
G01 X88.4635 Y10.7630
G01 X88.3296 Y10.7501
G01 X88.3234 Y10.7499
G01 X88.2731 Y10.7560
G01 X88.2661 Y10.7576
G01 X88.2605 Y10.7597
G01 X88.2542 Y10.7630
G01 X88.2166 Y10.7864
G01 X88.2124 Y10.7893
G01 X88.2085 Y10.7926
G01 X87.7071 Y11.2940
G01 X87.6346 Y11.3561
G01 X87.5549 Y11.4039
G01 X87.4876 Y11.4320
G01 X87.3961 Y11.4549
G01 X87.3798 Y11.4573
G01 X87.3026 Y11.4621
G01 X86.6639 Y11.4621
G01 X86.6578 Y11.4626
G01 X86.6269 Y11.4672
G01 X86.6184 Y11.4692
G01 X86.6126 Y11.4716
G01 X86.5824 Y11.4869
G01 X86.5771 Y11.4903
G01 X86.5722 Y11.4943
G01 X86.5454 Y11.5208
G01 X86.4985 Y11.5833
G01 X86.4049 Y11.6802
G01 X86.2993 Y11.7641
G01 X86.1838 Y11.8340
G01 X86.0606 Y11.8888
G01 X85.9312 Y11.9271
G01 X85.7983 Y11.9484
G01 X85.6634 Y11.9528
G01 X85.5291 Y11.9402
G01 X85.3977 Y11.9101
G01 X85.2712 Y11.8636
G01 X85.1519 Y11.8010
G01 X85.0413 Y11.7239
G01 X84.9414 Y11.6332
G01 X84.8536 Y11.5304
G01 X84.7804 Y11.4174
G01 X84.7217 Y11.2961
G01 X84.6791 Y11.1682
G01 X84.6534 Y11.0359
G01 X84.6451 Y10.9010
G01 X84.6534 Y10.7666
G01 X84.6791 Y10.6343
G01 X84.7217 Y10.5063
G01 X84.7804 Y10.3850
G01 X84.8536 Y10.2716
G01 X84.9413 Y10.1693
G01 X85.0414 Y10.0785
G01 X85.0749 Y10.0546
G01 X85.1019 Y10.0290
G01 X85.1066 Y10.0235
G01 X85.1105 Y10.0174
G01 X85.1263 Y9.9863
G01 X85.1286 Y9.9808
G01 X85.1306 Y9.9726
G01 X85.1358 Y9.9393
G01 X85.1363 Y9.9327
G01 X85.1361 Y9.3258
G01 X85.1304 Y9.2887
G01 X85.1282 Y9.2806
G01 X85.1258 Y9.2751
G01 X85.1105 Y9.2450
G01 X85.1080 Y9.2409
G01 X85.1043 Y9.2361
G01 X85.0749 Y9.2079
G01 X85.0414 Y9.1840
G01 X84.9414 Y9.0932
G01 X84.8536 Y8.9904
G01 X84.7804 Y8.8774
G01 X84.7217 Y8.7561
G01 X84.6791 Y8.6282
G01 X84.6534 Y8.4959
G01 X84.6451 Y8.3610
G01 X84.6534 Y8.2266
G01 X84.6791 Y8.0943
G01 X84.7217 Y7.9663
G01 X84.7804 Y7.8450
G01 X84.8536 Y7.7316
G01 X84.9413 Y7.6293
G01 X85.0413 Y7.5386
G01 X85.1519 Y7.4615
G01 X85.2712 Y7.3989
G01 X85.3977 Y7.3524
G01 X85.5292 Y7.3223
G01 X85.6635 Y7.3092
G01 X85.7982 Y7.3136
G01 X85.9311 Y7.3354
G01 X86.0606 Y7.3737
G01 X86.1838 Y7.4280
G01 X86.2992 Y7.4983
G01 X86.4049 Y7.5822
G01 X86.4984 Y7.6792
G01 X86.5790 Y7.7874
G01 X86.6454 Y7.9047
G01 X86.6958 Y8.0298
G01 X86.7303 Y8.1602
G01 X86.7472 Y8.2936
G01 X86.7472 Y8.4284
G01 X86.7303 Y8.5622
G01 X86.6958 Y8.6927
G01 X86.6454 Y8.8178
G01 X86.5790 Y8.9351
G01 X86.4984 Y9.0433
G01 X86.4049 Y9.1403
G01 X86.3140 Y9.2127
G01 X86.3096 Y9.2169
G01 X86.2863 Y9.2420
G01 X86.2810 Y9.2502
