(G-CODE GENERATED BY FLATCAM v8.993 - www.flatcam.org - Version Date: 2020/06/05)

(Name: Drill2_0.8)
(Type: G-code from Geometry)
(Units: MM)

(Created on Thursday, 15 April 2021 at 19:13)

(This preprocessor is the default preprocessor used by FlatCAM.)
(It is made to work with MACH3 compatible motion controllers.)

(TOOL DIAMETER: 1.015 mm)
(Feedrate_XY: 120.0 mm/min)
(Feedrate_Z: 60.0 mm/min)
(Feedrate rapids 1500.0 mm/min)

(Z_Cut: -1.8 mm)
(Z_Move: 2.0 mm)
(Z Start: None mm)
(Z End: 15.0 mm)
(Steps per circle: 64)
(Preprocessor Geometry: default)

(X range:  138.8647 ...  138.8657  mm)
(Y range:   61.3007 ...   61.3017  mm)

(Spindle Speed: None RPM)
G21
G90
G94



G01 F120.00
G00 Z2.0000

M03
G00 X138.8657 Y61.3012
G01 F60.00
G01 Z-1.8000
G01 F120.00
G01 X138.8652 Y61.3007
G01 X138.8647 Y61.3012
G01 X138.8652 Y61.3017
G01 X138.8657 Y61.3012
G00 Z2.0000
M05
G00 Z2.0000
G00 Z15.00

