(G-CODE GENERATED BY FLATCAM v8.993 - www.flatcam.org - Version Date: 2020/06/05)

(Name: Holes_2.4)
(Type: G-code from Geometry)
(Units: MM)

(Created on Thursday, 15 April 2021 at 19:14)

(This preprocessor is the default preprocessor used by FlatCAM.)
(It is made to work with MACH3 compatible motion controllers.)

(TOOL DIAMETER: 2.4 mm)
(Feedrate_XY: 120.0 mm/min)
(Feedrate_Z: 60.0 mm/min)
(Feedrate rapids 1500.0 mm/min)

(Z_Cut: -1.8 mm)
(Z_Move: 2.0 mm)
(Z Start: None mm)
(Z End: 15.0 mm)
(Steps per circle: 64)
(Preprocessor Geometry: default)

(X range:   47.7843 ...   96.8500  mm)
(Y range:   13.6569 ...   86.8475  mm)

(Spindle Speed: None RPM)
G21
G90
G94



G01 F120.00
G00 Z2.0000

M03
G00 X48.1846 Y13.6569
G01 F60.00
G01 Z-1.8000
G01 F120.00
G01 X48.1650 Y13.6574
G01 X48.1454 Y13.6588
G01 X48.1259 Y13.6612
G01 X48.1066 Y13.6646
G01 X48.0874 Y13.6689
G01 X48.0684 Y13.6741
G01 X48.0498 Y13.6803
G01 X48.0224 Y13.6912
G01 X48.0047 Y13.6996
G01 X47.9873 Y13.7089
G01 X47.9705 Y13.7190
G01 X47.9542 Y13.7299
G01 X47.9384 Y13.7416
G01 X47.9232 Y13.7541
G01 X47.9086 Y13.7673
G01 X47.8947 Y13.7812
G01 X47.8815 Y13.7957
G01 X47.8691 Y13.8109
G01 X47.8574 Y13.8267
G01 X47.8465 Y13.8430
G01 X47.8364 Y13.8599
G01 X47.8271 Y13.8772
G01 X47.8187 Y13.8950
G01 X47.8112 Y13.9131
G01 X47.8046 Y13.9316
G01 X47.7988 Y13.9504
G01 X47.7941 Y13.9695
G01 X47.7902 Y13.9888
G01 X47.7874 Y14.0082
G01 X47.7854 Y14.0277
G01 X47.7845 Y14.0474
G01 X47.7845 Y14.0670
G01 X47.7854 Y14.0866
G01 X47.7874 Y14.1062
G01 X47.7902 Y14.1256
G01 X47.7941 Y14.1449
G01 X47.7988 Y14.1640
G01 X47.8046 Y14.1828
G01 X47.8112 Y14.2013
G01 X47.8187 Y14.2194
G01 X47.8271 Y14.2372
G01 X47.8364 Y14.2545
G01 X47.8465 Y14.2713
G01 X47.8574 Y14.2877
G01 X47.8691 Y14.3035
G01 X47.8815 Y14.3187
G01 X47.8947 Y14.3332
G01 X47.9086 Y14.3471
G01 X47.9232 Y14.3603
G01 X47.9384 Y14.3728
G01 X47.9542 Y14.3845
G01 X47.9705 Y14.3954
G01 X47.9873 Y14.4055
G01 X48.0047 Y14.4147
G01 X48.0224 Y14.4231
G01 X48.0406 Y14.4307
G01 X48.0591 Y14.4373
G01 X48.0779 Y14.4430
G01 X48.0969 Y14.4478
G01 X48.1162 Y14.4516
G01 X48.1356 Y14.4545
G01 X48.1552 Y14.4564
G01 X48.1748 Y14.4574
G01 X48.1996 Y14.4574
G01 X48.2192 Y14.4564
G01 X48.2387 Y14.4545
G01 X48.2582 Y14.4516
G01 X48.2774 Y14.4478
G01 X48.2965 Y14.4430
G01 X48.3153 Y14.4373
G01 X48.3338 Y14.4307
G01 X48.3519 Y14.4231
G01 X48.3697 Y14.4147
G01 X48.3870 Y14.4055
G01 X48.4039 Y14.3954
G01 X48.4202 Y14.3845
G01 X48.4360 Y14.3728
G01 X48.4512 Y14.3603
G01 X48.4658 Y14.3471
G01 X48.4796 Y14.3332
G01 X48.4928 Y14.3187
G01 X48.5053 Y14.3035
G01 X48.5170 Y14.2877
G01 X48.5279 Y14.2713
G01 X48.5380 Y14.2545
G01 X48.5473 Y14.2372
G01 X48.5557 Y14.2194
G01 X48.5632 Y14.2013
G01 X48.5698 Y14.1828
G01 X48.5755 Y14.1640
G01 X48.5803 Y14.1449
G01 X48.5841 Y14.1256
G01 X48.5870 Y14.1062
G01 X48.5889 Y14.0866
G01 X48.5899 Y14.0670
G01 X48.5899 Y14.0474
G01 X48.5889 Y14.0277
G01 X48.5870 Y14.0082
G01 X48.5841 Y13.9888
G01 X48.5803 Y13.9695
G01 X48.5755 Y13.9504
G01 X48.5698 Y13.9316
G01 X48.5632 Y13.9131
G01 X48.5557 Y13.8950
G01 X48.5473 Y13.8772
G01 X48.5380 Y13.8599
G01 X48.5279 Y13.8430
G01 X48.5170 Y13.8267
G01 X48.5053 Y13.8109
G01 X48.4928 Y13.7957
G01 X48.4796 Y13.7812
G01 X48.4658 Y13.7673
G01 X48.4512 Y13.7541
G01 X48.4360 Y13.7416
G01 X48.4202 Y13.7299
G01 X48.4039 Y13.7190
G01 X48.3870 Y13.7089
G01 X48.3697 Y13.6996
G01 X48.3519 Y13.6912
G01 X48.3338 Y13.6837
G01 X48.3153 Y13.6771
G01 X48.2965 Y13.6714
G01 X48.2774 Y13.6666
G01 X48.2582 Y13.6628
G01 X48.2387 Y13.6599
G01 X48.2192 Y13.6580
G01 X48.1996 Y13.6570
G01 X48.1846 Y13.6569
G00 Z2.0000
G00 X96.4446 Y13.6569
G01 F60.00
G01 Z-1.8000
G01 F120.00
G01 X96.4250 Y13.6574
G01 X96.4054 Y13.6588
G01 X96.3859 Y13.6612
G01 X96.3666 Y13.6646
G01 X96.3474 Y13.6689
G01 X96.3284 Y13.6741
G01 X96.3098 Y13.6803
G01 X96.2915 Y13.6874
G01 X96.2735 Y13.6953
G01 X96.2559 Y13.7042
G01 X96.2389 Y13.7138
G01 X96.2223 Y13.7244
G01 X96.2062 Y13.7357
G01 X96.1907 Y13.7478
G01 X96.1758 Y13.7606
G01 X96.1616 Y13.7741
G01 X96.1480 Y13.7884
G01 X96.1352 Y13.8032
G01 X96.1231 Y13.8187
G01 X96.1118 Y13.8348
G01 X96.1013 Y13.8514
G01 X96.0916 Y13.8685
G01 X96.0828 Y13.8860
G01 X96.0748 Y13.9040
G01 X96.0677 Y13.9223
G01 X96.0616 Y13.9410
G01 X96.0541 Y13.9695
G01 X96.0502 Y13.9888
G01 X96.0474 Y14.0082
G01 X96.0454 Y14.0277
G01 X96.0445 Y14.0474
G01 X96.0445 Y14.0670
G01 X96.0454 Y14.0866
G01 X96.0474 Y14.1062
G01 X96.0502 Y14.1256
G01 X96.0541 Y14.1449
G01 X96.0588 Y14.1640
G01 X96.0646 Y14.1828
G01 X96.0712 Y14.2013
G01 X96.0787 Y14.2194
G01 X96.0871 Y14.2372
G01 X96.0964 Y14.2545
G01 X96.1065 Y14.2713
G01 X96.1174 Y14.2877
G01 X96.1291 Y14.3035
G01 X96.1415 Y14.3187
G01 X96.1547 Y14.3332
G01 X96.1686 Y14.3471
G01 X96.1832 Y14.3603
G01 X96.1984 Y14.3728
G01 X96.2142 Y14.3845
G01 X96.2305 Y14.3954
G01 X96.2473 Y14.4055
G01 X96.2647 Y14.4147
G01 X96.2824 Y14.4231
G01 X96.3006 Y14.4307
G01 X96.3191 Y14.4373
G01 X96.3379 Y14.4430
G01 X96.3569 Y14.4478
G01 X96.3762 Y14.4516
G01 X96.3956 Y14.4545
G01 X96.4152 Y14.4564
G01 X96.4348 Y14.4574
G01 X96.4596 Y14.4574
G01 X96.4792 Y14.4564
G01 X96.4987 Y14.4545
G01 X96.5182 Y14.4516
G01 X96.5374 Y14.4478
G01 X96.5565 Y14.4430
G01 X96.5753 Y14.4373
G01 X96.5938 Y14.4307
G01 X96.6119 Y14.4231
G01 X96.6297 Y14.4147
G01 X96.6470 Y14.4055
G01 X96.6639 Y14.3954
G01 X96.6802 Y14.3845
G01 X96.6960 Y14.3728
G01 X96.7112 Y14.3603
G01 X96.7258 Y14.3471
G01 X96.7396 Y14.3332
G01 X96.7528 Y14.3187
G01 X96.7653 Y14.3035
G01 X96.7770 Y14.2877
G01 X96.7879 Y14.2713
G01 X96.7980 Y14.2545
G01 X96.8073 Y14.2372
G01 X96.8157 Y14.2194
G01 X96.8232 Y14.2013
G01 X96.8298 Y14.1828
G01 X96.8355 Y14.1640
G01 X96.8403 Y14.1449
G01 X96.8441 Y14.1256
G01 X96.8470 Y14.1062
G01 X96.8489 Y14.0866
G01 X96.8499 Y14.0670
G01 X96.8499 Y14.0474
G01 X96.8489 Y14.0277
G01 X96.8470 Y14.0082
G01 X96.8441 Y13.9888
G01 X96.8403 Y13.9695
G01 X96.8355 Y13.9504
G01 X96.8298 Y13.9316
G01 X96.8232 Y13.9131
G01 X96.8157 Y13.8950
G01 X96.8073 Y13.8772
G01 X96.7980 Y13.8599
G01 X96.7879 Y13.8430
G01 X96.7770 Y13.8267
G01 X96.7653 Y13.8109
G01 X96.7528 Y13.7957
G01 X96.7396 Y13.7812
G01 X96.7258 Y13.7673
G01 X96.7112 Y13.7541
G01 X96.6960 Y13.7416
G01 X96.6802 Y13.7299
G01 X96.6639 Y13.7190
G01 X96.6470 Y13.7089
G01 X96.6297 Y13.6996
G01 X96.6119 Y13.6912
G01 X96.5938 Y13.6837
G01 X96.5753 Y13.6771
G01 X96.5565 Y13.6714
G01 X96.5374 Y13.6666
G01 X96.5182 Y13.6628
G01 X96.4987 Y13.6599
G01 X96.4792 Y13.6580
G01 X96.4596 Y13.6570
G01 X96.4446 Y13.6569
G00 Z2.0000
G00 X96.4446 Y86.0469
G01 F60.00
G01 Z-1.8000
G01 F120.00
G01 X96.4250 Y86.0474
G01 X96.4054 Y86.0488
G01 X96.3859 Y86.0512
G01 X96.3666 Y86.0546
G01 X96.3474 Y86.0589
G01 X96.3284 Y86.0641
G01 X96.3098 Y86.0703
G01 X96.2915 Y86.0774
G01 X96.2735 Y86.0853
G01 X96.2559 Y86.0942
G01 X96.2389 Y86.1038
G01 X96.2223 Y86.1144
G01 X96.2062 Y86.1257
G01 X96.1907 Y86.1378
G01 X96.1758 Y86.1506
G01 X96.1616 Y86.1641
G01 X96.1480 Y86.1784
G01 X96.1352 Y86.1932
G01 X96.1231 Y86.2087
G01 X96.1118 Y86.2248
G01 X96.1013 Y86.2414
G01 X96.0916 Y86.2585
G01 X96.0828 Y86.2760
G01 X96.0748 Y86.2940
G01 X96.0677 Y86.3123
G01 X96.0616 Y86.3310
G01 X96.0541 Y86.3595
G01 X96.0502 Y86.3788
G01 X96.0474 Y86.3982
G01 X96.0454 Y86.4177
G01 X96.0445 Y86.4374
G01 X96.0445 Y86.4570
G01 X96.0454 Y86.4766
G01 X96.0474 Y86.4962
G01 X96.0502 Y86.5156
G01 X96.0541 Y86.5349
G01 X96.0588 Y86.5540
G01 X96.0646 Y86.5728
G01 X96.0712 Y86.5913
G01 X96.0787 Y86.6094
G01 X96.0871 Y86.6272
G01 X96.0964 Y86.6445
G01 X96.1065 Y86.6613
G01 X96.1174 Y86.6777
G01 X96.1291 Y86.6935
G01 X96.1415 Y86.7087
G01 X96.1547 Y86.7232
G01 X96.1686 Y86.7371
G01 X96.1832 Y86.7503
G01 X96.1984 Y86.7628
G01 X96.2142 Y86.7745
G01 X96.2305 Y86.7854
G01 X96.2473 Y86.7955
G01 X96.2647 Y86.8047
G01 X96.2824 Y86.8131
G01 X96.3006 Y86.8207
G01 X96.3191 Y86.8273
G01 X96.3379 Y86.8330
G01 X96.3569 Y86.8378
G01 X96.3762 Y86.8416
G01 X96.3956 Y86.8445
G01 X96.4152 Y86.8464
G01 X96.4348 Y86.8474
G01 X96.4596 Y86.8474
G01 X96.4792 Y86.8464
G01 X96.4987 Y86.8445
G01 X96.5182 Y86.8416
G01 X96.5374 Y86.8378
G01 X96.5565 Y86.8330
G01 X96.5753 Y86.8273
G01 X96.5938 Y86.8207
G01 X96.6119 Y86.8131
G01 X96.6297 Y86.8047
G01 X96.6470 Y86.7955
G01 X96.6639 Y86.7854
G01 X96.6802 Y86.7745
G01 X96.6960 Y86.7628
G01 X96.7112 Y86.7503
G01 X96.7258 Y86.7371
G01 X96.7396 Y86.7232
G01 X96.7528 Y86.7087
G01 X96.7653 Y86.6935
G01 X96.7770 Y86.6777
G01 X96.7879 Y86.6613
G01 X96.7980 Y86.6445
G01 X96.8073 Y86.6272
G01 X96.8157 Y86.6094
G01 X96.8232 Y86.5913
G01 X96.8298 Y86.5728
G01 X96.8355 Y86.5540
G01 X96.8403 Y86.5349
G01 X96.8441 Y86.5156
G01 X96.8470 Y86.4962
G01 X96.8489 Y86.4766
G01 X96.8499 Y86.4570
G01 X96.8499 Y86.4374
G01 X96.8489 Y86.4177
G01 X96.8470 Y86.3982
G01 X96.8441 Y86.3788
G01 X96.8403 Y86.3595
G01 X96.8355 Y86.3404
G01 X96.8298 Y86.3216
G01 X96.8232 Y86.3031
G01 X96.8157 Y86.2850
G01 X96.8073 Y86.2672
G01 X96.7980 Y86.2499
G01 X96.7879 Y86.2330
G01 X96.7770 Y86.2167
G01 X96.7653 Y86.2009
G01 X96.7528 Y86.1857
G01 X96.7396 Y86.1712
G01 X96.7258 Y86.1573
G01 X96.7112 Y86.1441
G01 X96.6960 Y86.1316
G01 X96.6802 Y86.1199
G01 X96.6639 Y86.1090
G01 X96.6470 Y86.0989
G01 X96.6297 Y86.0896
G01 X96.6119 Y86.0812
G01 X96.5938 Y86.0737
G01 X96.5753 Y86.0671
G01 X96.5565 Y86.0614
G01 X96.5374 Y86.0566
G01 X96.5182 Y86.0528
G01 X96.4987 Y86.0499
G01 X96.4792 Y86.0480
G01 X96.4596 Y86.0470
G01 X96.4446 Y86.0469
G00 Z2.0000
G00 X48.1846 Y86.0469
G01 F60.00
G01 Z-1.8000
G01 F120.00
G01 X48.1650 Y86.0474
G01 X48.1454 Y86.0488
G01 X48.1259 Y86.0512
G01 X48.1066 Y86.0546
G01 X48.0874 Y86.0589
G01 X48.0684 Y86.0641
G01 X48.0498 Y86.0703
G01 X48.0315 Y86.0774
G01 X48.0135 Y86.0853
G01 X47.9959 Y86.0942
G01 X47.9789 Y86.1038
G01 X47.9623 Y86.1144
G01 X47.9462 Y86.1257
G01 X47.9307 Y86.1378
G01 X47.9158 Y86.1506
G01 X47.9016 Y86.1641
G01 X47.8880 Y86.1784
G01 X47.8752 Y86.1932
G01 X47.8631 Y86.2087
G01 X47.8518 Y86.2248
G01 X47.8413 Y86.2414
G01 X47.8316 Y86.2585
G01 X47.8228 Y86.2760
G01 X47.8148 Y86.2940
G01 X47.8077 Y86.3123
G01 X47.8016 Y86.3310
G01 X47.7963 Y86.3499
G01 X47.7920 Y86.3691
G01 X47.7887 Y86.3885
G01 X47.7854 Y86.4177
G01 X47.7845 Y86.4374
G01 X47.7845 Y86.4570
G01 X47.7854 Y86.4766
G01 X47.7874 Y86.4962
G01 X47.7902 Y86.5156
G01 X47.7941 Y86.5349
G01 X47.7988 Y86.5540
G01 X47.8046 Y86.5728
G01 X47.8112 Y86.5913
G01 X47.8187 Y86.6094
G01 X47.8271 Y86.6272
G01 X47.8364 Y86.6445
G01 X47.8465 Y86.6613
G01 X47.8574 Y86.6777
G01 X47.8691 Y86.6935
G01 X47.8815 Y86.7087
G01 X47.8947 Y86.7232
G01 X47.9086 Y86.7371
G01 X47.9232 Y86.7503
G01 X47.9384 Y86.7628
G01 X47.9542 Y86.7745
G01 X47.9705 Y86.7854
G01 X47.9873 Y86.7955
G01 X48.0047 Y86.8047
G01 X48.0224 Y86.8131
G01 X48.0406 Y86.8207
G01 X48.0591 Y86.8273
G01 X48.0779 Y86.8330
G01 X48.0969 Y86.8378
G01 X48.1162 Y86.8416
G01 X48.1356 Y86.8445
G01 X48.1552 Y86.8464
G01 X48.1748 Y86.8474
G01 X48.1996 Y86.8474
G01 X48.2192 Y86.8464
G01 X48.2387 Y86.8445
G01 X48.2582 Y86.8416
G01 X48.2774 Y86.8378
G01 X48.2965 Y86.8330
G01 X48.3153 Y86.8273
G01 X48.3338 Y86.8207
G01 X48.3519 Y86.8131
G01 X48.3697 Y86.8047
G01 X48.3870 Y86.7955
G01 X48.4039 Y86.7854
G01 X48.4202 Y86.7745
G01 X48.4360 Y86.7628
G01 X48.4512 Y86.7503
G01 X48.4658 Y86.7371
G01 X48.4796 Y86.7232
G01 X48.4928 Y86.7087
G01 X48.5053 Y86.6935
G01 X48.5170 Y86.6777
G01 X48.5279 Y86.6613
G01 X48.5380 Y86.6445
G01 X48.5473 Y86.6272
G01 X48.5557 Y86.6094
G01 X48.5632 Y86.5913
G01 X48.5698 Y86.5728
G01 X48.5755 Y86.5540
G01 X48.5803 Y86.5349
G01 X48.5841 Y86.5156
G01 X48.5870 Y86.4962
G01 X48.5889 Y86.4766
G01 X48.5899 Y86.4570
G01 X48.5899 Y86.4374
G01 X48.5889 Y86.4177
G01 X48.5870 Y86.3982
G01 X48.5841 Y86.3788
G01 X48.5803 Y86.3595
G01 X48.5755 Y86.3404
G01 X48.5698 Y86.3216
G01 X48.5632 Y86.3031
G01 X48.5557 Y86.2850
G01 X48.5473 Y86.2672
G01 X48.5380 Y86.2499
G01 X48.5279 Y86.2330
G01 X48.5170 Y86.2167
G01 X48.5053 Y86.2009
G01 X48.4928 Y86.1857
G01 X48.4796 Y86.1712
G01 X48.4658 Y86.1573
G01 X48.4512 Y86.1441
G01 X48.4360 Y86.1316
G01 X48.4202 Y86.1199
G01 X48.4039 Y86.1090
G01 X48.3870 Y86.0989
G01 X48.3697 Y86.0896
G01 X48.3519 Y86.0812
G01 X48.3338 Y86.0737
G01 X48.3153 Y86.0671
G01 X48.2965 Y86.0614
G01 X48.2774 Y86.0566
G01 X48.2582 Y86.0528
G01 X48.2387 Y86.0499
G01 X48.2192 Y86.0480
G01 X48.1996 Y86.0470
G01 X48.1846 Y86.0469
G00 Z2.0000
M05
G00 Z2.0000
G00 Z15.00

