(G-CODE GENERATED BY FLATCAM v8.993 - www.flatcam.org - Version Date: 2020/06/05)

(Name: Outline_2.4)
(Type: G-code from Geometry)
(Units: MM)

(Created on Thursday, 15 April 2021 at 19:11)

(This preprocessor is the default preprocessor used by FlatCAM.)
(It is made to work with MACH3 compatible motion controllers.)

(TOOL DIAMETER: 2.4 mm)
(Feedrate_XY: 120.0 mm/min)
(Feedrate_Z: 60.0 mm/min)
(Feedrate rapids 1500.0 mm/min)

(Z_Cut: -1.9 mm)
(DepthPerCut: 0.7 mm <=>3 passes)
(Z_Move: 2.0 mm)
(Z Start: None mm)
(Z End: 15.0 mm)
(Steps per circle: 64)
(Preprocessor Geometry: default)

(X range:   11.3000 ...  190.7384  mm)
(Y range:    1.3000 ...   99.2045  mm)

(Spindle Speed: None RPM)
G21
G90
G94



G01 F120.00
G00 Z2.0000

M03
G00 X48.0000 Y1.3000
G01 F60.00
G01 Z-0.7000
G01 F120.00
G01 X18.2152 Y1.3000
G01 X18.1563 Y1.3014
G01 X18.1189 Y1.3033
G01 X18.0017 Y1.3148
G01 X17.9647 Y1.3203
G01 X17.9562 Y1.3220
G01 X17.8803 Y1.3255
G01 X17.8253 Y1.3294
G01 X17.7902 Y1.3326
G01 X17.7351 Y1.3390
G01 X17.2239 Y1.4103
G01 X17.1692 Y1.4192
G01 X17.1346 Y1.4257
G01 X17.0804 Y1.4371
G01 X16.5779 Y1.5553
G01 X16.5243 Y1.5693
G01 X16.4904 Y1.5789
G01 X16.4375 Y1.5953
G01 X15.9481 Y1.7593
G01 X15.8959 Y1.7781
G01 X15.8631 Y1.7909
G01 X15.8119 Y1.8121
G01 X15.3397 Y2.0206
G01 X15.2895 Y2.0441
G01 X15.2580 Y2.0598
G01 X15.2090 Y2.0857
G01 X14.7581 Y2.3368
G01 X14.7103 Y2.3649
G01 X14.6803 Y2.3834
G01 X14.6339 Y2.4137
G01 X14.2081 Y2.7054
G01 X14.1631 Y2.7378
G01 X14.1350 Y2.7590
G01 X14.0915 Y2.7934
G01 X13.6944 Y3.1231
G01 X13.6526 Y3.1595
G01 X13.6266 Y3.1833
G01 X13.5865 Y3.2215
G01 X13.2215 Y3.5865
G01 X13.1833 Y3.6266
G01 X13.1595 Y3.6526
G01 X13.1231 Y3.6944
G01 X12.7934 Y4.0915
G01 X12.7590 Y4.1350
G01 X12.7378 Y4.1631
G01 X12.7054 Y4.2081
G01 X12.4137 Y4.6339
G01 X12.3834 Y4.6803
G01 X12.3649 Y4.7103
G01 X12.3368 Y4.7581
G01 X12.0857 Y5.2090
G01 X12.0598 Y5.2580
G01 X12.0441 Y5.2895
G01 X12.0206 Y5.3397
G01 X11.8121 Y5.8119
G01 X11.7909 Y5.8631
G01 X11.7781 Y5.8959
G01 X11.7593 Y5.9481
G01 X11.5953 Y6.4375
G01 X11.5789 Y6.4904
G01 X11.5693 Y6.5243
G01 X11.5553 Y6.5779
G01 X11.4371 Y7.0804
G01 X11.4257 Y7.1346
G01 X11.4192 Y7.1692
G01 X11.4103 Y7.2239
G01 X11.3390 Y7.7351
G01 X11.3326 Y7.7902
G01 X11.3294 Y7.8253
G01 X11.3255 Y7.8806
G01 X11.3017 Y8.3962
G01 X11.3007 Y8.4239
G01 X11.3000 Y8.4692
G01 X11.3000 Y47.0000
G00 X11.3000 Y47.0000
G01 F60.00
G01 Z-1.4000
G01 F120.00
G01 X11.3000 Y8.4692
G01 X11.3007 Y8.4239
G01 X11.3017 Y8.3962
G01 X11.3255 Y7.8806
G01 X11.3294 Y7.8253
G01 X11.3326 Y7.7902
G01 X11.3390 Y7.7351
G01 X11.4103 Y7.2239
G01 X11.4192 Y7.1692
G01 X11.4257 Y7.1346
G01 X11.4371 Y7.0804
G01 X11.5553 Y6.5779
G01 X11.5693 Y6.5243
G01 X11.5789 Y6.4904
G01 X11.5953 Y6.4375
G01 X11.7593 Y5.9481
G01 X11.7781 Y5.8959
G01 X11.7909 Y5.8631
G01 X11.8121 Y5.8119
G01 X12.0206 Y5.3397
G01 X12.0441 Y5.2895
G01 X12.0598 Y5.2580
G01 X12.0857 Y5.2090
G01 X12.3368 Y4.7581
G01 X12.3649 Y4.7103
G01 X12.3834 Y4.6803
G01 X12.4137 Y4.6339
G01 X12.7054 Y4.2081
G01 X12.7378 Y4.1631
G01 X12.7590 Y4.1350
G01 X12.7934 Y4.0915
G01 X13.1231 Y3.6944
G01 X13.1595 Y3.6526
G01 X13.1833 Y3.6266
G01 X13.2215 Y3.5865
G01 X13.5865 Y3.2215
G01 X13.6266 Y3.1833
G01 X13.6526 Y3.1595
G01 X13.6944 Y3.1231
G01 X14.0915 Y2.7934
G01 X14.1350 Y2.7590
G01 X14.1631 Y2.7378
G01 X14.2081 Y2.7054
G01 X14.6339 Y2.4137
G01 X14.6803 Y2.3834
G01 X14.7103 Y2.3649
G01 X14.7581 Y2.3368
G01 X15.2090 Y2.0857
G01 X15.2580 Y2.0598
G01 X15.2895 Y2.0441
G01 X15.3397 Y2.0206
G01 X15.8119 Y1.8121
G01 X15.8631 Y1.7909
G01 X15.8959 Y1.7781
G01 X15.9481 Y1.7593
G01 X16.4375 Y1.5953
G01 X16.4904 Y1.5789
G01 X16.5243 Y1.5693
G01 X16.5779 Y1.5553
G01 X17.0804 Y1.4371
G01 X17.1346 Y1.4257
G01 X17.1692 Y1.4192
G01 X17.2239 Y1.4103
G01 X17.7351 Y1.3390
G01 X17.7902 Y1.3326
G01 X17.8253 Y1.3294
G01 X17.8803 Y1.3255
G01 X17.9562 Y1.3220
G01 X17.9647 Y1.3203
G01 X18.0017 Y1.3148
G01 X18.1189 Y1.3033
G01 X18.1563 Y1.3014
G01 X18.2152 Y1.3000
G01 X48.0000 Y1.3000
G00 X48.0000 Y1.3000
G01 F60.00
G01 Z-1.9000
G01 F120.00
G01 X18.2152 Y1.3000
G01 X18.1563 Y1.3014
G01 X18.1189 Y1.3033
G01 X18.0017 Y1.3148
G01 X17.9647 Y1.3203
G01 X17.9562 Y1.3220
G01 X17.8803 Y1.3255
G01 X17.8253 Y1.3294
G01 X17.7902 Y1.3326
G01 X17.7351 Y1.3390
G01 X17.2239 Y1.4103
G01 X17.1692 Y1.4192
G01 X17.1346 Y1.4257
G01 X17.0804 Y1.4371
G01 X16.5779 Y1.5553
G01 X16.5243 Y1.5693
G01 X16.4904 Y1.5789
G01 X16.4375 Y1.5953
G01 X15.9481 Y1.7593
G01 X15.8959 Y1.7781
G01 X15.8631 Y1.7909
G01 X15.8119 Y1.8121
G01 X15.3397 Y2.0206
G01 X15.2895 Y2.0441
G01 X15.2580 Y2.0598
G01 X15.2090 Y2.0857
G01 X14.7581 Y2.3368
G01 X14.7103 Y2.3649
G01 X14.6803 Y2.3834
G01 X14.6339 Y2.4137
G01 X14.2081 Y2.7054
G01 X14.1631 Y2.7378
G01 X14.1350 Y2.7590
G01 X14.0915 Y2.7934
G01 X13.6944 Y3.1231
G01 X13.6526 Y3.1595
G01 X13.6266 Y3.1833
G01 X13.5865 Y3.2215
G01 X13.2215 Y3.5865
G01 X13.1833 Y3.6266
G01 X13.1595 Y3.6526
G01 X13.1231 Y3.6944
G01 X12.7934 Y4.0915
G01 X12.7590 Y4.1350
G01 X12.7378 Y4.1631
G01 X12.7054 Y4.2081
G01 X12.4137 Y4.6339
G01 X12.3834 Y4.6803
G01 X12.3649 Y4.7103
G01 X12.3368 Y4.7581
G01 X12.0857 Y5.2090
G01 X12.0598 Y5.2580
G01 X12.0441 Y5.2895
G01 X12.0206 Y5.3397
G01 X11.8121 Y5.8119
G01 X11.7909 Y5.8631
G01 X11.7781 Y5.8959
G01 X11.7593 Y5.9481
G01 X11.5953 Y6.4375
G01 X11.5789 Y6.4904
G01 X11.5693 Y6.5243
G01 X11.5553 Y6.5779
G01 X11.4371 Y7.0804
G01 X11.4257 Y7.1346
G01 X11.4192 Y7.1692
G01 X11.4103 Y7.2239
G01 X11.3390 Y7.7351
G01 X11.3326 Y7.7902
G01 X11.3294 Y7.8253
G01 X11.3255 Y7.8806
G01 X11.3017 Y8.3962
G01 X11.3007 Y8.4239
G01 X11.3000 Y8.4692
G01 X11.3000 Y47.0000
G00 Z2.0000
G00 X11.3000 Y53.0000
G01 F60.00
G01 Z-0.7000
G01 F120.00
G01 X11.3000 Y92.2892
G01 X11.3014 Y92.3481
G01 X11.3033 Y92.3854
G01 X11.3148 Y92.5026
G01 X11.3203 Y92.5396
G01 X11.3229 Y92.5528
G01 X11.3291 Y92.6671
G01 X11.3331 Y92.7198
G01 X11.3368 Y92.7570
G01 X11.3440 Y92.8155
G01 X11.4245 Y93.3579
G01 X11.4346 Y93.4160
G01 X11.4419 Y93.4527
G01 X11.4548 Y93.5101
G01 X11.5880 Y94.0421
G01 X11.6037 Y94.0988
G01 X11.6146 Y94.1346
G01 X11.6330 Y94.1906
G01 X11.8178 Y94.7069
G01 X11.8390 Y94.7618
G01 X11.8533 Y94.7964
G01 X11.8772 Y94.8503
G01 X12.1116 Y95.3460
G01 X12.1381 Y95.3986
G01 X12.1558 Y95.4316
G01 X12.1848 Y95.4828
G01 X12.4667 Y95.9532
G01 X12.4982 Y96.0030
G01 X12.5190 Y96.0341
G01 X12.5529 Y96.0822
G01 X12.8796 Y96.5227
G01 X12.9158 Y96.5691
G01 X12.9396 Y96.5980
G01 X12.9780 Y96.6426
G01 X13.3463 Y97.0489
G01 X13.3869 Y97.0916
G01 X13.4134 Y97.1181
G01 X13.4560 Y97.1587
G01 X13.8623 Y97.5269
G01 X13.9069 Y97.5654
G01 X13.9359 Y97.5891
G01 X13.9823 Y97.6254
G01 X14.4227 Y97.9520
G01 X14.4709 Y97.9860
G01 X14.5020 Y98.0067
G01 X14.5518 Y98.0383
G01 X15.0221 Y98.3202
G01 X15.0734 Y98.3492
G01 X15.1064 Y98.3668
G01 X15.1590 Y98.3933
G01 X15.6547 Y98.6278
G01 X15.7086 Y98.6517
G01 X15.7431 Y98.6660
G01 X15.7981 Y98.6872
G01 X16.3144 Y98.8719
G01 X16.3703 Y98.8904
G01 X16.4061 Y98.9012
G01 X16.4629 Y98.9170
G01 X16.9948 Y99.0502
G01 X17.0523 Y99.0631
G01 X17.0890 Y99.0704
G01 X17.1470 Y99.0805
G01 X17.6895 Y99.1609
G01 X17.7479 Y99.1681
G01 X17.7851 Y99.1718
G01 X17.8439 Y99.1761
G01 X17.9516 Y99.1814
G01 X17.9648 Y99.1841
G01 X18.0018 Y99.1896
G01 X18.1190 Y99.2011
G01 X18.1564 Y99.2029
G01 X18.2153 Y99.2044
G01 X18.4505 Y99.2045
G01 X48.0000 Y99.2032
G00 X48.0000 Y99.2032
G01 F60.00
G01 Z-1.4000
G01 F120.00
G01 X18.4505 Y99.2045
G01 X18.2153 Y99.2044
G01 X18.1564 Y99.2029
G01 X18.1190 Y99.2011
G01 X18.0018 Y99.1896
G01 X17.9648 Y99.1841
G01 X17.9516 Y99.1814
G01 X17.8439 Y99.1761
G01 X17.7851 Y99.1718
G01 X17.7479 Y99.1681
G01 X17.6895 Y99.1609
G01 X17.1470 Y99.0805
G01 X17.0890 Y99.0704
G01 X17.0523 Y99.0631
G01 X16.9948 Y99.0502
G01 X16.4629 Y98.9170
G01 X16.4061 Y98.9012
G01 X16.3703 Y98.8904
G01 X16.3144 Y98.8719
G01 X15.7981 Y98.6872
G01 X15.7431 Y98.6660
G01 X15.7086 Y98.6517
G01 X15.6547 Y98.6278
G01 X15.1590 Y98.3933
G01 X15.1064 Y98.3668
G01 X15.0734 Y98.3492
G01 X15.0221 Y98.3202
G01 X14.5518 Y98.0383
G01 X14.5020 Y98.0067
G01 X14.4709 Y97.9860
G01 X14.4227 Y97.9520
G01 X13.9823 Y97.6254
G01 X13.9359 Y97.5891
G01 X13.9069 Y97.5654
G01 X13.8623 Y97.5269
G01 X13.4560 Y97.1587
G01 X13.4134 Y97.1181
G01 X13.3869 Y97.0916
G01 X13.3463 Y97.0489
G01 X12.9780 Y96.6426
G01 X12.9396 Y96.5980
G01 X12.9158 Y96.5691
G01 X12.8796 Y96.5227
G01 X12.5529 Y96.0822
G01 X12.5190 Y96.0341
G01 X12.4982 Y96.0030
G01 X12.4667 Y95.9532
G01 X12.1848 Y95.4828
G01 X12.1558 Y95.4316
G01 X12.1381 Y95.3986
G01 X12.1116 Y95.3460
G01 X11.8772 Y94.8503
G01 X11.8533 Y94.7964
G01 X11.8390 Y94.7618
G01 X11.8178 Y94.7069
G01 X11.6330 Y94.1906
G01 X11.6146 Y94.1346
G01 X11.6037 Y94.0988
G01 X11.5880 Y94.0421
G01 X11.4548 Y93.5101
G01 X11.4419 Y93.4527
G01 X11.4346 Y93.4160
G01 X11.4245 Y93.3579
G01 X11.3440 Y92.8155
G01 X11.3368 Y92.7570
G01 X11.3331 Y92.7198
G01 X11.3291 Y92.6671
G01 X11.3229 Y92.5528
G01 X11.3203 Y92.5396
G01 X11.3148 Y92.5026
G01 X11.3033 Y92.3854
G01 X11.3014 Y92.3481
G01 X11.3000 Y92.2892
G01 X11.3000 Y53.0000
G00 X11.3000 Y53.0000
G01 F60.00
G01 Z-1.9000
G01 F120.00
G01 X11.3000 Y92.2892
G01 X11.3014 Y92.3481
G01 X11.3033 Y92.3854
G01 X11.3148 Y92.5026
G01 X11.3203 Y92.5396
G01 X11.3229 Y92.5528
G01 X11.3291 Y92.6671
G01 X11.3331 Y92.7198
G01 X11.3368 Y92.7570
G01 X11.3440 Y92.8155
G01 X11.4245 Y93.3579
G01 X11.4346 Y93.4160
G01 X11.4419 Y93.4527
G01 X11.4548 Y93.5101
G01 X11.5880 Y94.0421
G01 X11.6037 Y94.0988
G01 X11.6146 Y94.1346
G01 X11.6330 Y94.1906
G01 X11.8178 Y94.7069
G01 X11.8390 Y94.7618
G01 X11.8533 Y94.7964
G01 X11.8772 Y94.8503
G01 X12.1116 Y95.3460
G01 X12.1381 Y95.3986
G01 X12.1558 Y95.4316
G01 X12.1848 Y95.4828
G01 X12.4667 Y95.9532
G01 X12.4982 Y96.0030
G01 X12.5190 Y96.0341
G01 X12.5529 Y96.0822
G01 X12.8796 Y96.5227
G01 X12.9158 Y96.5691
G01 X12.9396 Y96.5980
G01 X12.9780 Y96.6426
G01 X13.3463 Y97.0489
G01 X13.3869 Y97.0916
G01 X13.4134 Y97.1181
G01 X13.4560 Y97.1587
G01 X13.8623 Y97.5269
G01 X13.9069 Y97.5654
G01 X13.9359 Y97.5891
G01 X13.9823 Y97.6254
G01 X14.4227 Y97.9520
G01 X14.4709 Y97.9860
G01 X14.5020 Y98.0067
G01 X14.5518 Y98.0383
G01 X15.0221 Y98.3202
G01 X15.0734 Y98.3492
G01 X15.1064 Y98.3668
G01 X15.1590 Y98.3933
G01 X15.6547 Y98.6278
G01 X15.7086 Y98.6517
G01 X15.7431 Y98.6660
G01 X15.7981 Y98.6872
G01 X16.3144 Y98.8719
G01 X16.3703 Y98.8904
G01 X16.4061 Y98.9012
G01 X16.4629 Y98.9170
G01 X16.9948 Y99.0502
G01 X17.0523 Y99.0631
G01 X17.0890 Y99.0704
G01 X17.1470 Y99.0805
G01 X17.6895 Y99.1609
G01 X17.7479 Y99.1681
G01 X17.7851 Y99.1718
G01 X17.8439 Y99.1761
G01 X17.9516 Y99.1814
G01 X17.9648 Y99.1841
G01 X18.0018 Y99.1896
G01 X18.1190 Y99.2011
G01 X18.1564 Y99.2029
G01 X18.2153 Y99.2044
G01 X18.4505 Y99.2045
G01 X48.0000 Y99.2032
G00 Z2.0000
G00 X54.0000 Y99.2030
G01 F60.00
G01 Z-0.7000
G01 F120.00
G01 X90.2243 Y99.2014
G01 X90.2515 Y99.2008
G01 X90.2923 Y99.2029
G01 X90.4101 Y99.2029
G01 X90.4474 Y99.2011
G01 X90.5646 Y99.1896
G01 X90.6016 Y99.1841
G01 X90.7171 Y99.1611
G01 X90.7534 Y99.1520
G01 X90.8661 Y99.1178
G01 X90.9013 Y99.1052
G01 X91.0101 Y99.0601
G01 X91.0439 Y99.0442
G01 X91.1478 Y98.9886
G01 X91.1799 Y98.9694
G01 X91.2778 Y98.9040
G01 X91.3079 Y98.8817
G01 X91.3989 Y98.8070
G01 X91.4266 Y98.7819
G01 X91.4693 Y98.7413
G01 X107.7725 Y82.4381
G01 X138.0000 Y82.4390
G00 X138.0000 Y82.4390
G01 F60.00
G01 Z-1.4000
G01 F120.00
G01 X107.7725 Y82.4381
G01 X91.4693 Y98.7413
G01 X91.4266 Y98.7819
G01 X91.3989 Y98.8070
G01 X91.3079 Y98.8817
G01 X91.2778 Y98.9040
G01 X91.1799 Y98.9694
G01 X91.1478 Y98.9886
G01 X91.0439 Y99.0442
G01 X91.0101 Y99.0601
G01 X90.9013 Y99.1052
G01 X90.8661 Y99.1178
G01 X90.7534 Y99.1520
G01 X90.7171 Y99.1611
G01 X90.6016 Y99.1841
G01 X90.5646 Y99.1896
G01 X90.4474 Y99.2011
G01 X90.4101 Y99.2029
G01 X90.2923 Y99.2029
G01 X90.2515 Y99.2008
G01 X90.2243 Y99.2014
G01 X54.0000 Y99.2030
G00 X54.0000 Y99.2030
G01 F60.00
G01 Z-1.9000
G01 F120.00
G01 X90.2243 Y99.2014
G01 X90.2515 Y99.2008
G01 X90.2923 Y99.2029
G01 X90.4101 Y99.2029
G01 X90.4474 Y99.2011
G01 X90.5646 Y99.1896
G01 X90.6016 Y99.1841
G01 X90.7171 Y99.1611
G01 X90.7534 Y99.1520
G01 X90.8661 Y99.1178
G01 X90.9013 Y99.1052
G01 X91.0101 Y99.0601
G01 X91.0439 Y99.0442
G01 X91.1478 Y98.9886
G01 X91.1799 Y98.9694
G01 X91.2778 Y98.9040
G01 X91.3079 Y98.8817
G01 X91.3989 Y98.8070
G01 X91.4266 Y98.7819
G01 X91.4693 Y98.7413
G01 X107.7725 Y82.4381
G01 X138.0000 Y82.4390
G00 Z2.0000
G00 X145.0000 Y82.4392
G01 F60.00
G01 Z-0.7000
G01 F120.00
G01 X183.3151 Y82.4404
G01 X183.3740 Y82.4389
G01 X183.4114 Y82.4371
G01 X183.4386 Y82.4344
G01 X183.5505 Y82.4399
G01 X183.5879 Y82.4399
G01 X183.6468 Y82.4385
G01 X184.1945 Y82.4116
G01 X184.2532 Y82.4072
G01 X184.2905 Y82.4036
G01 X184.3489 Y82.3964
G01 X184.8914 Y82.3159
G01 X184.9494 Y82.3058
G01 X184.9861 Y82.2985
G01 X185.0436 Y82.2856
G01 X185.5755 Y82.1524
G01 X185.6323 Y82.1367
G01 X185.6681 Y82.1258
G01 X185.7240 Y82.1073
G01 X186.2403 Y81.9226
G01 X186.2953 Y81.9014
G01 X186.3298 Y81.8871
G01 X186.3837 Y81.8632
G01 X186.8794 Y81.6287
G01 X186.9320 Y81.6023
G01 X186.9650 Y81.5846
G01 X187.0162 Y81.5556
G01 X187.4866 Y81.2737
G01 X187.5364 Y81.2422
G01 X187.5675 Y81.2214
G01 X187.6156 Y81.1875
G01 X188.0561 Y80.8608
G01 X188.1025 Y80.8246
G01 X188.1314 Y80.8008
G01 X188.1760 Y80.7624
G01 X188.5824 Y80.3941
G01 X188.6250 Y80.3535
G01 X188.6515 Y80.3270
G01 X188.6921 Y80.2844
G01 X189.0604 Y79.8780
G01 X189.0988 Y79.8334
G01 X189.1226 Y79.8045
G01 X189.1588 Y79.7581
G01 X189.4855 Y79.3176
G01 X189.5194 Y79.2695
G01 X189.5402 Y79.2384
G01 X189.5717 Y79.1886
G01 X189.8536 Y78.7182
G01 X189.8826 Y78.6670
G01 X189.9003 Y78.6340
G01 X189.9267 Y78.5814
G01 X190.1612 Y78.0857
G01 X190.1851 Y78.0318
G01 X190.1994 Y77.9973
G01 X190.2206 Y77.9423
G01 X190.4053 Y77.4260
G01 X190.4238 Y77.3701
G01 X190.4347 Y77.3343
G01 X190.4504 Y77.2775
G01 X190.5836 Y76.7456
G01 X190.5965 Y76.6881
G01 X190.6038 Y76.6514
G01 X190.6139 Y76.5934
G01 X190.6944 Y76.0509
G01 X190.7016 Y75.9925
G01 X190.7052 Y75.9552
G01 X190.7096 Y75.8965
G01 X190.7365 Y75.3488
G01 X190.7380 Y75.3006
G01 X190.7384 Y75.2662
G01 X190.6203 Y52.0000
G00 X190.6203 Y52.0000
G01 F60.00
G01 Z-1.4000
G01 F120.00
G01 X190.7384 Y75.2662
G01 X190.7380 Y75.3006
G01 X190.7365 Y75.3488
G01 X190.7096 Y75.8965
G01 X190.7052 Y75.9552
G01 X190.7016 Y75.9925
G01 X190.6944 Y76.0509
G01 X190.6139 Y76.5934
G01 X190.6038 Y76.6514
G01 X190.5965 Y76.6881
G01 X190.5836 Y76.7456
G01 X190.4504 Y77.2775
G01 X190.4347 Y77.3343
G01 X190.4238 Y77.3701
G01 X190.4053 Y77.4260
G01 X190.2206 Y77.9423
G01 X190.1994 Y77.9973
G01 X190.1851 Y78.0318
G01 X190.1612 Y78.0857
G01 X189.9267 Y78.5814
G01 X189.9003 Y78.6340
G01 X189.8826 Y78.6670
G01 X189.8536 Y78.7182
G01 X189.5717 Y79.1886
G01 X189.5402 Y79.2384
G01 X189.5194 Y79.2695
G01 X189.4855 Y79.3176
G01 X189.1588 Y79.7581
G01 X189.1226 Y79.8045
G01 X189.0988 Y79.8334
G01 X189.0604 Y79.8780
G01 X188.6921 Y80.2844
G01 X188.6515 Y80.3270
G01 X188.6250 Y80.3535
G01 X188.5824 Y80.3941
G01 X188.1760 Y80.7624
G01 X188.1314 Y80.8008
G01 X188.1025 Y80.8246
G01 X188.0561 Y80.8608
G01 X187.6156 Y81.1875
G01 X187.5675 Y81.2214
G01 X187.5364 Y81.2422
G01 X187.4866 Y81.2737
G01 X187.0162 Y81.5556
G01 X186.9650 Y81.5846
G01 X186.9320 Y81.6023
G01 X186.8794 Y81.6287
G01 X186.3837 Y81.8632
G01 X186.3298 Y81.8871
G01 X186.2953 Y81.9014
G01 X186.2403 Y81.9226
G01 X185.7240 Y82.1073
G01 X185.6681 Y82.1258
G01 X185.6323 Y82.1367
G01 X185.5755 Y82.1524
G01 X185.0436 Y82.2856
G01 X184.9861 Y82.2985
G01 X184.9494 Y82.3058
G01 X184.8914 Y82.3159
G01 X184.3489 Y82.3964
G01 X184.2905 Y82.4036
G01 X184.2532 Y82.4072
G01 X184.1945 Y82.4116
G01 X183.6468 Y82.4385
G01 X183.5879 Y82.4399
G01 X183.5505 Y82.4399
G01 X183.4386 Y82.4344
G01 X183.4114 Y82.4371
G01 X183.3740 Y82.4389
G01 X183.3151 Y82.4404
G01 X145.0000 Y82.4392
G00 X145.0000 Y82.4392
G01 F60.00
G01 Z-1.9000
G01 F120.00
G01 X183.3151 Y82.4404
G01 X183.3740 Y82.4389
G01 X183.4114 Y82.4371
G01 X183.4386 Y82.4344
G01 X183.5505 Y82.4399
G01 X183.5879 Y82.4399
G01 X183.6468 Y82.4385
G01 X184.1945 Y82.4116
G01 X184.2532 Y82.4072
G01 X184.2905 Y82.4036
G01 X184.3489 Y82.3964
G01 X184.8914 Y82.3159
G01 X184.9494 Y82.3058
G01 X184.9861 Y82.2985
G01 X185.0436 Y82.2856
G01 X185.5755 Y82.1524
G01 X185.6323 Y82.1367
G01 X185.6681 Y82.1258
G01 X185.7240 Y82.1073
G01 X186.2403 Y81.9226
G01 X186.2953 Y81.9014
G01 X186.3298 Y81.8871
G01 X186.3837 Y81.8632
G01 X186.8794 Y81.6287
G01 X186.9320 Y81.6023
G01 X186.9650 Y81.5846
G01 X187.0162 Y81.5556
G01 X187.4866 Y81.2737
G01 X187.5364 Y81.2422
G01 X187.5675 Y81.2214
G01 X187.6156 Y81.1875
G01 X188.0561 Y80.8608
G01 X188.1025 Y80.8246
G01 X188.1314 Y80.8008
G01 X188.1760 Y80.7624
G01 X188.5824 Y80.3941
G01 X188.6250 Y80.3535
G01 X188.6515 Y80.3270
G01 X188.6921 Y80.2844
G01 X189.0604 Y79.8780
G01 X189.0988 Y79.8334
G01 X189.1226 Y79.8045
G01 X189.1588 Y79.7581
G01 X189.4855 Y79.3176
G01 X189.5194 Y79.2695
G01 X189.5402 Y79.2384
G01 X189.5717 Y79.1886
G01 X189.8536 Y78.7182
G01 X189.8826 Y78.6670
G01 X189.9003 Y78.6340
G01 X189.9267 Y78.5814
G01 X190.1612 Y78.0857
G01 X190.1851 Y78.0318
G01 X190.1994 Y77.9973
G01 X190.2206 Y77.9423
G01 X190.4053 Y77.4260
G01 X190.4238 Y77.3701
G01 X190.4347 Y77.3343
G01 X190.4504 Y77.2775
G01 X190.5836 Y76.7456
G01 X190.5965 Y76.6881
G01 X190.6038 Y76.6514
G01 X190.6139 Y76.5934
G01 X190.6944 Y76.0509
G01 X190.7016 Y75.9925
G01 X190.7052 Y75.9552
G01 X190.7096 Y75.8965
G01 X190.7365 Y75.3488
G01 X190.7380 Y75.3006
G01 X190.7384 Y75.2662
G01 X190.6203 Y52.0000
G00 Z2.0000
G00 X190.5898 Y46.0000
G01 F60.00
G01 Z-0.7000
G01 F120.00
G01 X190.4844 Y25.2252
G01 X190.4838 Y25.1935
G01 X190.4825 Y25.1579
G01 X190.4556 Y24.6102
G01 X190.4512 Y24.5515
G01 X190.4476 Y24.5143
G01 X190.4404 Y24.4558
G01 X190.3599 Y23.9134
G01 X190.3498 Y23.8553
G01 X190.3425 Y23.8186
G01 X190.3296 Y23.7612
G01 X190.1964 Y23.2292
G01 X190.1807 Y23.1725
G01 X190.1698 Y23.1367
G01 X190.1513 Y23.0807
G01 X189.9666 Y22.5644
G01 X189.9454 Y22.5095
G01 X189.9311 Y22.4749
G01 X189.9072 Y22.4210
G01 X189.6727 Y21.9253
G01 X189.6463 Y21.8727
G01 X189.6286 Y21.8397
G01 X189.5996 Y21.7885
G01 X189.3177 Y21.3181
G01 X189.2862 Y21.2683
G01 X189.2654 Y21.2372
G01 X189.2315 Y21.1891
G01 X188.9048 Y20.7486
G01 X188.8686 Y20.7022
G01 X188.8448 Y20.6733
G01 X188.8064 Y20.6287
G01 X188.4381 Y20.2224
G01 X188.3975 Y20.1797
G01 X188.3710 Y20.1532
G01 X188.3284 Y20.1126
G01 X187.9220 Y19.7444
G01 X187.8774 Y19.7059
G01 X187.8485 Y19.6822
G01 X187.8021 Y19.6459
G01 X187.3616 Y19.3193
G01 X187.3135 Y19.2853
G01 X187.2824 Y19.2646
G01 X187.2326 Y19.2330
G01 X186.7622 Y18.9511
G01 X186.7110 Y18.9221
G01 X186.6780 Y18.9045
G01 X186.6254 Y18.8780
G01 X186.1297 Y18.6435
G01 X186.0758 Y18.6196
G01 X186.0413 Y18.6053
G01 X185.9863 Y18.5841
G01 X185.4700 Y18.3994
G01 X185.4141 Y18.3809
G01 X185.3783 Y18.3700
G01 X185.3215 Y18.3543
G01 X184.7896 Y18.2211
G01 X184.7321 Y18.2082
G01 X184.6954 Y18.2009
G01 X184.6374 Y18.1908
G01 X184.0949 Y18.1104
G01 X184.0365 Y18.1031
G01 X183.9992 Y18.0995
G01 X183.9405 Y18.0951
G01 X183.3928 Y18.0682
G01 X183.3634 Y18.0672
G01 X183.3152 Y18.0663
G01 X145.0000 Y18.0652
G00 X145.0000 Y18.0652
G01 F60.00
G01 Z-1.4000
G01 F120.00
G01 X183.3152 Y18.0663
G01 X183.3634 Y18.0672
G01 X183.3928 Y18.0682
G01 X183.9405 Y18.0951
G01 X183.9992 Y18.0995
G01 X184.0365 Y18.1031
G01 X184.0949 Y18.1104
G01 X184.6374 Y18.1908
G01 X184.6954 Y18.2009
G01 X184.7321 Y18.2082
G01 X184.7896 Y18.2211
G01 X185.3215 Y18.3543
G01 X185.3783 Y18.3700
G01 X185.4141 Y18.3809
G01 X185.4700 Y18.3994
G01 X185.9863 Y18.5841
G01 X186.0413 Y18.6053
G01 X186.0758 Y18.6196
G01 X186.1297 Y18.6435
G01 X186.6254 Y18.8780
G01 X186.6780 Y18.9045
G01 X186.7110 Y18.9221
G01 X186.7622 Y18.9511
G01 X187.2326 Y19.2330
G01 X187.2824 Y19.2646
G01 X187.3135 Y19.2853
G01 X187.3616 Y19.3193
G01 X187.8021 Y19.6459
G01 X187.8485 Y19.6822
G01 X187.8774 Y19.7059
G01 X187.9220 Y19.7444
G01 X188.3284 Y20.1126
G01 X188.3710 Y20.1532
G01 X188.3975 Y20.1797
G01 X188.4381 Y20.2224
G01 X188.8064 Y20.6287
G01 X188.8448 Y20.6733
G01 X188.8686 Y20.7022
G01 X188.9048 Y20.7486
G01 X189.2315 Y21.1891
G01 X189.2654 Y21.2372
G01 X189.2862 Y21.2683
G01 X189.3177 Y21.3181
G01 X189.5996 Y21.7885
G01 X189.6286 Y21.8397
G01 X189.6463 Y21.8727
G01 X189.6727 Y21.9253
G01 X189.9072 Y22.4210
G01 X189.9311 Y22.4749
G01 X189.9454 Y22.5095
G01 X189.9666 Y22.5644
G01 X190.1513 Y23.0807
G01 X190.1698 Y23.1367
G01 X190.1807 Y23.1725
G01 X190.1964 Y23.2292
G01 X190.3296 Y23.7612
G01 X190.3425 Y23.8186
G01 X190.3498 Y23.8553
G01 X190.3599 Y23.9134
G01 X190.4404 Y24.4558
G01 X190.4476 Y24.5143
G01 X190.4512 Y24.5515
G01 X190.4556 Y24.6102
G01 X190.4825 Y25.1579
G01 X190.4838 Y25.1935
G01 X190.4844 Y25.2252
G01 X190.5898 Y46.0000
G00 X190.5898 Y46.0000
G01 F60.00
G01 Z-1.9000
G01 F120.00
G01 X190.4844 Y25.2252
G01 X190.4838 Y25.1935
G01 X190.4825 Y25.1579
G01 X190.4556 Y24.6102
G01 X190.4512 Y24.5515
G01 X190.4476 Y24.5143
G01 X190.4404 Y24.4558
G01 X190.3599 Y23.9134
G01 X190.3498 Y23.8553
G01 X190.3425 Y23.8186
G01 X190.3296 Y23.7612
G01 X190.1964 Y23.2292
G01 X190.1807 Y23.1725
G01 X190.1698 Y23.1367
G01 X190.1513 Y23.0807
G01 X189.9666 Y22.5644
G01 X189.9454 Y22.5095
G01 X189.9311 Y22.4749
G01 X189.9072 Y22.4210
G01 X189.6727 Y21.9253
G01 X189.6463 Y21.8727
G01 X189.6286 Y21.8397
G01 X189.5996 Y21.7885
G01 X189.3177 Y21.3181
G01 X189.2862 Y21.2683
G01 X189.2654 Y21.2372
G01 X189.2315 Y21.1891
G01 X188.9048 Y20.7486
G01 X188.8686 Y20.7022
G01 X188.8448 Y20.6733
G01 X188.8064 Y20.6287
G01 X188.4381 Y20.2224
G01 X188.3975 Y20.1797
G01 X188.3710 Y20.1532
G01 X188.3284 Y20.1126
G01 X187.9220 Y19.7444
G01 X187.8774 Y19.7059
G01 X187.8485 Y19.6822
G01 X187.8021 Y19.6459
G01 X187.3616 Y19.3193
G01 X187.3135 Y19.2853
G01 X187.2824 Y19.2646
G01 X187.2326 Y19.2330
G01 X186.7622 Y18.9511
G01 X186.7110 Y18.9221
G01 X186.6780 Y18.9045
G01 X186.6254 Y18.8780
G01 X186.1297 Y18.6435
G01 X186.0758 Y18.6196
G01 X186.0413 Y18.6053
G01 X185.9863 Y18.5841
G01 X185.4700 Y18.3994
G01 X185.4141 Y18.3809
G01 X185.3783 Y18.3700
G01 X185.3215 Y18.3543
G01 X184.7896 Y18.2211
G01 X184.7321 Y18.2082
G01 X184.6954 Y18.2009
G01 X184.6374 Y18.1908
G01 X184.0949 Y18.1104
G01 X184.0365 Y18.1031
G01 X183.9992 Y18.0995
G01 X183.9405 Y18.0951
G01 X183.3928 Y18.0682
G01 X183.3634 Y18.0672
G01 X183.3152 Y18.0663
G01 X145.0000 Y18.0652
G00 Z2.0000
G00 X138.0000 Y18.0649
G01 F60.00
G01 Z-0.7000
G01 F120.00
G01 X107.7702 Y18.0640
G01 X91.4693 Y1.7631
G01 X91.4266 Y1.7225
G01 X91.3989 Y1.6974
G01 X91.3079 Y1.6227
G01 X91.2778 Y1.6004
G01 X91.1799 Y1.5350
G01 X91.1478 Y1.5157
G01 X91.0439 Y1.4602
G01 X91.0101 Y1.4442
G01 X90.9013 Y1.3992
G01 X90.8661 Y1.3866
G01 X90.7534 Y1.3524
G01 X90.7171 Y1.3433
G01 X90.6016 Y1.3203
G01 X90.5646 Y1.3148
G01 X90.4474 Y1.3033
G01 X90.4101 Y1.3014
G01 X90.2877 Y1.3017
G01 X90.2242 Y1.3000
G01 X55.0000 Y1.3000
G00 X55.0000 Y1.3000
G01 F60.00
G01 Z-1.4000
G01 F120.00
G01 X90.2242 Y1.3000
G01 X90.2877 Y1.3017
G01 X90.4101 Y1.3014
G01 X90.4474 Y1.3033
G01 X90.5646 Y1.3148
G01 X90.6016 Y1.3203
G01 X90.7171 Y1.3433
G01 X90.7534 Y1.3524
G01 X90.8661 Y1.3866
G01 X90.9013 Y1.3992
G01 X91.0101 Y1.4442
G01 X91.0439 Y1.4602
G01 X91.1478 Y1.5157
G01 X91.1799 Y1.5350
G01 X91.2778 Y1.6004
G01 X91.3079 Y1.6227
G01 X91.3989 Y1.6974
G01 X91.4266 Y1.7225
G01 X91.4693 Y1.7631
G01 X107.7702 Y18.0640
G01 X138.0000 Y18.0649
G00 X138.0000 Y18.0649
G01 F60.00
G01 Z-1.9000
G01 F120.00
G01 X107.7702 Y18.0640
G01 X91.4693 Y1.7631
G01 X91.4266 Y1.7225
G01 X91.3989 Y1.6974
G01 X91.3079 Y1.6227
G01 X91.2778 Y1.6004
G01 X91.1799 Y1.5350
G01 X91.1478 Y1.5157
G01 X91.0439 Y1.4602
G01 X91.0101 Y1.4442
G01 X90.9013 Y1.3992
G01 X90.8661 Y1.3866
G01 X90.7534 Y1.3524
G01 X90.7171 Y1.3433
G01 X90.6016 Y1.3203
G01 X90.5646 Y1.3148
G01 X90.4474 Y1.3033
G01 X90.4101 Y1.3014
G01 X90.2877 Y1.3017
G01 X90.2242 Y1.3000
G01 X55.0000 Y1.3000
G00 Z2.0000
M05
G00 Z2.0000
G00 Z15.00

