(G-CODE GENERATED BY FLATCAM v8.993 - www.flatcam.org - Version Date: 2020/06/05)

(Name: Drill_0.8)
(Type: G-code from Geometry)
(Units: MM)

(Created on Thursday, 27 May 2021 at 14:25)

(This preprocessor is the default preprocessor used by FlatCAM.)
(It is made to work with MACH3 compatible motion controllers.)

(TOOL DIAMETER: 1.0 mm)
(Feedrate_XY: 120.0 mm/min)
(Feedrate_Z: 60.0 mm/min)
(Feedrate rapids 1500.0 mm/min)

(Z_Cut: -1.8 mm)
(Z_Move: 2.0 mm)
(Z Start: None mm)
(Z End: 15.0 mm)
(Steps per circle: 64)
(Preprocessor Geometry: default)

(X range:    2.9212 ...  172.8472  mm)
(Y range:    4.1614 ...   91.3434  mm)

(Spindle Speed: None RPM)
G21
G90
G94



G01 F120.00
G00 Z2.0000

M03
G00 X5.2072 Y6.7314
G01 F60.00
G01 Z-1.8000
G01 F120.00
G01 X5.2072 Y6.7314
G01 X5.2072 Y6.7314
G01 X5.2072 Y6.7314
G01 X5.2072 Y6.7314
G00 Z2.0000
G00 X7.7472 Y6.7314
G01 F60.00
G01 Z-1.8000
G01 F120.00
G01 X7.7472 Y6.7314
G01 X7.7472 Y6.7314
G01 X7.7472 Y6.7314
G01 X7.7472 Y6.7314
G00 Z2.0000
G00 X10.2872 Y6.7314
G01 F60.00
G01 Z-1.8000
G01 F120.00
G01 X10.2872 Y6.7314
G01 X10.2872 Y6.7314
G01 X10.2872 Y6.7314
G01 X10.2872 Y6.7314
G00 Z2.0000
G00 X10.2872 Y12.8274
G01 F60.00
G01 Z-1.8000
G01 F120.00
G01 X10.2872 Y12.8274
G01 X10.2872 Y12.8274
G01 X10.2872 Y12.8274
G01 X10.2872 Y12.8274
G00 Z2.0000
G00 X5.2072 Y12.8274
G01 F60.00
G01 Z-1.8000
G01 F120.00
G01 X5.2072 Y12.8274
G01 X5.2072 Y12.8274
G01 X5.2072 Y12.8274
G01 X5.2072 Y12.8274
G00 Z2.0000
G00 X5.4612 Y22.6064
G01 F60.00
G01 Z-1.8000
G01 F120.00
G01 X5.4612 Y22.6064
G01 X5.4612 Y22.6064
G01 X5.4612 Y22.6064
G01 X5.4612 Y22.6064
G00 Z2.0000
G00 X2.9212 Y22.6064
G01 F60.00
G01 Z-1.8000
G01 F120.00
G01 X2.9212 Y22.6064
G01 X2.9212 Y22.6064
G01 X2.9212 Y22.6064
G01 X2.9212 Y22.6064
G00 Z2.0000
G00 X8.0012 Y22.6064
G01 F60.00
G01 Z-1.8000
G01 F120.00
G01 X8.0012 Y22.6064
G01 X8.0012 Y22.6064
G01 X8.0012 Y22.6064
G01 X8.0012 Y22.6064
G00 Z2.0000
G00 X10.5412 Y22.6064
G01 F60.00
G01 Z-1.8000
G01 F120.00
G01 X10.5412 Y22.6064
G01 X10.5412 Y22.6064
G01 X10.5412 Y22.6064
G01 X10.5412 Y22.6064
G00 Z2.0000
G00 X13.0812 Y22.6064
G01 F60.00
G01 Z-1.8000
G01 F120.00
G01 X13.0812 Y22.6064
G01 X13.0812 Y22.6064
G01 X13.0812 Y22.6064
G01 X13.0812 Y22.6064
G00 Z2.0000
G00 X15.6212 Y22.6064
G01 F60.00
G01 Z-1.8000
G01 F120.00
G01 X15.6212 Y22.6064
G01 X15.6212 Y22.6064
G01 X15.6212 Y22.6064
G01 X15.6212 Y22.6064
G00 Z2.0000
G00 X18.1612 Y22.6064
G01 F60.00
G01 Z-1.8000
G01 F120.00
G01 X18.1612 Y22.6064
G01 X18.1612 Y22.6064
G01 X18.1612 Y22.6064
G01 X18.1612 Y22.6064
G00 Z2.0000
G00 X20.7012 Y22.6064
G01 F60.00
G01 Z-1.8000
G01 F120.00
G01 X20.7012 Y22.6064
G01 X20.7012 Y22.6064
G01 X20.7012 Y22.6064
G01 X20.7012 Y22.6064
G00 Z2.0000
G00 X23.2412 Y22.6064
G01 F60.00
G01 Z-1.8000
G01 F120.00
G01 X23.2412 Y22.6064
G01 X23.2412 Y22.6064
G01 X23.2412 Y22.6064
G01 X23.2412 Y22.6064
G00 Z2.0000
G00 X28.3222 Y22.7334
G01 F60.00
G01 Z-1.8000
G01 F120.00
G01 X28.3222 Y22.7334
G01 X28.3222 Y22.7334
G01 X28.3222 Y22.7334
G01 X28.3222 Y22.7334
G00 Z2.0000
G00 X30.8622 Y22.7334
G01 F60.00
G01 Z-1.8000
G01 F120.00
G01 X30.8622 Y22.7334
G01 X30.8622 Y22.7334
G01 X30.8622 Y22.7334
G01 X30.8622 Y22.7334
G00 Z2.0000
G00 X33.4022 Y22.7334
G01 F60.00
G01 Z-1.8000
G01 F120.00
G01 X33.4022 Y22.7334
G01 X33.4022 Y22.7334
G01 X33.4022 Y22.7334
G01 X33.4022 Y22.7334
G00 Z2.0000
G00 X35.9422 Y22.7334
G01 F60.00
G01 Z-1.8000
G01 F120.00
G01 X35.9422 Y22.7334
G01 X35.9422 Y22.7334
G01 X35.9422 Y22.7334
G01 X35.9422 Y22.7334
G00 Z2.0000
G00 X38.4822 Y22.7334
G01 F60.00
G01 Z-1.8000
G01 F120.00
G01 X38.4822 Y22.7334
G01 X38.4822 Y22.7334
G01 X38.4822 Y22.7334
G01 X38.4822 Y22.7334
G00 Z2.0000
G00 X41.0222 Y22.7334
G01 F60.00
G01 Z-1.8000
G01 F120.00
G01 X41.0222 Y22.7334
G01 X41.0222 Y22.7334
G01 X41.0222 Y22.7334
G01 X41.0222 Y22.7334
G00 Z2.0000
G00 X43.5622 Y22.7334
G01 F60.00
G01 Z-1.8000
G01 F120.00
G01 X43.5622 Y22.7334
G01 X43.5622 Y22.7334
G01 X43.5622 Y22.7334
G01 X43.5622 Y22.7334
G00 Z2.0000
G00 X46.1022 Y22.7334
G01 F60.00
G01 Z-1.8000
G01 F120.00
G01 X46.1022 Y22.7334
G01 X46.1022 Y22.7334
G01 X46.1022 Y22.7334
G01 X46.1022 Y22.7334
G00 Z2.0000
G00 X48.6422 Y22.7334
G01 F60.00
G01 Z-1.8000
G01 F120.00
G01 X48.6422 Y22.7334
G01 X48.6422 Y22.7334
G01 X48.6422 Y22.7334
G01 X48.6422 Y22.7334
G00 Z2.0000
G00 X53.7212 Y22.7334
G01 F60.00
G01 Z-1.8000
G01 F120.00
G01 X53.7212 Y22.7334
G01 X53.7212 Y22.7334
G01 X53.7212 Y22.7334
G01 X53.7212 Y22.7334
G00 Z2.0000
G00 X56.2612 Y22.7334
G01 F60.00
G01 Z-1.8000
G01 F120.00
G01 X56.2612 Y22.7334
G01 X56.2612 Y22.7334
G01 X56.2612 Y22.7334
G01 X56.2612 Y22.7334
G00 Z2.0000
G00 X58.8012 Y22.7334
G01 F60.00
G01 Z-1.8000
G01 F120.00
G01 X58.8012 Y22.7334
G01 X58.8012 Y22.7334
G01 X58.8012 Y22.7334
G01 X58.8012 Y22.7334
G00 Z2.0000
G00 X61.3412 Y22.7334
G01 F60.00
G01 Z-1.8000
G01 F120.00
G01 X61.3412 Y22.7334
G01 X61.3412 Y22.7334
G01 X61.3412 Y22.7334
G01 X61.3412 Y22.7334
G00 Z2.0000
G00 X63.8812 Y22.7334
G01 F60.00
G01 Z-1.8000
G01 F120.00
G01 X63.8812 Y22.7334
G01 X63.8812 Y22.7334
G01 X63.8812 Y22.7334
G01 X63.8812 Y22.7334
G00 Z2.0000
G00 X66.4212 Y22.7334
G01 F60.00
G01 Z-1.8000
G01 F120.00
G01 X66.4212 Y22.7334
G01 X66.4212 Y22.7334
G01 X66.4212 Y22.7334
G01 X66.4212 Y22.7334
G00 Z2.0000
G00 X68.9612 Y22.7334
G01 F60.00
G01 Z-1.8000
G01 F120.00
G01 X68.9612 Y22.7334
G01 X68.9612 Y22.7334
G01 X68.9612 Y22.7334
G01 X68.9612 Y22.7334
G00 Z2.0000
G00 X71.5012 Y22.7334
G01 F60.00
G01 Z-1.8000
G01 F120.00
G01 X71.5012 Y22.7334
G01 X71.5012 Y22.7334
G01 X71.5012 Y22.7334
G01 X71.5012 Y22.7334
G00 Z2.0000
G00 X74.0412 Y22.7334
G01 F60.00
G01 Z-1.8000
G01 F120.00
G01 X74.0412 Y22.7334
G01 X74.0412 Y22.7334
G01 X74.0412 Y22.7334
G01 X74.0412 Y22.7334
G00 Z2.0000
G00 X75.0772 Y15.1614
G01 F60.00
G01 Z-1.8000
G01 F120.00
G01 X75.0772 Y15.1614
G01 X75.0772 Y15.1614
G01 X75.0772 Y15.1614
G01 X75.0772 Y15.1614
G00 Z2.0000
G00 X69.9972 Y15.1614
G01 F60.00
G01 Z-1.8000
G01 F120.00
G01 X69.9972 Y15.1614
G01 X69.9972 Y15.1614
G01 X69.9972 Y15.1614
G01 X69.9972 Y15.1614
G00 Z2.0000
G00 X69.9772 Y4.1614
G01 F60.00
G01 Z-1.8000
G01 F120.00
G01 X69.9772 Y4.1614
G01 X69.9772 Y4.1614
G01 X69.9772 Y4.1614
G01 X69.9772 Y4.1614
G00 Z2.0000
G00 X75.0572 Y4.1614
G01 F60.00
G01 Z-1.8000
G01 F120.00
G01 X75.0572 Y4.1614
G01 X75.0572 Y4.1614
G01 X75.0572 Y4.1614
G01 X75.0572 Y4.1614
G00 Z2.0000
G00 X87.7572 Y19.9394
G01 F60.00
G01 Z-1.8000
G01 F120.00
G01 X87.7572 Y19.9394
G01 X87.7572 Y19.9394
G01 X87.7572 Y19.9394
G01 X87.7572 Y19.9394
G00 Z2.0000
G00 X90.2972 Y19.9394
G01 F60.00
G01 Z-1.8000
G01 F120.00
G01 X90.2972 Y19.9394
G01 X90.2972 Y19.9394
G01 X90.2972 Y19.9394
G01 X90.2972 Y19.9394
G00 Z2.0000
G00 X92.8372 Y19.9394
G01 F60.00
G01 Z-1.8000
G01 F120.00
G01 X92.8372 Y19.9394
G01 X92.8372 Y19.9394
G01 X92.8372 Y19.9394
G01 X92.8372 Y19.9394
G00 Z2.0000
G00 X95.3772 Y19.9394
G01 F60.00
G01 Z-1.8000
G01 F120.00
G01 X95.3772 Y19.9394
G01 X95.3772 Y19.9394
G01 X95.3772 Y19.9394
G01 X95.3772 Y19.9394
G00 Z2.0000
G00 X97.9172 Y19.9394
G01 F60.00
G01 Z-1.8000
G01 F120.00
G01 X97.9172 Y19.9394
G01 X97.9172 Y19.9394
G01 X97.9172 Y19.9394
G01 X97.9172 Y19.9394
G00 Z2.0000
G00 X100.4572 Y19.9394
G01 F60.00
G01 Z-1.8000
G01 F120.00
G01 X100.4572 Y19.9394
G01 X100.4572 Y19.9394
G01 X100.4572 Y19.9394
G01 X100.4572 Y19.9394
G00 Z2.0000
G00 X102.9972 Y19.9394
G01 F60.00
G01 Z-1.8000
G01 F120.00
G01 X102.9972 Y19.9394
G01 X102.9972 Y19.9394
G01 X102.9972 Y19.9394
G01 X102.9972 Y19.9394
G00 Z2.0000
G00 X105.5372 Y19.9394
G01 F60.00
G01 Z-1.8000
G01 F120.00
G01 X105.5372 Y19.9394
G01 X105.5372 Y19.9394
G01 X105.5372 Y19.9394
G01 X105.5372 Y19.9394
G00 Z2.0000
G00 X105.5372 Y23.4954
G01 F60.00
G01 Z-1.8000
G01 F120.00
G01 X105.5372 Y23.4954
G01 X105.5372 Y23.4954
G01 X105.5372 Y23.4954
G01 X105.5372 Y23.4954
G00 Z2.0000
G00 X102.9972 Y23.4954
G01 F60.00
G01 Z-1.8000
G01 F120.00
G01 X102.9972 Y23.4954
G01 X102.9972 Y23.4954
G01 X102.9972 Y23.4954
G01 X102.9972 Y23.4954
G00 Z2.0000
G00 X100.4572 Y23.4954
G01 F60.00
G01 Z-1.8000
G01 F120.00
G01 X100.4572 Y23.4954
G01 X100.4572 Y23.4954
G01 X100.4572 Y23.4954
G01 X100.4572 Y23.4954
G00 Z2.0000
G00 X97.9172 Y23.4954
G01 F60.00
G01 Z-1.8000
G01 F120.00
G01 X97.9172 Y23.4954
G01 X97.9172 Y23.4954
G01 X97.9172 Y23.4954
G01 X97.9172 Y23.4954
G00 Z2.0000
G00 X95.3772 Y23.4954
G01 F60.00
G01 Z-1.8000
G01 F120.00
G01 X95.3772 Y23.4954
G01 X95.3772 Y23.4954
G01 X95.3772 Y23.4954
G01 X95.3772 Y23.4954
G00 Z2.0000
G00 X92.8372 Y23.4954
G01 F60.00
G01 Z-1.8000
G01 F120.00
G01 X92.8372 Y23.4954
G01 X92.8372 Y23.4954
G01 X92.8372 Y23.4954
G01 X92.8372 Y23.4954
G00 Z2.0000
G00 X90.2972 Y23.4954
G01 F60.00
G01 Z-1.8000
G01 F120.00
G01 X90.2972 Y23.4954
G01 X90.2972 Y23.4954
G01 X90.2972 Y23.4954
G01 X90.2972 Y23.4954
G00 Z2.0000
G00 X87.7572 Y23.4954
G01 F60.00
G01 Z-1.8000
G01 F120.00
G01 X87.7572 Y23.4954
G01 X87.7572 Y23.4954
G01 X87.7572 Y23.4954
G01 X87.7572 Y23.4954
G00 Z2.0000
G00 X85.2172 Y28.5754
G01 F60.00
G01 Z-1.8000
G01 F120.00
G01 X85.2172 Y28.5754
G01 X85.2172 Y28.5754
G01 X85.2172 Y28.5754
G01 X85.2172 Y28.5754
G00 Z2.0000
G00 X82.6772 Y28.5754
G01 F60.00
G01 Z-1.8000
G01 F120.00
G01 X82.6772 Y28.5754
G01 X82.6772 Y28.5754
G01 X82.6772 Y28.5754
G01 X82.6772 Y28.5754
G00 Z2.0000
G00 X82.6772 Y31.1154
G01 F60.00
G01 Z-1.8000
G01 F120.00
G01 X82.6772 Y31.1154
G01 X82.6772 Y31.1154
G01 X82.6772 Y31.1154
G01 X82.6772 Y31.1154
G00 Z2.0000
G00 X85.2172 Y31.1154
G01 F60.00
G01 Z-1.8000
G01 F120.00
G01 X85.2172 Y31.1154
G01 X85.2172 Y31.1154
G01 X85.2172 Y31.1154
G01 X85.2172 Y31.1154
G00 Z2.0000
G00 X85.2172 Y33.6554
G01 F60.00
G01 Z-1.8000
G01 F120.00
G01 X85.2172 Y33.6554
G01 X85.2172 Y33.6554
G01 X85.2172 Y33.6554
G01 X85.2172 Y33.6554
G00 Z2.0000
G00 X82.6772 Y33.6554
G01 F60.00
G01 Z-1.8000
G01 F120.00
G01 X82.6772 Y33.6554
G01 X82.6772 Y33.6554
G01 X82.6772 Y33.6554
G01 X82.6772 Y33.6554
G00 Z2.0000
G00 X82.6772 Y36.1954
G01 F60.00
G01 Z-1.8000
G01 F120.00
G01 X82.6772 Y36.1954
G01 X82.6772 Y36.1954
G01 X82.6772 Y36.1954
G01 X82.6772 Y36.1954
G00 Z2.0000
G00 X85.2172 Y36.1954
G01 F60.00
G01 Z-1.8000
G01 F120.00
G01 X85.2172 Y36.1954
G01 X85.2172 Y36.1954
G01 X85.2172 Y36.1954
G01 X85.2172 Y36.1954
G00 Z2.0000
G00 X85.2172 Y38.7354
G01 F60.00
G01 Z-1.8000
G01 F120.00
G01 X85.2172 Y38.7354
G01 X85.2172 Y38.7354
G01 X85.2172 Y38.7354
G01 X85.2172 Y38.7354
G00 Z2.0000
G00 X82.6772 Y38.7354
G01 F60.00
G01 Z-1.8000
G01 F120.00
G01 X82.6772 Y38.7354
G01 X82.6772 Y38.7354
G01 X82.6772 Y38.7354
G01 X82.6772 Y38.7354
G00 Z2.0000
G00 X82.6772 Y41.2754
G01 F60.00
G01 Z-1.8000
G01 F120.00
G01 X82.6772 Y41.2754
G01 X82.6772 Y41.2754
G01 X82.6772 Y41.2754
G01 X82.6772 Y41.2754
G00 Z2.0000
G00 X85.2172 Y41.2754
G01 F60.00
G01 Z-1.8000
G01 F120.00
G01 X85.2172 Y41.2754
G01 X85.2172 Y41.2754
G01 X85.2172 Y41.2754
G01 X85.2172 Y41.2754
G00 Z2.0000
G00 X85.2172 Y43.8154
G01 F60.00
G01 Z-1.8000
G01 F120.00
G01 X85.2172 Y43.8154
G01 X85.2172 Y43.8154
G01 X85.2172 Y43.8154
G01 X85.2172 Y43.8154
G00 Z2.0000
G00 X82.6772 Y43.8154
G01 F60.00
G01 Z-1.8000
G01 F120.00
G01 X82.6772 Y43.8154
G01 X82.6772 Y43.8154
G01 X82.6772 Y43.8154
G01 X82.6772 Y43.8154
G00 Z2.0000
G00 X82.6772 Y46.3554
G01 F60.00
G01 Z-1.8000
G01 F120.00
G01 X82.6772 Y46.3554
G01 X82.6772 Y46.3554
G01 X82.6772 Y46.3554
G01 X82.6772 Y46.3554
G00 Z2.0000
G00 X85.2172 Y46.3554
G01 F60.00
G01 Z-1.8000
G01 F120.00
G01 X85.2172 Y46.3554
G01 X85.2172 Y46.3554
G01 X85.2172 Y46.3554
G01 X85.2172 Y46.3554
G00 Z2.0000
G00 X85.2172 Y48.8954
G01 F60.00
G01 Z-1.8000
G01 F120.00
G01 X85.2172 Y48.8954
G01 X85.2172 Y48.8954
G01 X85.2172 Y48.8954
G01 X85.2172 Y48.8954
G00 Z2.0000
G00 X82.6772 Y48.8954
G01 F60.00
G01 Z-1.8000
G01 F120.00
G01 X82.6772 Y48.8954
G01 X82.6772 Y48.8954
G01 X82.6772 Y48.8954
G01 X82.6772 Y48.8954
G00 Z2.0000
G00 X82.6772 Y51.4354
G01 F60.00
G01 Z-1.8000
G01 F120.00
G01 X82.6772 Y51.4354
G01 X82.6772 Y51.4354
G01 X82.6772 Y51.4354
G01 X82.6772 Y51.4354
G00 Z2.0000
G00 X85.2172 Y51.4354
G01 F60.00
G01 Z-1.8000
G01 F120.00
G01 X85.2172 Y51.4354
G01 X85.2172 Y51.4354
G01 X85.2172 Y51.4354
G01 X85.2172 Y51.4354
G00 Z2.0000
G00 X85.2172 Y53.9754
G01 F60.00
G01 Z-1.8000
G01 F120.00
G01 X85.2172 Y53.9754
G01 X85.2172 Y53.9754
G01 X85.2172 Y53.9754
G01 X85.2172 Y53.9754
G00 Z2.0000
G00 X82.6772 Y53.9754
G01 F60.00
G01 Z-1.8000
G01 F120.00
G01 X82.6772 Y53.9754
G01 X82.6772 Y53.9754
G01 X82.6772 Y53.9754
G01 X82.6772 Y53.9754
G00 Z2.0000
G00 X82.6772 Y56.5154
G01 F60.00
G01 Z-1.8000
G01 F120.00
G01 X82.6772 Y56.5154
G01 X82.6772 Y56.5154
G01 X82.6772 Y56.5154
G01 X82.6772 Y56.5154
G00 Z2.0000
G00 X85.2172 Y56.5154
G01 F60.00
G01 Z-1.8000
G01 F120.00
G01 X85.2172 Y56.5154
G01 X85.2172 Y56.5154
G01 X85.2172 Y56.5154
G01 X85.2172 Y56.5154
G00 Z2.0000
G00 X85.2172 Y59.0554
G01 F60.00
G01 Z-1.8000
G01 F120.00
G01 X85.2172 Y59.0554
G01 X85.2172 Y59.0554
G01 X85.2172 Y59.0554
G01 X85.2172 Y59.0554
G00 Z2.0000
G00 X82.6772 Y59.0554
G01 F60.00
G01 Z-1.8000
G01 F120.00
G01 X82.6772 Y59.0554
G01 X82.6772 Y59.0554
G01 X82.6772 Y59.0554
G01 X82.6772 Y59.0554
G00 Z2.0000
G00 X82.6772 Y61.5954
G01 F60.00
G01 Z-1.8000
G01 F120.00
G01 X82.6772 Y61.5954
G01 X82.6772 Y61.5954
G01 X82.6772 Y61.5954
G01 X82.6772 Y61.5954
G00 Z2.0000
G00 X85.2172 Y61.5954
G01 F60.00
G01 Z-1.8000
G01 F120.00
G01 X85.2172 Y61.5954
G01 X85.2172 Y61.5954
G01 X85.2172 Y61.5954
G01 X85.2172 Y61.5954
G00 Z2.0000
G00 X85.2172 Y64.1354
G01 F60.00
G01 Z-1.8000
G01 F120.00
G01 X85.2172 Y64.1354
G01 X85.2172 Y64.1354
G01 X85.2172 Y64.1354
G01 X85.2172 Y64.1354
G00 Z2.0000
G00 X82.6772 Y64.1354
G01 F60.00
G01 Z-1.8000
G01 F120.00
G01 X82.6772 Y64.1354
G01 X82.6772 Y64.1354
G01 X82.6772 Y64.1354
G01 X82.6772 Y64.1354
G00 Z2.0000
G00 X82.6772 Y66.6754
G01 F60.00
G01 Z-1.8000
G01 F120.00
G01 X82.6772 Y66.6754
G01 X82.6772 Y66.6754
G01 X82.6772 Y66.6754
G01 X82.6772 Y66.6754
G00 Z2.0000
G00 X85.2172 Y66.6754
G01 F60.00
G01 Z-1.8000
G01 F120.00
G01 X85.2172 Y66.6754
G01 X85.2172 Y66.6754
G01 X85.2172 Y66.6754
G01 X85.2172 Y66.6754
G00 Z2.0000
G00 X85.2172 Y69.2154
G01 F60.00
G01 Z-1.8000
G01 F120.00
G01 X85.2172 Y69.2154
G01 X85.2172 Y69.2154
G01 X85.2172 Y69.2154
G01 X85.2172 Y69.2154
G00 Z2.0000
G00 X85.2172 Y71.7554
G01 F60.00
G01 Z-1.8000
G01 F120.00
G01 X85.2172 Y71.7554
G01 X85.2172 Y71.7554
G01 X85.2172 Y71.7554
G01 X85.2172 Y71.7554
G00 Z2.0000
G00 X82.6772 Y71.7554
G01 F60.00
G01 Z-1.8000
G01 F120.00
G01 X82.6772 Y71.7554
G01 X82.6772 Y71.7554
G01 X82.6772 Y71.7554
G01 X82.6772 Y71.7554
G00 Z2.0000
G00 X82.6772 Y69.2154
G01 F60.00
G01 Z-1.8000
G01 F120.00
G01 X82.6772 Y69.2154
G01 X82.6772 Y69.2154
G01 X82.6772 Y69.2154
G01 X82.6772 Y69.2154
G00 Z2.0000
G00 X74.0412 Y73.1524
G01 F60.00
G01 Z-1.8000
G01 F120.00
G01 X74.0412 Y73.1524
G01 X74.0412 Y73.1524
G01 X74.0412 Y73.1524
G01 X74.0412 Y73.1524
G00 Z2.0000
G00 X71.5012 Y73.1524
G01 F60.00
G01 Z-1.8000
G01 F120.00
G01 X71.5012 Y73.1524
G01 X71.5012 Y73.1524
G01 X71.5012 Y73.1524
G01 X71.5012 Y73.1524
G00 Z2.0000
G00 X68.9612 Y73.1524
G01 F60.00
G01 Z-1.8000
G01 F120.00
G01 X68.9612 Y73.1524
G01 X68.9612 Y73.1524
G01 X68.9612 Y73.1524
G01 X68.9612 Y73.1524
G00 Z2.0000
G00 X66.4212 Y73.1524
G01 F60.00
G01 Z-1.8000
G01 F120.00
G01 X66.4212 Y73.1524
G01 X66.4212 Y73.1524
G01 X66.4212 Y73.1524
G01 X66.4212 Y73.1524
G00 Z2.0000
G00 X63.8812 Y73.1524
G01 F60.00
G01 Z-1.8000
G01 F120.00
G01 X63.8812 Y73.1524
G01 X63.8812 Y73.1524
G01 X63.8812 Y73.1524
G01 X63.8812 Y73.1524
G00 Z2.0000
G00 X61.3412 Y73.1524
G01 F60.00
G01 Z-1.8000
G01 F120.00
G01 X61.3412 Y73.1524
G01 X61.3412 Y73.1524
G01 X61.3412 Y73.1524
G01 X61.3412 Y73.1524
G00 Z2.0000
G00 X58.8012 Y73.1524
G01 F60.00
G01 Z-1.8000
G01 F120.00
G01 X58.8012 Y73.1524
G01 X58.8012 Y73.1524
G01 X58.8012 Y73.1524
G01 X58.8012 Y73.1524
G00 Z2.0000
G00 X56.2612 Y73.1524
G01 F60.00
G01 Z-1.8000
G01 F120.00
G01 X56.2612 Y73.1524
G01 X56.2612 Y73.1524
G01 X56.2612 Y73.1524
G01 X56.2612 Y73.1524
G00 Z2.0000
G00 X53.7212 Y73.1524
G01 F60.00
G01 Z-1.8000
G01 F120.00
G01 X53.7212 Y73.1524
G01 X53.7212 Y73.1524
G01 X53.7212 Y73.1524
G01 X53.7212 Y73.1524
G00 Z2.0000
G00 X48.6422 Y73.1524
G01 F60.00
G01 Z-1.8000
G01 F120.00
G01 X48.6422 Y73.1524
G01 X48.6422 Y73.1524
G01 X48.6422 Y73.1524
G01 X48.6422 Y73.1524
G00 Z2.0000
G00 X46.1022 Y73.1524
G01 F60.00
G01 Z-1.8000
G01 F120.00
G01 X46.1022 Y73.1524
G01 X46.1022 Y73.1524
G01 X46.1022 Y73.1524
G01 X46.1022 Y73.1524
G00 Z2.0000
G00 X43.5622 Y73.1524
G01 F60.00
G01 Z-1.8000
G01 F120.00
G01 X43.5622 Y73.1524
G01 X43.5622 Y73.1524
G01 X43.5622 Y73.1524
G01 X43.5622 Y73.1524
G00 Z2.0000
G00 X41.0222 Y73.1524
G01 F60.00
G01 Z-1.8000
G01 F120.00
G01 X41.0222 Y73.1524
G01 X41.0222 Y73.1524
G01 X41.0222 Y73.1524
G01 X41.0222 Y73.1524
G00 Z2.0000
G00 X38.4822 Y73.1524
G01 F60.00
G01 Z-1.8000
G01 F120.00
G01 X38.4822 Y73.1524
G01 X38.4822 Y73.1524
G01 X38.4822 Y73.1524
G01 X38.4822 Y73.1524
G00 Z2.0000
G00 X35.9422 Y73.1524
G01 F60.00
G01 Z-1.8000
G01 F120.00
G01 X35.9422 Y73.1524
G01 X35.9422 Y73.1524
G01 X35.9422 Y73.1524
G01 X35.9422 Y73.1524
G00 Z2.0000
G00 X33.4022 Y73.1524
G01 F60.00
G01 Z-1.8000
G01 F120.00
G01 X33.4022 Y73.1524
G01 X33.4022 Y73.1524
G01 X33.4022 Y73.1524
G01 X33.4022 Y73.1524
G00 Z2.0000
G00 X30.8622 Y73.1524
G01 F60.00
G01 Z-1.8000
G01 F120.00
G01 X30.8622 Y73.1524
G01 X30.8622 Y73.1524
G01 X30.8622 Y73.1524
G01 X30.8622 Y73.1524
G00 Z2.0000
G00 X28.3222 Y73.1524
G01 F60.00
G01 Z-1.8000
G01 F120.00
G01 X28.3222 Y73.1524
G01 X28.3222 Y73.1524
G01 X28.3222 Y73.1524
G01 X28.3222 Y73.1524
G00 Z2.0000
G00 X23.2412 Y73.0254
G01 F60.00
G01 Z-1.8000
G01 F120.00
G01 X23.2412 Y73.0254
G01 X23.2412 Y73.0254
G01 X23.2412 Y73.0254
G01 X23.2412 Y73.0254
G00 Z2.0000
G00 X20.7012 Y73.0254
G01 F60.00
G01 Z-1.8000
G01 F120.00
G01 X20.7012 Y73.0254
G01 X20.7012 Y73.0254
G01 X20.7012 Y73.0254
G01 X20.7012 Y73.0254
G00 Z2.0000
G00 X18.1612 Y73.0254
G01 F60.00
G01 Z-1.8000
G01 F120.00
G01 X18.1612 Y73.0254
G01 X18.1612 Y73.0254
G01 X18.1612 Y73.0254
G01 X18.1612 Y73.0254
G00 Z2.0000
G00 X15.6212 Y73.0254
G01 F60.00
G01 Z-1.8000
G01 F120.00
G01 X15.6212 Y73.0254
G01 X15.6212 Y73.0254
G01 X15.6212 Y73.0254
G01 X15.6212 Y73.0254
G00 Z2.0000
G00 X13.0812 Y73.0254
G01 F60.00
G01 Z-1.8000
G01 F120.00
G01 X13.0812 Y73.0254
G01 X13.0812 Y73.0254
G01 X13.0812 Y73.0254
G01 X13.0812 Y73.0254
G00 Z2.0000
G00 X10.5412 Y73.0254
G01 F60.00
G01 Z-1.8000
G01 F120.00
G01 X10.5412 Y73.0254
G01 X10.5412 Y73.0254
G01 X10.5412 Y73.0254
G01 X10.5412 Y73.0254
G00 Z2.0000
G00 X8.0012 Y73.0254
G01 F60.00
G01 Z-1.8000
G01 F120.00
G01 X8.0012 Y73.0254
G01 X8.0012 Y73.0254
G01 X8.0012 Y73.0254
G01 X8.0012 Y73.0254
G00 Z2.0000
G00 X5.4612 Y73.0254
G01 F60.00
G01 Z-1.8000
G01 F120.00
G01 X5.4612 Y73.0254
G01 X5.4612 Y73.0254
G01 X5.4612 Y73.0254
G01 X5.4612 Y73.0254
G00 Z2.0000
G00 X2.9212 Y73.0254
G01 F60.00
G01 Z-1.8000
G01 F120.00
G01 X2.9212 Y73.0254
G01 X2.9212 Y73.0254
G01 X2.9212 Y73.0254
G01 X2.9212 Y73.0254
G00 Z2.0000
G00 X5.2072 Y83.4394
G01 F60.00
G01 Z-1.8000
G01 F120.00
G01 X5.2072 Y83.4394
G01 X5.2072 Y83.4394
G01 X5.2072 Y83.4394
G01 X5.2072 Y83.4394
G00 Z2.0000
G00 X10.2872 Y83.4394
G01 F60.00
G01 Z-1.8000
G01 F120.00
G01 X10.2872 Y83.4394
G01 X10.2872 Y83.4394
G01 X10.2872 Y83.4394
G01 X10.2872 Y83.4394
G00 Z2.0000
G00 X10.2872 Y88.7734
G01 F60.00
G01 Z-1.8000
G01 F120.00
G01 X10.2872 Y88.7734
G01 X10.2872 Y88.7734
G01 X10.2872 Y88.7734
G01 X10.2872 Y88.7734
G00 Z2.0000
G00 X7.7472 Y88.7734
G01 F60.00
G01 Z-1.8000
G01 F120.00
G01 X7.7472 Y88.7734
G01 X7.7472 Y88.7734
G01 X7.7472 Y88.7734
G01 X7.7472 Y88.7734
G00 Z2.0000
G00 X5.2072 Y88.7734
G01 F60.00
G01 Z-1.8000
G01 F120.00
G01 X5.2072 Y88.7734
G01 X5.2072 Y88.7734
G01 X5.2072 Y88.7734
G01 X5.2072 Y88.7734
G00 Z2.0000
G00 X20.4472 Y88.7734
G01 F60.00
G01 Z-1.8000
G01 F120.00
G01 X20.4472 Y88.7734
G01 X20.4472 Y88.7734
G01 X20.4472 Y88.7734
G01 X20.4472 Y88.7734
G00 Z2.0000
G00 X22.9872 Y88.7734
G01 F60.00
G01 Z-1.8000
G01 F120.00
G01 X22.9872 Y88.7734
G01 X22.9872 Y88.7734
G01 X22.9872 Y88.7734
G01 X22.9872 Y88.7734
G00 Z2.0000
G00 X25.5272 Y88.7734
G01 F60.00
G01 Z-1.8000
G01 F120.00
G01 X25.5272 Y88.7734
G01 X25.5272 Y88.7734
G01 X25.5272 Y88.7734
G01 X25.5272 Y88.7734
G00 Z2.0000
G00 X25.5272 Y83.4394
G01 F60.00
G01 Z-1.8000
G01 F120.00
G01 X25.5272 Y83.4394
G01 X25.5272 Y83.4394
G01 X25.5272 Y83.4394
G01 X25.5272 Y83.4394
G00 Z2.0000
G00 X25.5272 Y79.3754
G01 F60.00
G01 Z-1.8000
G01 F120.00
G01 X25.5272 Y79.3754
G01 X25.5272 Y79.3754
G01 X25.5272 Y79.3754
G01 X25.5272 Y79.3754
G00 Z2.0000
G00 X20.7932 Y79.2834
G01 F60.00
G01 Z-1.8000
G01 F120.00
G01 X20.7932 Y79.2834
G01 X20.7932 Y79.2834
G01 X20.7932 Y79.2834
G01 X20.7932 Y79.2834
G00 Z2.0000
G00 X20.4472 Y83.4394
G01 F60.00
G01 Z-1.8000
G01 F120.00
G01 X20.4472 Y83.4394
G01 X20.4472 Y83.4394
G01 X20.4472 Y83.4394
G01 X20.4472 Y83.4394
G00 Z2.0000
G00 X47.0972 Y80.3434
G01 F60.00
G01 Z-1.8000
G01 F120.00
G01 X47.0972 Y80.3434
G01 X47.0972 Y80.3434
G01 X47.0972 Y80.3434
G01 X47.0972 Y80.3434
G00 Z2.0000
G00 X52.1772 Y80.3434
G01 F60.00
G01 Z-1.8000
G01 F120.00
G01 X52.1772 Y80.3434
G01 X52.1772 Y80.3434
G01 X52.1772 Y80.3434
G01 X52.1772 Y80.3434
G00 Z2.0000
G00 X52.1972 Y91.3434
G01 F60.00
G01 Z-1.8000
G01 F120.00
G01 X52.1972 Y91.3434
G01 X52.1972 Y91.3434
G01 X52.1972 Y91.3434
G01 X52.1972 Y91.3434
G00 Z2.0000
G00 X47.1172 Y91.3434
G01 F60.00
G01 Z-1.8000
G01 F120.00
G01 X47.1172 Y91.3434
G01 X47.1172 Y91.3434
G01 X47.1172 Y91.3434
G01 X47.1172 Y91.3434
G00 Z2.0000
G00 X73.1972 Y89.6434
G01 F60.00
G01 Z-1.8000
G01 F120.00
G01 X73.1972 Y89.6434
G01 X73.1972 Y89.6434
G01 X73.1972 Y89.6434
G01 X73.1972 Y89.6434
G00 Z2.0000
G00 X73.1972 Y87.1034
G01 F60.00
G01 Z-1.8000
G01 F120.00
G01 X73.1972 Y87.1034
G01 X73.1972 Y87.1034
G01 X73.1972 Y87.1034
G01 X73.1972 Y87.1034
G00 Z2.0000
G00 X73.1972 Y84.5634
G01 F60.00
G01 Z-1.8000
G01 F120.00
G01 X73.1972 Y84.5634
G01 X73.1972 Y84.5634
G01 X73.1972 Y84.5634
G01 X73.1972 Y84.5634
G00 Z2.0000
G00 X73.1972 Y82.0234
G01 F60.00
G01 Z-1.8000
G01 F120.00
G01 X73.1972 Y82.0234
G01 X73.1972 Y82.0234
G01 X73.1972 Y82.0234
G01 X73.1972 Y82.0234
G00 Z2.0000
G00 X75.9972 Y83.2934
G01 F60.00
G01 Z-1.8000
G01 F120.00
G01 X75.9972 Y83.2934
G01 X75.9972 Y83.2934
G01 X75.9972 Y83.2934
G01 X75.9972 Y83.2934
G00 Z2.0000
G00 X75.9972 Y88.2934
G01 F60.00
G01 Z-1.8000
G01 F120.00
G01 X75.9972 Y88.2934
G01 X75.9972 Y88.2934
G01 X75.9972 Y88.2934
G01 X75.9972 Y88.2934
G00 Z2.0000
G00 X78.8672 Y78.8674
G01 F60.00
G01 Z-1.8000
G01 F120.00
G01 X78.8672 Y78.8674
G01 X78.8672 Y78.8674
G01 X78.8672 Y78.8674
G01 X78.8672 Y78.8674
G00 Z2.0000
G00 X92.8372 Y75.8194
G01 F60.00
G01 Z-1.8000
G01 F120.00
G01 X92.8372 Y75.8194
G01 X92.8372 Y75.8194
G01 X92.8372 Y75.8194
G01 X92.8372 Y75.8194
G00 Z2.0000
G00 X95.3772 Y75.8194
G01 F60.00
G01 Z-1.8000
G01 F120.00
G01 X95.3772 Y75.8194
G01 X95.3772 Y75.8194
G01 X95.3772 Y75.8194
G01 X95.3772 Y75.8194
G00 Z2.0000
G00 X97.9172 Y75.8194
G01 F60.00
G01 Z-1.8000
G01 F120.00
G01 X97.9172 Y75.8194
G01 X97.9172 Y75.8194
G01 X97.9172 Y75.8194
G01 X97.9172 Y75.8194
G00 Z2.0000
G00 X100.4572 Y75.8194
G01 F60.00
G01 Z-1.8000
G01 F120.00
G01 X100.4572 Y75.8194
G01 X100.4572 Y75.8194
G01 X100.4572 Y75.8194
G01 X100.4572 Y75.8194
G00 Z2.0000
G00 X102.9972 Y75.8194
G01 F60.00
G01 Z-1.8000
G01 F120.00
G01 X102.9972 Y75.8194
G01 X102.9972 Y75.8194
G01 X102.9972 Y75.8194
G01 X102.9972 Y75.8194
G00 Z2.0000
G00 X105.5372 Y75.8194
G01 F60.00
G01 Z-1.8000
G01 F120.00
G01 X105.5372 Y75.8194
G01 X105.5372 Y75.8194
G01 X105.5372 Y75.8194
G01 X105.5372 Y75.8194
G00 Z2.0000
G00 X108.0772 Y75.8194
G01 F60.00
G01 Z-1.8000
G01 F120.00
G01 X108.0772 Y75.8194
G01 X108.0772 Y75.8194
G01 X108.0772 Y75.8194
G01 X108.0772 Y75.8194
G00 Z2.0000
G00 X110.6172 Y75.8194
G01 F60.00
G01 Z-1.8000
G01 F120.00
G01 X110.6172 Y75.8194
G01 X110.6172 Y75.8194
G01 X110.6172 Y75.8194
G01 X110.6172 Y75.8194
G00 Z2.0000
G00 X110.6172 Y71.7554
G01 F60.00
G01 Z-1.8000
G01 F120.00
G01 X110.6172 Y71.7554
G01 X110.6172 Y71.7554
G01 X110.6172 Y71.7554
G01 X110.6172 Y71.7554
G00 Z2.0000
G00 X108.0772 Y71.7554
G01 F60.00
G01 Z-1.8000
G01 F120.00
G01 X108.0772 Y71.7554
G01 X108.0772 Y71.7554
G01 X108.0772 Y71.7554
G01 X108.0772 Y71.7554
G00 Z2.0000
G00 X105.5372 Y71.7554
G01 F60.00
G01 Z-1.8000
G01 F120.00
G01 X105.5372 Y71.7554
G01 X105.5372 Y71.7554
G01 X105.5372 Y71.7554
G01 X105.5372 Y71.7554
G00 Z2.0000
G00 X102.9972 Y71.7554
G01 F60.00
G01 Z-1.8000
G01 F120.00
G01 X102.9972 Y71.7554
G01 X102.9972 Y71.7554
G01 X102.9972 Y71.7554
G01 X102.9972 Y71.7554
G00 Z2.0000
G00 X100.4572 Y71.7554
G01 F60.00
G01 Z-1.8000
G01 F120.00
G01 X100.4572 Y71.7554
G01 X100.4572 Y71.7554
G01 X100.4572 Y71.7554
G01 X100.4572 Y71.7554
G00 Z2.0000
G00 X97.9172 Y71.7554
G01 F60.00
G01 Z-1.8000
G01 F120.00
G01 X97.9172 Y71.7554
G01 X97.9172 Y71.7554
G01 X97.9172 Y71.7554
G01 X97.9172 Y71.7554
G00 Z2.0000
G00 X95.3772 Y71.7554
G01 F60.00
G01 Z-1.8000
G01 F120.00
G01 X95.3772 Y71.7554
G01 X95.3772 Y71.7554
G01 X95.3772 Y71.7554
G01 X95.3772 Y71.7554
G00 Z2.0000
G00 X92.8372 Y71.7554
G01 F60.00
G01 Z-1.8000
G01 F120.00
G01 X92.8372 Y71.7554
G01 X92.8372 Y71.7554
G01 X92.8372 Y71.7554
G01 X92.8372 Y71.7554
G00 Z2.0000
G00 X92.8372 Y66.9294
G01 F60.00
G01 Z-1.8000
G01 F120.00
G01 X92.8372 Y66.9294
G01 X92.8372 Y66.9294
G01 X92.8372 Y66.9294
G01 X92.8372 Y66.9294
G00 Z2.0000
G00 X95.3772 Y66.9294
G01 F60.00
G01 Z-1.8000
G01 F120.00
G01 X95.3772 Y66.9294
G01 X95.3772 Y66.9294
G01 X95.3772 Y66.9294
G01 X95.3772 Y66.9294
G00 Z2.0000
G00 X97.9172 Y66.9294
G01 F60.00
G01 Z-1.8000
G01 F120.00
G01 X97.9172 Y66.9294
G01 X97.9172 Y66.9294
G01 X97.9172 Y66.9294
G01 X97.9172 Y66.9294
G00 Z2.0000
G00 X100.4572 Y66.9294
G01 F60.00
G01 Z-1.8000
G01 F120.00
G01 X100.4572 Y66.9294
G01 X100.4572 Y66.9294
G01 X100.4572 Y66.9294
G01 X100.4572 Y66.9294
G00 Z2.0000
G00 X102.9972 Y66.9294
G01 F60.00
G01 Z-1.8000
G01 F120.00
G01 X102.9972 Y66.9294
G01 X102.9972 Y66.9294
G01 X102.9972 Y66.9294
G01 X102.9972 Y66.9294
G00 Z2.0000
G00 X105.5372 Y66.9294
G01 F60.00
G01 Z-1.8000
G01 F120.00
G01 X105.5372 Y66.9294
G01 X105.5372 Y66.9294
G01 X105.5372 Y66.9294
G01 X105.5372 Y66.9294
G00 Z2.0000
G00 X108.0772 Y66.9294
G01 F60.00
G01 Z-1.8000
G01 F120.00
G01 X108.0772 Y66.9294
G01 X108.0772 Y66.9294
G01 X108.0772 Y66.9294
G01 X108.0772 Y66.9294
G00 Z2.0000
G00 X110.6172 Y66.9294
G01 F60.00
G01 Z-1.8000
G01 F120.00
G01 X110.6172 Y66.9294
G01 X110.6172 Y66.9294
G01 X110.6172 Y66.9294
G01 X110.6172 Y66.9294
G00 Z2.0000
G00 X115.6972 Y66.9294
G01 F60.00
G01 Z-1.8000
G01 F120.00
G01 X115.6972 Y66.9294
G01 X115.6972 Y66.9294
G01 X115.6972 Y66.9294
G01 X115.6972 Y66.9294
G00 Z2.0000
G00 X118.2372 Y66.9294
G01 F60.00
G01 Z-1.8000
G01 F120.00
G01 X118.2372 Y66.9294
G01 X118.2372 Y66.9294
G01 X118.2372 Y66.9294
G01 X118.2372 Y66.9294
G00 Z2.0000
G00 X120.7772 Y66.9294
G01 F60.00
G01 Z-1.8000
G01 F120.00
G01 X120.7772 Y66.9294
G01 X120.7772 Y66.9294
G01 X120.7772 Y66.9294
G01 X120.7772 Y66.9294
G00 Z2.0000
G00 X123.3172 Y66.9294
G01 F60.00
G01 Z-1.8000
G01 F120.00
G01 X123.3172 Y66.9294
G01 X123.3172 Y66.9294
G01 X123.3172 Y66.9294
G01 X123.3172 Y66.9294
G00 Z2.0000
G00 X125.8572 Y66.9294
G01 F60.00
G01 Z-1.8000
G01 F120.00
G01 X125.8572 Y66.9294
G01 X125.8572 Y66.9294
G01 X125.8572 Y66.9294
G01 X125.8572 Y66.9294
G00 Z2.0000
G00 X128.3972 Y66.9294
G01 F60.00
G01 Z-1.8000
G01 F120.00
G01 X128.3972 Y66.9294
G01 X128.3972 Y66.9294
G01 X128.3972 Y66.9294
G01 X128.3972 Y66.9294
G00 Z2.0000
G00 X130.9372 Y66.9294
G01 F60.00
G01 Z-1.8000
G01 F120.00
G01 X130.9372 Y66.9294
G01 X130.9372 Y66.9294
G01 X130.9372 Y66.9294
G01 X130.9372 Y66.9294
G00 Z2.0000
G00 X133.4772 Y66.9294
G01 F60.00
G01 Z-1.8000
G01 F120.00
G01 X133.4772 Y66.9294
G01 X133.4772 Y66.9294
G01 X133.4772 Y66.9294
G01 X133.4772 Y66.9294
G00 Z2.0000
G00 X137.5412 Y66.9294
G01 F60.00
G01 Z-1.8000
G01 F120.00
G01 X137.5412 Y66.9294
G01 X137.5412 Y66.9294
G01 X137.5412 Y66.9294
G01 X137.5412 Y66.9294
G00 Z2.0000
G00 X140.0812 Y66.9294
G01 F60.00
G01 Z-1.8000
G01 F120.00
G01 X140.0812 Y66.9294
G01 X140.0812 Y66.9294
G01 X140.0812 Y66.9294
G01 X140.0812 Y66.9294
G00 Z2.0000
G00 X142.6212 Y66.9294
G01 F60.00
G01 Z-1.8000
G01 F120.00
G01 X142.6212 Y66.9294
G01 X142.6212 Y66.9294
G01 X142.6212 Y66.9294
G01 X142.6212 Y66.9294
G00 Z2.0000
G00 X145.1612 Y66.9294
G01 F60.00
G01 Z-1.8000
G01 F120.00
G01 X145.1612 Y66.9294
G01 X145.1612 Y66.9294
G01 X145.1612 Y66.9294
G01 X145.1612 Y66.9294
G00 Z2.0000
G00 X147.7012 Y66.9294
G01 F60.00
G01 Z-1.8000
G01 F120.00
G01 X147.7012 Y66.9294
G01 X147.7012 Y66.9294
G01 X147.7012 Y66.9294
G01 X147.7012 Y66.9294
G00 Z2.0000
G00 X150.2412 Y66.9294
G01 F60.00
G01 Z-1.8000
G01 F120.00
G01 X150.2412 Y66.9294
G01 X150.2412 Y66.9294
G01 X150.2412 Y66.9294
G01 X150.2412 Y66.9294
G00 Z2.0000
G00 X152.7812 Y66.9294
G01 F60.00
G01 Z-1.8000
G01 F120.00
G01 X152.7812 Y66.9294
G01 X152.7812 Y66.9294
G01 X152.7812 Y66.9294
G01 X152.7812 Y66.9294
G00 Z2.0000
G00 X155.3212 Y66.9294
G01 F60.00
G01 Z-1.8000
G01 F120.00
G01 X155.3212 Y66.9294
G01 X155.3212 Y66.9294
G01 X155.3212 Y66.9294
G01 X155.3212 Y66.9294
G00 Z2.0000
G00 X157.8612 Y66.9294
G01 F60.00
G01 Z-1.8000
G01 F120.00
G01 X157.8612 Y66.9294
G01 X157.8612 Y66.9294
G01 X157.8612 Y66.9294
G01 X157.8612 Y66.9294
G00 Z2.0000
G00 X160.4012 Y66.9294
G01 F60.00
G01 Z-1.8000
G01 F120.00
G01 X160.4012 Y66.9294
G01 X160.4012 Y66.9294
G01 X160.4012 Y66.9294
G01 X160.4012 Y66.9294
G00 Z2.0000
G00 X160.4012 Y72.0094
G01 F60.00
G01 Z-1.8000
G01 F120.00
G01 X160.4012 Y72.0094
G01 X160.4012 Y72.0094
G01 X160.4012 Y72.0094
G01 X160.4012 Y72.0094
G00 Z2.0000
G00 X157.8612 Y72.0094
G01 F60.00
G01 Z-1.8000
G01 F120.00
G01 X157.8612 Y72.0094
G01 X157.8612 Y72.0094
G01 X157.8612 Y72.0094
G01 X157.8612 Y72.0094
G00 Z2.0000
G00 X155.3212 Y71.7554
G01 F60.00
G01 Z-1.8000
G01 F120.00
G01 X155.3212 Y71.7554
G01 X155.3212 Y71.7554
G01 X155.3212 Y71.7554
G01 X155.3212 Y71.7554
G00 Z2.0000
G00 X152.7812 Y71.7554
G01 F60.00
G01 Z-1.8000
G01 F120.00
G01 X152.7812 Y71.7554
G01 X152.7812 Y71.7554
G01 X152.7812 Y71.7554
G01 X152.7812 Y71.7554
G00 Z2.0000
G00 X150.2412 Y71.7554
G01 F60.00
G01 Z-1.8000
G01 F120.00
G01 X150.2412 Y71.7554
G01 X150.2412 Y71.7554
G01 X150.2412 Y71.7554
G01 X150.2412 Y71.7554
G00 Z2.0000
G00 X147.7012 Y71.7554
G01 F60.00
G01 Z-1.8000
G01 F120.00
G01 X147.7012 Y71.7554
G01 X147.7012 Y71.7554
G01 X147.7012 Y71.7554
G01 X147.7012 Y71.7554
G00 Z2.0000
G00 X145.1612 Y71.7554
G01 F60.00
G01 Z-1.8000
G01 F120.00
G01 X145.1612 Y71.7554
G01 X145.1612 Y71.7554
G01 X145.1612 Y71.7554
G01 X145.1612 Y71.7554
G00 Z2.0000
G00 X142.6212 Y71.7554
G01 F60.00
G01 Z-1.8000
G01 F120.00
G01 X142.6212 Y71.7554
G01 X142.6212 Y71.7554
G01 X142.6212 Y71.7554
G01 X142.6212 Y71.7554
G00 Z2.0000
G00 X140.0812 Y71.7554
G01 F60.00
G01 Z-1.8000
G01 F120.00
G01 X140.0812 Y71.7554
G01 X140.0812 Y71.7554
G01 X140.0812 Y71.7554
G01 X140.0812 Y71.7554
G00 Z2.0000
G00 X137.5412 Y71.7554
G01 F60.00
G01 Z-1.8000
G01 F120.00
G01 X137.5412 Y71.7554
G01 X137.5412 Y71.7554
G01 X137.5412 Y71.7554
G01 X137.5412 Y71.7554
G00 Z2.0000
G00 X133.4772 Y71.7554
G01 F60.00
G01 Z-1.8000
G01 F120.00
G01 X133.4772 Y71.7554
G01 X133.4772 Y71.7554
G01 X133.4772 Y71.7554
G01 X133.4772 Y71.7554
G00 Z2.0000
G00 X130.9372 Y71.7554
G01 F60.00
G01 Z-1.8000
G01 F120.00
G01 X130.9372 Y71.7554
G01 X130.9372 Y71.7554
G01 X130.9372 Y71.7554
G01 X130.9372 Y71.7554
G00 Z2.0000
G00 X128.3972 Y71.7554
G01 F60.00
G01 Z-1.8000
G01 F120.00
G01 X128.3972 Y71.7554
G01 X128.3972 Y71.7554
G01 X128.3972 Y71.7554
G01 X128.3972 Y71.7554
G00 Z2.0000
G00 X125.8572 Y71.7554
G01 F60.00
G01 Z-1.8000
G01 F120.00
G01 X125.8572 Y71.7554
G01 X125.8572 Y71.7554
G01 X125.8572 Y71.7554
G01 X125.8572 Y71.7554
G00 Z2.0000
G00 X123.3172 Y71.7554
G01 F60.00
G01 Z-1.8000
G01 F120.00
G01 X123.3172 Y71.7554
G01 X123.3172 Y71.7554
G01 X123.3172 Y71.7554
G01 X123.3172 Y71.7554
G00 Z2.0000
G00 X120.7772 Y71.7554
G01 F60.00
G01 Z-1.8000
G01 F120.00
G01 X120.7772 Y71.7554
G01 X120.7772 Y71.7554
G01 X120.7772 Y71.7554
G01 X120.7772 Y71.7554
G00 Z2.0000
G00 X118.2372 Y71.7554
G01 F60.00
G01 Z-1.8000
G01 F120.00
G01 X118.2372 Y71.7554
G01 X118.2372 Y71.7554
G01 X118.2372 Y71.7554
G01 X118.2372 Y71.7554
G00 Z2.0000
G00 X115.6972 Y71.7554
G01 F60.00
G01 Z-1.8000
G01 F120.00
G01 X115.6972 Y71.7554
G01 X115.6972 Y71.7554
G01 X115.6972 Y71.7554
G01 X115.6972 Y71.7554
G00 Z2.0000
G00 X115.6972 Y75.8194
G01 F60.00
G01 Z-1.8000
G01 F120.00
G01 X115.6972 Y75.8194
G01 X115.6972 Y75.8194
G01 X115.6972 Y75.8194
G01 X115.6972 Y75.8194
G00 Z2.0000
G00 X118.2372 Y75.8194
G01 F60.00
G01 Z-1.8000
G01 F120.00
G01 X118.2372 Y75.8194
G01 X118.2372 Y75.8194
G01 X118.2372 Y75.8194
G01 X118.2372 Y75.8194
G00 Z2.0000
G00 X120.7772 Y75.8194
G01 F60.00
G01 Z-1.8000
G01 F120.00
G01 X120.7772 Y75.8194
G01 X120.7772 Y75.8194
G01 X120.7772 Y75.8194
G01 X120.7772 Y75.8194
G00 Z2.0000
G00 X123.3172 Y75.8194
G01 F60.00
G01 Z-1.8000
G01 F120.00
G01 X123.3172 Y75.8194
G01 X123.3172 Y75.8194
G01 X123.3172 Y75.8194
G01 X123.3172 Y75.8194
G00 Z2.0000
G00 X125.8572 Y75.8194
G01 F60.00
G01 Z-1.8000
G01 F120.00
G01 X125.8572 Y75.8194
G01 X125.8572 Y75.8194
G01 X125.8572 Y75.8194
G01 X125.8572 Y75.8194
G00 Z2.0000
G00 X128.3972 Y75.8194
G01 F60.00
G01 Z-1.8000
G01 F120.00
G01 X128.3972 Y75.8194
G01 X128.3972 Y75.8194
G01 X128.3972 Y75.8194
G01 X128.3972 Y75.8194
G00 Z2.0000
G00 X130.9372 Y75.8194
G01 F60.00
G01 Z-1.8000
G01 F120.00
G01 X130.9372 Y75.8194
G01 X130.9372 Y75.8194
G01 X130.9372 Y75.8194
G01 X130.9372 Y75.8194
G00 Z2.0000
G00 X133.4772 Y75.8194
G01 F60.00
G01 Z-1.8000
G01 F120.00
G01 X133.4772 Y75.8194
G01 X133.4772 Y75.8194
G01 X133.4772 Y75.8194
G01 X133.4772 Y75.8194
G00 Z2.0000
G00 X137.5412 Y75.8194
G01 F60.00
G01 Z-1.8000
G01 F120.00
G01 X137.5412 Y75.8194
G01 X137.5412 Y75.8194
G01 X137.5412 Y75.8194
G01 X137.5412 Y75.8194
G00 Z2.0000
G00 X140.0812 Y75.8194
G01 F60.00
G01 Z-1.8000
G01 F120.00
G01 X140.0812 Y75.8194
G01 X140.0812 Y75.8194
G01 X140.0812 Y75.8194
G01 X140.0812 Y75.8194
G00 Z2.0000
G00 X142.6212 Y75.8194
G01 F60.00
G01 Z-1.8000
G01 F120.00
G01 X142.6212 Y75.8194
G01 X142.6212 Y75.8194
G01 X142.6212 Y75.8194
G01 X142.6212 Y75.8194
G00 Z2.0000
G00 X145.1612 Y75.8194
G01 F60.00
G01 Z-1.8000
G01 F120.00
G01 X145.1612 Y75.8194
G01 X145.1612 Y75.8194
G01 X145.1612 Y75.8194
G01 X145.1612 Y75.8194
G00 Z2.0000
G00 X147.7012 Y75.8194
G01 F60.00
G01 Z-1.8000
G01 F120.00
G01 X147.7012 Y75.8194
G01 X147.7012 Y75.8194
G01 X147.7012 Y75.8194
G01 X147.7012 Y75.8194
G00 Z2.0000
G00 X150.2412 Y75.8194
G01 F60.00
G01 Z-1.8000
G01 F120.00
G01 X150.2412 Y75.8194
G01 X150.2412 Y75.8194
G01 X150.2412 Y75.8194
G01 X150.2412 Y75.8194
G00 Z2.0000
G00 X152.7812 Y75.8194
G01 F60.00
G01 Z-1.8000
G01 F120.00
G01 X152.7812 Y75.8194
G01 X152.7812 Y75.8194
G01 X152.7812 Y75.8194
G01 X152.7812 Y75.8194
G00 Z2.0000
G00 X155.3212 Y75.8194
G01 F60.00
G01 Z-1.8000
G01 F120.00
G01 X155.3212 Y75.8194
G01 X155.3212 Y75.8194
G01 X155.3212 Y75.8194
G01 X155.3212 Y75.8194
G00 Z2.0000
G00 X157.8612 Y75.8194
G01 F60.00
G01 Z-1.8000
G01 F120.00
G01 X157.8612 Y75.8194
G01 X157.8612 Y75.8194
G01 X157.8612 Y75.8194
G01 X157.8612 Y75.8194
G00 Z2.0000
G00 X160.4012 Y75.8194
G01 F60.00
G01 Z-1.8000
G01 F120.00
G01 X160.4012 Y75.8194
G01 X160.4012 Y75.8194
G01 X160.4012 Y75.8194
G01 X160.4012 Y75.8194
G00 Z2.0000
G00 X158.1152 Y59.3094
G01 F60.00
G01 Z-1.8000
G01 F120.00
G01 X158.1152 Y59.3094
G01 X158.1152 Y59.3094
G01 X158.1152 Y59.3094
G01 X158.1152 Y59.3094
G00 Z2.0000
G00 X158.1152 Y56.7694
G01 F60.00
G01 Z-1.8000
G01 F120.00
G01 X158.1152 Y56.7694
G01 X158.1152 Y56.7694
G01 X158.1152 Y56.7694
G01 X158.1152 Y56.7694
G00 Z2.0000
G00 X158.1152 Y54.2294
G01 F60.00
G01 Z-1.8000
G01 F120.00
G01 X158.1152 Y54.2294
G01 X158.1152 Y54.2294
G01 X158.1152 Y54.2294
G01 X158.1152 Y54.2294
G00 Z2.0000
G00 X158.1152 Y51.6894
G01 F60.00
G01 Z-1.8000
G01 F120.00
G01 X158.1152 Y51.6894
G01 X158.1152 Y51.6894
G01 X158.1152 Y51.6894
G01 X158.1152 Y51.6894
G00 Z2.0000
G00 X158.1152 Y49.1494
G01 F60.00
G01 Z-1.8000
G01 F120.00
G01 X158.1152 Y49.1494
G01 X158.1152 Y49.1494
G01 X158.1152 Y49.1494
G01 X158.1152 Y49.1494
G00 Z2.0000
G00 X158.1152 Y46.6094
G01 F60.00
G01 Z-1.8000
G01 F120.00
G01 X158.1152 Y46.6094
G01 X158.1152 Y46.6094
G01 X158.1152 Y46.6094
G01 X158.1152 Y46.6094
G00 Z2.0000
G00 X158.1152 Y44.0694
G01 F60.00
G01 Z-1.8000
G01 F120.00
G01 X158.1152 Y44.0694
G01 X158.1152 Y44.0694
G01 X158.1152 Y44.0694
G01 X158.1152 Y44.0694
G00 Z2.0000
G00 X158.1152 Y41.5294
G01 F60.00
G01 Z-1.8000
G01 F120.00
G01 X158.1152 Y41.5294
G01 X158.1152 Y41.5294
G01 X158.1152 Y41.5294
G01 X158.1152 Y41.5294
G00 Z2.0000
G00 X158.1152 Y38.9894
G01 F60.00
G01 Z-1.8000
G01 F120.00
G01 X158.1152 Y38.9894
G01 X158.1152 Y38.9894
G01 X158.1152 Y38.9894
G01 X158.1152 Y38.9894
G00 Z2.0000
G00 X158.1152 Y36.4494
G01 F60.00
G01 Z-1.8000
G01 F120.00
G01 X158.1152 Y36.4494
G01 X158.1152 Y36.4494
G01 X158.1152 Y36.4494
G01 X158.1152 Y36.4494
G00 Z2.0000
G00 X154.0512 Y36.4494
G01 F60.00
G01 Z-1.8000
G01 F120.00
G01 X154.0512 Y36.4494
G01 X154.0512 Y36.4494
G01 X154.0512 Y36.4494
G01 X154.0512 Y36.4494
G00 Z2.0000
G00 X154.0512 Y38.9894
G01 F60.00
G01 Z-1.8000
G01 F120.00
G01 X154.0512 Y38.9894
G01 X154.0512 Y38.9894
G01 X154.0512 Y38.9894
G01 X154.0512 Y38.9894
G00 Z2.0000
G00 X154.0512 Y41.5294
G01 F60.00
G01 Z-1.8000
G01 F120.00
G01 X154.0512 Y41.5294
G01 X154.0512 Y41.5294
G01 X154.0512 Y41.5294
G01 X154.0512 Y41.5294
G00 Z2.0000
G00 X154.0512 Y44.0694
G01 F60.00
G01 Z-1.8000
G01 F120.00
G01 X154.0512 Y44.0694
G01 X154.0512 Y44.0694
G01 X154.0512 Y44.0694
G01 X154.0512 Y44.0694
G00 Z2.0000
G00 X154.0512 Y46.6094
G01 F60.00
G01 Z-1.8000
G01 F120.00
G01 X154.0512 Y46.6094
G01 X154.0512 Y46.6094
G01 X154.0512 Y46.6094
G01 X154.0512 Y46.6094
G00 Z2.0000
G00 X154.0512 Y49.1494
G01 F60.00
G01 Z-1.8000
G01 F120.00
G01 X154.0512 Y49.1494
G01 X154.0512 Y49.1494
G01 X154.0512 Y49.1494
G01 X154.0512 Y49.1494
G00 Z2.0000
G00 X154.0512 Y51.6894
G01 F60.00
G01 Z-1.8000
G01 F120.00
G01 X154.0512 Y51.6894
G01 X154.0512 Y51.6894
G01 X154.0512 Y51.6894
G01 X154.0512 Y51.6894
G00 Z2.0000
G00 X154.0512 Y54.2294
G01 F60.00
G01 Z-1.8000
G01 F120.00
G01 X154.0512 Y54.2294
G01 X154.0512 Y54.2294
G01 X154.0512 Y54.2294
G01 X154.0512 Y54.2294
G00 Z2.0000
G00 X154.0512 Y56.7694
G01 F60.00
G01 Z-1.8000
G01 F120.00
G01 X154.0512 Y56.7694
G01 X154.0512 Y56.7694
G01 X154.0512 Y56.7694
G01 X154.0512 Y56.7694
G00 Z2.0000
G00 X154.0512 Y59.3094
G01 F60.00
G01 Z-1.8000
G01 F120.00
G01 X154.0512 Y59.3094
G01 X154.0512 Y59.3094
G01 X154.0512 Y59.3094
G01 X154.0512 Y59.3094
G00 Z2.0000
G00 X147.4472 Y59.3094
G01 F60.00
G01 Z-1.8000
G01 F120.00
G01 X147.4472 Y59.3094
G01 X147.4472 Y59.3094
G01 X147.4472 Y59.3094
G01 X147.4472 Y59.3094
G00 Z2.0000
G00 X147.4472 Y56.7694
G01 F60.00
G01 Z-1.8000
G01 F120.00
G01 X147.4472 Y56.7694
G01 X147.4472 Y56.7694
G01 X147.4472 Y56.7694
G01 X147.4472 Y56.7694
G00 Z2.0000
G00 X147.4472 Y54.2294
G01 F60.00
G01 Z-1.8000
G01 F120.00
G01 X147.4472 Y54.2294
G01 X147.4472 Y54.2294
G01 X147.4472 Y54.2294
G01 X147.4472 Y54.2294
G00 Z2.0000
G00 X147.4472 Y51.6894
G01 F60.00
G01 Z-1.8000
G01 F120.00
G01 X147.4472 Y51.6894
G01 X147.4472 Y51.6894
G01 X147.4472 Y51.6894
G01 X147.4472 Y51.6894
G00 Z2.0000
G00 X147.4472 Y49.1494
G01 F60.00
G01 Z-1.8000
G01 F120.00
G01 X147.4472 Y49.1494
G01 X147.4472 Y49.1494
G01 X147.4472 Y49.1494
G01 X147.4472 Y49.1494
G00 Z2.0000
G00 X147.4472 Y46.6094
G01 F60.00
G01 Z-1.8000
G01 F120.00
G01 X147.4472 Y46.6094
G01 X147.4472 Y46.6094
G01 X147.4472 Y46.6094
G01 X147.4472 Y46.6094
G00 Z2.0000
G00 X147.4472 Y44.0694
G01 F60.00
G01 Z-1.8000
G01 F120.00
G01 X147.4472 Y44.0694
G01 X147.4472 Y44.0694
G01 X147.4472 Y44.0694
G01 X147.4472 Y44.0694
G00 Z2.0000
G00 X147.4472 Y41.5294
G01 F60.00
G01 Z-1.8000
G01 F120.00
G01 X147.4472 Y41.5294
G01 X147.4472 Y41.5294
G01 X147.4472 Y41.5294
G01 X147.4472 Y41.5294
G00 Z2.0000
G00 X147.4472 Y38.9894
G01 F60.00
G01 Z-1.8000
G01 F120.00
G01 X147.4472 Y38.9894
G01 X147.4472 Y38.9894
G01 X147.4472 Y38.9894
G01 X147.4472 Y38.9894
G00 Z2.0000
G00 X147.4472 Y36.4494
G01 F60.00
G01 Z-1.8000
G01 F120.00
G01 X147.4472 Y36.4494
G01 X147.4472 Y36.4494
G01 X147.4472 Y36.4494
G01 X147.4472 Y36.4494
G00 Z2.0000
G00 X143.6372 Y36.4494
G01 F60.00
G01 Z-1.8000
G01 F120.00
G01 X143.6372 Y36.4494
G01 X143.6372 Y36.4494
G01 X143.6372 Y36.4494
G01 X143.6372 Y36.4494
G00 Z2.0000
G00 X143.6372 Y38.9894
G01 F60.00
G01 Z-1.8000
G01 F120.00
G01 X143.6372 Y38.9894
G01 X143.6372 Y38.9894
G01 X143.6372 Y38.9894
G01 X143.6372 Y38.9894
G00 Z2.0000
G00 X143.6372 Y41.5294
G01 F60.00
G01 Z-1.8000
G01 F120.00
G01 X143.6372 Y41.5294
G01 X143.6372 Y41.5294
G01 X143.6372 Y41.5294
G01 X143.6372 Y41.5294
G00 Z2.0000
G00 X143.6372 Y44.0694
G01 F60.00
G01 Z-1.8000
G01 F120.00
G01 X143.6372 Y44.0694
G01 X143.6372 Y44.0694
G01 X143.6372 Y44.0694
G01 X143.6372 Y44.0694
G00 Z2.0000
G00 X143.6372 Y46.6094
G01 F60.00
G01 Z-1.8000
G01 F120.00
G01 X143.6372 Y46.6094
G01 X143.6372 Y46.6094
G01 X143.6372 Y46.6094
G01 X143.6372 Y46.6094
G00 Z2.0000
G00 X143.6372 Y49.1494
G01 F60.00
G01 Z-1.8000
G01 F120.00
G01 X143.6372 Y49.1494
G01 X143.6372 Y49.1494
G01 X143.6372 Y49.1494
G01 X143.6372 Y49.1494
G00 Z2.0000
G00 X143.6372 Y51.6894
G01 F60.00
G01 Z-1.8000
G01 F120.00
G01 X143.6372 Y51.6894
G01 X143.6372 Y51.6894
G01 X143.6372 Y51.6894
G01 X143.6372 Y51.6894
G00 Z2.0000
G00 X143.6372 Y54.2294
G01 F60.00
G01 Z-1.8000
G01 F120.00
G01 X143.6372 Y54.2294
G01 X143.6372 Y54.2294
G01 X143.6372 Y54.2294
G01 X143.6372 Y54.2294
G00 Z2.0000
G00 X143.6372 Y56.7694
G01 F60.00
G01 Z-1.8000
G01 F120.00
G01 X143.6372 Y56.7694
G01 X143.6372 Y56.7694
G01 X143.6372 Y56.7694
G01 X143.6372 Y56.7694
G00 Z2.0000
G00 X143.6372 Y59.3094
G01 F60.00
G01 Z-1.8000
G01 F120.00
G01 X143.6372 Y59.3094
G01 X143.6372 Y59.3094
G01 X143.6372 Y59.3094
G01 X143.6372 Y59.3094
G00 Z2.0000
G00 X137.0332 Y59.3094
G01 F60.00
G01 Z-1.8000
G01 F120.00
G01 X137.0332 Y59.3094
G01 X137.0332 Y59.3094
G01 X137.0332 Y59.3094
G01 X137.0332 Y59.3094
G00 Z2.0000
G00 X137.0332 Y54.9914
G01 F60.00
G01 Z-1.8000
G01 F120.00
G01 X137.0332 Y54.9914
G01 X137.0332 Y54.9914
G01 X137.0332 Y54.9914
G01 X137.0332 Y54.9914
G00 Z2.0000
G00 X137.0332 Y52.4514
G01 F60.00
G01 Z-1.8000
G01 F120.00
G01 X137.0332 Y52.4514
G01 X137.0332 Y52.4514
G01 X137.0332 Y52.4514
G01 X137.0332 Y52.4514
G00 Z2.0000
G00 X137.0332 Y49.9114
G01 F60.00
G01 Z-1.8000
G01 F120.00
G01 X137.0332 Y49.9114
G01 X137.0332 Y49.9114
G01 X137.0332 Y49.9114
G01 X137.0332 Y49.9114
G00 Z2.0000
G00 X137.0332 Y47.3714
G01 F60.00
G01 Z-1.8000
G01 F120.00
G01 X137.0332 Y47.3714
G01 X137.0332 Y47.3714
G01 X137.0332 Y47.3714
G01 X137.0332 Y47.3714
G00 Z2.0000
G00 X137.0332 Y44.8314
G01 F60.00
G01 Z-1.8000
G01 F120.00
G01 X137.0332 Y44.8314
G01 X137.0332 Y44.8314
G01 X137.0332 Y44.8314
G01 X137.0332 Y44.8314
G00 Z2.0000
G00 X133.4772 Y44.8314
G01 F60.00
G01 Z-1.8000
G01 F120.00
G01 X133.4772 Y44.8314
G01 X133.4772 Y44.8314
G01 X133.4772 Y44.8314
G01 X133.4772 Y44.8314
G00 Z2.0000
G00 X133.4772 Y47.3714
G01 F60.00
G01 Z-1.8000
G01 F120.00
G01 X133.4772 Y47.3714
G01 X133.4772 Y47.3714
G01 X133.4772 Y47.3714
G01 X133.4772 Y47.3714
G00 Z2.0000
G00 X133.4772 Y49.9114
G01 F60.00
G01 Z-1.8000
G01 F120.00
G01 X133.4772 Y49.9114
G01 X133.4772 Y49.9114
G01 X133.4772 Y49.9114
G01 X133.4772 Y49.9114
G00 Z2.0000
G00 X133.4772 Y52.4514
G01 F60.00
G01 Z-1.8000
G01 F120.00
G01 X133.4772 Y52.4514
G01 X133.4772 Y52.4514
G01 X133.4772 Y52.4514
G01 X133.4772 Y52.4514
G00 Z2.0000
G00 X133.4772 Y54.9914
G01 F60.00
G01 Z-1.8000
G01 F120.00
G01 X133.4772 Y54.9914
G01 X133.4772 Y54.9914
G01 X133.4772 Y54.9914
G01 X133.4772 Y54.9914
G00 Z2.0000
G00 X125.3492 Y54.9914
G01 F60.00
G01 Z-1.8000
G01 F120.00
G01 X125.3492 Y54.9914
G01 X125.3492 Y54.9914
G01 X125.3492 Y54.9914
G01 X125.3492 Y54.9914
G00 Z2.0000
G00 X125.3492 Y52.4514
G01 F60.00
G01 Z-1.8000
G01 F120.00
G01 X125.3492 Y52.4514
G01 X125.3492 Y52.4514
G01 X125.3492 Y52.4514
G01 X125.3492 Y52.4514
G00 Z2.0000
G00 X125.3492 Y49.9114
G01 F60.00
G01 Z-1.8000
G01 F120.00
G01 X125.3492 Y49.9114
G01 X125.3492 Y49.9114
G01 X125.3492 Y49.9114
G01 X125.3492 Y49.9114
G00 Z2.0000
G00 X125.3492 Y47.3714
G01 F60.00
G01 Z-1.8000
G01 F120.00
G01 X125.3492 Y47.3714
G01 X125.3492 Y47.3714
G01 X125.3492 Y47.3714
G01 X125.3492 Y47.3714
G00 Z2.0000
G00 X125.3492 Y44.8314
G01 F60.00
G01 Z-1.8000
G01 F120.00
G01 X125.3492 Y44.8314
G01 X125.3492 Y44.8314
G01 X125.3492 Y44.8314
G01 X125.3492 Y44.8314
G00 Z2.0000
G00 X137.2872 Y38.9894
G01 F60.00
G01 Z-1.8000
G01 F120.00
G01 X137.2872 Y38.9894
G01 X137.2872 Y38.9894
G01 X137.2872 Y38.9894
G01 X137.2872 Y38.9894
G00 Z2.0000
G00 X138.0492 Y30.8614
G01 F60.00
G01 Z-1.8000
G01 F120.00
G01 X138.0492 Y30.8614
G01 X138.0492 Y30.8614
G01 X138.0492 Y30.8614
G01 X138.0492 Y30.8614
G00 Z2.0000
G00 X140.5892 Y30.8614
G01 F60.00
G01 Z-1.8000
G01 F120.00
G01 X140.5892 Y30.8614
G01 X140.5892 Y30.8614
G01 X140.5892 Y30.8614
G01 X140.5892 Y30.8614
G00 Z2.0000
G00 X143.1292 Y30.8614
G01 F60.00
G01 Z-1.8000
G01 F120.00
G01 X143.1292 Y30.8614
G01 X143.1292 Y30.8614
G01 X143.1292 Y30.8614
G01 X143.1292 Y30.8614
G00 Z2.0000
G00 X145.6692 Y30.8614
G01 F60.00
G01 Z-1.8000
G01 F120.00
G01 X145.6692 Y30.8614
G01 X145.6692 Y30.8614
G01 X145.6692 Y30.8614
G01 X145.6692 Y30.8614
G00 Z2.0000
G00 X148.2092 Y30.8614
G01 F60.00
G01 Z-1.8000
G01 F120.00
G01 X148.2092 Y30.8614
G01 X148.2092 Y30.8614
G01 X148.2092 Y30.8614
G01 X148.2092 Y30.8614
G00 Z2.0000
G00 X150.7492 Y30.8614
G01 F60.00
G01 Z-1.8000
G01 F120.00
G01 X150.7492 Y30.8614
G01 X150.7492 Y30.8614
G01 X150.7492 Y30.8614
G01 X150.7492 Y30.8614
G00 Z2.0000
G00 X153.2892 Y30.8614
G01 F60.00
G01 Z-1.8000
G01 F120.00
G01 X153.2892 Y30.8614
G01 X153.2892 Y30.8614
G01 X153.2892 Y30.8614
G01 X153.2892 Y30.8614
G00 Z2.0000
G00 X155.8292 Y30.8614
G01 F60.00
G01 Z-1.8000
G01 F120.00
G01 X155.8292 Y30.8614
G01 X155.8292 Y30.8614
G01 X155.8292 Y30.8614
G01 X155.8292 Y30.8614
G00 Z2.0000
G00 X148.7172 Y23.4954
G01 F60.00
G01 Z-1.8000
G01 F120.00
G01 X148.7172 Y23.4954
G01 X148.7172 Y23.4954
G01 X148.7172 Y23.4954
G01 X148.7172 Y23.4954
G00 Z2.0000
G00 X146.1772 Y23.4954
G01 F60.00
G01 Z-1.8000
G01 F120.00
G01 X146.1772 Y23.4954
G01 X146.1772 Y23.4954
G01 X146.1772 Y23.4954
G01 X146.1772 Y23.4954
G00 Z2.0000
G00 X143.6372 Y23.4954
G01 F60.00
G01 Z-1.8000
G01 F120.00
G01 X143.6372 Y23.4954
G01 X143.6372 Y23.4954
G01 X143.6372 Y23.4954
G01 X143.6372 Y23.4954
G00 Z2.0000
G00 X141.0972 Y23.4954
G01 F60.00
G01 Z-1.8000
G01 F120.00
G01 X141.0972 Y23.4954
G01 X141.0972 Y23.4954
G01 X141.0972 Y23.4954
G01 X141.0972 Y23.4954
G00 Z2.0000
G00 X138.5572 Y23.4954
G01 F60.00
G01 Z-1.8000
G01 F120.00
G01 X138.5572 Y23.4954
G01 X138.5572 Y23.4954
G01 X138.5572 Y23.4954
G01 X138.5572 Y23.4954
G00 Z2.0000
G00 X136.0172 Y23.4954
G01 F60.00
G01 Z-1.8000
G01 F120.00
G01 X136.0172 Y23.4954
G01 X136.0172 Y23.4954
G01 X136.0172 Y23.4954
G01 X136.0172 Y23.4954
G00 Z2.0000
G00 X133.4772 Y23.4954
G01 F60.00
G01 Z-1.8000
G01 F120.00
G01 X133.4772 Y23.4954
G01 X133.4772 Y23.4954
G01 X133.4772 Y23.4954
G01 X133.4772 Y23.4954
G00 Z2.0000
G00 X133.4772 Y19.6854
G01 F60.00
G01 Z-1.8000
G01 F120.00
G01 X133.4772 Y19.6854
G01 X133.4772 Y19.6854
G01 X133.4772 Y19.6854
G01 X133.4772 Y19.6854
G00 Z2.0000
G00 X136.0172 Y19.6854
G01 F60.00
G01 Z-1.8000
G01 F120.00
G01 X136.0172 Y19.6854
G01 X136.0172 Y19.6854
G01 X136.0172 Y19.6854
G01 X136.0172 Y19.6854
G00 Z2.0000
G00 X138.5572 Y19.6854
G01 F60.00
G01 Z-1.8000
G01 F120.00
G01 X138.5572 Y19.6854
G01 X138.5572 Y19.6854
G01 X138.5572 Y19.6854
G01 X138.5572 Y19.6854
G00 Z2.0000
G00 X141.0972 Y19.6854
G01 F60.00
G01 Z-1.8000
G01 F120.00
G01 X141.0972 Y19.6854
G01 X141.0972 Y19.6854
G01 X141.0972 Y19.6854
G01 X141.0972 Y19.6854
G00 Z2.0000
G00 X143.6372 Y19.6854
G01 F60.00
G01 Z-1.8000
G01 F120.00
G01 X143.6372 Y19.6854
G01 X143.6372 Y19.6854
G01 X143.6372 Y19.6854
G01 X143.6372 Y19.6854
G00 Z2.0000
G00 X146.1772 Y19.6854
G01 F60.00
G01 Z-1.8000
G01 F120.00
G01 X146.1772 Y19.6854
G01 X146.1772 Y19.6854
G01 X146.1772 Y19.6854
G01 X146.1772 Y19.6854
G00 Z2.0000
G00 X148.7172 Y19.6854
G01 F60.00
G01 Z-1.8000
G01 F120.00
G01 X148.7172 Y19.6854
G01 X148.7172 Y19.6854
G01 X148.7172 Y19.6854
G01 X148.7172 Y19.6854
G00 Z2.0000
G00 X151.2572 Y19.6854
G01 F60.00
G01 Z-1.8000
G01 F120.00
G01 X151.2572 Y19.6854
G01 X151.2572 Y19.6854
G01 X151.2572 Y19.6854
G01 X151.2572 Y19.6854
G00 Z2.0000
G00 X133.2232 Y30.8614
G01 F60.00
G01 Z-1.8000
G01 F120.00
G01 X133.2232 Y30.8614
G01 X133.2232 Y30.8614
G01 X133.2232 Y30.8614
G01 X133.2232 Y30.8614
G00 Z2.0000
G00 X130.6832 Y30.8614
G01 F60.00
G01 Z-1.8000
G01 F120.00
G01 X130.6832 Y30.8614
G01 X130.6832 Y30.8614
G01 X130.6832 Y30.8614
G01 X130.6832 Y30.8614
G00 Z2.0000
G00 X128.1432 Y30.8614
G01 F60.00
G01 Z-1.8000
G01 F120.00
G01 X128.1432 Y30.8614
G01 X128.1432 Y30.8614
G01 X128.1432 Y30.8614
G01 X128.1432 Y30.8614
G00 Z2.0000
G00 X125.6032 Y30.8614
G01 F60.00
G01 Z-1.8000
G01 F120.00
G01 X125.6032 Y30.8614
G01 X125.6032 Y30.8614
G01 X125.6032 Y30.8614
G01 X125.6032 Y30.8614
G00 Z2.0000
G00 X123.0632 Y30.8614
G01 F60.00
G01 Z-1.8000
G01 F120.00
G01 X123.0632 Y30.8614
G01 X123.0632 Y30.8614
G01 X123.0632 Y30.8614
G01 X123.0632 Y30.8614
G00 Z2.0000
G00 X120.5232 Y30.8614
G01 F60.00
G01 Z-1.8000
G01 F120.00
G01 X120.5232 Y30.8614
G01 X120.5232 Y30.8614
G01 X120.5232 Y30.8614
G01 X120.5232 Y30.8614
G00 Z2.0000
G00 X117.9832 Y30.8614
G01 F60.00
G01 Z-1.8000
G01 F120.00
G01 X117.9832 Y30.8614
G01 X117.9832 Y30.8614
G01 X117.9832 Y30.8614
G01 X117.9832 Y30.8614
G00 Z2.0000
G00 X115.4432 Y30.8614
G01 F60.00
G01 Z-1.8000
G01 F120.00
G01 X115.4432 Y30.8614
G01 X115.4432 Y30.8614
G01 X115.4432 Y30.8614
G01 X115.4432 Y30.8614
G00 Z2.0000
G00 X110.1092 Y30.8614
G01 F60.00
G01 Z-1.8000
G01 F120.00
G01 X110.1092 Y30.8614
G01 X110.1092 Y30.8614
G01 X110.1092 Y30.8614
G01 X110.1092 Y30.8614
G00 Z2.0000
G00 X107.5692 Y30.8614
G01 F60.00
G01 Z-1.8000
G01 F120.00
G01 X107.5692 Y30.8614
G01 X107.5692 Y30.8614
G01 X107.5692 Y30.8614
G01 X107.5692 Y30.8614
G00 Z2.0000
G00 X105.0292 Y30.8614
G01 F60.00
G01 Z-1.8000
G01 F120.00
G01 X105.0292 Y30.8614
G01 X105.0292 Y30.8614
G01 X105.0292 Y30.8614
G01 X105.0292 Y30.8614
G00 Z2.0000
G00 X102.4892 Y30.8614
G01 F60.00
G01 Z-1.8000
G01 F120.00
G01 X102.4892 Y30.8614
G01 X102.4892 Y30.8614
G01 X102.4892 Y30.8614
G01 X102.4892 Y30.8614
G00 Z2.0000
G00 X99.9492 Y30.8614
G01 F60.00
G01 Z-1.8000
G01 F120.00
G01 X99.9492 Y30.8614
G01 X99.9492 Y30.8614
G01 X99.9492 Y30.8614
G01 X99.9492 Y30.8614
G00 Z2.0000
G00 X97.4092 Y30.8614
G01 F60.00
G01 Z-1.8000
G01 F120.00
G01 X97.4092 Y30.8614
G01 X97.4092 Y30.8614
G01 X97.4092 Y30.8614
G01 X97.4092 Y30.8614
G00 Z2.0000
G00 X94.8692 Y30.8614
G01 F60.00
G01 Z-1.8000
G01 F120.00
G01 X94.8692 Y30.8614
G01 X94.8692 Y30.8614
G01 X94.8692 Y30.8614
G01 X94.8692 Y30.8614
G00 Z2.0000
G00 X92.3292 Y30.8614
G01 F60.00
G01 Z-1.8000
G01 F120.00
G01 X92.3292 Y30.8614
G01 X92.3292 Y30.8614
G01 X92.3292 Y30.8614
G01 X92.3292 Y30.8614
G00 Z2.0000
G00 X95.8852 Y36.4494
G01 F60.00
G01 Z-1.8000
G01 F120.00
G01 X95.8852 Y36.4494
G01 X95.8852 Y36.4494
G01 X95.8852 Y36.4494
G01 X95.8852 Y36.4494
G00 Z2.0000
G00 X95.8852 Y38.9894
G01 F60.00
G01 Z-1.8000
G01 F120.00
G01 X95.8852 Y38.9894
G01 X95.8852 Y38.9894
G01 X95.8852 Y38.9894
G01 X95.8852 Y38.9894
G00 Z2.0000
G00 X95.8852 Y41.5294
G01 F60.00
G01 Z-1.8000
G01 F120.00
G01 X95.8852 Y41.5294
G01 X95.8852 Y41.5294
G01 X95.8852 Y41.5294
G01 X95.8852 Y41.5294
G00 Z2.0000
G00 X95.8852 Y44.0694
G01 F60.00
G01 Z-1.8000
G01 F120.00
G01 X95.8852 Y44.0694
G01 X95.8852 Y44.0694
G01 X95.8852 Y44.0694
G01 X95.8852 Y44.0694
G00 Z2.0000
G00 X95.8852 Y46.6094
G01 F60.00
G01 Z-1.8000
G01 F120.00
G01 X95.8852 Y46.6094
G01 X95.8852 Y46.6094
G01 X95.8852 Y46.6094
G01 X95.8852 Y46.6094
G00 Z2.0000
G00 X95.8852 Y49.1494
G01 F60.00
G01 Z-1.8000
G01 F120.00
G01 X95.8852 Y49.1494
G01 X95.8852 Y49.1494
G01 X95.8852 Y49.1494
G01 X95.8852 Y49.1494
G00 Z2.0000
G00 X95.8852 Y51.6894
G01 F60.00
G01 Z-1.8000
G01 F120.00
G01 X95.8852 Y51.6894
G01 X95.8852 Y51.6894
G01 X95.8852 Y51.6894
G01 X95.8852 Y51.6894
G00 Z2.0000
G00 X95.8852 Y54.2294
G01 F60.00
G01 Z-1.8000
G01 F120.00
G01 X95.8852 Y54.2294
G01 X95.8852 Y54.2294
G01 X95.8852 Y54.2294
G01 X95.8852 Y54.2294
G00 Z2.0000
G00 X95.8852 Y56.7694
G01 F60.00
G01 Z-1.8000
G01 F120.00
G01 X95.8852 Y56.7694
G01 X95.8852 Y56.7694
G01 X95.8852 Y56.7694
G01 X95.8852 Y56.7694
G00 Z2.0000
G00 X95.8852 Y59.3094
G01 F60.00
G01 Z-1.8000
G01 F120.00
G01 X95.8852 Y59.3094
G01 X95.8852 Y59.3094
G01 X95.8852 Y59.3094
G01 X95.8852 Y59.3094
G00 Z2.0000
G00 X101.9812 Y62.1034
G01 F60.00
G01 Z-1.8000
G01 F120.00
G01 X101.9812 Y62.1034
G01 X101.9812 Y62.1034
G01 X101.9812 Y62.1034
G01 X101.9812 Y62.1034
G00 Z2.0000
G00 X92.8372 Y49.4034
G01 F60.00
G01 Z-1.8000
G01 F120.00
G01 X92.8372 Y49.4034
G01 X92.8372 Y49.4034
G01 X92.8372 Y49.4034
G01 X92.8372 Y49.4034
G00 Z2.0000
G00 X90.5512 Y45.7144
G01 F60.00
G01 Z-1.8000
G01 F120.00
G01 X90.5512 Y45.7144
G01 X90.5512 Y45.7144
G01 X90.5512 Y45.7144
G01 X90.5512 Y45.7144
G00 Z2.0000
G00 X88.0112 Y41.9044
G01 F60.00
G01 Z-1.8000
G01 F120.00
G01 X88.0112 Y41.9044
G01 X88.0112 Y41.9044
G01 X88.0112 Y41.9044
G01 X88.0112 Y41.9044
G00 Z2.0000
G00 X66.6752 Y44.0694
G01 F60.00
G01 Z-1.8000
G01 F120.00
G01 X66.6752 Y44.0694
G01 X66.6752 Y44.0694
G01 X66.6752 Y44.0694
G01 X66.6752 Y44.0694
G00 Z2.0000
G00 X61.5952 Y44.0694
G01 F60.00
G01 Z-1.8000
G01 F120.00
G01 X61.5952 Y44.0694
G01 X61.5952 Y44.0694
G01 X61.5952 Y44.0694
G01 X61.5952 Y44.0694
G00 Z2.0000
G00 X61.5952 Y37.7194
G01 F60.00
G01 Z-1.8000
G01 F120.00
G01 X61.5952 Y37.7194
G01 X61.5952 Y37.7194
G01 X61.5952 Y37.7194
G01 X61.5952 Y37.7194
G00 Z2.0000
G00 X66.6752 Y37.7194
G01 F60.00
G01 Z-1.8000
G01 F120.00
G01 X66.6752 Y37.7194
G01 X66.6752 Y37.7194
G01 X66.6752 Y37.7194
G01 X66.6752 Y37.7194
G00 Z2.0000
G00 X66.6752 Y31.3694
G01 F60.00
G01 Z-1.8000
G01 F120.00
G01 X66.6752 Y31.3694
G01 X66.6752 Y31.3694
G01 X66.6752 Y31.3694
G01 X66.6752 Y31.3694
G00 Z2.0000
G00 X61.5952 Y31.3694
G01 F60.00
G01 Z-1.8000
G01 F120.00
G01 X61.5952 Y31.3694
G01 X61.5952 Y31.3694
G01 X61.5952 Y31.3694
G01 X61.5952 Y31.3694
G00 Z2.0000
G00 X55.4992 Y14.6054
G01 F60.00
G01 Z-1.8000
G01 F120.00
G01 X55.4992 Y14.6054
G01 X55.4992 Y14.6054
G01 X55.4992 Y14.6054
G01 X55.4992 Y14.6054
G00 Z2.0000
G00 X48.9772 Y13.4814
G01 F60.00
G01 Z-1.8000
G01 F120.00
G01 X48.9772 Y13.4814
G01 X48.9772 Y13.4814
G01 X48.9772 Y13.4814
G01 X48.9772 Y13.4814
G00 Z2.0000
G00 X48.9772 Y10.9414
G01 F60.00
G01 Z-1.8000
G01 F120.00
G01 X48.9772 Y10.9414
G01 X48.9772 Y10.9414
G01 X48.9772 Y10.9414
G01 X48.9772 Y10.9414
G00 Z2.0000
G00 X48.9772 Y8.4014
G01 F60.00
G01 Z-1.8000
G01 F120.00
G01 X48.9772 Y8.4014
G01 X48.9772 Y8.4014
G01 X48.9772 Y8.4014
G01 X48.9772 Y8.4014
G00 Z2.0000
G00 X48.9772 Y5.8614
G01 F60.00
G01 Z-1.8000
G01 F120.00
G01 X48.9772 Y5.8614
G01 X48.9772 Y5.8614
G01 X48.9772 Y5.8614
G01 X48.9772 Y5.8614
G00 Z2.0000
G00 X46.1772 Y7.2114
G01 F60.00
G01 Z-1.8000
G01 F120.00
G01 X46.1772 Y7.2114
G01 X46.1772 Y7.2114
G01 X46.1772 Y7.2114
G01 X46.1772 Y7.2114
G00 Z2.0000
G00 X46.1772 Y12.2114
G01 F60.00
G01 Z-1.8000
G01 F120.00
G01 X46.1772 Y12.2114
G01 X46.1772 Y12.2114
G01 X46.1772 Y12.2114
G01 X46.1772 Y12.2114
G00 Z2.0000
G00 X28.0672 Y17.9074
G01 F60.00
G01 Z-1.8000
G01 F120.00
G01 X28.0672 Y17.9074
G01 X28.0672 Y17.9074
G01 X28.0672 Y17.9074
G01 X28.0672 Y17.9074
G00 Z2.0000
G00 X25.5272 Y12.8274
G01 F60.00
G01 Z-1.8000
G01 F120.00
G01 X25.5272 Y12.8274
G01 X25.5272 Y12.8274
G01 X25.5272 Y12.8274
G01 X25.5272 Y12.8274
G00 Z2.0000
G00 X20.4472 Y12.8274
G01 F60.00
G01 Z-1.8000
G01 F120.00
G01 X20.4472 Y12.8274
G01 X20.4472 Y12.8274
G01 X20.4472 Y12.8274
G01 X20.4472 Y12.8274
G00 Z2.0000
G00 X20.4472 Y6.7314
G01 F60.00
G01 Z-1.8000
G01 F120.00
G01 X20.4472 Y6.7314
G01 X20.4472 Y6.7314
G01 X20.4472 Y6.7314
G01 X20.4472 Y6.7314
G00 Z2.0000
G00 X22.9872 Y6.7314
G01 F60.00
G01 Z-1.8000
G01 F120.00
G01 X22.9872 Y6.7314
G01 X22.9872 Y6.7314
G01 X22.9872 Y6.7314
G01 X22.9872 Y6.7314
G00 Z2.0000
G00 X25.5272 Y6.7314
G01 F60.00
G01 Z-1.8000
G01 F120.00
G01 X25.5272 Y6.7314
G01 X25.5272 Y6.7314
G01 X25.5272 Y6.7314
G01 X25.5272 Y6.7314
G00 Z2.0000
G00 X14.2272 Y17.9074
G01 F60.00
G01 Z-1.8000
G01 F120.00
G01 X14.2272 Y17.9074
G01 X14.2272 Y17.9074
G01 X14.2272 Y17.9074
G01 X14.2272 Y17.9074
G00 Z2.0000
G00 X15.3672 Y31.1154
G01 F60.00
G01 Z-1.8000
G01 F120.00
G01 X15.3672 Y31.1154
G01 X15.3672 Y31.1154
G01 X15.3672 Y31.1154
G01 X15.3672 Y31.1154
G00 Z2.0000
G00 X10.2872 Y31.1154
G01 F60.00
G01 Z-1.8000
G01 F120.00
G01 X10.2872 Y31.1154
G01 X10.2872 Y31.1154
G01 X10.2872 Y31.1154
G01 X10.2872 Y31.1154
G00 Z2.0000
G00 X10.2872 Y37.7194
G01 F60.00
G01 Z-1.8000
G01 F120.00
G01 X10.2872 Y37.7194
G01 X10.2872 Y37.7194
G01 X10.2872 Y37.7194
G01 X10.2872 Y37.7194
G00 Z2.0000
G00 X15.3672 Y37.7194
G01 F60.00
G01 Z-1.8000
G01 F120.00
G01 X15.3672 Y37.7194
G01 X15.3672 Y37.7194
G01 X15.3672 Y37.7194
G01 X15.3672 Y37.7194
G00 Z2.0000
G00 X15.3672 Y44.0694
G01 F60.00
G01 Z-1.8000
G01 F120.00
G01 X15.3672 Y44.0694
G01 X15.3672 Y44.0694
G01 X15.3672 Y44.0694
G01 X15.3672 Y44.0694
G00 Z2.0000
G00 X10.2872 Y44.0694
G01 F60.00
G01 Z-1.8000
G01 F120.00
G01 X10.2872 Y44.0694
G01 X10.2872 Y44.0694
G01 X10.2872 Y44.0694
G01 X10.2872 Y44.0694
G00 Z2.0000
G00 X35.9412 Y44.0694
G01 F60.00
G01 Z-1.8000
G01 F120.00
G01 X35.9412 Y44.0694
G01 X35.9412 Y44.0694
G01 X35.9412 Y44.0694
G01 X35.9412 Y44.0694
G00 Z2.0000
G00 X41.0212 Y44.0694
G01 F60.00
G01 Z-1.8000
G01 F120.00
G01 X41.0212 Y44.0694
G01 X41.0212 Y44.0694
G01 X41.0212 Y44.0694
G01 X41.0212 Y44.0694
G00 Z2.0000
G00 X41.0212 Y37.7194
G01 F60.00
G01 Z-1.8000
G01 F120.00
G01 X41.0212 Y37.7194
G01 X41.0212 Y37.7194
G01 X41.0212 Y37.7194
G01 X41.0212 Y37.7194
G00 Z2.0000
G00 X35.9412 Y37.7194
G01 F60.00
G01 Z-1.8000
G01 F120.00
G01 X35.9412 Y37.7194
G01 X35.9412 Y37.7194
G01 X35.9412 Y37.7194
G01 X35.9412 Y37.7194
G00 Z2.0000
G00 X35.9412 Y31.1154
G01 F60.00
G01 Z-1.8000
G01 F120.00
G01 X35.9412 Y31.1154
G01 X35.9412 Y31.1154
G01 X35.9412 Y31.1154
G01 X35.9412 Y31.1154
G00 Z2.0000
G00 X41.0212 Y31.1154
G01 F60.00
G01 Z-1.8000
G01 F120.00
G01 X41.0212 Y31.1154
G01 X41.0212 Y31.1154
G01 X41.0212 Y31.1154
G01 X41.0212 Y31.1154
G00 Z2.0000
G00 X110.6172 Y23.4954
G01 F60.00
G01 Z-1.8000
G01 F120.00
G01 X110.6172 Y23.4954
G01 X110.6172 Y23.4954
G01 X110.6172 Y23.4954
G01 X110.6172 Y23.4954
G00 Z2.0000
G00 X113.1572 Y23.4954
G01 F60.00
G01 Z-1.8000
G01 F120.00
G01 X113.1572 Y23.4954
G01 X113.1572 Y23.4954
G01 X113.1572 Y23.4954
G01 X113.1572 Y23.4954
G00 Z2.0000
G00 X115.6972 Y23.4954
G01 F60.00
G01 Z-1.8000
G01 F120.00
G01 X115.6972 Y23.4954
G01 X115.6972 Y23.4954
G01 X115.6972 Y23.4954
G01 X115.6972 Y23.4954
G00 Z2.0000
G00 X118.2372 Y23.4954
G01 F60.00
G01 Z-1.8000
G01 F120.00
G01 X118.2372 Y23.4954
G01 X118.2372 Y23.4954
G01 X118.2372 Y23.4954
G01 X118.2372 Y23.4954
G00 Z2.0000
G00 X120.7772 Y23.4954
G01 F60.00
G01 Z-1.8000
G01 F120.00
G01 X120.7772 Y23.4954
G01 X120.7772 Y23.4954
G01 X120.7772 Y23.4954
G01 X120.7772 Y23.4954
G00 Z2.0000
G00 X123.3172 Y23.4954
G01 F60.00
G01 Z-1.8000
G01 F120.00
G01 X123.3172 Y23.4954
G01 X123.3172 Y23.4954
G01 X123.3172 Y23.4954
G01 X123.3172 Y23.4954
G00 Z2.0000
G00 X125.8572 Y23.4954
G01 F60.00
G01 Z-1.8000
G01 F120.00
G01 X125.8572 Y23.4954
G01 X125.8572 Y23.4954
G01 X125.8572 Y23.4954
G01 X125.8572 Y23.4954
G00 Z2.0000
G00 X128.3972 Y23.4954
G01 F60.00
G01 Z-1.8000
G01 F120.00
G01 X128.3972 Y23.4954
G01 X128.3972 Y23.4954
G01 X128.3972 Y23.4954
G01 X128.3972 Y23.4954
G00 Z2.0000
G00 X128.3972 Y19.6854
G01 F60.00
G01 Z-1.8000
G01 F120.00
G01 X128.3972 Y19.6854
G01 X128.3972 Y19.6854
G01 X128.3972 Y19.6854
G01 X128.3972 Y19.6854
G00 Z2.0000
G00 X125.8572 Y19.6854
G01 F60.00
G01 Z-1.8000
G01 F120.00
G01 X125.8572 Y19.6854
G01 X125.8572 Y19.6854
G01 X125.8572 Y19.6854
G01 X125.8572 Y19.6854
G00 Z2.0000
G00 X123.3172 Y19.6854
G01 F60.00
G01 Z-1.8000
G01 F120.00
G01 X123.3172 Y19.6854
G01 X123.3172 Y19.6854
G01 X123.3172 Y19.6854
G01 X123.3172 Y19.6854
G00 Z2.0000
G00 X120.7772 Y19.6854
G01 F60.00
G01 Z-1.8000
G01 F120.00
G01 X120.7772 Y19.6854
G01 X120.7772 Y19.6854
G01 X120.7772 Y19.6854
G01 X120.7772 Y19.6854
G00 Z2.0000
G00 X118.2372 Y19.6854
G01 F60.00
G01 Z-1.8000
G01 F120.00
G01 X118.2372 Y19.6854
G01 X118.2372 Y19.6854
G01 X118.2372 Y19.6854
G01 X118.2372 Y19.6854
G00 Z2.0000
G00 X115.6972 Y19.6854
G01 F60.00
G01 Z-1.8000
G01 F120.00
G01 X115.6972 Y19.6854
G01 X115.6972 Y19.6854
G01 X115.6972 Y19.6854
G01 X115.6972 Y19.6854
G00 Z2.0000
G00 X113.1572 Y19.6854
G01 F60.00
G01 Z-1.8000
G01 F120.00
G01 X113.1572 Y19.6854
G01 X113.1572 Y19.6854
G01 X113.1572 Y19.6854
G01 X113.1572 Y19.6854
G00 Z2.0000
G00 X110.6172 Y19.6854
G01 F60.00
G01 Z-1.8000
G01 F120.00
G01 X110.6172 Y19.6854
G01 X110.6172 Y19.6854
G01 X110.6172 Y19.6854
G01 X110.6172 Y19.6854
G00 Z2.0000
G00 X116.4592 Y54.9914
G01 F60.00
G01 Z-1.8000
G01 F120.00
G01 X116.4592 Y54.9914
G01 X116.4592 Y54.9914
G01 X116.4592 Y54.9914
G01 X116.4592 Y54.9914
G00 Z2.0000
G00 X167.7672 Y52.4914
G01 F60.00
G01 Z-1.8000
G01 F120.00
G01 X167.7672 Y52.4914
G01 X167.7672 Y52.4914
G01 X167.7672 Y52.4914
G01 X167.7672 Y52.4914
G00 Z2.0000
G00 X167.7672 Y57.4924
G01 F60.00
G01 Z-1.8000
G01 F120.00
G01 X167.7672 Y57.4924
G01 X167.7672 Y57.4924
G01 X167.7672 Y57.4924
G01 X167.7672 Y57.4924
G00 Z2.0000
G00 X172.8472 Y44.3234
G01 F60.00
G01 Z-1.8000
G01 F120.00
G01 X172.8472 Y44.3234
G01 X172.8472 Y44.3234
G01 X172.8472 Y44.3234
G01 X172.8472 Y44.3234
G00 Z2.0000
G00 X172.8472 Y39.2434
G01 F60.00
G01 Z-1.8000
G01 F120.00
G01 X172.8472 Y39.2434
G01 X172.8472 Y39.2434
G01 X172.8472 Y39.2434
G01 X172.8472 Y39.2434
G00 Z2.0000
M05
G00 Z2.0000
G00 Z15.00

