(G-CODE GENERATED BY FLATCAM v8.993 - www.flatcam.org - Version Date: 2020/06/05)

(Name: Drill_2.4cnc)
(Type: G-code from Geometry)
(Units: MM)

(Created on Thursday, 27 May 2021 at 14:25)

(This preprocessor is the default preprocessor used by FlatCAM.)
(It is made to work with MACH3 compatible motion controllers.)

(TOOL DIAMETER: 2.4 mm)
(Feedrate_XY: 120.0 mm/min)
(Feedrate_Z: 60.0 mm/min)
(Feedrate rapids 1500.0 mm/min)

(Z_Cut: -1.8 mm)
(Z_Move: 2.0 mm)
(Z Start: None mm)
(Z End: 15.0 mm)
(Steps per circle: 64)
(Preprocessor Geometry: default)

(X range:   35.2841 ...   84.3503  mm)
(Y range:   11.1573 ...   84.3475  mm)

(Spindle Speed: None RPM)
G21
G90
G94



G01 F120.00
G00 Z2.0000

M03
G00 X35.6842 Y11.1573
G01 F60.00
G01 Z-1.8000
G01 F120.00
G01 X35.6646 Y11.1577
G01 X35.6450 Y11.1592
G01 X35.6255 Y11.1616
G01 X35.6061 Y11.1650
G01 X35.5870 Y11.1693
G01 X35.5680 Y11.1745
G01 X35.5494 Y11.1807
G01 X35.5311 Y11.1877
G01 X35.5131 Y11.1957
G01 X35.4956 Y11.2045
G01 X35.4785 Y11.2142
G01 X35.4619 Y11.2247
G01 X35.4459 Y11.2360
G01 X35.4304 Y11.2481
G01 X35.4155 Y11.2609
G01 X35.4013 Y11.2745
G01 X35.3877 Y11.2887
G01 X35.3749 Y11.3035
G01 X35.3628 Y11.3190
G01 X35.3515 Y11.3351
G01 X35.3361 Y11.3602
G01 X35.3268 Y11.3775
G01 X35.3184 Y11.3952
G01 X35.3109 Y11.4134
G01 X35.3043 Y11.4319
G01 X35.2986 Y11.4507
G01 X35.2938 Y11.4697
G01 X35.2900 Y11.4890
G01 X35.2871 Y11.5084
G01 X35.2852 Y11.5279
G01 X35.2842 Y11.5475
G01 X35.2842 Y11.5672
G01 X35.2852 Y11.5868
G01 X35.2871 Y11.6063
G01 X35.2900 Y11.6258
G01 X35.2938 Y11.6450
G01 X35.2986 Y11.6641
G01 X35.3043 Y11.6829
G01 X35.3109 Y11.7014
G01 X35.3184 Y11.7195
G01 X35.3268 Y11.7373
G01 X35.3361 Y11.7546
G01 X35.3462 Y11.7714
G01 X35.3571 Y11.7877
G01 X35.3688 Y11.8035
G01 X35.3812 Y11.8187
G01 X35.3944 Y11.8332
G01 X35.4083 Y11.8471
G01 X35.4229 Y11.8603
G01 X35.4380 Y11.8728
G01 X35.4538 Y11.8845
G01 X35.4701 Y11.8954
G01 X35.4870 Y11.9055
G01 X35.5043 Y11.9147
G01 X35.5221 Y11.9231
G01 X35.5402 Y11.9307
G01 X35.5587 Y11.9373
G01 X35.5775 Y11.9430
G01 X35.5965 Y11.9477
G01 X35.6158 Y11.9516
G01 X35.6352 Y11.9545
G01 X35.6548 Y11.9564
G01 X35.6744 Y11.9573
G01 X35.7000 Y11.9573
G01 X35.7196 Y11.9564
G01 X35.7392 Y11.9545
G01 X35.7586 Y11.9516
G01 X35.7779 Y11.9477
G01 X35.7969 Y11.9430
G01 X35.8157 Y11.9373
G01 X35.8342 Y11.9307
G01 X35.8523 Y11.9231
G01 X35.8701 Y11.9147
G01 X35.8874 Y11.9055
G01 X35.9042 Y11.8954
G01 X35.9206 Y11.8845
G01 X35.9363 Y11.8728
G01 X35.9515 Y11.8603
G01 X35.9661 Y11.8471
G01 X35.9800 Y11.8332
G01 X35.9931 Y11.8187
G01 X36.0056 Y11.8035
G01 X36.0173 Y11.7877
G01 X36.0282 Y11.7714
G01 X36.0383 Y11.7546
G01 X36.0476 Y11.7373
G01 X36.0560 Y11.7195
G01 X36.0635 Y11.7014
G01 X36.0701 Y11.6829
G01 X36.0758 Y11.6641
G01 X36.0806 Y11.6450
G01 X36.0844 Y11.6258
G01 X36.0873 Y11.6063
G01 X36.0892 Y11.5868
G01 X36.0902 Y11.5672
G01 X36.0902 Y11.5475
G01 X36.0892 Y11.5279
G01 X36.0873 Y11.5084
G01 X36.0844 Y11.4890
G01 X36.0806 Y11.4697
G01 X36.0758 Y11.4507
G01 X36.0701 Y11.4319
G01 X36.0635 Y11.4134
G01 X36.0560 Y11.3952
G01 X36.0476 Y11.3775
G01 X36.0383 Y11.3602
G01 X36.0282 Y11.3433
G01 X36.0173 Y11.3270
G01 X36.0056 Y11.3112
G01 X35.9931 Y11.2960
G01 X35.9800 Y11.2815
G01 X35.9661 Y11.2676
G01 X35.9515 Y11.2544
G01 X35.9363 Y11.2419
G01 X35.9206 Y11.2302
G01 X35.9042 Y11.2193
G01 X35.8874 Y11.2092
G01 X35.8701 Y11.2000
G01 X35.8523 Y11.1916
G01 X35.8342 Y11.1841
G01 X35.8157 Y11.1775
G01 X35.7969 Y11.1718
G01 X35.7779 Y11.1670
G01 X35.7586 Y11.1632
G01 X35.7392 Y11.1603
G01 X35.7196 Y11.1583
G01 X35.7000 Y11.1574
G01 X35.6842 Y11.1573
G00 Z2.0000
G00 X83.9442 Y11.1573
G01 F60.00
G01 Z-1.8000
G01 F120.00
G01 X83.9246 Y11.1577
G01 X83.9050 Y11.1592
G01 X83.8855 Y11.1616
G01 X83.8661 Y11.1650
G01 X83.8375 Y11.1718
G01 X83.8187 Y11.1775
G01 X83.8002 Y11.1841
G01 X83.7821 Y11.1916
G01 X83.7643 Y11.2000
G01 X83.7470 Y11.2092
G01 X83.7301 Y11.2193
G01 X83.7138 Y11.2302
G01 X83.6980 Y11.2419
G01 X83.6829 Y11.2544
G01 X83.6683 Y11.2676
G01 X83.6544 Y11.2815
G01 X83.6412 Y11.2960
G01 X83.6288 Y11.3112
G01 X83.6171 Y11.3270
G01 X83.6062 Y11.3433
G01 X83.5961 Y11.3602
G01 X83.5868 Y11.3775
G01 X83.5784 Y11.3952
G01 X83.5709 Y11.4134
G01 X83.5643 Y11.4319
G01 X83.5586 Y11.4507
G01 X83.5538 Y11.4697
G01 X83.5500 Y11.4890
G01 X83.5471 Y11.5084
G01 X83.5452 Y11.5279
G01 X83.5442 Y11.5475
G01 X83.5442 Y11.5672
G01 X83.5452 Y11.5868
G01 X83.5471 Y11.6063
G01 X83.5500 Y11.6258
G01 X83.5538 Y11.6450
G01 X83.5586 Y11.6641
G01 X83.5643 Y11.6829
G01 X83.5709 Y11.7014
G01 X83.5784 Y11.7195
G01 X83.5868 Y11.7373
G01 X83.5961 Y11.7546
G01 X83.6062 Y11.7714
G01 X83.6171 Y11.7877
G01 X83.6288 Y11.8035
G01 X83.6412 Y11.8187
G01 X83.6544 Y11.8332
G01 X83.6683 Y11.8471
G01 X83.6829 Y11.8603
G01 X83.6980 Y11.8728
G01 X83.7138 Y11.8845
G01 X83.7301 Y11.8954
G01 X83.7470 Y11.9055
G01 X83.7643 Y11.9147
G01 X83.7821 Y11.9231
G01 X83.8002 Y11.9307
G01 X83.8187 Y11.9373
G01 X83.8375 Y11.9430
G01 X83.8565 Y11.9477
G01 X83.8758 Y11.9516
G01 X83.8952 Y11.9545
G01 X83.9148 Y11.9564
G01 X83.9344 Y11.9573
G01 X83.9600 Y11.9573
G01 X83.9796 Y11.9564
G01 X83.9992 Y11.9545
G01 X84.0186 Y11.9516
G01 X84.0379 Y11.9477
G01 X84.0569 Y11.9430
G01 X84.0757 Y11.9373
G01 X84.0942 Y11.9307
G01 X84.1123 Y11.9231
G01 X84.1301 Y11.9147
G01 X84.1474 Y11.9055
G01 X84.1642 Y11.8954
G01 X84.1806 Y11.8845
G01 X84.1963 Y11.8728
G01 X84.2115 Y11.8603
G01 X84.2261 Y11.8471
G01 X84.2400 Y11.8332
G01 X84.2531 Y11.8187
G01 X84.2656 Y11.8035
G01 X84.2773 Y11.7877
G01 X84.2882 Y11.7714
G01 X84.2983 Y11.7546
G01 X84.3076 Y11.7373
G01 X84.3160 Y11.7195
G01 X84.3235 Y11.7014
G01 X84.3301 Y11.6829
G01 X84.3358 Y11.6641
G01 X84.3406 Y11.6450
G01 X84.3444 Y11.6258
G01 X84.3473 Y11.6063
G01 X84.3492 Y11.5868
G01 X84.3502 Y11.5672
G01 X84.3502 Y11.5475
G01 X84.3492 Y11.5279
G01 X84.3473 Y11.5084
G01 X84.3444 Y11.4890
G01 X84.3406 Y11.4697
G01 X84.3358 Y11.4507
G01 X84.3301 Y11.4319
G01 X84.3235 Y11.4134
G01 X84.3160 Y11.3952
G01 X84.3076 Y11.3775
G01 X84.2983 Y11.3602
G01 X84.2882 Y11.3433
G01 X84.2773 Y11.3270
G01 X84.2656 Y11.3112
G01 X84.2531 Y11.2960
G01 X84.2400 Y11.2815
G01 X84.2261 Y11.2676
G01 X84.2115 Y11.2544
G01 X84.1963 Y11.2419
G01 X84.1806 Y11.2302
G01 X84.1642 Y11.2193
G01 X84.1474 Y11.2092
G01 X84.1301 Y11.2000
G01 X84.1123 Y11.1916
G01 X84.0942 Y11.1841
G01 X84.0757 Y11.1775
G01 X84.0569 Y11.1718
G01 X84.0379 Y11.1670
G01 X84.0186 Y11.1632
G01 X83.9992 Y11.1603
G01 X83.9796 Y11.1583
G01 X83.9600 Y11.1574
G01 X83.9442 Y11.1573
G00 Z2.0000
G00 X83.9442 Y83.5473
G01 F60.00
G01 Z-1.8000
G01 F120.00
G01 X83.9246 Y83.5477
G01 X83.9050 Y83.5492
G01 X83.8855 Y83.5516
G01 X83.8661 Y83.5550
G01 X83.8375 Y83.5618
G01 X83.8187 Y83.5675
G01 X83.8002 Y83.5741
G01 X83.7821 Y83.5816
G01 X83.7643 Y83.5900
G01 X83.7470 Y83.5992
G01 X83.7301 Y83.6093
G01 X83.7138 Y83.6202
G01 X83.6980 Y83.6319
G01 X83.6829 Y83.6444
G01 X83.6683 Y83.6576
G01 X83.6544 Y83.6715
G01 X83.6412 Y83.6860
G01 X83.6288 Y83.7012
G01 X83.6171 Y83.7170
G01 X83.6062 Y83.7333
G01 X83.5961 Y83.7502
G01 X83.5868 Y83.7675
G01 X83.5784 Y83.7852
G01 X83.5709 Y83.8034
G01 X83.5643 Y83.8219
G01 X83.5586 Y83.8407
G01 X83.5538 Y83.8597
G01 X83.5500 Y83.8790
G01 X83.5471 Y83.8984
G01 X83.5452 Y83.9179
G01 X83.5442 Y83.9375
G01 X83.5442 Y83.9572
G01 X83.5452 Y83.9768
G01 X83.5471 Y83.9963
G01 X83.5500 Y84.0158
G01 X83.5538 Y84.0350
G01 X83.5586 Y84.0541
G01 X83.5643 Y84.0729
G01 X83.5709 Y84.0914
G01 X83.5784 Y84.1095
G01 X83.5868 Y84.1273
G01 X83.5961 Y84.1446
G01 X83.6062 Y84.1614
G01 X83.6171 Y84.1777
G01 X83.6288 Y84.1935
G01 X83.6412 Y84.2087
G01 X83.6544 Y84.2232
G01 X83.6683 Y84.2371
G01 X83.6829 Y84.2503
G01 X83.6980 Y84.2628
G01 X83.7138 Y84.2745
G01 X83.7301 Y84.2854
G01 X83.7470 Y84.2955
G01 X83.7643 Y84.3047
G01 X83.7821 Y84.3131
G01 X83.8002 Y84.3207
G01 X83.8187 Y84.3273
G01 X83.8375 Y84.3330
G01 X83.8565 Y84.3377
G01 X83.8758 Y84.3416
G01 X83.8952 Y84.3445
G01 X83.9148 Y84.3464
G01 X83.9344 Y84.3473
G01 X83.9600 Y84.3473
G01 X83.9796 Y84.3464
G01 X83.9992 Y84.3445
G01 X84.0186 Y84.3416
G01 X84.0379 Y84.3377
G01 X84.0569 Y84.3330
G01 X84.0757 Y84.3273
G01 X84.0942 Y84.3207
G01 X84.1123 Y84.3131
G01 X84.1301 Y84.3047
G01 X84.1474 Y84.2955
G01 X84.1642 Y84.2854
G01 X84.1806 Y84.2745
G01 X84.1963 Y84.2628
G01 X84.2115 Y84.2503
G01 X84.2261 Y84.2371
G01 X84.2400 Y84.2232
G01 X84.2531 Y84.2087
G01 X84.2656 Y84.1935
G01 X84.2773 Y84.1777
G01 X84.2882 Y84.1614
G01 X84.2983 Y84.1446
G01 X84.3076 Y84.1273
G01 X84.3160 Y84.1095
G01 X84.3235 Y84.0914
G01 X84.3301 Y84.0729
G01 X84.3358 Y84.0541
G01 X84.3406 Y84.0350
G01 X84.3444 Y84.0158
G01 X84.3473 Y83.9963
G01 X84.3492 Y83.9768
G01 X84.3502 Y83.9572
G01 X84.3502 Y83.9375
G01 X84.3492 Y83.9179
G01 X84.3473 Y83.8984
G01 X84.3444 Y83.8790
G01 X84.3406 Y83.8597
G01 X84.3358 Y83.8407
G01 X84.3301 Y83.8219
G01 X84.3235 Y83.8034
G01 X84.3160 Y83.7852
G01 X84.3076 Y83.7675
G01 X84.2983 Y83.7502
G01 X84.2882 Y83.7333
G01 X84.2773 Y83.7170
G01 X84.2656 Y83.7012
G01 X84.2531 Y83.6860
G01 X84.2400 Y83.6715
G01 X84.2261 Y83.6576
G01 X84.2115 Y83.6444
G01 X84.1963 Y83.6319
G01 X84.1806 Y83.6202
G01 X84.1642 Y83.6093
G01 X84.1474 Y83.5992
G01 X84.1301 Y83.5900
G01 X84.1123 Y83.5816
G01 X84.0942 Y83.5741
G01 X84.0757 Y83.5675
G01 X84.0569 Y83.5618
G01 X84.0379 Y83.5570
G01 X84.0186 Y83.5532
G01 X83.9992 Y83.5503
G01 X83.9796 Y83.5483
G01 X83.9600 Y83.5474
G01 X83.9442 Y83.5473
G00 Z2.0000
G00 X35.6842 Y83.5473
G01 F60.00
G01 Z-1.8000
G01 F120.00
G01 X35.6646 Y83.5477
G01 X35.6450 Y83.5492
G01 X35.6255 Y83.5516
G01 X35.6061 Y83.5550
G01 X35.5775 Y83.5618
G01 X35.5587 Y83.5675
G01 X35.5402 Y83.5741
G01 X35.5221 Y83.5816
G01 X35.5043 Y83.5900
G01 X35.4870 Y83.5992
G01 X35.4701 Y83.6093
G01 X35.4538 Y83.6202
G01 X35.4380 Y83.6319
G01 X35.4229 Y83.6444
G01 X35.4083 Y83.6576
G01 X35.3944 Y83.6715
G01 X35.3812 Y83.6860
G01 X35.3688 Y83.7012
G01 X35.3571 Y83.7170
G01 X35.3462 Y83.7333
G01 X35.3361 Y83.7502
G01 X35.3268 Y83.7675
G01 X35.3184 Y83.7852
G01 X35.3109 Y83.8034
G01 X35.3043 Y83.8219
G01 X35.2986 Y83.8407
G01 X35.2938 Y83.8597
G01 X35.2900 Y83.8790
G01 X35.2871 Y83.8984
G01 X35.2852 Y83.9179
G01 X35.2842 Y83.9375
G01 X35.2842 Y83.9572
G01 X35.2852 Y83.9768
G01 X35.2871 Y83.9963
G01 X35.2900 Y84.0158
G01 X35.2938 Y84.0350
G01 X35.2986 Y84.0541
G01 X35.3043 Y84.0729
G01 X35.3109 Y84.0914
G01 X35.3184 Y84.1095
G01 X35.3268 Y84.1273
G01 X35.3361 Y84.1446
G01 X35.3462 Y84.1614
G01 X35.3571 Y84.1777
G01 X35.3688 Y84.1935
G01 X35.3812 Y84.2087
G01 X35.3944 Y84.2232
G01 X35.4083 Y84.2371
G01 X35.4229 Y84.2503
G01 X35.4380 Y84.2628
G01 X35.4538 Y84.2745
G01 X35.4701 Y84.2854
G01 X35.4870 Y84.2955
G01 X35.5043 Y84.3047
G01 X35.5221 Y84.3131
G01 X35.5402 Y84.3207
G01 X35.5587 Y84.3273
G01 X35.5775 Y84.3330
G01 X35.5965 Y84.3377
G01 X35.6158 Y84.3416
G01 X35.6352 Y84.3445
G01 X35.6548 Y84.3464
G01 X35.6744 Y84.3473
G01 X35.7000 Y84.3473
G01 X35.7196 Y84.3464
G01 X35.7392 Y84.3445
G01 X35.7586 Y84.3416
G01 X35.7779 Y84.3377
G01 X35.7969 Y84.3330
G01 X35.8157 Y84.3273
G01 X35.8342 Y84.3207
G01 X35.8523 Y84.3131
G01 X35.8701 Y84.3047
G01 X35.8874 Y84.2955
G01 X35.9042 Y84.2854
G01 X35.9206 Y84.2745
G01 X35.9363 Y84.2628
G01 X35.9515 Y84.2503
G01 X35.9661 Y84.2371
G01 X35.9800 Y84.2232
G01 X35.9931 Y84.2087
G01 X36.0056 Y84.1935
G01 X36.0173 Y84.1777
G01 X36.0282 Y84.1614
G01 X36.0383 Y84.1446
G01 X36.0476 Y84.1273
G01 X36.0560 Y84.1095
G01 X36.0635 Y84.0914
G01 X36.0701 Y84.0729
G01 X36.0758 Y84.0541
G01 X36.0806 Y84.0350
G01 X36.0844 Y84.0158
G01 X36.0873 Y83.9963
G01 X36.0892 Y83.9768
G01 X36.0902 Y83.9572
G01 X36.0902 Y83.9375
G01 X36.0892 Y83.9179
G01 X36.0873 Y83.8984
G01 X36.0844 Y83.8790
G01 X36.0806 Y83.8597
G01 X36.0758 Y83.8407
G01 X36.0701 Y83.8219
G01 X36.0635 Y83.8034
G01 X36.0560 Y83.7852
G01 X36.0476 Y83.7675
G01 X36.0383 Y83.7502
G01 X36.0282 Y83.7333
G01 X36.0173 Y83.7170
G01 X36.0056 Y83.7012
G01 X35.9931 Y83.6860
G01 X35.9800 Y83.6715
G01 X35.9661 Y83.6576
G01 X35.9515 Y83.6444
G01 X35.9363 Y83.6319
G01 X35.9206 Y83.6202
G01 X35.9042 Y83.6093
G01 X35.8874 Y83.5992
G01 X35.8701 Y83.5900
G01 X35.8523 Y83.5816
G01 X35.8342 Y83.5741
G01 X35.8157 Y83.5675
G01 X35.7969 Y83.5618
G01 X35.7779 Y83.5570
G01 X35.7586 Y83.5532
G01 X35.7392 Y83.5503
G01 X35.7196 Y83.5483
G01 X35.7000 Y83.5474
G01 X35.6842 Y83.5473
G00 Z2.0000
M05
G00 Z2.0000
G00 Z15.00

