(G-CODE GENERATED BY FLATCAM v8.993 - www.flatcam.org - Version Date: 2020/06/05)

(Name: Slot_0.8)
(Type: G-code from Geometry)
(Units: MM)

(Created on Thursday, 27 May 2021 at 14:25)

(This preprocessor is the default preprocessor used by FlatCAM.)
(It is made to work with MACH3 compatible motion controllers.)

(TOOL DIAMETER: 1.0 mm)
(Feedrate_XY: 120.0 mm/min)
(Feedrate_Z: 60.0 mm/min)
(Feedrate rapids 1500.0 mm/min)

(Z_Cut: -1.8 mm)
(Z_Move: 2.0 mm)
(Z Start: None mm)
(Z End: 15.0 mm)
(Steps per circle: 64)
(Preprocessor Geometry: default)

(X range:  118.7201 ...  118.7703  mm)
(Y range:   38.8623 ...   60.8335  mm)

(Spindle Speed: None RPM)
G21
G90
G94



G01 F120.00
G00 Z2.0000

M03
G00 X118.7202 Y38.8623
G01 F60.00
G01 Z-1.8000
G01 F120.00
G01 X118.7202 Y38.8625
G01 X118.7703 Y38.8624
G01 X118.7702 Y38.8623
G01 X118.7202 Y38.8623
G00 Z2.0000
G00 X118.7202 Y47.1173
G01 F60.00
G01 Z-1.8000
G01 F120.00
G01 X118.7202 Y47.1175
G01 X118.7703 Y47.1174
G01 X118.7702 Y47.1173
G01 X118.7202 Y47.1173
G00 Z2.0000
G00 X118.7202 Y52.5783
G01 F60.00
G01 Z-1.8000
G01 F120.00
G01 X118.7202 Y52.5785
G01 X118.7703 Y52.5784
G01 X118.7702 Y52.5783
G01 X118.7202 Y52.5783
G00 Z2.0000
G00 X118.7202 Y60.8333
G01 F60.00
G01 Z-1.8000
G01 F120.00
G01 X118.7202 Y60.8335
G01 X118.7703 Y60.8334
G01 X118.7702 Y60.8333
G01 X118.7202 Y60.8333
G00 Z2.0000
M05
G00 Z2.0000
G00 Z15.00

