(G-CODE GENERATED BY FLATCAM v8.993 - www.flatcam.org - Version Date: 2020/06/05)

(Name: Box_2.4)
(Type: G-code from Geometry)
(Units: MM)

(Created on Monday, 22 March 2021 at 10:18)

(This preprocessor is the default preprocessor used by FlatCAM.)
(It is made to work with MACH3 compatible motion controllers.)

(TOOL DIAMETER: 2.4 mm)
(Feedrate_XY: 120.0 mm/min)
(Feedrate_Z: 60.0 mm/min)
(Feedrate rapids 1500.0 mm/min)

(Z_Cut: -2.0 mm)
(DepthPerCut: 0.6 mm <=>4 passes)
(Z_Move: 2.0 mm)
(Z Start: None mm)
(Z End: 15.0 mm)
(Steps per circle: 64)
(Preprocessor Geometry: default)

(X range:   40.0000 ...  239.4384  mm)
(Y range:   50.0000 ...  167.9050  mm)

(Spindle Speed: None RPM)
G21
G90
G94



G01 F120.00
G00 Z2.0000

M03
G00 X0.0000 Y61.2000
G01 F60.00
G01 Z-0.6000
G01 F120.00
G01 X0.0000 Y11.2000
G01 X0.0539 Y10.1022
G01 X0.2152 Y9.0150
G01 X0.4823 Y7.9488
G01 X0.8525 Y6.9139
G01 X1.3225 Y5.9204
G01 X1.8875 Y4.9776
G01 X2.5423 Y4.0948
G01 X3.2804 Y3.2804
G01 X4.0948 Y2.5423
G01 X4.9776 Y1.8875
G01 X5.9204 Y1.3225
G01 X6.9139 Y0.8525
G01 X7.9488 Y0.4823
G01 X9.0150 Y0.2152
G01 X10.1022 Y0.0539
G01 X11.2000 Y0.0000
G01 X91.2000 Y0.0000
G00 X91.2000 Y0.0000
G01 F60.00
G01 Z-1.2000
G01 F120.00
G01 X11.2000 Y0.0000
G01 X10.1022 Y0.0539
G01 X9.0150 Y0.2152
G01 X7.9488 Y0.4823
G01 X6.9139 Y0.8525
G01 X5.9204 Y1.3225
G01 X4.9776 Y1.8875
G01 X4.0948 Y2.5423
G01 X3.2804 Y3.2804
G01 X2.5423 Y4.0948
G01 X1.8875 Y4.9776
G01 X1.3225 Y5.9204
G01 X0.8525 Y6.9139
G01 X0.4823 Y7.9488
G01 X0.2152 Y9.0150
G01 X0.0539 Y10.1022
G01 X0.0000 Y11.2000
G01 X0.0000 Y61.2000
G00 X0.0000 Y61.2000
G01 F60.00
G01 Z-1.8000
G01 F120.00
G01 X0.0000 Y11.2000
G01 X0.0539 Y10.1022
G01 X0.2152 Y9.0150
G01 X0.4823 Y7.9488
G01 X0.8525 Y6.9139
G01 X1.3225 Y5.9204
G01 X1.8875 Y4.9776
G01 X2.5423 Y4.0948
G01 X3.2804 Y3.2804
G01 X4.0948 Y2.5423
G01 X4.9776 Y1.8875
G01 X5.9204 Y1.3225
G01 X6.9139 Y0.8525
G01 X7.9488 Y0.4823
G01 X9.0150 Y0.2152
G01 X10.1022 Y0.0539
G01 X11.2000 Y0.0000
G01 X91.2000 Y0.0000
G00 X91.2000 Y0.0000
G01 F60.00
G01 Z-2.0000
G01 F120.00
G01 X11.2000 Y0.0000
G01 X10.1022 Y0.0539
G01 X9.0150 Y0.2152
G01 X7.9488 Y0.4823
G01 X6.9139 Y0.8525
G01 X5.9204 Y1.3225
G01 X4.9776 Y1.8875
G01 X4.0948 Y2.5423
G01 X3.2804 Y3.2804
G01 X2.5423 Y4.0948
G01 X1.8875 Y4.9776
G01 X1.3225 Y5.9204
G01 X0.8525 Y6.9139
G01 X0.4823 Y7.9488
G01 X0.2152 Y9.0150
G01 X0.0539 Y10.1022
G01 X0.0000 Y11.2000
G01 X0.0000 Y61.2000
G00 Z2.0000
G00 X0.0000 Y71.2000
G01 F60.00
G01 Z-0.6000
G01 F120.00
G01 X0.0000 Y106.7050
G01 X0.0539 Y107.8028
G01 X0.2152 Y108.8900
G01 X0.4823 Y109.9561
G01 X0.8525 Y110.9910
G01 X1.3225 Y111.9846
G01 X1.8875 Y112.9273
G01 X2.5423 Y113.8102
G01 X3.2804 Y114.6246
G01 X4.0948 Y115.3627
G01 X4.9776 Y116.0174
G01 X5.9204 Y116.5825
G01 X6.9139 Y117.0524
G01 X7.9488 Y117.4227
G01 X9.0150 Y117.6898
G01 X10.1022 Y117.8510
G01 X11.2000 Y117.9050
G01 X91.2000 Y117.9050
G00 X91.2000 Y117.9050
G01 F60.00
G01 Z-1.2000
G01 F120.00
G01 X11.2000 Y117.9050
G01 X10.1022 Y117.8510
G01 X9.0150 Y117.6898
G01 X7.9488 Y117.4227
G01 X6.9139 Y117.0524
G01 X5.9204 Y116.5825
G01 X4.9776 Y116.0174
G01 X4.0948 Y115.3627
G01 X3.2804 Y114.6246
G01 X2.5423 Y113.8102
G01 X1.8875 Y112.9273
G01 X1.3225 Y111.9846
G01 X0.8525 Y110.9910
G01 X0.4823 Y109.9561
G01 X0.2152 Y108.8900
G01 X0.0539 Y107.8028
G01 X0.0000 Y106.7050
G01 X0.0000 Y71.2000
G00 X0.0000 Y71.2000
G01 F60.00
G01 Z-1.8000
G01 F120.00
G01 X0.0000 Y106.7050
G01 X0.0539 Y107.8028
G01 X0.2152 Y108.8900
G01 X0.4823 Y109.9561
G01 X0.8525 Y110.9910
G01 X1.3225 Y111.9846
G01 X1.8875 Y112.9273
G01 X2.5423 Y113.8102
G01 X3.2804 Y114.6246
G01 X4.0948 Y115.3627
G01 X4.9776 Y116.0174
G01 X5.9204 Y116.5825
G01 X6.9139 Y117.0524
G01 X7.9488 Y117.4227
G01 X9.0150 Y117.6898
G01 X10.1022 Y117.8510
G01 X11.2000 Y117.9050
G01 X91.2000 Y117.9050
G00 X91.2000 Y117.9050
G01 F60.00
G01 Z-2.0000
G01 F120.00
G01 X11.2000 Y117.9050
G01 X10.1022 Y117.8510
G01 X9.0150 Y117.6898
G01 X7.9488 Y117.4227
G01 X6.9139 Y117.0524
G01 X5.9204 Y116.5825
G01 X4.9776 Y116.0174
G01 X4.0948 Y115.3627
G01 X3.2804 Y114.6246
G01 X2.5423 Y113.8102
G01 X1.8875 Y112.9273
G01 X1.3225 Y111.9846
G01 X0.8525 Y110.9910
G01 X0.4823 Y109.9561
G01 X0.2152 Y108.8900
G01 X0.0539 Y107.8028
G01 X0.0000 Y106.7050
G01 X0.0000 Y71.2000
G00 Z2.0000
G00 X101.2000 Y117.9050
G01 F60.00
G01 Z-0.6000
G01 F120.00
G01 X188.2384 Y117.9050
G01 X189.3362 Y117.8510
G01 X190.4234 Y117.6898
G01 X191.4896 Y117.4227
G01 X192.5244 Y117.0524
G01 X193.5180 Y116.5825
G01 X194.4608 Y116.0174
G01 X195.3436 Y115.3627
G01 X196.1580 Y114.6246
G01 X196.8961 Y113.8102
G01 X197.5508 Y112.9273
G01 X198.1159 Y111.9846
G01 X198.5858 Y110.9910
G01 X198.9561 Y109.9561
G01 X199.2232 Y108.8900
G01 X199.3844 Y107.8028
G01 X199.4384 Y106.7050
G01 X199.4384 Y71.2000
G00 X199.4384 Y71.2000
G01 F60.00
G01 Z-1.2000
G01 F120.00
G01 X199.4384 Y106.7050
G01 X199.3844 Y107.8028
G01 X199.2232 Y108.8900
G01 X198.9561 Y109.9561
G01 X198.5858 Y110.9910
G01 X198.1159 Y111.9846
G01 X197.5508 Y112.9273
G01 X196.8961 Y113.8102
G01 X196.1580 Y114.6246
G01 X195.3436 Y115.3627
G01 X194.4608 Y116.0174
G01 X193.5180 Y116.5825
G01 X192.5244 Y117.0524
G01 X191.4896 Y117.4227
G01 X190.4234 Y117.6898
G01 X189.3362 Y117.8510
G01 X188.2384 Y117.9050
G01 X101.2000 Y117.9050
G00 X101.2000 Y117.9050
G01 F60.00
G01 Z-1.8000
G01 F120.00
G01 X188.2384 Y117.9050
G01 X189.3362 Y117.8510
G01 X190.4234 Y117.6898
G01 X191.4896 Y117.4227
G01 X192.5244 Y117.0524
G01 X193.5180 Y116.5825
G01 X194.4608 Y116.0174
G01 X195.3436 Y115.3627
G01 X196.1580 Y114.6246
G01 X196.8961 Y113.8102
G01 X197.5508 Y112.9273
G01 X198.1159 Y111.9846
G01 X198.5858 Y110.9910
G01 X198.9561 Y109.9561
G01 X199.2232 Y108.8900
G01 X199.3844 Y107.8028
G01 X199.4384 Y106.7050
G01 X199.4384 Y71.2000
G00 X199.4384 Y71.2000
G01 F60.00
G01 Z-2.0000
G01 F120.00
G01 X199.4384 Y106.7050
G01 X199.3844 Y107.8028
G01 X199.2232 Y108.8900
G01 X198.9561 Y109.9561
G01 X198.5858 Y110.9910
G01 X198.1159 Y111.9846
G01 X197.5508 Y112.9273
G01 X196.8961 Y113.8102
G01 X196.1580 Y114.6246
G01 X195.3436 Y115.3627
G01 X194.4608 Y116.0174
G01 X193.5180 Y116.5825
G01 X192.5244 Y117.0524
G01 X191.4896 Y117.4227
G01 X190.4234 Y117.6898
G01 X189.3362 Y117.8510
G01 X188.2384 Y117.9050
G01 X101.2000 Y117.9050
G00 Z2.0000
G00 X199.4384 Y61.2000
G01 F60.00
G01 Z-0.6000
G01 F120.00
G01 X199.4384 Y11.2000
G01 X199.3844 Y10.1022
G01 X199.2232 Y9.0150
G01 X198.9561 Y7.9488
G01 X198.5858 Y6.9139
G01 X198.1159 Y5.9204
G01 X197.5508 Y4.9776
G01 X196.8961 Y4.0948
G01 X196.1580 Y3.2804
G01 X195.3436 Y2.5423
G01 X194.4608 Y1.8875
G01 X193.5180 Y1.3225
G01 X192.5244 Y0.8525
G01 X191.4896 Y0.4823
G01 X190.4234 Y0.2152
G01 X189.3362 Y0.0539
G01 X188.2384 Y0.0000
G01 X101.2000 Y0.0000
G00 X101.2000 Y0.0000
G01 F60.00
G01 Z-1.2000
G01 F120.00
G01 X188.2384 Y0.0000
G01 X189.3362 Y0.0539
G01 X190.4234 Y0.2152
G01 X191.4896 Y0.4823
G01 X192.5244 Y0.8525
G01 X193.5180 Y1.3225
G01 X194.4608 Y1.8875
G01 X195.3436 Y2.5423
G01 X196.1580 Y3.2804
G01 X196.8961 Y4.0948
G01 X197.5508 Y4.9776
G01 X198.1159 Y5.9204
G01 X198.5858 Y6.9139
G01 X198.9561 Y7.9488
G01 X199.2232 Y9.0150
G01 X199.3844 Y10.1022
G01 X199.4384 Y11.2000
G01 X199.4384 Y61.2000
G00 X199.4384 Y61.2000
G01 F60.00
G01 Z-1.8000
G01 F120.00
G01 X199.4384 Y11.2000
G01 X199.3844 Y10.1022
G01 X199.2232 Y9.0150
G01 X198.9561 Y7.9488
G01 X198.5858 Y6.9139
G01 X198.1159 Y5.9204
G01 X197.5508 Y4.9776
G01 X196.8961 Y4.0948
G01 X196.1580 Y3.2804
G01 X195.3436 Y2.5423
G01 X194.4608 Y1.8875
G01 X193.5180 Y1.3225
G01 X192.5244 Y0.8525
G01 X191.4896 Y0.4823
G01 X190.4234 Y0.2152
G01 X189.3362 Y0.0539
G01 X188.2384 Y0.0000
G01 X101.2000 Y0.0000
G00 X101.2000 Y0.0000
G01 F60.00
G01 Z-2.0000
G01 F120.00
G01 X188.2384 Y0.0000
G01 X189.3362 Y0.0539
G01 X190.4234 Y0.2152
G01 X191.4896 Y0.4823
G01 X192.5244 Y0.8525
G01 X193.5180 Y1.3225
G01 X194.4608 Y1.8875
G01 X195.3436 Y2.5423
G01 X196.1580 Y3.2804
G01 X196.8961 Y4.0948
G01 X197.5508 Y4.9776
G01 X198.1159 Y5.9204
G01 X198.5858 Y6.9139
G01 X198.9561 Y7.9488
G01 X199.2232 Y9.0150
G01 X199.3844 Y10.1022
G01 X199.4384 Y11.2000
G01 X199.4384 Y61.2000
G00 Z2.0000
M05
G00 Z2.0000
G00 Z15.00

