(G-CODE GENERATED BY FLATCAM v8.993 - www.flatcam.org - Version Date: 2020/06/05)

(Name: Drills_1)
(Type: G-code from Geometry)
(Units: MM)

(Created on Monday, 22 March 2021 at 10:22)

(This preprocessor is the default preprocessor used by FlatCAM.)
(It is made to work with MACH3 compatible motion controllers.)

(TOOL DIAMETER: 1.0 mm)
(Feedrate_XY: 120.0 mm/min)
(Feedrate_Z: 60.0 mm/min)
(Feedrate rapids 1500.0 mm/min)

(Z_Cut: -1.7 mm)
(Z_Move: 2.0 mm)
(Z Start: None mm)
(Z End: 15.0 mm)
(Steps per circle: 64)
(Preprocessor Geometry: default)

(X range:   13.8227 ...  184.3965  mm)
(Y range:   14.9942 ...  102.9113  mm)

(Spindle Speed: None RPM)
G21
G90
G94



G01 F120.00
G00 Z2.0000

M03
G00 X16.5152 Y17.9318
G01 F60.00
G01 Z-1.7000
G01 F120.00
G01 X16.5147 Y17.9212
G01 X16.5131 Y17.9107
G01 X16.5105 Y17.9004
G01 X16.5070 Y17.8904
G01 X16.5024 Y17.8809
G01 X16.4970 Y17.8718
G01 X16.4907 Y17.8633
G01 X16.4836 Y17.8554
G01 X16.4757 Y17.8483
G01 X16.4672 Y17.8420
G01 X16.4581 Y17.8365
G01 X16.4485 Y17.8320
G01 X16.4385 Y17.8284
G01 X16.4283 Y17.8258
G01 X16.4178 Y17.8243
G01 X16.4072 Y17.8238
G01 X16.3966 Y17.8243
G01 X16.3861 Y17.8258
G01 X16.3758 Y17.8284
G01 X16.3659 Y17.8320
G01 X16.3563 Y17.8365
G01 X16.3472 Y17.8420
G01 X16.3387 Y17.8483
G01 X16.3308 Y17.8554
G01 X16.3237 Y17.8633
G01 X16.3174 Y17.8718
G01 X16.3119 Y17.8809
G01 X16.3074 Y17.8904
G01 X16.3038 Y17.9004
G01 X16.3013 Y17.9107
G01 X16.2997 Y17.9212
G01 X16.2992 Y17.9318
G01 X16.2997 Y17.9424
G01 X16.3013 Y17.9528
G01 X16.3038 Y17.9631
G01 X16.3074 Y17.9731
G01 X16.3119 Y17.9827
G01 X16.3174 Y17.9918
G01 X16.3237 Y18.0003
G01 X16.3308 Y18.0081
G01 X16.3387 Y18.0153
G01 X16.3472 Y18.0216
G01 X16.3563 Y18.0270
G01 X16.3659 Y18.0316
G01 X16.3758 Y18.0351
G01 X16.3861 Y18.0377
G01 X16.3966 Y18.0393
G01 X16.4072 Y18.0398
G01 X16.4178 Y18.0393
G01 X16.4283 Y18.0377
G01 X16.4385 Y18.0351
G01 X16.4485 Y18.0316
G01 X16.4581 Y18.0270
G01 X16.4672 Y18.0216
G01 X16.4757 Y18.0153
G01 X16.4836 Y18.0081
G01 X16.4907 Y18.0003
G01 X16.4970 Y17.9918
G01 X16.5024 Y17.9827
G01 X16.5070 Y17.9731
G01 X16.5105 Y17.9631
G01 X16.5131 Y17.9528
G01 X16.5147 Y17.9424
G01 X16.5152 Y17.9318
G00 Z2.0000
G00 X19.0552 Y17.9318
G01 F60.00
G01 Z-1.7000
G01 F120.00
G01 X19.0547 Y17.9212
G01 X19.0531 Y17.9107
G01 X19.0505 Y17.9004
G01 X19.0470 Y17.8904
G01 X19.0424 Y17.8809
G01 X19.0370 Y17.8718
G01 X19.0307 Y17.8633
G01 X19.0236 Y17.8554
G01 X19.0157 Y17.8483
G01 X19.0072 Y17.8420
G01 X18.9981 Y17.8365
G01 X18.9885 Y17.8320
G01 X18.9785 Y17.8284
G01 X18.9683 Y17.8258
G01 X18.9578 Y17.8243
G01 X18.9472 Y17.8238
G01 X18.9366 Y17.8243
G01 X18.9261 Y17.8258
G01 X18.9158 Y17.8284
G01 X18.9059 Y17.8320
G01 X18.8963 Y17.8365
G01 X18.8872 Y17.8420
G01 X18.8787 Y17.8483
G01 X18.8708 Y17.8554
G01 X18.8637 Y17.8633
G01 X18.8574 Y17.8718
G01 X18.8519 Y17.8809
G01 X18.8474 Y17.8904
G01 X18.8438 Y17.9004
G01 X18.8413 Y17.9107
G01 X18.8397 Y17.9212
G01 X18.8392 Y17.9318
G01 X18.8397 Y17.9424
G01 X18.8413 Y17.9528
G01 X18.8438 Y17.9631
G01 X18.8474 Y17.9731
G01 X18.8519 Y17.9827
G01 X18.8574 Y17.9918
G01 X18.8637 Y18.0003
G01 X18.8708 Y18.0081
G01 X18.8787 Y18.0153
G01 X18.8872 Y18.0216
G01 X18.8963 Y18.0270
G01 X18.9059 Y18.0316
G01 X18.9158 Y18.0351
G01 X18.9261 Y18.0377
G01 X18.9366 Y18.0393
G01 X18.9472 Y18.0398
G01 X18.9578 Y18.0393
G01 X18.9683 Y18.0377
G01 X18.9785 Y18.0351
G01 X18.9885 Y18.0316
G01 X18.9981 Y18.0270
G01 X19.0072 Y18.0216
G01 X19.0157 Y18.0153
G01 X19.0236 Y18.0081
G01 X19.0307 Y18.0003
G01 X19.0370 Y17.9918
G01 X19.0424 Y17.9827
G01 X19.0470 Y17.9731
G01 X19.0505 Y17.9631
G01 X19.0531 Y17.9528
G01 X19.0547 Y17.9424
G01 X19.0552 Y17.9318
G00 Z2.0000
G00 X21.5952 Y17.9318
G01 F60.00
G01 Z-1.7000
G01 F120.00
G01 X21.5947 Y17.9212
G01 X21.5931 Y17.9107
G01 X21.5905 Y17.9004
G01 X21.5870 Y17.8904
G01 X21.5824 Y17.8809
G01 X21.5770 Y17.8718
G01 X21.5707 Y17.8633
G01 X21.5636 Y17.8554
G01 X21.5557 Y17.8483
G01 X21.5472 Y17.8420
G01 X21.5381 Y17.8365
G01 X21.5285 Y17.8320
G01 X21.5185 Y17.8284
G01 X21.5083 Y17.8258
G01 X21.4978 Y17.8243
G01 X21.4872 Y17.8238
G01 X21.4766 Y17.8243
G01 X21.4661 Y17.8258
G01 X21.4558 Y17.8284
G01 X21.4459 Y17.8320
G01 X21.4363 Y17.8365
G01 X21.4272 Y17.8420
G01 X21.4187 Y17.8483
G01 X21.4108 Y17.8554
G01 X21.4037 Y17.8633
G01 X21.3974 Y17.8718
G01 X21.3919 Y17.8809
G01 X21.3874 Y17.8904
G01 X21.3838 Y17.9004
G01 X21.3813 Y17.9107
G01 X21.3797 Y17.9212
G01 X21.3792 Y17.9318
G01 X21.3797 Y17.9424
G01 X21.3813 Y17.9528
G01 X21.3838 Y17.9631
G01 X21.3874 Y17.9731
G01 X21.3919 Y17.9827
G01 X21.3974 Y17.9918
G01 X21.4037 Y18.0003
G01 X21.4108 Y18.0081
G01 X21.4187 Y18.0153
G01 X21.4272 Y18.0216
G01 X21.4363 Y18.0270
G01 X21.4459 Y18.0316
G01 X21.4558 Y18.0351
G01 X21.4661 Y18.0377
G01 X21.4766 Y18.0393
G01 X21.4872 Y18.0398
G01 X21.4978 Y18.0393
G01 X21.5083 Y18.0377
G01 X21.5185 Y18.0351
G01 X21.5285 Y18.0316
G01 X21.5381 Y18.0270
G01 X21.5472 Y18.0216
G01 X21.5557 Y18.0153
G01 X21.5636 Y18.0081
G01 X21.5707 Y18.0003
G01 X21.5770 Y17.9918
G01 X21.5824 Y17.9827
G01 X21.5870 Y17.9731
G01 X21.5905 Y17.9631
G01 X21.5931 Y17.9528
G01 X21.5947 Y17.9424
G01 X21.5952 Y17.9318
G00 Z2.0000
G00 X21.5952 Y23.5198
G01 F60.00
G01 Z-1.7000
G01 F120.00
G01 X21.5947 Y23.5092
G01 X21.5931 Y23.4987
G01 X21.5905 Y23.4884
G01 X21.5870 Y23.4784
G01 X21.5824 Y23.4689
G01 X21.5770 Y23.4598
G01 X21.5707 Y23.4513
G01 X21.5636 Y23.4434
G01 X21.5557 Y23.4363
G01 X21.5472 Y23.4300
G01 X21.5381 Y23.4245
G01 X21.5285 Y23.4200
G01 X21.5185 Y23.4164
G01 X21.5083 Y23.4138
G01 X21.4978 Y23.4123
G01 X21.4872 Y23.4118
G01 X21.4766 Y23.4123
G01 X21.4661 Y23.4138
G01 X21.4558 Y23.4164
G01 X21.4459 Y23.4200
G01 X21.4363 Y23.4245
G01 X21.4272 Y23.4300
G01 X21.4187 Y23.4363
G01 X21.4108 Y23.4434
G01 X21.4037 Y23.4513
G01 X21.3974 Y23.4598
G01 X21.3919 Y23.4689
G01 X21.3874 Y23.4784
G01 X21.3838 Y23.4884
G01 X21.3813 Y23.4987
G01 X21.3797 Y23.5092
G01 X21.3792 Y23.5198
G01 X21.3797 Y23.5304
G01 X21.3813 Y23.5408
G01 X21.3838 Y23.5511
G01 X21.3874 Y23.5611
G01 X21.3919 Y23.5707
G01 X21.3974 Y23.5798
G01 X21.4037 Y23.5883
G01 X21.4108 Y23.5961
G01 X21.4187 Y23.6033
G01 X21.4272 Y23.6096
G01 X21.4363 Y23.6150
G01 X21.4459 Y23.6196
G01 X21.4558 Y23.6231
G01 X21.4661 Y23.6257
G01 X21.4766 Y23.6273
G01 X21.4872 Y23.6278
G01 X21.4978 Y23.6273
G01 X21.5083 Y23.6257
G01 X21.5185 Y23.6231
G01 X21.5285 Y23.6196
G01 X21.5381 Y23.6150
G01 X21.5472 Y23.6096
G01 X21.5557 Y23.6033
G01 X21.5636 Y23.5961
G01 X21.5707 Y23.5883
G01 X21.5770 Y23.5798
G01 X21.5824 Y23.5707
G01 X21.5870 Y23.5611
G01 X21.5905 Y23.5511
G01 X21.5931 Y23.5408
G01 X21.5947 Y23.5304
G01 X21.5952 Y23.5198
G00 Z2.0000
G00 X16.5152 Y23.5198
G01 F60.00
G01 Z-1.7000
G01 F120.00
G01 X16.5147 Y23.5092
G01 X16.5131 Y23.4987
G01 X16.5105 Y23.4884
G01 X16.5070 Y23.4784
G01 X16.5024 Y23.4689
G01 X16.4970 Y23.4598
G01 X16.4907 Y23.4513
G01 X16.4836 Y23.4434
G01 X16.4757 Y23.4363
G01 X16.4672 Y23.4300
G01 X16.4581 Y23.4245
G01 X16.4485 Y23.4200
G01 X16.4385 Y23.4164
G01 X16.4283 Y23.4138
G01 X16.4178 Y23.4123
G01 X16.4072 Y23.4118
G01 X16.3966 Y23.4123
G01 X16.3861 Y23.4138
G01 X16.3758 Y23.4164
G01 X16.3659 Y23.4200
G01 X16.3563 Y23.4245
G01 X16.3472 Y23.4300
G01 X16.3387 Y23.4363
G01 X16.3308 Y23.4434
G01 X16.3237 Y23.4513
G01 X16.3174 Y23.4598
G01 X16.3119 Y23.4689
G01 X16.3074 Y23.4784
G01 X16.3038 Y23.4884
G01 X16.3013 Y23.4987
G01 X16.2997 Y23.5092
G01 X16.2992 Y23.5198
G01 X16.2997 Y23.5304
G01 X16.3013 Y23.5408
G01 X16.3038 Y23.5511
G01 X16.3074 Y23.5611
G01 X16.3119 Y23.5707
G01 X16.3174 Y23.5798
G01 X16.3237 Y23.5883
G01 X16.3308 Y23.5961
G01 X16.3387 Y23.6033
G01 X16.3472 Y23.6096
G01 X16.3563 Y23.6150
G01 X16.3659 Y23.6196
G01 X16.3758 Y23.6231
G01 X16.3861 Y23.6257
G01 X16.3966 Y23.6273
G01 X16.4072 Y23.6278
G01 X16.4178 Y23.6273
G01 X16.4283 Y23.6257
G01 X16.4385 Y23.6231
G01 X16.4485 Y23.6196
G01 X16.4581 Y23.6150
G01 X16.4672 Y23.6096
G01 X16.4757 Y23.6033
G01 X16.4836 Y23.5961
G01 X16.4907 Y23.5883
G01 X16.4970 Y23.5798
G01 X16.5024 Y23.5707
G01 X16.5070 Y23.5611
G01 X16.5105 Y23.5511
G01 X16.5131 Y23.5408
G01 X16.5147 Y23.5304
G01 X16.5152 Y23.5198
G00 Z2.0000
G00 X16.4517 Y33.2988
G01 F60.00
G01 Z-1.7000
G01 F120.00
G01 X16.4508 Y33.2901
G01 X16.4483 Y33.2817
G01 X16.4442 Y33.2740
G01 X16.4387 Y33.2673
G01 X16.4319 Y33.2618
G01 X16.4242 Y33.2577
G01 X16.4159 Y33.2551
G01 X16.4072 Y33.2543
G01 X16.3985 Y33.2551
G01 X16.3902 Y33.2577
G01 X16.3825 Y33.2618
G01 X16.3757 Y33.2673
G01 X16.3702 Y33.2740
G01 X16.3661 Y33.2817
G01 X16.3635 Y33.2901
G01 X16.3627 Y33.2988
G01 X16.3635 Y33.3075
G01 X16.3661 Y33.3158
G01 X16.3702 Y33.3235
G01 X16.3757 Y33.3302
G01 X16.3825 Y33.3358
G01 X16.3902 Y33.3399
G01 X16.3985 Y33.3424
G01 X16.4072 Y33.3433
G01 X16.4159 Y33.3424
G01 X16.4242 Y33.3399
G01 X16.4319 Y33.3358
G01 X16.4387 Y33.3302
G01 X16.4442 Y33.3235
G01 X16.4483 Y33.3158
G01 X16.4508 Y33.3075
G01 X16.4517 Y33.2988
G00 Z2.0000
G00 X13.9117 Y33.2988
G01 F60.00
G01 Z-1.7000
G01 F120.00
G01 X13.9108 Y33.2901
G01 X13.9083 Y33.2817
G01 X13.9042 Y33.2740
G01 X13.8987 Y33.2673
G01 X13.8919 Y33.2618
G01 X13.8842 Y33.2577
G01 X13.8759 Y33.2551
G01 X13.8672 Y33.2543
G01 X13.8585 Y33.2551
G01 X13.8502 Y33.2577
G01 X13.8425 Y33.2618
G01 X13.8357 Y33.2673
G01 X13.8302 Y33.2740
G01 X13.8261 Y33.2817
G01 X13.8235 Y33.2901
G01 X13.8227 Y33.2988
G01 X13.8235 Y33.3075
G01 X13.8261 Y33.3158
G01 X13.8302 Y33.3235
G01 X13.8357 Y33.3302
G01 X13.8425 Y33.3358
G01 X13.8502 Y33.3399
G01 X13.8585 Y33.3424
G01 X13.8672 Y33.3433
G01 X13.8759 Y33.3424
G01 X13.8842 Y33.3399
G01 X13.8919 Y33.3358
G01 X13.8987 Y33.3302
G01 X13.9042 Y33.3235
G01 X13.9083 Y33.3158
G01 X13.9108 Y33.3075
G01 X13.9117 Y33.2988
G00 Z2.0000
G00 X18.9917 Y33.2988
G01 F60.00
G01 Z-1.7000
G01 F120.00
G01 X18.9908 Y33.2901
G01 X18.9883 Y33.2817
G01 X18.9842 Y33.2740
G01 X18.9787 Y33.2673
G01 X18.9719 Y33.2618
G01 X18.9642 Y33.2577
G01 X18.9559 Y33.2551
G01 X18.9472 Y33.2543
G01 X18.9385 Y33.2551
G01 X18.9302 Y33.2577
G01 X18.9225 Y33.2618
G01 X18.9157 Y33.2673
G01 X18.9102 Y33.2740
G01 X18.9061 Y33.2817
G01 X18.9035 Y33.2901
G01 X18.9027 Y33.2988
G01 X18.9035 Y33.3075
G01 X18.9061 Y33.3158
G01 X18.9102 Y33.3235
G01 X18.9157 Y33.3302
G01 X18.9225 Y33.3358
G01 X18.9302 Y33.3399
G01 X18.9385 Y33.3424
G01 X18.9472 Y33.3433
G01 X18.9559 Y33.3424
G01 X18.9642 Y33.3399
G01 X18.9719 Y33.3358
G01 X18.9787 Y33.3302
G01 X18.9842 Y33.3235
G01 X18.9883 Y33.3158
G01 X18.9908 Y33.3075
G01 X18.9917 Y33.2988
G00 Z2.0000
G00 X21.5317 Y33.2988
G01 F60.00
G01 Z-1.7000
G01 F120.00
G01 X21.5308 Y33.2901
G01 X21.5283 Y33.2817
G01 X21.5242 Y33.2740
G01 X21.5187 Y33.2673
G01 X21.5119 Y33.2618
G01 X21.5042 Y33.2577
G01 X21.4959 Y33.2551
G01 X21.4872 Y33.2543
G01 X21.4785 Y33.2551
G01 X21.4702 Y33.2577
G01 X21.4625 Y33.2618
G01 X21.4557 Y33.2673
G01 X21.4502 Y33.2740
G01 X21.4461 Y33.2817
G01 X21.4435 Y33.2901
G01 X21.4427 Y33.2988
G01 X21.4435 Y33.3075
G01 X21.4461 Y33.3158
G01 X21.4502 Y33.3235
G01 X21.4557 Y33.3302
G01 X21.4625 Y33.3358
G01 X21.4702 Y33.3399
G01 X21.4785 Y33.3424
G01 X21.4872 Y33.3433
G01 X21.4959 Y33.3424
G01 X21.5042 Y33.3399
G01 X21.5119 Y33.3358
G01 X21.5187 Y33.3302
G01 X21.5242 Y33.3235
G01 X21.5283 Y33.3158
G01 X21.5308 Y33.3075
G01 X21.5317 Y33.2988
G00 Z2.0000
G00 X24.0717 Y33.2988
G01 F60.00
G01 Z-1.7000
G01 F120.00
G01 X24.0708 Y33.2901
G01 X24.0683 Y33.2817
G01 X24.0642 Y33.2740
G01 X24.0587 Y33.2673
G01 X24.0519 Y33.2618
G01 X24.0442 Y33.2577
G01 X24.0359 Y33.2551
G01 X24.0272 Y33.2543
G01 X24.0185 Y33.2551
G01 X24.0102 Y33.2577
G01 X24.0025 Y33.2618
G01 X23.9957 Y33.2673
G01 X23.9902 Y33.2740
G01 X23.9861 Y33.2817
G01 X23.9835 Y33.2901
G01 X23.9827 Y33.2988
G01 X23.9835 Y33.3075
G01 X23.9861 Y33.3158
G01 X23.9902 Y33.3235
G01 X23.9957 Y33.3302
G01 X24.0025 Y33.3358
G01 X24.0102 Y33.3399
G01 X24.0185 Y33.3424
G01 X24.0272 Y33.3433
G01 X24.0359 Y33.3424
G01 X24.0442 Y33.3399
G01 X24.0519 Y33.3358
G01 X24.0587 Y33.3302
G01 X24.0642 Y33.3235
G01 X24.0683 Y33.3158
G01 X24.0708 Y33.3075
G01 X24.0717 Y33.2988
G00 Z2.0000
G00 X26.6117 Y33.2988
G01 F60.00
G01 Z-1.7000
G01 F120.00
G01 X26.6108 Y33.2901
G01 X26.6083 Y33.2817
G01 X26.6042 Y33.2740
G01 X26.5987 Y33.2673
G01 X26.5919 Y33.2618
G01 X26.5842 Y33.2577
G01 X26.5759 Y33.2551
G01 X26.5672 Y33.2543
G01 X26.5585 Y33.2551
G01 X26.5502 Y33.2577
G01 X26.5425 Y33.2618
G01 X26.5357 Y33.2673
G01 X26.5302 Y33.2740
G01 X26.5261 Y33.2817
G01 X26.5235 Y33.2901
G01 X26.5227 Y33.2988
G01 X26.5235 Y33.3075
G01 X26.5261 Y33.3158
G01 X26.5302 Y33.3235
G01 X26.5357 Y33.3302
G01 X26.5425 Y33.3358
G01 X26.5502 Y33.3399
G01 X26.5585 Y33.3424
G01 X26.5672 Y33.3433
G01 X26.5759 Y33.3424
G01 X26.5842 Y33.3399
G01 X26.5919 Y33.3358
G01 X26.5987 Y33.3302
G01 X26.6042 Y33.3235
G01 X26.6083 Y33.3158
G01 X26.6108 Y33.3075
G01 X26.6117 Y33.2988
G00 Z2.0000
G00 X29.1517 Y33.2988
G01 F60.00
G01 Z-1.7000
G01 F120.00
G01 X29.1508 Y33.2901
G01 X29.1483 Y33.2817
G01 X29.1442 Y33.2740
G01 X29.1387 Y33.2673
G01 X29.1319 Y33.2618
G01 X29.1242 Y33.2577
G01 X29.1159 Y33.2551
G01 X29.1072 Y33.2543
G01 X29.0985 Y33.2551
G01 X29.0902 Y33.2577
G01 X29.0825 Y33.2618
G01 X29.0757 Y33.2673
G01 X29.0702 Y33.2740
G01 X29.0661 Y33.2817
G01 X29.0635 Y33.2901
G01 X29.0627 Y33.2988
G01 X29.0635 Y33.3075
G01 X29.0661 Y33.3158
G01 X29.0702 Y33.3235
G01 X29.0757 Y33.3302
G01 X29.0825 Y33.3358
G01 X29.0902 Y33.3399
G01 X29.0985 Y33.3424
G01 X29.1072 Y33.3433
G01 X29.1159 Y33.3424
G01 X29.1242 Y33.3399
G01 X29.1319 Y33.3358
G01 X29.1387 Y33.3302
G01 X29.1442 Y33.3235
G01 X29.1483 Y33.3158
G01 X29.1508 Y33.3075
G01 X29.1517 Y33.2988
G00 Z2.0000
G00 X31.6917 Y33.2988
G01 F60.00
G01 Z-1.7000
G01 F120.00
G01 X31.6908 Y33.2901
G01 X31.6883 Y33.2817
G01 X31.6842 Y33.2740
G01 X31.6787 Y33.2673
G01 X31.6719 Y33.2618
G01 X31.6642 Y33.2577
G01 X31.6559 Y33.2551
G01 X31.6472 Y33.2543
G01 X31.6385 Y33.2551
G01 X31.6302 Y33.2577
G01 X31.6225 Y33.2618
G01 X31.6157 Y33.2673
G01 X31.6102 Y33.2740
G01 X31.6061 Y33.2817
G01 X31.6035 Y33.2901
G01 X31.6027 Y33.2988
G01 X31.6035 Y33.3075
G01 X31.6061 Y33.3158
G01 X31.6102 Y33.3235
G01 X31.6157 Y33.3302
G01 X31.6225 Y33.3358
G01 X31.6302 Y33.3399
G01 X31.6385 Y33.3424
G01 X31.6472 Y33.3433
G01 X31.6559 Y33.3424
G01 X31.6642 Y33.3399
G01 X31.6719 Y33.3358
G01 X31.6787 Y33.3302
G01 X31.6842 Y33.3235
G01 X31.6883 Y33.3158
G01 X31.6908 Y33.3075
G01 X31.6917 Y33.2988
G00 Z2.0000
G00 X34.2317 Y33.2988
G01 F60.00
G01 Z-1.7000
G01 F120.00
G01 X34.2308 Y33.2901
G01 X34.2283 Y33.2817
G01 X34.2242 Y33.2740
G01 X34.2187 Y33.2673
G01 X34.2119 Y33.2618
G01 X34.2042 Y33.2577
G01 X34.1959 Y33.2551
G01 X34.1872 Y33.2543
G01 X34.1785 Y33.2551
G01 X34.1702 Y33.2577
G01 X34.1625 Y33.2618
G01 X34.1557 Y33.2673
G01 X34.1502 Y33.2740
G01 X34.1461 Y33.2817
G01 X34.1435 Y33.2901
G01 X34.1427 Y33.2988
G01 X34.1435 Y33.3075
G01 X34.1461 Y33.3158
G01 X34.1502 Y33.3235
G01 X34.1557 Y33.3302
G01 X34.1625 Y33.3358
G01 X34.1702 Y33.3399
G01 X34.1785 Y33.3424
G01 X34.1872 Y33.3433
G01 X34.1959 Y33.3424
G01 X34.2042 Y33.3399
G01 X34.2119 Y33.3358
G01 X34.2187 Y33.3302
G01 X34.2242 Y33.3235
G01 X34.2283 Y33.3158
G01 X34.2308 Y33.3075
G01 X34.2317 Y33.2988
G00 Z2.0000
G00 X39.5657 Y33.1718
G01 F60.00
G01 Z-1.7000
G01 F120.00
G01 X39.5648 Y33.1631
G01 X39.5623 Y33.1547
G01 X39.5582 Y33.1470
G01 X39.5527 Y33.1403
G01 X39.5459 Y33.1348
G01 X39.5382 Y33.1307
G01 X39.5299 Y33.1281
G01 X39.5212 Y33.1273
G01 X39.5125 Y33.1281
G01 X39.5042 Y33.1307
G01 X39.4965 Y33.1348
G01 X39.4897 Y33.1403
G01 X39.4842 Y33.1470
G01 X39.4801 Y33.1547
G01 X39.4775 Y33.1631
G01 X39.4767 Y33.1718
G01 X39.4775 Y33.1805
G01 X39.4801 Y33.1888
G01 X39.4842 Y33.1965
G01 X39.4897 Y33.2032
G01 X39.4965 Y33.2088
G01 X39.5042 Y33.2129
G01 X39.5125 Y33.2154
G01 X39.5212 Y33.2163
G01 X39.5299 Y33.2154
G01 X39.5382 Y33.2129
G01 X39.5459 Y33.2088
G01 X39.5527 Y33.2032
G01 X39.5582 Y33.1965
G01 X39.5623 Y33.1888
G01 X39.5648 Y33.1805
G01 X39.5657 Y33.1718
G00 Z2.0000
G00 X42.1057 Y33.1718
G01 F60.00
G01 Z-1.7000
G01 F120.00
G01 X42.1048 Y33.1631
G01 X42.1023 Y33.1547
G01 X42.0982 Y33.1470
G01 X42.0927 Y33.1403
G01 X42.0859 Y33.1348
G01 X42.0782 Y33.1307
G01 X42.0699 Y33.1281
G01 X42.0612 Y33.1273
G01 X42.0525 Y33.1281
G01 X42.0442 Y33.1307
G01 X42.0365 Y33.1348
G01 X42.0297 Y33.1403
G01 X42.0242 Y33.1470
G01 X42.0201 Y33.1547
G01 X42.0175 Y33.1631
G01 X42.0167 Y33.1718
G01 X42.0175 Y33.1805
G01 X42.0201 Y33.1888
G01 X42.0242 Y33.1965
G01 X42.0297 Y33.2032
G01 X42.0365 Y33.2088
G01 X42.0442 Y33.2129
G01 X42.0525 Y33.2154
G01 X42.0612 Y33.2163
G01 X42.0699 Y33.2154
G01 X42.0782 Y33.2129
G01 X42.0859 Y33.2088
G01 X42.0927 Y33.2032
G01 X42.0982 Y33.1965
G01 X42.1023 Y33.1888
G01 X42.1048 Y33.1805
G01 X42.1057 Y33.1718
G00 Z2.0000
G00 X44.6457 Y33.1718
G01 F60.00
G01 Z-1.7000
G01 F120.00
G01 X44.6448 Y33.1631
G01 X44.6423 Y33.1547
G01 X44.6382 Y33.1470
G01 X44.6327 Y33.1403
G01 X44.6259 Y33.1348
G01 X44.6182 Y33.1307
G01 X44.6099 Y33.1281
G01 X44.6012 Y33.1273
G01 X44.5925 Y33.1281
G01 X44.5842 Y33.1307
G01 X44.5765 Y33.1348
G01 X44.5697 Y33.1403
G01 X44.5642 Y33.1470
G01 X44.5601 Y33.1547
G01 X44.5575 Y33.1631
G01 X44.5567 Y33.1718
G01 X44.5575 Y33.1805
G01 X44.5601 Y33.1888
G01 X44.5642 Y33.1965
G01 X44.5697 Y33.2032
G01 X44.5765 Y33.2088
G01 X44.5842 Y33.2129
G01 X44.5925 Y33.2154
G01 X44.6012 Y33.2163
G01 X44.6099 Y33.2154
G01 X44.6182 Y33.2129
G01 X44.6259 Y33.2088
G01 X44.6327 Y33.2032
G01 X44.6382 Y33.1965
G01 X44.6423 Y33.1888
G01 X44.6448 Y33.1805
G01 X44.6457 Y33.1718
G00 Z2.0000
G00 X47.1857 Y33.1718
G01 F60.00
G01 Z-1.7000
G01 F120.00
G01 X47.1848 Y33.1631
G01 X47.1823 Y33.1547
G01 X47.1782 Y33.1470
G01 X47.1727 Y33.1403
G01 X47.1659 Y33.1348
G01 X47.1582 Y33.1307
G01 X47.1499 Y33.1281
G01 X47.1412 Y33.1273
G01 X47.1325 Y33.1281
G01 X47.1242 Y33.1307
G01 X47.1165 Y33.1348
G01 X47.1097 Y33.1403
G01 X47.1042 Y33.1470
G01 X47.1001 Y33.1547
G01 X47.0975 Y33.1631
G01 X47.0967 Y33.1718
G01 X47.0975 Y33.1805
G01 X47.1001 Y33.1888
G01 X47.1042 Y33.1965
G01 X47.1097 Y33.2032
G01 X47.1165 Y33.2088
G01 X47.1242 Y33.2129
G01 X47.1325 Y33.2154
G01 X47.1412 Y33.2163
G01 X47.1499 Y33.2154
G01 X47.1582 Y33.2129
G01 X47.1659 Y33.2088
G01 X47.1727 Y33.2032
G01 X47.1782 Y33.1965
G01 X47.1823 Y33.1888
G01 X47.1848 Y33.1805
G01 X47.1857 Y33.1718
G00 Z2.0000
G00 X49.7257 Y33.1718
G01 F60.00
G01 Z-1.7000
G01 F120.00
G01 X49.7248 Y33.1631
G01 X49.7223 Y33.1547
G01 X49.7182 Y33.1470
G01 X49.7127 Y33.1403
G01 X49.7059 Y33.1348
G01 X49.6982 Y33.1307
G01 X49.6899 Y33.1281
G01 X49.6812 Y33.1273
G01 X49.6725 Y33.1281
G01 X49.6642 Y33.1307
G01 X49.6565 Y33.1348
G01 X49.6497 Y33.1403
G01 X49.6442 Y33.1470
G01 X49.6401 Y33.1547
G01 X49.6375 Y33.1631
G01 X49.6367 Y33.1718
G01 X49.6375 Y33.1805
G01 X49.6401 Y33.1888
G01 X49.6442 Y33.1965
G01 X49.6497 Y33.2032
G01 X49.6565 Y33.2088
G01 X49.6642 Y33.2129
G01 X49.6725 Y33.2154
G01 X49.6812 Y33.2163
G01 X49.6899 Y33.2154
G01 X49.6982 Y33.2129
G01 X49.7059 Y33.2088
G01 X49.7127 Y33.2032
G01 X49.7182 Y33.1965
G01 X49.7223 Y33.1888
G01 X49.7248 Y33.1805
G01 X49.7257 Y33.1718
G00 Z2.0000
G00 X52.2657 Y33.1718
G01 F60.00
G01 Z-1.7000
G01 F120.00
G01 X52.2648 Y33.1631
G01 X52.2623 Y33.1547
G01 X52.2582 Y33.1470
G01 X52.2527 Y33.1403
G01 X52.2459 Y33.1348
G01 X52.2382 Y33.1307
G01 X52.2299 Y33.1281
G01 X52.2212 Y33.1273
G01 X52.2125 Y33.1281
G01 X52.2042 Y33.1307
G01 X52.1965 Y33.1348
G01 X52.1897 Y33.1403
G01 X52.1842 Y33.1470
G01 X52.1801 Y33.1547
G01 X52.1775 Y33.1631
G01 X52.1767 Y33.1718
G01 X52.1775 Y33.1805
G01 X52.1801 Y33.1888
G01 X52.1842 Y33.1965
G01 X52.1897 Y33.2032
G01 X52.1965 Y33.2088
G01 X52.2042 Y33.2129
G01 X52.2125 Y33.2154
G01 X52.2212 Y33.2163
G01 X52.2299 Y33.2154
G01 X52.2382 Y33.2129
G01 X52.2459 Y33.2088
G01 X52.2527 Y33.2032
G01 X52.2582 Y33.1965
G01 X52.2623 Y33.1888
G01 X52.2648 Y33.1805
G01 X52.2657 Y33.1718
G00 Z2.0000
G00 X54.8057 Y33.1718
G01 F60.00
G01 Z-1.7000
G01 F120.00
G01 X54.8048 Y33.1631
G01 X54.8023 Y33.1547
G01 X54.7982 Y33.1470
G01 X54.7927 Y33.1403
G01 X54.7859 Y33.1348
G01 X54.7782 Y33.1307
G01 X54.7699 Y33.1281
G01 X54.7612 Y33.1273
G01 X54.7525 Y33.1281
G01 X54.7442 Y33.1307
G01 X54.7365 Y33.1348
G01 X54.7297 Y33.1403
G01 X54.7242 Y33.1470
G01 X54.7201 Y33.1547
G01 X54.7175 Y33.1631
G01 X54.7167 Y33.1718
G01 X54.7175 Y33.1805
G01 X54.7201 Y33.1888
G01 X54.7242 Y33.1965
G01 X54.7297 Y33.2032
G01 X54.7365 Y33.2088
G01 X54.7442 Y33.2129
G01 X54.7525 Y33.2154
G01 X54.7612 Y33.2163
G01 X54.7699 Y33.2154
G01 X54.7782 Y33.2129
G01 X54.7859 Y33.2088
G01 X54.7927 Y33.2032
G01 X54.7982 Y33.1965
G01 X54.8023 Y33.1888
G01 X54.8048 Y33.1805
G01 X54.8057 Y33.1718
G00 Z2.0000
G00 X57.3457 Y33.1718
G01 F60.00
G01 Z-1.7000
G01 F120.00
G01 X57.3448 Y33.1631
G01 X57.3423 Y33.1547
G01 X57.3382 Y33.1470
G01 X57.3327 Y33.1403
G01 X57.3259 Y33.1348
G01 X57.3182 Y33.1307
G01 X57.3099 Y33.1281
G01 X57.3012 Y33.1273
G01 X57.2925 Y33.1281
G01 X57.2842 Y33.1307
G01 X57.2765 Y33.1348
G01 X57.2697 Y33.1403
G01 X57.2642 Y33.1470
G01 X57.2601 Y33.1547
G01 X57.2575 Y33.1631
G01 X57.2567 Y33.1718
G01 X57.2575 Y33.1805
G01 X57.2601 Y33.1888
G01 X57.2642 Y33.1965
G01 X57.2697 Y33.2032
G01 X57.2765 Y33.2088
G01 X57.2842 Y33.2129
G01 X57.2925 Y33.2154
G01 X57.3012 Y33.2163
G01 X57.3099 Y33.2154
G01 X57.3182 Y33.2129
G01 X57.3259 Y33.2088
G01 X57.3327 Y33.2032
G01 X57.3382 Y33.1965
G01 X57.3423 Y33.1888
G01 X57.3448 Y33.1805
G01 X57.3457 Y33.1718
G00 Z2.0000
G00 X59.8857 Y33.1718
G01 F60.00
G01 Z-1.7000
G01 F120.00
G01 X59.8848 Y33.1631
G01 X59.8823 Y33.1547
G01 X59.8782 Y33.1470
G01 X59.8727 Y33.1403
G01 X59.8659 Y33.1348
G01 X59.8582 Y33.1307
G01 X59.8499 Y33.1281
G01 X59.8412 Y33.1273
G01 X59.8325 Y33.1281
G01 X59.8242 Y33.1307
G01 X59.8165 Y33.1348
G01 X59.8097 Y33.1403
G01 X59.8042 Y33.1470
G01 X59.8001 Y33.1547
G01 X59.7975 Y33.1631
G01 X59.7967 Y33.1718
G01 X59.7975 Y33.1805
G01 X59.8001 Y33.1888
G01 X59.8042 Y33.1965
G01 X59.8097 Y33.2032
G01 X59.8165 Y33.2088
G01 X59.8242 Y33.2129
G01 X59.8325 Y33.2154
G01 X59.8412 Y33.2163
G01 X59.8499 Y33.2154
G01 X59.8582 Y33.2129
G01 X59.8659 Y33.2088
G01 X59.8727 Y33.2032
G01 X59.8782 Y33.1965
G01 X59.8823 Y33.1888
G01 X59.8848 Y33.1805
G01 X59.8857 Y33.1718
G00 Z2.0000
G00 X65.2197 Y33.1718
G01 F60.00
G01 Z-1.7000
G01 F120.00
G01 X65.2188 Y33.1631
G01 X65.2163 Y33.1547
G01 X65.2122 Y33.1470
G01 X65.2067 Y33.1403
G01 X65.1999 Y33.1348
G01 X65.1922 Y33.1307
G01 X65.1839 Y33.1281
G01 X65.1752 Y33.1273
G01 X65.1665 Y33.1281
G01 X65.1582 Y33.1307
G01 X65.1505 Y33.1348
G01 X65.1437 Y33.1403
G01 X65.1382 Y33.1470
G01 X65.1341 Y33.1547
G01 X65.1315 Y33.1631
G01 X65.1307 Y33.1718
G01 X65.1315 Y33.1805
G01 X65.1341 Y33.1888
G01 X65.1382 Y33.1965
G01 X65.1437 Y33.2032
G01 X65.1505 Y33.2088
G01 X65.1582 Y33.2129
G01 X65.1665 Y33.2154
G01 X65.1752 Y33.2163
G01 X65.1839 Y33.2154
G01 X65.1922 Y33.2129
G01 X65.1999 Y33.2088
G01 X65.2067 Y33.2032
G01 X65.2122 Y33.1965
G01 X65.2163 Y33.1888
G01 X65.2188 Y33.1805
G01 X65.2197 Y33.1718
G00 Z2.0000
G00 X67.7597 Y33.1718
G01 F60.00
G01 Z-1.7000
G01 F120.00
G01 X67.7588 Y33.1631
G01 X67.7563 Y33.1547
G01 X67.7522 Y33.1470
G01 X67.7467 Y33.1403
G01 X67.7399 Y33.1348
G01 X67.7322 Y33.1307
G01 X67.7239 Y33.1281
G01 X67.7152 Y33.1273
G01 X67.7065 Y33.1281
G01 X67.6982 Y33.1307
G01 X67.6905 Y33.1348
G01 X67.6837 Y33.1403
G01 X67.6782 Y33.1470
G01 X67.6741 Y33.1547
G01 X67.6715 Y33.1631
G01 X67.6707 Y33.1718
G01 X67.6715 Y33.1805
G01 X67.6741 Y33.1888
G01 X67.6782 Y33.1965
G01 X67.6837 Y33.2032
G01 X67.6905 Y33.2088
G01 X67.6982 Y33.2129
G01 X67.7065 Y33.2154
G01 X67.7152 Y33.2163
G01 X67.7239 Y33.2154
G01 X67.7322 Y33.2129
G01 X67.7399 Y33.2088
G01 X67.7467 Y33.2032
G01 X67.7522 Y33.1965
G01 X67.7563 Y33.1888
G01 X67.7588 Y33.1805
G01 X67.7597 Y33.1718
G00 Z2.0000
G00 X70.2997 Y33.1718
G01 F60.00
G01 Z-1.7000
G01 F120.00
G01 X70.2988 Y33.1631
G01 X70.2963 Y33.1547
G01 X70.2922 Y33.1470
G01 X70.2867 Y33.1403
G01 X70.2799 Y33.1348
G01 X70.2722 Y33.1307
G01 X70.2639 Y33.1281
G01 X70.2552 Y33.1273
G01 X70.2465 Y33.1281
G01 X70.2382 Y33.1307
G01 X70.2305 Y33.1348
G01 X70.2237 Y33.1403
G01 X70.2182 Y33.1470
G01 X70.2141 Y33.1547
G01 X70.2115 Y33.1631
G01 X70.2107 Y33.1718
G01 X70.2115 Y33.1805
G01 X70.2141 Y33.1888
G01 X70.2182 Y33.1965
G01 X70.2237 Y33.2032
G01 X70.2305 Y33.2088
G01 X70.2382 Y33.2129
G01 X70.2465 Y33.2154
G01 X70.2552 Y33.2163
G01 X70.2639 Y33.2154
G01 X70.2722 Y33.2129
G01 X70.2799 Y33.2088
G01 X70.2867 Y33.2032
G01 X70.2922 Y33.1965
G01 X70.2963 Y33.1888
G01 X70.2988 Y33.1805
G01 X70.2997 Y33.1718
G00 Z2.0000
G00 X72.8397 Y33.1718
G01 F60.00
G01 Z-1.7000
G01 F120.00
G01 X72.8388 Y33.1631
G01 X72.8363 Y33.1547
G01 X72.8322 Y33.1470
G01 X72.8267 Y33.1403
G01 X72.8199 Y33.1348
G01 X72.8122 Y33.1307
G01 X72.8039 Y33.1281
G01 X72.7952 Y33.1273
G01 X72.7865 Y33.1281
G01 X72.7782 Y33.1307
G01 X72.7705 Y33.1348
G01 X72.7637 Y33.1403
G01 X72.7582 Y33.1470
G01 X72.7541 Y33.1547
G01 X72.7515 Y33.1631
G01 X72.7507 Y33.1718
G01 X72.7515 Y33.1805
G01 X72.7541 Y33.1888
G01 X72.7582 Y33.1965
G01 X72.7637 Y33.2032
G01 X72.7705 Y33.2088
G01 X72.7782 Y33.2129
G01 X72.7865 Y33.2154
G01 X72.7952 Y33.2163
G01 X72.8039 Y33.2154
G01 X72.8122 Y33.2129
G01 X72.8199 Y33.2088
G01 X72.8267 Y33.2032
G01 X72.8322 Y33.1965
G01 X72.8363 Y33.1888
G01 X72.8388 Y33.1805
G01 X72.8397 Y33.1718
G00 Z2.0000
G00 X75.3797 Y33.1718
G01 F60.00
G01 Z-1.7000
G01 F120.00
G01 X75.3788 Y33.1631
G01 X75.3763 Y33.1547
G01 X75.3722 Y33.1470
G01 X75.3667 Y33.1403
G01 X75.3599 Y33.1348
G01 X75.3522 Y33.1307
G01 X75.3439 Y33.1281
G01 X75.3352 Y33.1273
G01 X75.3265 Y33.1281
G01 X75.3182 Y33.1307
G01 X75.3105 Y33.1348
G01 X75.3037 Y33.1403
G01 X75.2982 Y33.1470
G01 X75.2941 Y33.1547
G01 X75.2915 Y33.1631
G01 X75.2907 Y33.1718
G01 X75.2915 Y33.1805
G01 X75.2941 Y33.1888
G01 X75.2982 Y33.1965
G01 X75.3037 Y33.2032
G01 X75.3105 Y33.2088
G01 X75.3182 Y33.2129
G01 X75.3265 Y33.2154
G01 X75.3352 Y33.2163
G01 X75.3439 Y33.2154
G01 X75.3522 Y33.2129
G01 X75.3599 Y33.2088
G01 X75.3667 Y33.2032
G01 X75.3722 Y33.1965
G01 X75.3763 Y33.1888
G01 X75.3788 Y33.1805
G01 X75.3797 Y33.1718
G00 Z2.0000
G00 X77.9197 Y33.1718
G01 F60.00
G01 Z-1.7000
G01 F120.00
G01 X77.9188 Y33.1631
G01 X77.9163 Y33.1547
G01 X77.9122 Y33.1470
G01 X77.9067 Y33.1403
G01 X77.8999 Y33.1348
G01 X77.8922 Y33.1307
G01 X77.8839 Y33.1281
G01 X77.8752 Y33.1273
G01 X77.8665 Y33.1281
G01 X77.8582 Y33.1307
G01 X77.8505 Y33.1348
G01 X77.8437 Y33.1403
G01 X77.8382 Y33.1470
G01 X77.8341 Y33.1547
G01 X77.8315 Y33.1631
G01 X77.8307 Y33.1718
G01 X77.8315 Y33.1805
G01 X77.8341 Y33.1888
G01 X77.8382 Y33.1965
G01 X77.8437 Y33.2032
G01 X77.8505 Y33.2088
G01 X77.8582 Y33.2129
G01 X77.8665 Y33.2154
G01 X77.8752 Y33.2163
G01 X77.8839 Y33.2154
G01 X77.8922 Y33.2129
G01 X77.8999 Y33.2088
G01 X77.9067 Y33.2032
G01 X77.9122 Y33.1965
G01 X77.9163 Y33.1888
G01 X77.9188 Y33.1805
G01 X77.9197 Y33.1718
G00 Z2.0000
G00 X80.4597 Y33.1718
G01 F60.00
G01 Z-1.7000
G01 F120.00
G01 X80.4588 Y33.1631
G01 X80.4563 Y33.1547
G01 X80.4522 Y33.1470
G01 X80.4467 Y33.1403
G01 X80.4399 Y33.1348
G01 X80.4322 Y33.1307
G01 X80.4239 Y33.1281
G01 X80.4152 Y33.1273
G01 X80.4065 Y33.1281
G01 X80.3982 Y33.1307
G01 X80.3905 Y33.1348
G01 X80.3837 Y33.1403
G01 X80.3782 Y33.1470
G01 X80.3741 Y33.1547
G01 X80.3715 Y33.1631
G01 X80.3707 Y33.1718
G01 X80.3715 Y33.1805
G01 X80.3741 Y33.1888
G01 X80.3782 Y33.1965
G01 X80.3837 Y33.2032
G01 X80.3905 Y33.2088
G01 X80.3982 Y33.2129
G01 X80.4065 Y33.2154
G01 X80.4152 Y33.2163
G01 X80.4239 Y33.2154
G01 X80.4322 Y33.2129
G01 X80.4399 Y33.2088
G01 X80.4467 Y33.2032
G01 X80.4522 Y33.1965
G01 X80.4563 Y33.1888
G01 X80.4588 Y33.1805
G01 X80.4597 Y33.1718
G00 Z2.0000
G00 X82.9997 Y33.1718
G01 F60.00
G01 Z-1.7000
G01 F120.00
G01 X82.9988 Y33.1631
G01 X82.9963 Y33.1547
G01 X82.9922 Y33.1470
G01 X82.9867 Y33.1403
G01 X82.9799 Y33.1348
G01 X82.9722 Y33.1307
G01 X82.9639 Y33.1281
G01 X82.9552 Y33.1273
G01 X82.9465 Y33.1281
G01 X82.9382 Y33.1307
G01 X82.9305 Y33.1348
G01 X82.9237 Y33.1403
G01 X82.9182 Y33.1470
G01 X82.9141 Y33.1547
G01 X82.9115 Y33.1631
G01 X82.9107 Y33.1718
G01 X82.9115 Y33.1805
G01 X82.9141 Y33.1888
G01 X82.9182 Y33.1965
G01 X82.9237 Y33.2032
G01 X82.9305 Y33.2088
G01 X82.9382 Y33.2129
G01 X82.9465 Y33.2154
G01 X82.9552 Y33.2163
G01 X82.9639 Y33.2154
G01 X82.9722 Y33.2129
G01 X82.9799 Y33.2088
G01 X82.9867 Y33.2032
G01 X82.9922 Y33.1965
G01 X82.9963 Y33.1888
G01 X82.9988 Y33.1805
G01 X82.9997 Y33.1718
G00 Z2.0000
G00 X85.5397 Y33.1718
G01 F60.00
G01 Z-1.7000
G01 F120.00
G01 X85.5388 Y33.1631
G01 X85.5363 Y33.1547
G01 X85.5322 Y33.1470
G01 X85.5267 Y33.1403
G01 X85.5199 Y33.1348
G01 X85.5122 Y33.1307
G01 X85.5039 Y33.1281
G01 X85.4952 Y33.1273
G01 X85.4865 Y33.1281
G01 X85.4782 Y33.1307
G01 X85.4705 Y33.1348
G01 X85.4637 Y33.1403
G01 X85.4582 Y33.1470
G01 X85.4541 Y33.1547
G01 X85.4515 Y33.1631
G01 X85.4507 Y33.1718
G01 X85.4515 Y33.1805
G01 X85.4541 Y33.1888
G01 X85.4582 Y33.1965
G01 X85.4637 Y33.2032
G01 X85.4705 Y33.2088
G01 X85.4782 Y33.2129
G01 X85.4865 Y33.2154
G01 X85.4952 Y33.2163
G01 X85.5039 Y33.2154
G01 X85.5122 Y33.2129
G01 X85.5199 Y33.2088
G01 X85.5267 Y33.2032
G01 X85.5322 Y33.1965
G01 X85.5363 Y33.1888
G01 X85.5388 Y33.1805
G01 X85.5397 Y33.1718
G00 Z2.0000
G00 X84.4551 Y24.6450
G01 F60.00
G01 Z-1.7000
G01 F120.00
G01 X84.4548 Y24.6394
G01 X84.4540 Y24.6338
G01 X84.4526 Y24.6284
G01 X84.4508 Y24.6231
G01 X84.4484 Y24.6180
G01 X84.4455 Y24.6132
G01 X84.4421 Y24.6087
G01 X84.4384 Y24.6045
G01 X84.4342 Y24.6008
G01 X84.4297 Y24.5974
G01 X84.4249 Y24.5945
G01 X84.4198 Y24.5921
G01 X84.4145 Y24.5903
G01 X84.4091 Y24.5889
G01 X84.4035 Y24.5881
G01 X84.3979 Y24.5878
G01 X84.3923 Y24.5881
G01 X84.3867 Y24.5889
G01 X84.3813 Y24.5903
G01 X84.3760 Y24.5921
G01 X84.3709 Y24.5945
G01 X84.3661 Y24.5974
G01 X84.3616 Y24.6008
G01 X84.3575 Y24.6045
G01 X84.3537 Y24.6087
G01 X84.3503 Y24.6132
G01 X84.3475 Y24.6180
G01 X84.3451 Y24.6231
G01 X84.3432 Y24.6284
G01 X84.3418 Y24.6338
G01 X84.3410 Y24.6394
G01 X84.3407 Y24.6450
G01 X84.3410 Y24.6506
G01 X84.3418 Y24.6562
G01 X84.3432 Y24.6616
G01 X84.3451 Y24.6669
G01 X84.3475 Y24.6720
G01 X84.3503 Y24.6768
G01 X84.3537 Y24.6813
G01 X84.3575 Y24.6854
G01 X84.3616 Y24.6892
G01 X84.3661 Y24.6926
G01 X84.3709 Y24.6954
G01 X84.3760 Y24.6978
G01 X84.3813 Y24.6997
G01 X84.3867 Y24.7011
G01 X84.3923 Y24.7019
G01 X84.3979 Y24.7022
G01 X84.4035 Y24.7019
G01 X84.4091 Y24.7011
G01 X84.4145 Y24.6997
G01 X84.4198 Y24.6978
G01 X84.4249 Y24.6954
G01 X84.4297 Y24.6926
G01 X84.4342 Y24.6892
G01 X84.4384 Y24.6854
G01 X84.4421 Y24.6813
G01 X84.4455 Y24.6768
G01 X84.4484 Y24.6720
G01 X84.4508 Y24.6669
G01 X84.4526 Y24.6616
G01 X84.4540 Y24.6562
G01 X84.4548 Y24.6506
G01 X84.4551 Y24.6450
G00 Z2.0000
G00 X84.4551 Y22.1050
G01 F60.00
G01 Z-1.7000
G01 F120.00
G01 X84.4548 Y22.0994
G01 X84.4540 Y22.0938
G01 X84.4526 Y22.0884
G01 X84.4508 Y22.0831
G01 X84.4484 Y22.0780
G01 X84.4455 Y22.0732
G01 X84.4421 Y22.0687
G01 X84.4384 Y22.0645
G01 X84.4342 Y22.0608
G01 X84.4297 Y22.0574
G01 X84.4249 Y22.0545
G01 X84.4198 Y22.0521
G01 X84.4145 Y22.0503
G01 X84.4091 Y22.0489
G01 X84.4035 Y22.0481
G01 X84.3979 Y22.0478
G01 X84.3923 Y22.0481
G01 X84.3867 Y22.0489
G01 X84.3813 Y22.0503
G01 X84.3760 Y22.0521
G01 X84.3709 Y22.0545
G01 X84.3661 Y22.0574
G01 X84.3616 Y22.0608
G01 X84.3575 Y22.0645
G01 X84.3537 Y22.0687
G01 X84.3503 Y22.0732
G01 X84.3475 Y22.0780
G01 X84.3451 Y22.0831
G01 X84.3432 Y22.0884
G01 X84.3418 Y22.0938
G01 X84.3410 Y22.0994
G01 X84.3407 Y22.1050
G01 X84.3410 Y22.1106
G01 X84.3418 Y22.1162
G01 X84.3432 Y22.1216
G01 X84.3451 Y22.1269
G01 X84.3475 Y22.1320
G01 X84.3503 Y22.1368
G01 X84.3537 Y22.1413
G01 X84.3575 Y22.1454
G01 X84.3616 Y22.1492
G01 X84.3661 Y22.1526
G01 X84.3709 Y22.1554
G01 X84.3760 Y22.1578
G01 X84.3813 Y22.1597
G01 X84.3867 Y22.1611
G01 X84.3923 Y22.1619
G01 X84.3979 Y22.1622
G01 X84.4035 Y22.1619
G01 X84.4091 Y22.1611
G01 X84.4145 Y22.1597
G01 X84.4198 Y22.1578
G01 X84.4249 Y22.1554
G01 X84.4297 Y22.1526
G01 X84.4342 Y22.1492
G01 X84.4384 Y22.1454
G01 X84.4421 Y22.1413
G01 X84.4455 Y22.1368
G01 X84.4484 Y22.1320
G01 X84.4508 Y22.1269
G01 X84.4526 Y22.1216
G01 X84.4540 Y22.1162
G01 X84.4548 Y22.1106
G01 X84.4551 Y22.1050
G00 Z2.0000
G00 X84.4551 Y19.5650
G01 F60.00
G01 Z-1.7000
G01 F120.00
G01 X84.4548 Y19.5594
G01 X84.4540 Y19.5538
G01 X84.4526 Y19.5484
G01 X84.4508 Y19.5431
G01 X84.4484 Y19.5380
G01 X84.4455 Y19.5332
G01 X84.4421 Y19.5287
G01 X84.4384 Y19.5245
G01 X84.4342 Y19.5208
G01 X84.4297 Y19.5174
G01 X84.4249 Y19.5145
G01 X84.4198 Y19.5121
G01 X84.4145 Y19.5103
G01 X84.4091 Y19.5089
G01 X84.4035 Y19.5081
G01 X84.3979 Y19.5078
G01 X84.3923 Y19.5081
G01 X84.3867 Y19.5089
G01 X84.3813 Y19.5103
G01 X84.3760 Y19.5121
G01 X84.3709 Y19.5145
G01 X84.3661 Y19.5174
G01 X84.3616 Y19.5208
G01 X84.3575 Y19.5245
G01 X84.3537 Y19.5287
G01 X84.3503 Y19.5332
G01 X84.3475 Y19.5380
G01 X84.3451 Y19.5431
G01 X84.3432 Y19.5484
G01 X84.3418 Y19.5538
G01 X84.3410 Y19.5594
G01 X84.3407 Y19.5650
G01 X84.3410 Y19.5706
G01 X84.3418 Y19.5762
G01 X84.3432 Y19.5816
G01 X84.3451 Y19.5869
G01 X84.3475 Y19.5920
G01 X84.3503 Y19.5968
G01 X84.3537 Y19.6013
G01 X84.3575 Y19.6054
G01 X84.3616 Y19.6092
G01 X84.3661 Y19.6126
G01 X84.3709 Y19.6154
G01 X84.3760 Y19.6178
G01 X84.3813 Y19.6197
G01 X84.3867 Y19.6211
G01 X84.3923 Y19.6219
G01 X84.3979 Y19.6222
G01 X84.4035 Y19.6219
G01 X84.4091 Y19.6211
G01 X84.4145 Y19.6197
G01 X84.4198 Y19.6178
G01 X84.4249 Y19.6154
G01 X84.4297 Y19.6126
G01 X84.4342 Y19.6092
G01 X84.4384 Y19.6054
G01 X84.4421 Y19.6013
G01 X84.4455 Y19.5968
G01 X84.4484 Y19.5920
G01 X84.4508 Y19.5869
G01 X84.4526 Y19.5816
G01 X84.4540 Y19.5762
G01 X84.4548 Y19.5706
G01 X84.4551 Y19.5650
G00 Z2.0000
G00 X84.4551 Y17.0250
G01 F60.00
G01 Z-1.7000
G01 F120.00
G01 X84.4548 Y17.0194
G01 X84.4540 Y17.0138
G01 X84.4526 Y17.0084
G01 X84.4508 Y17.0031
G01 X84.4484 Y16.9980
G01 X84.4455 Y16.9932
G01 X84.4421 Y16.9887
G01 X84.4384 Y16.9845
G01 X84.4342 Y16.9808
G01 X84.4297 Y16.9774
G01 X84.4249 Y16.9745
G01 X84.4198 Y16.9721
G01 X84.4145 Y16.9703
G01 X84.4091 Y16.9689
G01 X84.4035 Y16.9681
G01 X84.3979 Y16.9678
G01 X84.3923 Y16.9681
G01 X84.3867 Y16.9689
G01 X84.3813 Y16.9703
G01 X84.3760 Y16.9721
G01 X84.3709 Y16.9745
G01 X84.3661 Y16.9774
G01 X84.3616 Y16.9808
G01 X84.3575 Y16.9845
G01 X84.3537 Y16.9887
G01 X84.3503 Y16.9932
G01 X84.3475 Y16.9980
G01 X84.3451 Y17.0031
G01 X84.3432 Y17.0084
G01 X84.3418 Y17.0138
G01 X84.3410 Y17.0194
G01 X84.3407 Y17.0250
G01 X84.3410 Y17.0306
G01 X84.3418 Y17.0362
G01 X84.3432 Y17.0416
G01 X84.3451 Y17.0469
G01 X84.3475 Y17.0520
G01 X84.3503 Y17.0568
G01 X84.3537 Y17.0613
G01 X84.3575 Y17.0654
G01 X84.3616 Y17.0692
G01 X84.3661 Y17.0726
G01 X84.3709 Y17.0754
G01 X84.3760 Y17.0778
G01 X84.3813 Y17.0797
G01 X84.3867 Y17.0811
G01 X84.3923 Y17.0819
G01 X84.3979 Y17.0822
G01 X84.4035 Y17.0819
G01 X84.4091 Y17.0811
G01 X84.4145 Y17.0797
G01 X84.4198 Y17.0778
G01 X84.4249 Y17.0754
G01 X84.4297 Y17.0726
G01 X84.4342 Y17.0692
G01 X84.4384 Y17.0654
G01 X84.4421 Y17.0613
G01 X84.4455 Y17.0568
G01 X84.4484 Y17.0520
G01 X84.4508 Y17.0469
G01 X84.4526 Y17.0416
G01 X84.4540 Y17.0362
G01 X84.4548 Y17.0306
G01 X84.4551 Y17.0250
G00 Z2.0000
G00 X87.2542 Y18.2950
G01 F60.00
G01 Z-1.7000
G01 F120.00
G01 X87.2539 Y18.2894
G01 X87.2531 Y18.2838
G01 X87.2517 Y18.2784
G01 X87.2498 Y18.2731
G01 X87.2474 Y18.2680
G01 X87.2445 Y18.2632
G01 X87.2412 Y18.2587
G01 X87.2374 Y18.2545
G01 X87.2333 Y18.2508
G01 X87.2288 Y18.2474
G01 X87.2240 Y18.2445
G01 X87.2189 Y18.2421
G01 X87.2136 Y18.2403
G01 X87.2081 Y18.2389
G01 X87.2026 Y18.2381
G01 X87.1970 Y18.2378
G01 X87.1914 Y18.2381
G01 X87.1858 Y18.2389
G01 X87.1804 Y18.2403
G01 X87.1751 Y18.2421
G01 X87.1700 Y18.2445
G01 X87.1652 Y18.2474
G01 X87.1607 Y18.2508
G01 X87.1565 Y18.2545
G01 X87.1528 Y18.2587
G01 X87.1494 Y18.2632
G01 X87.1465 Y18.2680
G01 X87.1441 Y18.2731
G01 X87.1423 Y18.2784
G01 X87.1409 Y18.2838
G01 X87.1401 Y18.2894
G01 X87.1398 Y18.2950
G01 X87.1401 Y18.3006
G01 X87.1409 Y18.3062
G01 X87.1423 Y18.3116
G01 X87.1441 Y18.3169
G01 X87.1465 Y18.3220
G01 X87.1494 Y18.3268
G01 X87.1528 Y18.3313
G01 X87.1565 Y18.3354
G01 X87.1607 Y18.3392
G01 X87.1652 Y18.3426
G01 X87.1700 Y18.3454
G01 X87.1751 Y18.3478
G01 X87.1804 Y18.3497
G01 X87.1858 Y18.3511
G01 X87.1914 Y18.3519
G01 X87.1970 Y18.3522
G01 X87.2026 Y18.3519
G01 X87.2081 Y18.3511
G01 X87.2136 Y18.3497
G01 X87.2189 Y18.3478
G01 X87.2240 Y18.3454
G01 X87.2288 Y18.3426
G01 X87.2333 Y18.3392
G01 X87.2374 Y18.3354
G01 X87.2412 Y18.3313
G01 X87.2445 Y18.3268
G01 X87.2474 Y18.3220
G01 X87.2498 Y18.3169
G01 X87.2517 Y18.3116
G01 X87.2531 Y18.3062
G01 X87.2539 Y18.3006
G01 X87.2542 Y18.2950
G00 Z2.0000
G00 X87.2542 Y23.2937
G01 F60.00
G01 Z-1.7000
G01 F120.00
G01 X87.2539 Y23.2881
G01 X87.2531 Y23.2826
G01 X87.2517 Y23.2771
G01 X87.2498 Y23.2718
G01 X87.2474 Y23.2667
G01 X87.2445 Y23.2619
G01 X87.2412 Y23.2574
G01 X87.2374 Y23.2533
G01 X87.2333 Y23.2495
G01 X87.2288 Y23.2462
G01 X87.2240 Y23.2433
G01 X87.2189 Y23.2409
G01 X87.2136 Y23.2390
G01 X87.2081 Y23.2376
G01 X87.2026 Y23.2368
G01 X87.1970 Y23.2365
G01 X87.1914 Y23.2368
G01 X87.1858 Y23.2376
G01 X87.1804 Y23.2390
G01 X87.1751 Y23.2409
G01 X87.1700 Y23.2433
G01 X87.1652 Y23.2462
G01 X87.1607 Y23.2495
G01 X87.1565 Y23.2533
G01 X87.1528 Y23.2574
G01 X87.1494 Y23.2619
G01 X87.1465 Y23.2667
G01 X87.1441 Y23.2718
G01 X87.1423 Y23.2771
G01 X87.1409 Y23.2826
G01 X87.1401 Y23.2881
G01 X87.1398 Y23.2937
G01 X87.1401 Y23.2993
G01 X87.1409 Y23.3049
G01 X87.1423 Y23.3103
G01 X87.1441 Y23.3156
G01 X87.1465 Y23.3207
G01 X87.1494 Y23.3255
G01 X87.1528 Y23.3300
G01 X87.1565 Y23.3342
G01 X87.1607 Y23.3379
G01 X87.1652 Y23.3413
G01 X87.1700 Y23.3442
G01 X87.1751 Y23.3466
G01 X87.1804 Y23.3484
G01 X87.1858 Y23.3498
G01 X87.1914 Y23.3506
G01 X87.1970 Y23.3509
G01 X87.2026 Y23.3506
G01 X87.2081 Y23.3498
G01 X87.2136 Y23.3484
G01 X87.2189 Y23.3466
G01 X87.2240 Y23.3442
G01 X87.2288 Y23.3413
G01 X87.2333 Y23.3379
G01 X87.2374 Y23.3342
G01 X87.2412 Y23.3300
G01 X87.2445 Y23.3255
G01 X87.2474 Y23.3207
G01 X87.2498 Y23.3156
G01 X87.2517 Y23.3103
G01 X87.2531 Y23.3049
G01 X87.2539 Y23.2993
G01 X87.2542 Y23.2937
G00 Z2.0000
G00 X99.1541 Y30.8858
G01 F60.00
G01 Z-1.7000
G01 F120.00
G01 X99.1531 Y30.8665
G01 X99.1503 Y30.8474
G01 X99.1456 Y30.8286
G01 X99.1391 Y30.8104
G01 X99.1308 Y30.7930
G01 X99.1209 Y30.7764
G01 X99.1094 Y30.7609
G01 X99.0964 Y30.7465
G01 X99.0821 Y30.7336
G01 X99.0666 Y30.7221
G01 X99.0500 Y30.7121
G01 X99.0325 Y30.7039
G01 X99.0143 Y30.6974
G01 X98.9956 Y30.6927
G01 X98.9765 Y30.6898
G01 X98.9572 Y30.6889
G01 X98.9379 Y30.6898
G01 X98.9188 Y30.6927
G01 X98.9000 Y30.6974
G01 X98.8818 Y30.7039
G01 X98.8644 Y30.7121
G01 X98.8478 Y30.7221
G01 X98.8323 Y30.7336
G01 X98.8180 Y30.7465
G01 X98.8050 Y30.7609
G01 X98.7935 Y30.7764
G01 X98.7835 Y30.7930
G01 X98.7753 Y30.8104
G01 X98.7688 Y30.8286
G01 X98.7641 Y30.8474
G01 X98.7612 Y30.8665
G01 X98.7603 Y30.8858
G01 X98.7612 Y30.9051
G01 X98.7641 Y30.9242
G01 X98.7688 Y30.9429
G01 X98.7753 Y30.9611
G01 X98.7835 Y30.9786
G01 X98.7935 Y30.9952
G01 X98.8050 Y31.0107
G01 X98.8180 Y31.0250
G01 X98.8323 Y31.0380
G01 X98.8478 Y31.0495
G01 X98.8644 Y31.0594
G01 X98.8818 Y31.0677
G01 X98.9000 Y31.0742
G01 X98.9188 Y31.0789
G01 X98.9379 Y31.0817
G01 X98.9572 Y31.0827
G01 X98.9765 Y31.0817
G01 X98.9956 Y31.0789
G01 X99.0143 Y31.0742
G01 X99.0325 Y31.0677
G01 X99.0500 Y31.0594
G01 X99.0666 Y31.0495
G01 X99.0821 Y31.0380
G01 X99.0964 Y31.0250
G01 X99.1094 Y31.0107
G01 X99.1209 Y30.9952
G01 X99.1308 Y30.9786
G01 X99.1391 Y30.9611
G01 X99.1456 Y30.9429
G01 X99.1503 Y30.9242
G01 X99.1531 Y30.9051
G01 X99.1541 Y30.8858
G00 Z2.0000
G00 X101.6941 Y30.8858
G01 F60.00
G01 Z-1.7000
G01 F120.00
G01 X101.6931 Y30.8665
G01 X101.6903 Y30.8474
G01 X101.6856 Y30.8286
G01 X101.6791 Y30.8104
G01 X101.6708 Y30.7930
G01 X101.6609 Y30.7764
G01 X101.6494 Y30.7609
G01 X101.6364 Y30.7465
G01 X101.6221 Y30.7336
G01 X101.6066 Y30.7221
G01 X101.5900 Y30.7121
G01 X101.5725 Y30.7039
G01 X101.5543 Y30.6974
G01 X101.5356 Y30.6927
G01 X101.5165 Y30.6898
G01 X101.4972 Y30.6889
G01 X101.4779 Y30.6898
G01 X101.4588 Y30.6927
G01 X101.4400 Y30.6974
G01 X101.4218 Y30.7039
G01 X101.4044 Y30.7121
G01 X101.3878 Y30.7221
G01 X101.3723 Y30.7336
G01 X101.3580 Y30.7465
G01 X101.3450 Y30.7609
G01 X101.3335 Y30.7764
G01 X101.3235 Y30.7930
G01 X101.3153 Y30.8104
G01 X101.3088 Y30.8286
G01 X101.3041 Y30.8474
G01 X101.3012 Y30.8665
G01 X101.3003 Y30.8858
G01 X101.3012 Y30.9051
G01 X101.3041 Y30.9242
G01 X101.3088 Y30.9429
G01 X101.3153 Y30.9611
G01 X101.3235 Y30.9786
G01 X101.3335 Y30.9952
G01 X101.3450 Y31.0107
G01 X101.3580 Y31.0250
G01 X101.3723 Y31.0380
G01 X101.3878 Y31.0495
G01 X101.4044 Y31.0594
G01 X101.4218 Y31.0677
G01 X101.4400 Y31.0742
G01 X101.4588 Y31.0789
G01 X101.4779 Y31.0817
G01 X101.4972 Y31.0827
G01 X101.5165 Y31.0817
G01 X101.5356 Y31.0789
G01 X101.5543 Y31.0742
G01 X101.5725 Y31.0677
G01 X101.5900 Y31.0594
G01 X101.6066 Y31.0495
G01 X101.6221 Y31.0380
G01 X101.6364 Y31.0250
G01 X101.6494 Y31.0107
G01 X101.6609 Y30.9952
G01 X101.6708 Y30.9786
G01 X101.6791 Y30.9611
G01 X101.6856 Y30.9429
G01 X101.6903 Y30.9242
G01 X101.6931 Y30.9051
G01 X101.6941 Y30.8858
G00 Z2.0000
G00 X104.2341 Y30.8858
G01 F60.00
G01 Z-1.7000
G01 F120.00
G01 X104.2331 Y30.8665
G01 X104.2303 Y30.8474
G01 X104.2256 Y30.8286
G01 X104.2191 Y30.8104
G01 X104.2108 Y30.7930
G01 X104.2009 Y30.7764
G01 X104.1894 Y30.7609
G01 X104.1764 Y30.7465
G01 X104.1621 Y30.7336
G01 X104.1466 Y30.7221
G01 X104.1300 Y30.7121
G01 X104.1125 Y30.7039
G01 X104.0943 Y30.6974
G01 X104.0756 Y30.6927
G01 X104.0565 Y30.6898
G01 X104.0372 Y30.6889
G01 X104.0179 Y30.6898
G01 X103.9988 Y30.6927
G01 X103.9800 Y30.6974
G01 X103.9618 Y30.7039
G01 X103.9444 Y30.7121
G01 X103.9278 Y30.7221
G01 X103.9123 Y30.7336
G01 X103.8980 Y30.7465
G01 X103.8850 Y30.7609
G01 X103.8735 Y30.7764
G01 X103.8635 Y30.7930
G01 X103.8553 Y30.8104
G01 X103.8488 Y30.8286
G01 X103.8441 Y30.8474
G01 X103.8412 Y30.8665
G01 X103.8403 Y30.8858
G01 X103.8412 Y30.9051
G01 X103.8441 Y30.9242
G01 X103.8488 Y30.9429
G01 X103.8553 Y30.9611
G01 X103.8635 Y30.9786
G01 X103.8735 Y30.9952
G01 X103.8850 Y31.0107
G01 X103.8980 Y31.0250
G01 X103.9123 Y31.0380
G01 X103.9278 Y31.0495
G01 X103.9444 Y31.0594
G01 X103.9618 Y31.0677
G01 X103.9800 Y31.0742
G01 X103.9988 Y31.0789
G01 X104.0179 Y31.0817
G01 X104.0372 Y31.0827
G01 X104.0565 Y31.0817
G01 X104.0756 Y31.0789
G01 X104.0943 Y31.0742
G01 X104.1125 Y31.0677
G01 X104.1300 Y31.0594
G01 X104.1466 Y31.0495
G01 X104.1621 Y31.0380
G01 X104.1764 Y31.0250
G01 X104.1894 Y31.0107
G01 X104.2009 Y30.9952
G01 X104.2108 Y30.9786
G01 X104.2191 Y30.9611
G01 X104.2256 Y30.9429
G01 X104.2303 Y30.9242
G01 X104.2331 Y30.9051
G01 X104.2341 Y30.8858
G00 Z2.0000
G00 X106.7741 Y30.8858
G01 F60.00
G01 Z-1.7000
G01 F120.00
G01 X106.7731 Y30.8665
G01 X106.7703 Y30.8474
G01 X106.7656 Y30.8286
G01 X106.7591 Y30.8104
G01 X106.7508 Y30.7930
G01 X106.7409 Y30.7764
G01 X106.7294 Y30.7609
G01 X106.7164 Y30.7465
G01 X106.7021 Y30.7336
G01 X106.6866 Y30.7221
G01 X106.6700 Y30.7121
G01 X106.6525 Y30.7039
G01 X106.6343 Y30.6974
G01 X106.6156 Y30.6927
G01 X106.5965 Y30.6898
G01 X106.5772 Y30.6889
G01 X106.5579 Y30.6898
G01 X106.5388 Y30.6927
G01 X106.5200 Y30.6974
G01 X106.5018 Y30.7039
G01 X106.4844 Y30.7121
G01 X106.4678 Y30.7221
G01 X106.4523 Y30.7336
G01 X106.4380 Y30.7465
G01 X106.4250 Y30.7609
G01 X106.4135 Y30.7764
G01 X106.4035 Y30.7930
G01 X106.3953 Y30.8104
G01 X106.3888 Y30.8286
G01 X106.3841 Y30.8474
G01 X106.3812 Y30.8665
G01 X106.3803 Y30.8858
G01 X106.3812 Y30.9051
G01 X106.3841 Y30.9242
G01 X106.3888 Y30.9429
G01 X106.3953 Y30.9611
G01 X106.4035 Y30.9786
G01 X106.4135 Y30.9952
G01 X106.4250 Y31.0107
G01 X106.4380 Y31.0250
G01 X106.4523 Y31.0380
G01 X106.4678 Y31.0495
G01 X106.4844 Y31.0594
G01 X106.5018 Y31.0677
G01 X106.5200 Y31.0742
G01 X106.5388 Y31.0789
G01 X106.5579 Y31.0817
G01 X106.5772 Y31.0827
G01 X106.5965 Y31.0817
G01 X106.6156 Y31.0789
G01 X106.6343 Y31.0742
G01 X106.6525 Y31.0677
G01 X106.6700 Y31.0594
G01 X106.6866 Y31.0495
G01 X106.7021 Y31.0380
G01 X106.7164 Y31.0250
G01 X106.7294 Y31.0107
G01 X106.7409 Y30.9952
G01 X106.7508 Y30.9786
G01 X106.7591 Y30.9611
G01 X106.7656 Y30.9429
G01 X106.7703 Y30.9242
G01 X106.7731 Y30.9051
G01 X106.7741 Y30.8858
G00 Z2.0000
G00 X109.3141 Y30.8858
G01 F60.00
G01 Z-1.7000
G01 F120.00
G01 X109.3131 Y30.8665
G01 X109.3103 Y30.8474
G01 X109.3056 Y30.8286
G01 X109.2991 Y30.8104
G01 X109.2908 Y30.7930
G01 X109.2809 Y30.7764
G01 X109.2694 Y30.7609
G01 X109.2564 Y30.7465
G01 X109.2421 Y30.7336
G01 X109.2266 Y30.7221
G01 X109.2100 Y30.7121
G01 X109.1925 Y30.7039
G01 X109.1743 Y30.6974
G01 X109.1556 Y30.6927
G01 X109.1365 Y30.6898
G01 X109.1172 Y30.6889
G01 X109.0979 Y30.6898
G01 X109.0788 Y30.6927
G01 X109.0600 Y30.6974
G01 X109.0418 Y30.7039
G01 X109.0244 Y30.7121
G01 X109.0078 Y30.7221
G01 X108.9923 Y30.7336
G01 X108.9780 Y30.7465
G01 X108.9650 Y30.7609
G01 X108.9535 Y30.7764
G01 X108.9435 Y30.7930
G01 X108.9353 Y30.8104
G01 X108.9288 Y30.8286
G01 X108.9241 Y30.8474
G01 X108.9212 Y30.8665
G01 X108.9203 Y30.8858
G01 X108.9212 Y30.9051
G01 X108.9241 Y30.9242
G01 X108.9288 Y30.9429
G01 X108.9353 Y30.9611
G01 X108.9435 Y30.9786
G01 X108.9535 Y30.9952
G01 X108.9650 Y31.0107
G01 X108.9780 Y31.0250
G01 X108.9923 Y31.0380
G01 X109.0078 Y31.0495
G01 X109.0244 Y31.0594
G01 X109.0418 Y31.0677
G01 X109.0600 Y31.0742
G01 X109.0788 Y31.0789
G01 X109.0979 Y31.0817
G01 X109.1172 Y31.0827
G01 X109.1365 Y31.0817
G01 X109.1556 Y31.0789
G01 X109.1743 Y31.0742
G01 X109.1925 Y31.0677
G01 X109.2100 Y31.0594
G01 X109.2266 Y31.0495
G01 X109.2421 Y31.0380
G01 X109.2564 Y31.0250
G01 X109.2694 Y31.0107
G01 X109.2809 Y30.9952
G01 X109.2908 Y30.9786
G01 X109.2991 Y30.9611
G01 X109.3056 Y30.9429
G01 X109.3103 Y30.9242
G01 X109.3131 Y30.9051
G01 X109.3141 Y30.8858
G00 Z2.0000
G00 X111.8541 Y30.8858
G01 F60.00
G01 Z-1.7000
G01 F120.00
G01 X111.8531 Y30.8665
G01 X111.8503 Y30.8474
G01 X111.8456 Y30.8286
G01 X111.8391 Y30.8104
G01 X111.8308 Y30.7930
G01 X111.8209 Y30.7764
G01 X111.8094 Y30.7609
G01 X111.7964 Y30.7465
G01 X111.7821 Y30.7336
G01 X111.7666 Y30.7221
G01 X111.7500 Y30.7121
G01 X111.7325 Y30.7039
G01 X111.7143 Y30.6974
G01 X111.6956 Y30.6927
G01 X111.6765 Y30.6898
G01 X111.6572 Y30.6889
G01 X111.6379 Y30.6898
G01 X111.6188 Y30.6927
G01 X111.6000 Y30.6974
G01 X111.5818 Y30.7039
G01 X111.5644 Y30.7121
G01 X111.5478 Y30.7221
G01 X111.5323 Y30.7336
G01 X111.5180 Y30.7465
G01 X111.5050 Y30.7609
G01 X111.4935 Y30.7764
G01 X111.4835 Y30.7930
G01 X111.4753 Y30.8104
G01 X111.4688 Y30.8286
G01 X111.4641 Y30.8474
G01 X111.4612 Y30.8665
G01 X111.4603 Y30.8858
G01 X111.4612 Y30.9051
G01 X111.4641 Y30.9242
G01 X111.4688 Y30.9429
G01 X111.4753 Y30.9611
G01 X111.4835 Y30.9786
G01 X111.4935 Y30.9952
G01 X111.5050 Y31.0107
G01 X111.5180 Y31.0250
G01 X111.5323 Y31.0380
G01 X111.5478 Y31.0495
G01 X111.5644 Y31.0594
G01 X111.5818 Y31.0677
G01 X111.6000 Y31.0742
G01 X111.6188 Y31.0789
G01 X111.6379 Y31.0817
G01 X111.6572 Y31.0827
G01 X111.6765 Y31.0817
G01 X111.6956 Y31.0789
G01 X111.7143 Y31.0742
G01 X111.7325 Y31.0677
G01 X111.7500 Y31.0594
G01 X111.7666 Y31.0495
G01 X111.7821 Y31.0380
G01 X111.7964 Y31.0250
G01 X111.8094 Y31.0107
G01 X111.8209 Y30.9952
G01 X111.8308 Y30.9786
G01 X111.8391 Y30.9611
G01 X111.8456 Y30.9429
G01 X111.8503 Y30.9242
G01 X111.8531 Y30.9051
G01 X111.8541 Y30.8858
G00 Z2.0000
G00 X114.3941 Y30.8858
G01 F60.00
G01 Z-1.7000
G01 F120.00
G01 X114.3931 Y30.8665
G01 X114.3903 Y30.8474
G01 X114.3856 Y30.8286
G01 X114.3791 Y30.8104
G01 X114.3708 Y30.7930
G01 X114.3609 Y30.7764
G01 X114.3494 Y30.7609
G01 X114.3364 Y30.7465
G01 X114.3221 Y30.7336
G01 X114.3066 Y30.7221
G01 X114.2900 Y30.7121
G01 X114.2725 Y30.7039
G01 X114.2543 Y30.6974
G01 X114.2356 Y30.6927
G01 X114.2165 Y30.6898
G01 X114.1972 Y30.6889
G01 X114.1779 Y30.6898
G01 X114.1588 Y30.6927
G01 X114.1400 Y30.6974
G01 X114.1218 Y30.7039
G01 X114.1044 Y30.7121
G01 X114.0878 Y30.7221
G01 X114.0723 Y30.7336
G01 X114.0580 Y30.7465
G01 X114.0450 Y30.7609
G01 X114.0335 Y30.7764
G01 X114.0235 Y30.7930
G01 X114.0153 Y30.8104
G01 X114.0088 Y30.8286
G01 X114.0041 Y30.8474
G01 X114.0012 Y30.8665
G01 X114.0003 Y30.8858
G01 X114.0012 Y30.9051
G01 X114.0041 Y30.9242
G01 X114.0088 Y30.9429
G01 X114.0153 Y30.9611
G01 X114.0235 Y30.9786
G01 X114.0335 Y30.9952
G01 X114.0450 Y31.0107
G01 X114.0580 Y31.0250
G01 X114.0723 Y31.0380
G01 X114.0878 Y31.0495
G01 X114.1044 Y31.0594
G01 X114.1218 Y31.0677
G01 X114.1400 Y31.0742
G01 X114.1588 Y31.0789
G01 X114.1779 Y31.0817
G01 X114.1972 Y31.0827
G01 X114.2165 Y31.0817
G01 X114.2356 Y31.0789
G01 X114.2543 Y31.0742
G01 X114.2725 Y31.0677
G01 X114.2900 Y31.0594
G01 X114.3066 Y31.0495
G01 X114.3221 Y31.0380
G01 X114.3364 Y31.0250
G01 X114.3494 Y31.0107
G01 X114.3609 Y30.9952
G01 X114.3708 Y30.9786
G01 X114.3791 Y30.9611
G01 X114.3856 Y30.9429
G01 X114.3903 Y30.9242
G01 X114.3931 Y30.9051
G01 X114.3941 Y30.8858
G00 Z2.0000
G00 X116.9341 Y30.8858
G01 F60.00
G01 Z-1.7000
G01 F120.00
G01 X116.9331 Y30.8665
G01 X116.9303 Y30.8474
G01 X116.9256 Y30.8286
G01 X116.9191 Y30.8104
G01 X116.9108 Y30.7930
G01 X116.9009 Y30.7764
G01 X116.8894 Y30.7609
G01 X116.8764 Y30.7465
G01 X116.8621 Y30.7336
G01 X116.8466 Y30.7221
G01 X116.8300 Y30.7121
G01 X116.8125 Y30.7039
G01 X116.7943 Y30.6974
G01 X116.7756 Y30.6927
G01 X116.7565 Y30.6898
G01 X116.7372 Y30.6889
G01 X116.7179 Y30.6898
G01 X116.6988 Y30.6927
G01 X116.6800 Y30.6974
G01 X116.6618 Y30.7039
G01 X116.6444 Y30.7121
G01 X116.6278 Y30.7221
G01 X116.6123 Y30.7336
G01 X116.5980 Y30.7465
G01 X116.5850 Y30.7609
G01 X116.5735 Y30.7764
G01 X116.5635 Y30.7930
G01 X116.5553 Y30.8104
G01 X116.5488 Y30.8286
G01 X116.5441 Y30.8474
G01 X116.5412 Y30.8665
G01 X116.5403 Y30.8858
G01 X116.5412 Y30.9051
G01 X116.5441 Y30.9242
G01 X116.5488 Y30.9429
G01 X116.5553 Y30.9611
G01 X116.5635 Y30.9786
G01 X116.5735 Y30.9952
G01 X116.5850 Y31.0107
G01 X116.5980 Y31.0250
G01 X116.6123 Y31.0380
G01 X116.6278 Y31.0495
G01 X116.6444 Y31.0594
G01 X116.6618 Y31.0677
G01 X116.6800 Y31.0742
G01 X116.6988 Y31.0789
G01 X116.7179 Y31.0817
G01 X116.7372 Y31.0827
G01 X116.7565 Y31.0817
G01 X116.7756 Y31.0789
G01 X116.7943 Y31.0742
G01 X116.8125 Y31.0677
G01 X116.8300 Y31.0594
G01 X116.8466 Y31.0495
G01 X116.8621 Y31.0380
G01 X116.8764 Y31.0250
G01 X116.8894 Y31.0107
G01 X116.9009 Y30.9952
G01 X116.9108 Y30.9786
G01 X116.9191 Y30.9611
G01 X116.9256 Y30.9429
G01 X116.9303 Y30.9242
G01 X116.9331 Y30.9051
G01 X116.9341 Y30.8858
G00 Z2.0000
G00 X116.8452 Y34.9498
G01 F60.00
G01 Z-1.7000
G01 F120.00
G01 X116.8447 Y34.9392
G01 X116.8431 Y34.9287
G01 X116.8405 Y34.9184
G01 X116.8370 Y34.9084
G01 X116.8324 Y34.8989
G01 X116.8270 Y34.8898
G01 X116.8207 Y34.8813
G01 X116.8136 Y34.8734
G01 X116.8057 Y34.8663
G01 X116.7972 Y34.8600
G01 X116.7881 Y34.8545
G01 X116.7785 Y34.8500
G01 X116.7685 Y34.8464
G01 X116.7583 Y34.8438
G01 X116.7478 Y34.8423
G01 X116.7372 Y34.8418
G01 X116.7266 Y34.8423
G01 X116.7161 Y34.8438
G01 X116.7058 Y34.8464
G01 X116.6959 Y34.8500
G01 X116.6863 Y34.8545
G01 X116.6772 Y34.8600
G01 X116.6687 Y34.8663
G01 X116.6608 Y34.8734
G01 X116.6537 Y34.8813
G01 X116.6474 Y34.8898
G01 X116.6419 Y34.8989
G01 X116.6374 Y34.9084
G01 X116.6338 Y34.9184
G01 X116.6313 Y34.9287
G01 X116.6297 Y34.9392
G01 X116.6292 Y34.9498
G01 X116.6297 Y34.9604
G01 X116.6313 Y34.9708
G01 X116.6338 Y34.9811
G01 X116.6374 Y34.9911
G01 X116.6419 Y35.0007
G01 X116.6474 Y35.0098
G01 X116.6537 Y35.0183
G01 X116.6608 Y35.0261
G01 X116.6687 Y35.0333
G01 X116.6772 Y35.0396
G01 X116.6863 Y35.0450
G01 X116.6959 Y35.0496
G01 X116.7058 Y35.0531
G01 X116.7161 Y35.0557
G01 X116.7266 Y35.0573
G01 X116.7372 Y35.0578
G01 X116.7478 Y35.0573
G01 X116.7583 Y35.0557
G01 X116.7685 Y35.0531
G01 X116.7785 Y35.0496
G01 X116.7881 Y35.0450
G01 X116.7972 Y35.0396
G01 X116.8057 Y35.0333
G01 X116.8136 Y35.0261
G01 X116.8207 Y35.0183
G01 X116.8270 Y35.0098
G01 X116.8324 Y35.0007
G01 X116.8370 Y34.9911
G01 X116.8405 Y34.9811
G01 X116.8431 Y34.9708
G01 X116.8447 Y34.9604
G01 X116.8452 Y34.9498
G00 Z2.0000
G00 X114.3052 Y34.9498
G01 F60.00
G01 Z-1.7000
G01 F120.00
G01 X114.3047 Y34.9392
G01 X114.3031 Y34.9287
G01 X114.3005 Y34.9184
G01 X114.2970 Y34.9084
G01 X114.2924 Y34.8989
G01 X114.2870 Y34.8898
G01 X114.2807 Y34.8813
G01 X114.2736 Y34.8734
G01 X114.2657 Y34.8663
G01 X114.2572 Y34.8600
G01 X114.2481 Y34.8545
G01 X114.2385 Y34.8500
G01 X114.2285 Y34.8464
G01 X114.2183 Y34.8438
G01 X114.2078 Y34.8423
G01 X114.1972 Y34.8418
G01 X114.1866 Y34.8423
G01 X114.1761 Y34.8438
G01 X114.1658 Y34.8464
G01 X114.1559 Y34.8500
G01 X114.1463 Y34.8545
G01 X114.1372 Y34.8600
G01 X114.1287 Y34.8663
G01 X114.1208 Y34.8734
G01 X114.1137 Y34.8813
G01 X114.1074 Y34.8898
G01 X114.1019 Y34.8989
G01 X114.0974 Y34.9084
G01 X114.0938 Y34.9184
G01 X114.0913 Y34.9287
G01 X114.0897 Y34.9392
G01 X114.0892 Y34.9498
G01 X114.0897 Y34.9604
G01 X114.0913 Y34.9708
G01 X114.0938 Y34.9811
G01 X114.0974 Y34.9911
G01 X114.1019 Y35.0007
G01 X114.1074 Y35.0098
G01 X114.1137 Y35.0183
G01 X114.1208 Y35.0261
G01 X114.1287 Y35.0333
G01 X114.1372 Y35.0396
G01 X114.1463 Y35.0450
G01 X114.1559 Y35.0496
G01 X114.1658 Y35.0531
G01 X114.1761 Y35.0557
G01 X114.1866 Y35.0573
G01 X114.1972 Y35.0578
G01 X114.2078 Y35.0573
G01 X114.2183 Y35.0557
G01 X114.2285 Y35.0531
G01 X114.2385 Y35.0496
G01 X114.2481 Y35.0450
G01 X114.2572 Y35.0396
G01 X114.2657 Y35.0333
G01 X114.2736 Y35.0261
G01 X114.2807 Y35.0183
G01 X114.2870 Y35.0098
G01 X114.2924 Y35.0007
G01 X114.2970 Y34.9911
G01 X114.3005 Y34.9811
G01 X114.3031 Y34.9708
G01 X114.3047 Y34.9604
G01 X114.3052 Y34.9498
G00 Z2.0000
G00 X111.7652 Y34.9498
G01 F60.00
G01 Z-1.7000
G01 F120.00
G01 X111.7647 Y34.9392
G01 X111.7631 Y34.9287
G01 X111.7605 Y34.9184
G01 X111.7570 Y34.9084
G01 X111.7524 Y34.8989
G01 X111.7470 Y34.8898
G01 X111.7407 Y34.8813
G01 X111.7336 Y34.8734
G01 X111.7257 Y34.8663
G01 X111.7172 Y34.8600
G01 X111.7081 Y34.8545
G01 X111.6985 Y34.8500
G01 X111.6885 Y34.8464
G01 X111.6783 Y34.8438
G01 X111.6678 Y34.8423
G01 X111.6572 Y34.8418
G01 X111.6466 Y34.8423
G01 X111.6361 Y34.8438
G01 X111.6258 Y34.8464
G01 X111.6159 Y34.8500
G01 X111.6063 Y34.8545
G01 X111.5972 Y34.8600
G01 X111.5887 Y34.8663
G01 X111.5808 Y34.8734
G01 X111.5737 Y34.8813
G01 X111.5674 Y34.8898
G01 X111.5619 Y34.8989
G01 X111.5574 Y34.9084
G01 X111.5538 Y34.9184
G01 X111.5513 Y34.9287
G01 X111.5497 Y34.9392
G01 X111.5492 Y34.9498
G01 X111.5497 Y34.9604
G01 X111.5513 Y34.9708
G01 X111.5538 Y34.9811
G01 X111.5574 Y34.9911
G01 X111.5619 Y35.0007
G01 X111.5674 Y35.0098
G01 X111.5737 Y35.0183
G01 X111.5808 Y35.0261
G01 X111.5887 Y35.0333
G01 X111.5972 Y35.0396
G01 X111.6063 Y35.0450
G01 X111.6159 Y35.0496
G01 X111.6258 Y35.0531
G01 X111.6361 Y35.0557
G01 X111.6466 Y35.0573
G01 X111.6572 Y35.0578
G01 X111.6678 Y35.0573
G01 X111.6783 Y35.0557
G01 X111.6885 Y35.0531
G01 X111.6985 Y35.0496
G01 X111.7081 Y35.0450
G01 X111.7172 Y35.0396
G01 X111.7257 Y35.0333
G01 X111.7336 Y35.0261
G01 X111.7407 Y35.0183
G01 X111.7470 Y35.0098
G01 X111.7524 Y35.0007
G01 X111.7570 Y34.9911
G01 X111.7605 Y34.9811
G01 X111.7631 Y34.9708
G01 X111.7647 Y34.9604
G01 X111.7652 Y34.9498
G00 Z2.0000
G00 X109.2252 Y34.9498
G01 F60.00
G01 Z-1.7000
G01 F120.00
G01 X109.2247 Y34.9392
G01 X109.2231 Y34.9287
G01 X109.2205 Y34.9184
G01 X109.2170 Y34.9084
G01 X109.2124 Y34.8989
G01 X109.2070 Y34.8898
G01 X109.2007 Y34.8813
G01 X109.1936 Y34.8734
G01 X109.1857 Y34.8663
G01 X109.1772 Y34.8600
G01 X109.1681 Y34.8545
G01 X109.1585 Y34.8500
G01 X109.1485 Y34.8464
G01 X109.1383 Y34.8438
G01 X109.1278 Y34.8423
G01 X109.1172 Y34.8418
G01 X109.1066 Y34.8423
G01 X109.0961 Y34.8438
G01 X109.0858 Y34.8464
G01 X109.0759 Y34.8500
G01 X109.0663 Y34.8545
G01 X109.0572 Y34.8600
G01 X109.0487 Y34.8663
G01 X109.0408 Y34.8734
G01 X109.0337 Y34.8813
G01 X109.0274 Y34.8898
G01 X109.0219 Y34.8989
G01 X109.0174 Y34.9084
G01 X109.0138 Y34.9184
G01 X109.0113 Y34.9287
G01 X109.0097 Y34.9392
G01 X109.0092 Y34.9498
G01 X109.0097 Y34.9604
G01 X109.0113 Y34.9708
G01 X109.0138 Y34.9811
G01 X109.0174 Y34.9911
G01 X109.0219 Y35.0007
G01 X109.0274 Y35.0098
G01 X109.0337 Y35.0183
G01 X109.0408 Y35.0261
G01 X109.0487 Y35.0333
G01 X109.0572 Y35.0396
G01 X109.0663 Y35.0450
G01 X109.0759 Y35.0496
G01 X109.0858 Y35.0531
G01 X109.0961 Y35.0557
G01 X109.1066 Y35.0573
G01 X109.1172 Y35.0578
G01 X109.1278 Y35.0573
G01 X109.1383 Y35.0557
G01 X109.1485 Y35.0531
G01 X109.1585 Y35.0496
G01 X109.1681 Y35.0450
G01 X109.1772 Y35.0396
G01 X109.1857 Y35.0333
G01 X109.1936 Y35.0261
G01 X109.2007 Y35.0183
G01 X109.2070 Y35.0098
G01 X109.2124 Y35.0007
G01 X109.2170 Y34.9911
G01 X109.2205 Y34.9811
G01 X109.2231 Y34.9708
G01 X109.2247 Y34.9604
G01 X109.2252 Y34.9498
G00 Z2.0000
G00 X106.6852 Y34.9498
G01 F60.00
G01 Z-1.7000
G01 F120.00
G01 X106.6847 Y34.9392
G01 X106.6831 Y34.9287
G01 X106.6805 Y34.9184
G01 X106.6770 Y34.9084
G01 X106.6724 Y34.8989
G01 X106.6670 Y34.8898
G01 X106.6607 Y34.8813
G01 X106.6536 Y34.8734
G01 X106.6457 Y34.8663
G01 X106.6372 Y34.8600
G01 X106.6281 Y34.8545
G01 X106.6185 Y34.8500
G01 X106.6085 Y34.8464
G01 X106.5983 Y34.8438
G01 X106.5878 Y34.8423
G01 X106.5772 Y34.8418
G01 X106.5666 Y34.8423
G01 X106.5561 Y34.8438
G01 X106.5458 Y34.8464
G01 X106.5359 Y34.8500
G01 X106.5263 Y34.8545
G01 X106.5172 Y34.8600
G01 X106.5087 Y34.8663
G01 X106.5008 Y34.8734
G01 X106.4937 Y34.8813
G01 X106.4874 Y34.8898
G01 X106.4819 Y34.8989
G01 X106.4774 Y34.9084
G01 X106.4738 Y34.9184
G01 X106.4713 Y34.9287
G01 X106.4697 Y34.9392
G01 X106.4692 Y34.9498
G01 X106.4697 Y34.9604
G01 X106.4713 Y34.9708
G01 X106.4738 Y34.9811
G01 X106.4774 Y34.9911
G01 X106.4819 Y35.0007
G01 X106.4874 Y35.0098
G01 X106.4937 Y35.0183
G01 X106.5008 Y35.0261
G01 X106.5087 Y35.0333
G01 X106.5172 Y35.0396
G01 X106.5263 Y35.0450
G01 X106.5359 Y35.0496
G01 X106.5458 Y35.0531
G01 X106.5561 Y35.0557
G01 X106.5666 Y35.0573
G01 X106.5772 Y35.0578
G01 X106.5878 Y35.0573
G01 X106.5983 Y35.0557
G01 X106.6085 Y35.0531
G01 X106.6185 Y35.0496
G01 X106.6281 Y35.0450
G01 X106.6372 Y35.0396
G01 X106.6457 Y35.0333
G01 X106.6536 Y35.0261
G01 X106.6607 Y35.0183
G01 X106.6670 Y35.0098
G01 X106.6724 Y35.0007
G01 X106.6770 Y34.9911
G01 X106.6805 Y34.9811
G01 X106.6831 Y34.9708
G01 X106.6847 Y34.9604
G01 X106.6852 Y34.9498
G00 Z2.0000
G00 X104.1452 Y34.9498
G01 F60.00
G01 Z-1.7000
G01 F120.00
G01 X104.1447 Y34.9392
G01 X104.1431 Y34.9287
G01 X104.1405 Y34.9184
G01 X104.1370 Y34.9084
G01 X104.1324 Y34.8989
G01 X104.1270 Y34.8898
G01 X104.1207 Y34.8813
G01 X104.1136 Y34.8734
G01 X104.1057 Y34.8663
G01 X104.0972 Y34.8600
G01 X104.0881 Y34.8545
G01 X104.0785 Y34.8500
G01 X104.0685 Y34.8464
G01 X104.0583 Y34.8438
G01 X104.0478 Y34.8423
G01 X104.0372 Y34.8418
G01 X104.0266 Y34.8423
G01 X104.0161 Y34.8438
G01 X104.0058 Y34.8464
G01 X103.9959 Y34.8500
G01 X103.9863 Y34.8545
G01 X103.9772 Y34.8600
G01 X103.9687 Y34.8663
G01 X103.9608 Y34.8734
G01 X103.9537 Y34.8813
G01 X103.9474 Y34.8898
G01 X103.9419 Y34.8989
G01 X103.9374 Y34.9084
G01 X103.9338 Y34.9184
G01 X103.9313 Y34.9287
G01 X103.9297 Y34.9392
G01 X103.9292 Y34.9498
G01 X103.9297 Y34.9604
G01 X103.9313 Y34.9708
G01 X103.9338 Y34.9811
G01 X103.9374 Y34.9911
G01 X103.9419 Y35.0007
G01 X103.9474 Y35.0098
G01 X103.9537 Y35.0183
G01 X103.9608 Y35.0261
G01 X103.9687 Y35.0333
G01 X103.9772 Y35.0396
G01 X103.9863 Y35.0450
G01 X103.9959 Y35.0496
G01 X104.0058 Y35.0531
G01 X104.0161 Y35.0557
G01 X104.0266 Y35.0573
G01 X104.0372 Y35.0578
G01 X104.0478 Y35.0573
G01 X104.0583 Y35.0557
G01 X104.0685 Y35.0531
G01 X104.0785 Y35.0496
G01 X104.0881 Y35.0450
G01 X104.0972 Y35.0396
G01 X104.1057 Y35.0333
G01 X104.1136 Y35.0261
G01 X104.1207 Y35.0183
G01 X104.1270 Y35.0098
G01 X104.1324 Y35.0007
G01 X104.1370 Y34.9911
G01 X104.1405 Y34.9811
G01 X104.1431 Y34.9708
G01 X104.1447 Y34.9604
G01 X104.1452 Y34.9498
G00 Z2.0000
G00 X101.6052 Y34.9498
G01 F60.00
G01 Z-1.7000
G01 F120.00
G01 X101.6047 Y34.9392
G01 X101.6031 Y34.9287
G01 X101.6005 Y34.9184
G01 X101.5970 Y34.9084
G01 X101.5924 Y34.8989
G01 X101.5870 Y34.8898
G01 X101.5807 Y34.8813
G01 X101.5736 Y34.8734
G01 X101.5657 Y34.8663
G01 X101.5572 Y34.8600
G01 X101.5481 Y34.8545
G01 X101.5385 Y34.8500
G01 X101.5285 Y34.8464
G01 X101.5183 Y34.8438
G01 X101.5078 Y34.8423
G01 X101.4972 Y34.8418
G01 X101.4866 Y34.8423
G01 X101.4761 Y34.8438
G01 X101.4658 Y34.8464
G01 X101.4559 Y34.8500
G01 X101.4463 Y34.8545
G01 X101.4372 Y34.8600
G01 X101.4287 Y34.8663
G01 X101.4208 Y34.8734
G01 X101.4137 Y34.8813
G01 X101.4074 Y34.8898
G01 X101.4019 Y34.8989
G01 X101.3974 Y34.9084
G01 X101.3938 Y34.9184
G01 X101.3913 Y34.9287
G01 X101.3897 Y34.9392
G01 X101.3892 Y34.9498
G01 X101.3897 Y34.9604
G01 X101.3913 Y34.9708
G01 X101.3938 Y34.9811
G01 X101.3974 Y34.9911
G01 X101.4019 Y35.0007
G01 X101.4074 Y35.0098
G01 X101.4137 Y35.0183
G01 X101.4208 Y35.0261
G01 X101.4287 Y35.0333
G01 X101.4372 Y35.0396
G01 X101.4463 Y35.0450
G01 X101.4559 Y35.0496
G01 X101.4658 Y35.0531
G01 X101.4761 Y35.0557
G01 X101.4866 Y35.0573
G01 X101.4972 Y35.0578
G01 X101.5078 Y35.0573
G01 X101.5183 Y35.0557
G01 X101.5285 Y35.0531
G01 X101.5385 Y35.0496
G01 X101.5481 Y35.0450
G01 X101.5572 Y35.0396
G01 X101.5657 Y35.0333
G01 X101.5736 Y35.0261
G01 X101.5807 Y35.0183
G01 X101.5870 Y35.0098
G01 X101.5924 Y35.0007
G01 X101.5970 Y34.9911
G01 X101.6005 Y34.9811
G01 X101.6031 Y34.9708
G01 X101.6047 Y34.9604
G01 X101.6052 Y34.9498
G00 Z2.0000
G00 X99.0652 Y34.9498
G01 F60.00
G01 Z-1.7000
G01 F120.00
G01 X99.0647 Y34.9392
G01 X99.0631 Y34.9287
G01 X99.0605 Y34.9184
G01 X99.0570 Y34.9084
G01 X99.0524 Y34.8989
G01 X99.0470 Y34.8898
G01 X99.0407 Y34.8813
G01 X99.0336 Y34.8734
G01 X99.0257 Y34.8663
G01 X99.0172 Y34.8600
G01 X99.0081 Y34.8545
G01 X98.9985 Y34.8500
G01 X98.9885 Y34.8464
G01 X98.9783 Y34.8438
G01 X98.9678 Y34.8423
G01 X98.9572 Y34.8418
G01 X98.9466 Y34.8423
G01 X98.9361 Y34.8438
G01 X98.9258 Y34.8464
G01 X98.9159 Y34.8500
G01 X98.9063 Y34.8545
G01 X98.8972 Y34.8600
G01 X98.8887 Y34.8663
G01 X98.8808 Y34.8734
G01 X98.8737 Y34.8813
G01 X98.8674 Y34.8898
G01 X98.8619 Y34.8989
G01 X98.8574 Y34.9084
G01 X98.8538 Y34.9184
G01 X98.8513 Y34.9287
G01 X98.8497 Y34.9392
G01 X98.8492 Y34.9498
G01 X98.8497 Y34.9604
G01 X98.8513 Y34.9708
G01 X98.8538 Y34.9811
G01 X98.8574 Y34.9911
G01 X98.8619 Y35.0007
G01 X98.8674 Y35.0098
G01 X98.8737 Y35.0183
G01 X98.8808 Y35.0261
G01 X98.8887 Y35.0333
G01 X98.8972 Y35.0396
G01 X98.9063 Y35.0450
G01 X98.9159 Y35.0496
G01 X98.9258 Y35.0531
G01 X98.9361 Y35.0557
G01 X98.9466 Y35.0573
G01 X98.9572 Y35.0578
G01 X98.9678 Y35.0573
G01 X98.9783 Y35.0557
G01 X98.9885 Y35.0531
G01 X98.9985 Y35.0496
G01 X99.0081 Y35.0450
G01 X99.0172 Y35.0396
G01 X99.0257 Y35.0333
G01 X99.0336 Y35.0261
G01 X99.0407 Y35.0183
G01 X99.0470 Y35.0098
G01 X99.0524 Y35.0007
G01 X99.0570 Y34.9911
G01 X99.0605 Y34.9811
G01 X99.0631 Y34.9708
G01 X99.0647 Y34.9604
G01 X99.0652 Y34.9498
G00 Z2.0000
G00 X96.5252 Y40.0298
G01 F60.00
G01 Z-1.7000
G01 F120.00
G01 X96.5247 Y40.0192
G01 X96.5231 Y40.0087
G01 X96.5205 Y39.9984
G01 X96.5170 Y39.9884
G01 X96.5124 Y39.9789
G01 X96.5070 Y39.9698
G01 X96.5007 Y39.9613
G01 X96.4936 Y39.9534
G01 X96.4857 Y39.9463
G01 X96.4772 Y39.9400
G01 X96.4681 Y39.9345
G01 X96.4585 Y39.9300
G01 X96.4485 Y39.9264
G01 X96.4383 Y39.9238
G01 X96.4278 Y39.9223
G01 X96.4172 Y39.9218
G01 X96.4066 Y39.9223
G01 X96.3961 Y39.9238
G01 X96.3858 Y39.9264
G01 X96.3759 Y39.9300
G01 X96.3663 Y39.9345
G01 X96.3572 Y39.9400
G01 X96.3487 Y39.9463
G01 X96.3408 Y39.9534
G01 X96.3337 Y39.9613
G01 X96.3274 Y39.9698
G01 X96.3219 Y39.9789
G01 X96.3174 Y39.9884
G01 X96.3138 Y39.9984
G01 X96.3113 Y40.0087
G01 X96.3097 Y40.0192
G01 X96.3092 Y40.0298
G01 X96.3097 Y40.0404
G01 X96.3113 Y40.0508
G01 X96.3138 Y40.0611
G01 X96.3174 Y40.0711
G01 X96.3219 Y40.0807
G01 X96.3274 Y40.0898
G01 X96.3337 Y40.0983
G01 X96.3408 Y40.1061
G01 X96.3487 Y40.1133
G01 X96.3572 Y40.1196
G01 X96.3663 Y40.1250
G01 X96.3759 Y40.1296
G01 X96.3858 Y40.1331
G01 X96.3961 Y40.1357
G01 X96.4066 Y40.1373
G01 X96.4172 Y40.1378
G01 X96.4278 Y40.1373
G01 X96.4383 Y40.1357
G01 X96.4485 Y40.1331
G01 X96.4585 Y40.1296
G01 X96.4681 Y40.1250
G01 X96.4772 Y40.1196
G01 X96.4857 Y40.1133
G01 X96.4936 Y40.1061
G01 X96.5007 Y40.0983
G01 X96.5070 Y40.0898
G01 X96.5124 Y40.0807
G01 X96.5170 Y40.0711
G01 X96.5205 Y40.0611
G01 X96.5231 Y40.0508
G01 X96.5247 Y40.0404
G01 X96.5252 Y40.0298
G00 Z2.0000
G00 X96.5252 Y42.5698
G01 F60.00
G01 Z-1.7000
G01 F120.00
G01 X96.5247 Y42.5592
G01 X96.5231 Y42.5487
G01 X96.5205 Y42.5384
G01 X96.5170 Y42.5284
G01 X96.5124 Y42.5189
G01 X96.5070 Y42.5098
G01 X96.5007 Y42.5013
G01 X96.4936 Y42.4934
G01 X96.4857 Y42.4863
G01 X96.4772 Y42.4800
G01 X96.4681 Y42.4745
G01 X96.4585 Y42.4700
G01 X96.4485 Y42.4664
G01 X96.4383 Y42.4638
G01 X96.4278 Y42.4623
G01 X96.4172 Y42.4618
G01 X96.4066 Y42.4623
G01 X96.3961 Y42.4638
G01 X96.3858 Y42.4664
G01 X96.3759 Y42.4700
G01 X96.3663 Y42.4745
G01 X96.3572 Y42.4800
G01 X96.3487 Y42.4863
G01 X96.3408 Y42.4934
G01 X96.3337 Y42.5013
G01 X96.3274 Y42.5098
G01 X96.3219 Y42.5189
G01 X96.3174 Y42.5284
G01 X96.3138 Y42.5384
G01 X96.3113 Y42.5487
G01 X96.3097 Y42.5592
G01 X96.3092 Y42.5698
G01 X96.3097 Y42.5804
G01 X96.3113 Y42.5908
G01 X96.3138 Y42.6011
G01 X96.3174 Y42.6111
G01 X96.3219 Y42.6207
G01 X96.3274 Y42.6298
G01 X96.3337 Y42.6383
G01 X96.3408 Y42.6461
G01 X96.3487 Y42.6533
G01 X96.3572 Y42.6596
G01 X96.3663 Y42.6650
G01 X96.3759 Y42.6696
G01 X96.3858 Y42.6731
G01 X96.3961 Y42.6757
G01 X96.4066 Y42.6773
G01 X96.4172 Y42.6778
G01 X96.4278 Y42.6773
G01 X96.4383 Y42.6757
G01 X96.4485 Y42.6731
G01 X96.4585 Y42.6696
G01 X96.4681 Y42.6650
G01 X96.4772 Y42.6596
G01 X96.4857 Y42.6533
G01 X96.4936 Y42.6461
G01 X96.5007 Y42.6383
G01 X96.5070 Y42.6298
G01 X96.5124 Y42.6207
G01 X96.5170 Y42.6111
G01 X96.5205 Y42.6011
G01 X96.5231 Y42.5908
G01 X96.5247 Y42.5804
G01 X96.5252 Y42.5698
G00 Z2.0000
G00 X96.5252 Y45.1098
G01 F60.00
G01 Z-1.7000
G01 F120.00
G01 X96.5247 Y45.0992
G01 X96.5231 Y45.0887
G01 X96.5205 Y45.0784
G01 X96.5170 Y45.0684
G01 X96.5124 Y45.0589
G01 X96.5070 Y45.0498
G01 X96.5007 Y45.0413
G01 X96.4936 Y45.0334
G01 X96.4857 Y45.0263
G01 X96.4772 Y45.0200
G01 X96.4681 Y45.0145
G01 X96.4585 Y45.0100
G01 X96.4485 Y45.0064
G01 X96.4383 Y45.0038
G01 X96.4278 Y45.0023
G01 X96.4172 Y45.0018
G01 X96.4066 Y45.0023
G01 X96.3961 Y45.0038
G01 X96.3858 Y45.0064
G01 X96.3759 Y45.0100
G01 X96.3663 Y45.0145
G01 X96.3572 Y45.0200
G01 X96.3487 Y45.0263
G01 X96.3408 Y45.0334
G01 X96.3337 Y45.0413
G01 X96.3274 Y45.0498
G01 X96.3219 Y45.0589
G01 X96.3174 Y45.0684
G01 X96.3138 Y45.0784
G01 X96.3113 Y45.0887
G01 X96.3097 Y45.0992
G01 X96.3092 Y45.1098
G01 X96.3097 Y45.1204
G01 X96.3113 Y45.1308
G01 X96.3138 Y45.1411
G01 X96.3174 Y45.1511
G01 X96.3219 Y45.1607
G01 X96.3274 Y45.1698
G01 X96.3337 Y45.1783
G01 X96.3408 Y45.1861
G01 X96.3487 Y45.1933
G01 X96.3572 Y45.1996
G01 X96.3663 Y45.2050
G01 X96.3759 Y45.2096
G01 X96.3858 Y45.2131
G01 X96.3961 Y45.2157
G01 X96.4066 Y45.2173
G01 X96.4172 Y45.2178
G01 X96.4278 Y45.2173
G01 X96.4383 Y45.2157
G01 X96.4485 Y45.2131
G01 X96.4585 Y45.2096
G01 X96.4681 Y45.2050
G01 X96.4772 Y45.1996
G01 X96.4857 Y45.1933
G01 X96.4936 Y45.1861
G01 X96.5007 Y45.1783
G01 X96.5070 Y45.1698
G01 X96.5124 Y45.1607
G01 X96.5170 Y45.1511
G01 X96.5205 Y45.1411
G01 X96.5231 Y45.1308
G01 X96.5247 Y45.1204
G01 X96.5252 Y45.1098
G00 Z2.0000
G00 X96.5252 Y47.6498
G01 F60.00
G01 Z-1.7000
G01 F120.00
G01 X96.5247 Y47.6392
G01 X96.5231 Y47.6287
G01 X96.5205 Y47.6184
G01 X96.5170 Y47.6084
G01 X96.5124 Y47.5989
G01 X96.5070 Y47.5898
G01 X96.5007 Y47.5813
G01 X96.4936 Y47.5734
G01 X96.4857 Y47.5663
G01 X96.4772 Y47.5600
G01 X96.4681 Y47.5545
G01 X96.4585 Y47.5500
G01 X96.4485 Y47.5464
G01 X96.4383 Y47.5438
G01 X96.4278 Y47.5423
G01 X96.4172 Y47.5418
G01 X96.4066 Y47.5423
G01 X96.3961 Y47.5438
G01 X96.3858 Y47.5464
G01 X96.3759 Y47.5500
G01 X96.3663 Y47.5545
G01 X96.3572 Y47.5600
G01 X96.3487 Y47.5663
G01 X96.3408 Y47.5734
G01 X96.3337 Y47.5813
G01 X96.3274 Y47.5898
G01 X96.3219 Y47.5989
G01 X96.3174 Y47.6084
G01 X96.3138 Y47.6184
G01 X96.3113 Y47.6287
G01 X96.3097 Y47.6392
G01 X96.3092 Y47.6498
G01 X96.3097 Y47.6604
G01 X96.3113 Y47.6708
G01 X96.3138 Y47.6811
G01 X96.3174 Y47.6911
G01 X96.3219 Y47.7007
G01 X96.3274 Y47.7098
G01 X96.3337 Y47.7183
G01 X96.3408 Y47.7261
G01 X96.3487 Y47.7333
G01 X96.3572 Y47.7396
G01 X96.3663 Y47.7450
G01 X96.3759 Y47.7496
G01 X96.3858 Y47.7531
G01 X96.3961 Y47.7557
G01 X96.4066 Y47.7573
G01 X96.4172 Y47.7578
G01 X96.4278 Y47.7573
G01 X96.4383 Y47.7557
G01 X96.4485 Y47.7531
G01 X96.4585 Y47.7496
G01 X96.4681 Y47.7450
G01 X96.4772 Y47.7396
G01 X96.4857 Y47.7333
G01 X96.4936 Y47.7261
G01 X96.5007 Y47.7183
G01 X96.5070 Y47.7098
G01 X96.5124 Y47.7007
G01 X96.5170 Y47.6911
G01 X96.5205 Y47.6811
G01 X96.5231 Y47.6708
G01 X96.5247 Y47.6604
G01 X96.5252 Y47.6498
G00 Z2.0000
G00 X96.5252 Y50.1898
G01 F60.00
G01 Z-1.7000
G01 F120.00
G01 X96.5247 Y50.1792
G01 X96.5231 Y50.1687
G01 X96.5205 Y50.1584
G01 X96.5170 Y50.1484
G01 X96.5124 Y50.1389
G01 X96.5070 Y50.1298
G01 X96.5007 Y50.1213
G01 X96.4936 Y50.1134
G01 X96.4857 Y50.1063
G01 X96.4772 Y50.1000
G01 X96.4681 Y50.0945
G01 X96.4585 Y50.0900
G01 X96.4485 Y50.0864
G01 X96.4383 Y50.0838
G01 X96.4278 Y50.0823
G01 X96.4172 Y50.0818
G01 X96.4066 Y50.0823
G01 X96.3961 Y50.0838
G01 X96.3858 Y50.0864
G01 X96.3759 Y50.0900
G01 X96.3663 Y50.0945
G01 X96.3572 Y50.1000
G01 X96.3487 Y50.1063
G01 X96.3408 Y50.1134
G01 X96.3337 Y50.1213
G01 X96.3274 Y50.1298
G01 X96.3219 Y50.1389
G01 X96.3174 Y50.1484
G01 X96.3138 Y50.1584
G01 X96.3113 Y50.1687
G01 X96.3097 Y50.1792
G01 X96.3092 Y50.1898
G01 X96.3097 Y50.2004
G01 X96.3113 Y50.2108
G01 X96.3138 Y50.2211
G01 X96.3174 Y50.2311
G01 X96.3219 Y50.2407
G01 X96.3274 Y50.2498
G01 X96.3337 Y50.2583
G01 X96.3408 Y50.2661
G01 X96.3487 Y50.2733
G01 X96.3572 Y50.2796
G01 X96.3663 Y50.2850
G01 X96.3759 Y50.2896
G01 X96.3858 Y50.2931
G01 X96.3961 Y50.2957
G01 X96.4066 Y50.2973
G01 X96.4172 Y50.2978
G01 X96.4278 Y50.2973
G01 X96.4383 Y50.2957
G01 X96.4485 Y50.2931
G01 X96.4585 Y50.2896
G01 X96.4681 Y50.2850
G01 X96.4772 Y50.2796
G01 X96.4857 Y50.2733
G01 X96.4936 Y50.2661
G01 X96.5007 Y50.2583
G01 X96.5070 Y50.2498
G01 X96.5124 Y50.2407
G01 X96.5170 Y50.2311
G01 X96.5205 Y50.2211
G01 X96.5231 Y50.2108
G01 X96.5247 Y50.2004
G01 X96.5252 Y50.1898
G00 Z2.0000
G00 X96.5252 Y52.7298
G01 F60.00
G01 Z-1.7000
G01 F120.00
G01 X96.5247 Y52.7192
G01 X96.5231 Y52.7087
G01 X96.5205 Y52.6984
G01 X96.5170 Y52.6884
G01 X96.5124 Y52.6789
G01 X96.5070 Y52.6698
G01 X96.5007 Y52.6613
G01 X96.4936 Y52.6534
G01 X96.4857 Y52.6463
G01 X96.4772 Y52.6400
G01 X96.4681 Y52.6345
G01 X96.4585 Y52.6300
G01 X96.4485 Y52.6264
G01 X96.4383 Y52.6238
G01 X96.4278 Y52.6223
G01 X96.4172 Y52.6218
G01 X96.4066 Y52.6223
G01 X96.3961 Y52.6238
G01 X96.3858 Y52.6264
G01 X96.3759 Y52.6300
G01 X96.3663 Y52.6345
G01 X96.3572 Y52.6400
G01 X96.3487 Y52.6463
G01 X96.3408 Y52.6534
G01 X96.3337 Y52.6613
G01 X96.3274 Y52.6698
G01 X96.3219 Y52.6789
G01 X96.3174 Y52.6884
G01 X96.3138 Y52.6984
G01 X96.3113 Y52.7087
G01 X96.3097 Y52.7192
G01 X96.3092 Y52.7298
G01 X96.3097 Y52.7404
G01 X96.3113 Y52.7508
G01 X96.3138 Y52.7611
G01 X96.3174 Y52.7711
G01 X96.3219 Y52.7807
G01 X96.3274 Y52.7898
G01 X96.3337 Y52.7983
G01 X96.3408 Y52.8061
G01 X96.3487 Y52.8133
G01 X96.3572 Y52.8196
G01 X96.3663 Y52.8250
G01 X96.3759 Y52.8296
G01 X96.3858 Y52.8331
G01 X96.3961 Y52.8357
G01 X96.4066 Y52.8373
G01 X96.4172 Y52.8378
G01 X96.4278 Y52.8373
G01 X96.4383 Y52.8357
G01 X96.4485 Y52.8331
G01 X96.4585 Y52.8296
G01 X96.4681 Y52.8250
G01 X96.4772 Y52.8196
G01 X96.4857 Y52.8133
G01 X96.4936 Y52.8061
G01 X96.5007 Y52.7983
G01 X96.5070 Y52.7898
G01 X96.5124 Y52.7807
G01 X96.5170 Y52.7711
G01 X96.5205 Y52.7611
G01 X96.5231 Y52.7508
G01 X96.5247 Y52.7404
G01 X96.5252 Y52.7298
G00 Z2.0000
G00 X96.5252 Y55.2698
G01 F60.00
G01 Z-1.7000
G01 F120.00
G01 X96.5247 Y55.2592
G01 X96.5231 Y55.2487
G01 X96.5205 Y55.2384
G01 X96.5170 Y55.2284
G01 X96.5124 Y55.2189
G01 X96.5070 Y55.2098
G01 X96.5007 Y55.2013
G01 X96.4936 Y55.1934
G01 X96.4857 Y55.1863
G01 X96.4772 Y55.1800
G01 X96.4681 Y55.1745
G01 X96.4585 Y55.1700
G01 X96.4485 Y55.1664
G01 X96.4383 Y55.1638
G01 X96.4278 Y55.1623
G01 X96.4172 Y55.1618
G01 X96.4066 Y55.1623
G01 X96.3961 Y55.1638
G01 X96.3858 Y55.1664
G01 X96.3759 Y55.1700
G01 X96.3663 Y55.1745
G01 X96.3572 Y55.1800
G01 X96.3487 Y55.1863
G01 X96.3408 Y55.1934
G01 X96.3337 Y55.2013
G01 X96.3274 Y55.2098
G01 X96.3219 Y55.2189
G01 X96.3174 Y55.2284
G01 X96.3138 Y55.2384
G01 X96.3113 Y55.2487
G01 X96.3097 Y55.2592
G01 X96.3092 Y55.2698
G01 X96.3097 Y55.2804
G01 X96.3113 Y55.2908
G01 X96.3138 Y55.3011
G01 X96.3174 Y55.3111
G01 X96.3219 Y55.3207
G01 X96.3274 Y55.3298
G01 X96.3337 Y55.3383
G01 X96.3408 Y55.3461
G01 X96.3487 Y55.3533
G01 X96.3572 Y55.3596
G01 X96.3663 Y55.3650
G01 X96.3759 Y55.3696
G01 X96.3858 Y55.3731
G01 X96.3961 Y55.3757
G01 X96.4066 Y55.3773
G01 X96.4172 Y55.3778
G01 X96.4278 Y55.3773
G01 X96.4383 Y55.3757
G01 X96.4485 Y55.3731
G01 X96.4585 Y55.3696
G01 X96.4681 Y55.3650
G01 X96.4772 Y55.3596
G01 X96.4857 Y55.3533
G01 X96.4936 Y55.3461
G01 X96.5007 Y55.3383
G01 X96.5070 Y55.3298
G01 X96.5124 Y55.3207
G01 X96.5170 Y55.3111
G01 X96.5205 Y55.3011
G01 X96.5231 Y55.2908
G01 X96.5247 Y55.2804
G01 X96.5252 Y55.2698
G00 Z2.0000
G00 X96.5252 Y57.8098
G01 F60.00
G01 Z-1.7000
G01 F120.00
G01 X96.5247 Y57.7992
G01 X96.5231 Y57.7887
G01 X96.5205 Y57.7784
G01 X96.5170 Y57.7684
G01 X96.5124 Y57.7589
G01 X96.5070 Y57.7498
G01 X96.5007 Y57.7413
G01 X96.4936 Y57.7334
G01 X96.4857 Y57.7263
G01 X96.4772 Y57.7200
G01 X96.4681 Y57.7145
G01 X96.4585 Y57.7100
G01 X96.4485 Y57.7064
G01 X96.4383 Y57.7038
G01 X96.4278 Y57.7023
G01 X96.4172 Y57.7018
G01 X96.4066 Y57.7023
G01 X96.3961 Y57.7038
G01 X96.3858 Y57.7064
G01 X96.3759 Y57.7100
G01 X96.3663 Y57.7145
G01 X96.3572 Y57.7200
G01 X96.3487 Y57.7263
G01 X96.3408 Y57.7334
G01 X96.3337 Y57.7413
G01 X96.3274 Y57.7498
G01 X96.3219 Y57.7589
G01 X96.3174 Y57.7684
G01 X96.3138 Y57.7784
G01 X96.3113 Y57.7887
G01 X96.3097 Y57.7992
G01 X96.3092 Y57.8098
G01 X96.3097 Y57.8204
G01 X96.3113 Y57.8308
G01 X96.3138 Y57.8411
G01 X96.3174 Y57.8511
G01 X96.3219 Y57.8607
G01 X96.3274 Y57.8698
G01 X96.3337 Y57.8783
G01 X96.3408 Y57.8861
G01 X96.3487 Y57.8933
G01 X96.3572 Y57.8996
G01 X96.3663 Y57.9050
G01 X96.3759 Y57.9096
G01 X96.3858 Y57.9131
G01 X96.3961 Y57.9157
G01 X96.4066 Y57.9173
G01 X96.4172 Y57.9178
G01 X96.4278 Y57.9173
G01 X96.4383 Y57.9157
G01 X96.4485 Y57.9131
G01 X96.4585 Y57.9096
G01 X96.4681 Y57.9050
G01 X96.4772 Y57.8996
G01 X96.4857 Y57.8933
G01 X96.4936 Y57.8861
G01 X96.5007 Y57.8783
G01 X96.5070 Y57.8698
G01 X96.5124 Y57.8607
G01 X96.5170 Y57.8511
G01 X96.5205 Y57.8411
G01 X96.5231 Y57.8308
G01 X96.5247 Y57.8204
G01 X96.5252 Y57.8098
G00 Z2.0000
G00 X96.5252 Y60.3498
G01 F60.00
G01 Z-1.7000
G01 F120.00
G01 X96.5247 Y60.3392
G01 X96.5231 Y60.3287
G01 X96.5205 Y60.3184
G01 X96.5170 Y60.3084
G01 X96.5124 Y60.2989
G01 X96.5070 Y60.2898
G01 X96.5007 Y60.2813
G01 X96.4936 Y60.2734
G01 X96.4857 Y60.2663
G01 X96.4772 Y60.2600
G01 X96.4681 Y60.2545
G01 X96.4585 Y60.2500
G01 X96.4485 Y60.2464
G01 X96.4383 Y60.2438
G01 X96.4278 Y60.2423
G01 X96.4172 Y60.2418
G01 X96.4066 Y60.2423
G01 X96.3961 Y60.2438
G01 X96.3858 Y60.2464
G01 X96.3759 Y60.2500
G01 X96.3663 Y60.2545
G01 X96.3572 Y60.2600
G01 X96.3487 Y60.2663
G01 X96.3408 Y60.2734
G01 X96.3337 Y60.2813
G01 X96.3274 Y60.2898
G01 X96.3219 Y60.2989
G01 X96.3174 Y60.3084
G01 X96.3138 Y60.3184
G01 X96.3113 Y60.3287
G01 X96.3097 Y60.3392
G01 X96.3092 Y60.3498
G01 X96.3097 Y60.3604
G01 X96.3113 Y60.3708
G01 X96.3138 Y60.3811
G01 X96.3174 Y60.3911
G01 X96.3219 Y60.4007
G01 X96.3274 Y60.4098
G01 X96.3337 Y60.4183
G01 X96.3408 Y60.4261
G01 X96.3487 Y60.4333
G01 X96.3572 Y60.4396
G01 X96.3663 Y60.4450
G01 X96.3759 Y60.4496
G01 X96.3858 Y60.4531
G01 X96.3961 Y60.4557
G01 X96.4066 Y60.4573
G01 X96.4172 Y60.4578
G01 X96.4278 Y60.4573
G01 X96.4383 Y60.4557
G01 X96.4485 Y60.4531
G01 X96.4585 Y60.4496
G01 X96.4681 Y60.4450
G01 X96.4772 Y60.4396
G01 X96.4857 Y60.4333
G01 X96.4936 Y60.4261
G01 X96.5007 Y60.4183
G01 X96.5070 Y60.4098
G01 X96.5124 Y60.4007
G01 X96.5170 Y60.3911
G01 X96.5205 Y60.3811
G01 X96.5231 Y60.3708
G01 X96.5247 Y60.3604
G01 X96.5252 Y60.3498
G00 Z2.0000
G00 X96.5252 Y62.8898
G01 F60.00
G01 Z-1.7000
G01 F120.00
G01 X96.5247 Y62.8792
G01 X96.5231 Y62.8687
G01 X96.5205 Y62.8584
G01 X96.5170 Y62.8484
G01 X96.5124 Y62.8389
G01 X96.5070 Y62.8298
G01 X96.5007 Y62.8213
G01 X96.4936 Y62.8134
G01 X96.4857 Y62.8063
G01 X96.4772 Y62.8000
G01 X96.4681 Y62.7945
G01 X96.4585 Y62.7900
G01 X96.4485 Y62.7864
G01 X96.4383 Y62.7838
G01 X96.4278 Y62.7823
G01 X96.4172 Y62.7818
G01 X96.4066 Y62.7823
G01 X96.3961 Y62.7838
G01 X96.3858 Y62.7864
G01 X96.3759 Y62.7900
G01 X96.3663 Y62.7945
G01 X96.3572 Y62.8000
G01 X96.3487 Y62.8063
G01 X96.3408 Y62.8134
G01 X96.3337 Y62.8213
G01 X96.3274 Y62.8298
G01 X96.3219 Y62.8389
G01 X96.3174 Y62.8484
G01 X96.3138 Y62.8584
G01 X96.3113 Y62.8687
G01 X96.3097 Y62.8792
G01 X96.3092 Y62.8898
G01 X96.3097 Y62.9004
G01 X96.3113 Y62.9108
G01 X96.3138 Y62.9211
G01 X96.3174 Y62.9311
G01 X96.3219 Y62.9407
G01 X96.3274 Y62.9498
G01 X96.3337 Y62.9583
G01 X96.3408 Y62.9661
G01 X96.3487 Y62.9733
G01 X96.3572 Y62.9796
G01 X96.3663 Y62.9850
G01 X96.3759 Y62.9896
G01 X96.3858 Y62.9931
G01 X96.3961 Y62.9957
G01 X96.4066 Y62.9973
G01 X96.4172 Y62.9978
G01 X96.4278 Y62.9973
G01 X96.4383 Y62.9957
G01 X96.4485 Y62.9931
G01 X96.4585 Y62.9896
G01 X96.4681 Y62.9850
G01 X96.4772 Y62.9796
G01 X96.4857 Y62.9733
G01 X96.4936 Y62.9661
G01 X96.5007 Y62.9583
G01 X96.5070 Y62.9498
G01 X96.5124 Y62.9407
G01 X96.5170 Y62.9311
G01 X96.5205 Y62.9211
G01 X96.5231 Y62.9108
G01 X96.5247 Y62.9004
G01 X96.5252 Y62.8898
G00 Z2.0000
G00 X96.5252 Y65.4298
G01 F60.00
G01 Z-1.7000
G01 F120.00
G01 X96.5247 Y65.4192
G01 X96.5231 Y65.4087
G01 X96.5205 Y65.3984
G01 X96.5170 Y65.3884
G01 X96.5124 Y65.3789
G01 X96.5070 Y65.3698
G01 X96.5007 Y65.3613
G01 X96.4936 Y65.3534
G01 X96.4857 Y65.3463
G01 X96.4772 Y65.3400
G01 X96.4681 Y65.3345
G01 X96.4585 Y65.3300
G01 X96.4485 Y65.3264
G01 X96.4383 Y65.3238
G01 X96.4278 Y65.3223
G01 X96.4172 Y65.3218
G01 X96.4066 Y65.3223
G01 X96.3961 Y65.3238
G01 X96.3858 Y65.3264
G01 X96.3759 Y65.3300
G01 X96.3663 Y65.3345
G01 X96.3572 Y65.3400
G01 X96.3487 Y65.3463
G01 X96.3408 Y65.3534
G01 X96.3337 Y65.3613
G01 X96.3274 Y65.3698
G01 X96.3219 Y65.3789
G01 X96.3174 Y65.3884
G01 X96.3138 Y65.3984
G01 X96.3113 Y65.4087
G01 X96.3097 Y65.4192
G01 X96.3092 Y65.4298
G01 X96.3097 Y65.4404
G01 X96.3113 Y65.4508
G01 X96.3138 Y65.4611
G01 X96.3174 Y65.4711
G01 X96.3219 Y65.4807
G01 X96.3274 Y65.4898
G01 X96.3337 Y65.4983
G01 X96.3408 Y65.5061
G01 X96.3487 Y65.5133
G01 X96.3572 Y65.5196
G01 X96.3663 Y65.5250
G01 X96.3759 Y65.5296
G01 X96.3858 Y65.5331
G01 X96.3961 Y65.5357
G01 X96.4066 Y65.5373
G01 X96.4172 Y65.5378
G01 X96.4278 Y65.5373
G01 X96.4383 Y65.5357
G01 X96.4485 Y65.5331
G01 X96.4585 Y65.5296
G01 X96.4681 Y65.5250
G01 X96.4772 Y65.5196
G01 X96.4857 Y65.5133
G01 X96.4936 Y65.5061
G01 X96.5007 Y65.4983
G01 X96.5070 Y65.4898
G01 X96.5124 Y65.4807
G01 X96.5170 Y65.4711
G01 X96.5205 Y65.4611
G01 X96.5231 Y65.4508
G01 X96.5247 Y65.4404
G01 X96.5252 Y65.4298
G00 Z2.0000
G00 X96.5252 Y67.9698
G01 F60.00
G01 Z-1.7000
G01 F120.00
G01 X96.5247 Y67.9592
G01 X96.5231 Y67.9487
G01 X96.5205 Y67.9384
G01 X96.5170 Y67.9284
G01 X96.5124 Y67.9189
G01 X96.5070 Y67.9098
G01 X96.5007 Y67.9013
G01 X96.4936 Y67.8934
G01 X96.4857 Y67.8863
G01 X96.4772 Y67.8800
G01 X96.4681 Y67.8745
G01 X96.4585 Y67.8700
G01 X96.4485 Y67.8664
G01 X96.4383 Y67.8638
G01 X96.4278 Y67.8623
G01 X96.4172 Y67.8618
G01 X96.4066 Y67.8623
G01 X96.3961 Y67.8638
G01 X96.3858 Y67.8664
G01 X96.3759 Y67.8700
G01 X96.3663 Y67.8745
G01 X96.3572 Y67.8800
G01 X96.3487 Y67.8863
G01 X96.3408 Y67.8934
G01 X96.3337 Y67.9013
G01 X96.3274 Y67.9098
G01 X96.3219 Y67.9189
G01 X96.3174 Y67.9284
G01 X96.3138 Y67.9384
G01 X96.3113 Y67.9487
G01 X96.3097 Y67.9592
G01 X96.3092 Y67.9698
G01 X96.3097 Y67.9804
G01 X96.3113 Y67.9908
G01 X96.3138 Y68.0011
G01 X96.3174 Y68.0111
G01 X96.3219 Y68.0207
G01 X96.3274 Y68.0298
G01 X96.3337 Y68.0383
G01 X96.3408 Y68.0461
G01 X96.3487 Y68.0533
G01 X96.3572 Y68.0596
G01 X96.3663 Y68.0650
G01 X96.3759 Y68.0696
G01 X96.3858 Y68.0731
G01 X96.3961 Y68.0757
G01 X96.4066 Y68.0773
G01 X96.4172 Y68.0778
G01 X96.4278 Y68.0773
G01 X96.4383 Y68.0757
G01 X96.4485 Y68.0731
G01 X96.4585 Y68.0696
G01 X96.4681 Y68.0650
G01 X96.4772 Y68.0596
G01 X96.4857 Y68.0533
G01 X96.4936 Y68.0461
G01 X96.5007 Y68.0383
G01 X96.5070 Y68.0298
G01 X96.5124 Y68.0207
G01 X96.5170 Y68.0111
G01 X96.5205 Y68.0011
G01 X96.5231 Y67.9908
G01 X96.5247 Y67.9804
G01 X96.5252 Y67.9698
G00 Z2.0000
G00 X96.5252 Y70.5098
G01 F60.00
G01 Z-1.7000
G01 F120.00
G01 X96.5247 Y70.4992
G01 X96.5231 Y70.4887
G01 X96.5205 Y70.4784
G01 X96.5170 Y70.4684
G01 X96.5124 Y70.4589
G01 X96.5070 Y70.4498
G01 X96.5007 Y70.4413
G01 X96.4936 Y70.4334
G01 X96.4857 Y70.4263
G01 X96.4772 Y70.4200
G01 X96.4681 Y70.4145
G01 X96.4585 Y70.4100
G01 X96.4485 Y70.4064
G01 X96.4383 Y70.4038
G01 X96.4278 Y70.4023
G01 X96.4172 Y70.4018
G01 X96.4066 Y70.4023
G01 X96.3961 Y70.4038
G01 X96.3858 Y70.4064
G01 X96.3759 Y70.4100
G01 X96.3663 Y70.4145
G01 X96.3572 Y70.4200
G01 X96.3487 Y70.4263
G01 X96.3408 Y70.4334
G01 X96.3337 Y70.4413
G01 X96.3274 Y70.4498
G01 X96.3219 Y70.4589
G01 X96.3174 Y70.4684
G01 X96.3138 Y70.4784
G01 X96.3113 Y70.4887
G01 X96.3097 Y70.4992
G01 X96.3092 Y70.5098
G01 X96.3097 Y70.5204
G01 X96.3113 Y70.5308
G01 X96.3138 Y70.5411
G01 X96.3174 Y70.5511
G01 X96.3219 Y70.5607
G01 X96.3274 Y70.5698
G01 X96.3337 Y70.5783
G01 X96.3408 Y70.5861
G01 X96.3487 Y70.5933
G01 X96.3572 Y70.5996
G01 X96.3663 Y70.6050
G01 X96.3759 Y70.6096
G01 X96.3858 Y70.6131
G01 X96.3961 Y70.6157
G01 X96.4066 Y70.6173
G01 X96.4172 Y70.6178
G01 X96.4278 Y70.6173
G01 X96.4383 Y70.6157
G01 X96.4485 Y70.6131
G01 X96.4585 Y70.6096
G01 X96.4681 Y70.6050
G01 X96.4772 Y70.5996
G01 X96.4857 Y70.5933
G01 X96.4936 Y70.5861
G01 X96.5007 Y70.5783
G01 X96.5070 Y70.5698
G01 X96.5124 Y70.5607
G01 X96.5170 Y70.5511
G01 X96.5205 Y70.5411
G01 X96.5231 Y70.5308
G01 X96.5247 Y70.5204
G01 X96.5252 Y70.5098
G00 Z2.0000
G00 X96.5252 Y73.0498
G01 F60.00
G01 Z-1.7000
G01 F120.00
G01 X96.5247 Y73.0392
G01 X96.5231 Y73.0287
G01 X96.5205 Y73.0184
G01 X96.5170 Y73.0084
G01 X96.5124 Y72.9989
G01 X96.5070 Y72.9898
G01 X96.5007 Y72.9813
G01 X96.4936 Y72.9734
G01 X96.4857 Y72.9663
G01 X96.4772 Y72.9600
G01 X96.4681 Y72.9545
G01 X96.4585 Y72.9500
G01 X96.4485 Y72.9464
G01 X96.4383 Y72.9438
G01 X96.4278 Y72.9423
G01 X96.4172 Y72.9418
G01 X96.4066 Y72.9423
G01 X96.3961 Y72.9438
G01 X96.3858 Y72.9464
G01 X96.3759 Y72.9500
G01 X96.3663 Y72.9545
G01 X96.3572 Y72.9600
G01 X96.3487 Y72.9663
G01 X96.3408 Y72.9734
G01 X96.3337 Y72.9813
G01 X96.3274 Y72.9898
G01 X96.3219 Y72.9989
G01 X96.3174 Y73.0084
G01 X96.3138 Y73.0184
G01 X96.3113 Y73.0287
G01 X96.3097 Y73.0392
G01 X96.3092 Y73.0498
G01 X96.3097 Y73.0604
G01 X96.3113 Y73.0708
G01 X96.3138 Y73.0811
G01 X96.3174 Y73.0911
G01 X96.3219 Y73.1007
G01 X96.3274 Y73.1098
G01 X96.3337 Y73.1183
G01 X96.3408 Y73.1261
G01 X96.3487 Y73.1333
G01 X96.3572 Y73.1396
G01 X96.3663 Y73.1450
G01 X96.3759 Y73.1496
G01 X96.3858 Y73.1531
G01 X96.3961 Y73.1557
G01 X96.4066 Y73.1573
G01 X96.4172 Y73.1578
G01 X96.4278 Y73.1573
G01 X96.4383 Y73.1557
G01 X96.4485 Y73.1531
G01 X96.4585 Y73.1496
G01 X96.4681 Y73.1450
G01 X96.4772 Y73.1396
G01 X96.4857 Y73.1333
G01 X96.4936 Y73.1261
G01 X96.5007 Y73.1183
G01 X96.5070 Y73.1098
G01 X96.5124 Y73.1007
G01 X96.5170 Y73.0911
G01 X96.5205 Y73.0811
G01 X96.5231 Y73.0708
G01 X96.5247 Y73.0604
G01 X96.5252 Y73.0498
G00 Z2.0000
G00 X96.5252 Y75.5898
G01 F60.00
G01 Z-1.7000
G01 F120.00
G01 X96.5247 Y75.5792
G01 X96.5231 Y75.5687
G01 X96.5205 Y75.5584
G01 X96.5170 Y75.5484
G01 X96.5124 Y75.5389
G01 X96.5070 Y75.5298
G01 X96.5007 Y75.5213
G01 X96.4936 Y75.5134
G01 X96.4857 Y75.5063
G01 X96.4772 Y75.5000
G01 X96.4681 Y75.4945
G01 X96.4585 Y75.4900
G01 X96.4485 Y75.4864
G01 X96.4383 Y75.4838
G01 X96.4278 Y75.4823
G01 X96.4172 Y75.4818
G01 X96.4066 Y75.4823
G01 X96.3961 Y75.4838
G01 X96.3858 Y75.4864
G01 X96.3759 Y75.4900
G01 X96.3663 Y75.4945
G01 X96.3572 Y75.5000
G01 X96.3487 Y75.5063
G01 X96.3408 Y75.5134
G01 X96.3337 Y75.5213
G01 X96.3274 Y75.5298
G01 X96.3219 Y75.5389
G01 X96.3174 Y75.5484
G01 X96.3138 Y75.5584
G01 X96.3113 Y75.5687
G01 X96.3097 Y75.5792
G01 X96.3092 Y75.5898
G01 X96.3097 Y75.6004
G01 X96.3113 Y75.6108
G01 X96.3138 Y75.6211
G01 X96.3174 Y75.6311
G01 X96.3219 Y75.6407
G01 X96.3274 Y75.6498
G01 X96.3337 Y75.6583
G01 X96.3408 Y75.6661
G01 X96.3487 Y75.6733
G01 X96.3572 Y75.6796
G01 X96.3663 Y75.6850
G01 X96.3759 Y75.6896
G01 X96.3858 Y75.6931
G01 X96.3961 Y75.6957
G01 X96.4066 Y75.6973
G01 X96.4172 Y75.6978
G01 X96.4278 Y75.6973
G01 X96.4383 Y75.6957
G01 X96.4485 Y75.6931
G01 X96.4585 Y75.6896
G01 X96.4681 Y75.6850
G01 X96.4772 Y75.6796
G01 X96.4857 Y75.6733
G01 X96.4936 Y75.6661
G01 X96.5007 Y75.6583
G01 X96.5070 Y75.6498
G01 X96.5124 Y75.6407
G01 X96.5170 Y75.6311
G01 X96.5205 Y75.6211
G01 X96.5231 Y75.6108
G01 X96.5247 Y75.6004
G01 X96.5252 Y75.5898
G00 Z2.0000
G00 X96.5252 Y78.1298
G01 F60.00
G01 Z-1.7000
G01 F120.00
G01 X96.5247 Y78.1192
G01 X96.5231 Y78.1087
G01 X96.5205 Y78.0984
G01 X96.5170 Y78.0884
G01 X96.5124 Y78.0789
G01 X96.5070 Y78.0698
G01 X96.5007 Y78.0613
G01 X96.4936 Y78.0534
G01 X96.4857 Y78.0463
G01 X96.4772 Y78.0400
G01 X96.4681 Y78.0345
G01 X96.4585 Y78.0300
G01 X96.4485 Y78.0264
G01 X96.4383 Y78.0238
G01 X96.4278 Y78.0223
G01 X96.4172 Y78.0218
G01 X96.4066 Y78.0223
G01 X96.3961 Y78.0238
G01 X96.3858 Y78.0264
G01 X96.3759 Y78.0300
G01 X96.3663 Y78.0345
G01 X96.3572 Y78.0400
G01 X96.3487 Y78.0463
G01 X96.3408 Y78.0534
G01 X96.3337 Y78.0613
G01 X96.3274 Y78.0698
G01 X96.3219 Y78.0789
G01 X96.3174 Y78.0884
G01 X96.3138 Y78.0984
G01 X96.3113 Y78.1087
G01 X96.3097 Y78.1192
G01 X96.3092 Y78.1298
G01 X96.3097 Y78.1404
G01 X96.3113 Y78.1508
G01 X96.3138 Y78.1611
G01 X96.3174 Y78.1711
G01 X96.3219 Y78.1807
G01 X96.3274 Y78.1898
G01 X96.3337 Y78.1983
G01 X96.3408 Y78.2061
G01 X96.3487 Y78.2133
G01 X96.3572 Y78.2196
G01 X96.3663 Y78.2250
G01 X96.3759 Y78.2296
G01 X96.3858 Y78.2331
G01 X96.3961 Y78.2357
G01 X96.4066 Y78.2373
G01 X96.4172 Y78.2378
G01 X96.4278 Y78.2373
G01 X96.4383 Y78.2357
G01 X96.4485 Y78.2331
G01 X96.4585 Y78.2296
G01 X96.4681 Y78.2250
G01 X96.4772 Y78.2196
G01 X96.4857 Y78.2133
G01 X96.4936 Y78.2061
G01 X96.5007 Y78.1983
G01 X96.5070 Y78.1898
G01 X96.5124 Y78.1807
G01 X96.5170 Y78.1711
G01 X96.5205 Y78.1611
G01 X96.5231 Y78.1508
G01 X96.5247 Y78.1404
G01 X96.5252 Y78.1298
G00 Z2.0000
G00 X96.5252 Y80.6698
G01 F60.00
G01 Z-1.7000
G01 F120.00
G01 X96.5247 Y80.6592
G01 X96.5231 Y80.6487
G01 X96.5205 Y80.6384
G01 X96.5170 Y80.6284
G01 X96.5124 Y80.6189
G01 X96.5070 Y80.6098
G01 X96.5007 Y80.6013
G01 X96.4936 Y80.5934
G01 X96.4857 Y80.5863
G01 X96.4772 Y80.5800
G01 X96.4681 Y80.5745
G01 X96.4585 Y80.5700
G01 X96.4485 Y80.5664
G01 X96.4383 Y80.5638
G01 X96.4278 Y80.5623
G01 X96.4172 Y80.5618
G01 X96.4066 Y80.5623
G01 X96.3961 Y80.5638
G01 X96.3858 Y80.5664
G01 X96.3759 Y80.5700
G01 X96.3663 Y80.5745
G01 X96.3572 Y80.5800
G01 X96.3487 Y80.5863
G01 X96.3408 Y80.5934
G01 X96.3337 Y80.6013
G01 X96.3274 Y80.6098
G01 X96.3219 Y80.6189
G01 X96.3174 Y80.6284
G01 X96.3138 Y80.6384
G01 X96.3113 Y80.6487
G01 X96.3097 Y80.6592
G01 X96.3092 Y80.6698
G01 X96.3097 Y80.6804
G01 X96.3113 Y80.6908
G01 X96.3138 Y80.7011
G01 X96.3174 Y80.7111
G01 X96.3219 Y80.7207
G01 X96.3274 Y80.7298
G01 X96.3337 Y80.7383
G01 X96.3408 Y80.7461
G01 X96.3487 Y80.7533
G01 X96.3572 Y80.7596
G01 X96.3663 Y80.7650
G01 X96.3759 Y80.7696
G01 X96.3858 Y80.7731
G01 X96.3961 Y80.7757
G01 X96.4066 Y80.7773
G01 X96.4172 Y80.7778
G01 X96.4278 Y80.7773
G01 X96.4383 Y80.7757
G01 X96.4485 Y80.7731
G01 X96.4585 Y80.7696
G01 X96.4681 Y80.7650
G01 X96.4772 Y80.7596
G01 X96.4857 Y80.7533
G01 X96.4936 Y80.7461
G01 X96.5007 Y80.7383
G01 X96.5070 Y80.7298
G01 X96.5124 Y80.7207
G01 X96.5170 Y80.7111
G01 X96.5205 Y80.7011
G01 X96.5231 Y80.6908
G01 X96.5247 Y80.6804
G01 X96.5252 Y80.6698
G00 Z2.0000
G00 X96.5252 Y83.2098
G01 F60.00
G01 Z-1.7000
G01 F120.00
G01 X96.5247 Y83.1992
G01 X96.5231 Y83.1887
G01 X96.5205 Y83.1784
G01 X96.5170 Y83.1684
G01 X96.5124 Y83.1589
G01 X96.5070 Y83.1498
G01 X96.5007 Y83.1413
G01 X96.4936 Y83.1334
G01 X96.4857 Y83.1263
G01 X96.4772 Y83.1200
G01 X96.4681 Y83.1145
G01 X96.4585 Y83.1100
G01 X96.4485 Y83.1064
G01 X96.4383 Y83.1038
G01 X96.4278 Y83.1023
G01 X96.4172 Y83.1018
G01 X96.4066 Y83.1023
G01 X96.3961 Y83.1038
G01 X96.3858 Y83.1064
G01 X96.3759 Y83.1100
G01 X96.3663 Y83.1145
G01 X96.3572 Y83.1200
G01 X96.3487 Y83.1263
G01 X96.3408 Y83.1334
G01 X96.3337 Y83.1413
G01 X96.3274 Y83.1498
G01 X96.3219 Y83.1589
G01 X96.3174 Y83.1684
G01 X96.3138 Y83.1784
G01 X96.3113 Y83.1887
G01 X96.3097 Y83.1992
G01 X96.3092 Y83.2098
G01 X96.3097 Y83.2204
G01 X96.3113 Y83.2308
G01 X96.3138 Y83.2411
G01 X96.3174 Y83.2511
G01 X96.3219 Y83.2607
G01 X96.3274 Y83.2698
G01 X96.3337 Y83.2783
G01 X96.3408 Y83.2861
G01 X96.3487 Y83.2933
G01 X96.3572 Y83.2996
G01 X96.3663 Y83.3050
G01 X96.3759 Y83.3096
G01 X96.3858 Y83.3131
G01 X96.3961 Y83.3157
G01 X96.4066 Y83.3173
G01 X96.4172 Y83.3178
G01 X96.4278 Y83.3173
G01 X96.4383 Y83.3157
G01 X96.4485 Y83.3131
G01 X96.4585 Y83.3096
G01 X96.4681 Y83.3050
G01 X96.4772 Y83.2996
G01 X96.4857 Y83.2933
G01 X96.4936 Y83.2861
G01 X96.5007 Y83.2783
G01 X96.5070 Y83.2698
G01 X96.5124 Y83.2607
G01 X96.5170 Y83.2511
G01 X96.5205 Y83.2411
G01 X96.5231 Y83.2308
G01 X96.5247 Y83.2204
G01 X96.5252 Y83.2098
G00 Z2.0000
G00 X93.9852 Y83.2098
G01 F60.00
G01 Z-1.7000
G01 F120.00
G01 X93.9847 Y83.1992
G01 X93.9831 Y83.1887
G01 X93.9805 Y83.1784
G01 X93.9770 Y83.1684
G01 X93.9724 Y83.1589
G01 X93.9670 Y83.1498
G01 X93.9607 Y83.1413
G01 X93.9536 Y83.1334
G01 X93.9457 Y83.1263
G01 X93.9372 Y83.1200
G01 X93.9281 Y83.1145
G01 X93.9185 Y83.1100
G01 X93.9085 Y83.1064
G01 X93.8983 Y83.1038
G01 X93.8878 Y83.1023
G01 X93.8772 Y83.1018
G01 X93.8666 Y83.1023
G01 X93.8561 Y83.1038
G01 X93.8458 Y83.1064
G01 X93.8359 Y83.1100
G01 X93.8263 Y83.1145
G01 X93.8172 Y83.1200
G01 X93.8087 Y83.1263
G01 X93.8008 Y83.1334
G01 X93.7937 Y83.1413
G01 X93.7874 Y83.1498
G01 X93.7819 Y83.1589
G01 X93.7774 Y83.1684
G01 X93.7738 Y83.1784
G01 X93.7713 Y83.1887
G01 X93.7697 Y83.1992
G01 X93.7692 Y83.2098
G01 X93.7697 Y83.2204
G01 X93.7713 Y83.2308
G01 X93.7738 Y83.2411
G01 X93.7774 Y83.2511
G01 X93.7819 Y83.2607
G01 X93.7874 Y83.2698
G01 X93.7937 Y83.2783
G01 X93.8008 Y83.2861
G01 X93.8087 Y83.2933
G01 X93.8172 Y83.2996
G01 X93.8263 Y83.3050
G01 X93.8359 Y83.3096
G01 X93.8458 Y83.3131
G01 X93.8561 Y83.3157
G01 X93.8666 Y83.3173
G01 X93.8772 Y83.3178
G01 X93.8878 Y83.3173
G01 X93.8983 Y83.3157
G01 X93.9085 Y83.3131
G01 X93.9185 Y83.3096
G01 X93.9281 Y83.3050
G01 X93.9372 Y83.2996
G01 X93.9457 Y83.2933
G01 X93.9536 Y83.2861
G01 X93.9607 Y83.2783
G01 X93.9670 Y83.2698
G01 X93.9724 Y83.2607
G01 X93.9770 Y83.2511
G01 X93.9805 Y83.2411
G01 X93.9831 Y83.2308
G01 X93.9847 Y83.2204
G01 X93.9852 Y83.2098
G00 Z2.0000
G00 X93.9852 Y80.6698
G01 F60.00
G01 Z-1.7000
G01 F120.00
G01 X93.9847 Y80.6592
G01 X93.9831 Y80.6487
G01 X93.9805 Y80.6384
G01 X93.9770 Y80.6284
G01 X93.9724 Y80.6189
G01 X93.9670 Y80.6098
G01 X93.9607 Y80.6013
G01 X93.9536 Y80.5934
G01 X93.9457 Y80.5863
G01 X93.9372 Y80.5800
G01 X93.9281 Y80.5745
G01 X93.9185 Y80.5700
G01 X93.9085 Y80.5664
G01 X93.8983 Y80.5638
G01 X93.8878 Y80.5623
G01 X93.8772 Y80.5618
G01 X93.8666 Y80.5623
G01 X93.8561 Y80.5638
G01 X93.8458 Y80.5664
G01 X93.8359 Y80.5700
G01 X93.8263 Y80.5745
G01 X93.8172 Y80.5800
G01 X93.8087 Y80.5863
G01 X93.8008 Y80.5934
G01 X93.7937 Y80.6013
G01 X93.7874 Y80.6098
G01 X93.7819 Y80.6189
G01 X93.7774 Y80.6284
G01 X93.7738 Y80.6384
G01 X93.7713 Y80.6487
G01 X93.7697 Y80.6592
G01 X93.7692 Y80.6698
G01 X93.7697 Y80.6804
G01 X93.7713 Y80.6908
G01 X93.7738 Y80.7011
G01 X93.7774 Y80.7111
G01 X93.7819 Y80.7207
G01 X93.7874 Y80.7298
G01 X93.7937 Y80.7383
G01 X93.8008 Y80.7461
G01 X93.8087 Y80.7533
G01 X93.8172 Y80.7596
G01 X93.8263 Y80.7650
G01 X93.8359 Y80.7696
G01 X93.8458 Y80.7731
G01 X93.8561 Y80.7757
G01 X93.8666 Y80.7773
G01 X93.8772 Y80.7778
G01 X93.8878 Y80.7773
G01 X93.8983 Y80.7757
G01 X93.9085 Y80.7731
G01 X93.9185 Y80.7696
G01 X93.9281 Y80.7650
G01 X93.9372 Y80.7596
G01 X93.9457 Y80.7533
G01 X93.9536 Y80.7461
G01 X93.9607 Y80.7383
G01 X93.9670 Y80.7298
G01 X93.9724 Y80.7207
G01 X93.9770 Y80.7111
G01 X93.9805 Y80.7011
G01 X93.9831 Y80.6908
G01 X93.9847 Y80.6804
G01 X93.9852 Y80.6698
G00 Z2.0000
G00 X93.9852 Y78.1298
G01 F60.00
G01 Z-1.7000
G01 F120.00
G01 X93.9847 Y78.1192
G01 X93.9831 Y78.1087
G01 X93.9805 Y78.0984
G01 X93.9770 Y78.0884
G01 X93.9724 Y78.0789
G01 X93.9670 Y78.0698
G01 X93.9607 Y78.0613
G01 X93.9536 Y78.0534
G01 X93.9457 Y78.0463
G01 X93.9372 Y78.0400
G01 X93.9281 Y78.0345
G01 X93.9185 Y78.0300
G01 X93.9085 Y78.0264
G01 X93.8983 Y78.0238
G01 X93.8878 Y78.0223
G01 X93.8772 Y78.0218
G01 X93.8666 Y78.0223
G01 X93.8561 Y78.0238
G01 X93.8458 Y78.0264
G01 X93.8359 Y78.0300
G01 X93.8263 Y78.0345
G01 X93.8172 Y78.0400
G01 X93.8087 Y78.0463
G01 X93.8008 Y78.0534
G01 X93.7937 Y78.0613
G01 X93.7874 Y78.0698
G01 X93.7819 Y78.0789
G01 X93.7774 Y78.0884
G01 X93.7738 Y78.0984
G01 X93.7713 Y78.1087
G01 X93.7697 Y78.1192
G01 X93.7692 Y78.1298
G01 X93.7697 Y78.1404
G01 X93.7713 Y78.1508
G01 X93.7738 Y78.1611
G01 X93.7774 Y78.1711
G01 X93.7819 Y78.1807
G01 X93.7874 Y78.1898
G01 X93.7937 Y78.1983
G01 X93.8008 Y78.2061
G01 X93.8087 Y78.2133
G01 X93.8172 Y78.2196
G01 X93.8263 Y78.2250
G01 X93.8359 Y78.2296
G01 X93.8458 Y78.2331
G01 X93.8561 Y78.2357
G01 X93.8666 Y78.2373
G01 X93.8772 Y78.2378
G01 X93.8878 Y78.2373
G01 X93.8983 Y78.2357
G01 X93.9085 Y78.2331
G01 X93.9185 Y78.2296
G01 X93.9281 Y78.2250
G01 X93.9372 Y78.2196
G01 X93.9457 Y78.2133
G01 X93.9536 Y78.2061
G01 X93.9607 Y78.1983
G01 X93.9670 Y78.1898
G01 X93.9724 Y78.1807
G01 X93.9770 Y78.1711
G01 X93.9805 Y78.1611
G01 X93.9831 Y78.1508
G01 X93.9847 Y78.1404
G01 X93.9852 Y78.1298
G00 Z2.0000
G00 X93.9852 Y75.5898
G01 F60.00
G01 Z-1.7000
G01 F120.00
G01 X93.9847 Y75.5792
G01 X93.9831 Y75.5687
G01 X93.9805 Y75.5584
G01 X93.9770 Y75.5484
G01 X93.9724 Y75.5389
G01 X93.9670 Y75.5298
G01 X93.9607 Y75.5213
G01 X93.9536 Y75.5134
G01 X93.9457 Y75.5063
G01 X93.9372 Y75.5000
G01 X93.9281 Y75.4945
G01 X93.9185 Y75.4900
G01 X93.9085 Y75.4864
G01 X93.8983 Y75.4838
G01 X93.8878 Y75.4823
G01 X93.8772 Y75.4818
G01 X93.8666 Y75.4823
G01 X93.8561 Y75.4838
G01 X93.8458 Y75.4864
G01 X93.8359 Y75.4900
G01 X93.8263 Y75.4945
G01 X93.8172 Y75.5000
G01 X93.8087 Y75.5063
G01 X93.8008 Y75.5134
G01 X93.7937 Y75.5213
G01 X93.7874 Y75.5298
G01 X93.7819 Y75.5389
G01 X93.7774 Y75.5484
G01 X93.7738 Y75.5584
G01 X93.7713 Y75.5687
G01 X93.7697 Y75.5792
G01 X93.7692 Y75.5898
G01 X93.7697 Y75.6004
G01 X93.7713 Y75.6108
G01 X93.7738 Y75.6211
G01 X93.7774 Y75.6311
G01 X93.7819 Y75.6407
G01 X93.7874 Y75.6498
G01 X93.7937 Y75.6583
G01 X93.8008 Y75.6661
G01 X93.8087 Y75.6733
G01 X93.8172 Y75.6796
G01 X93.8263 Y75.6850
G01 X93.8359 Y75.6896
G01 X93.8458 Y75.6931
G01 X93.8561 Y75.6957
G01 X93.8666 Y75.6973
G01 X93.8772 Y75.6978
G01 X93.8878 Y75.6973
G01 X93.8983 Y75.6957
G01 X93.9085 Y75.6931
G01 X93.9185 Y75.6896
G01 X93.9281 Y75.6850
G01 X93.9372 Y75.6796
G01 X93.9457 Y75.6733
G01 X93.9536 Y75.6661
G01 X93.9607 Y75.6583
G01 X93.9670 Y75.6498
G01 X93.9724 Y75.6407
G01 X93.9770 Y75.6311
G01 X93.9805 Y75.6211
G01 X93.9831 Y75.6108
G01 X93.9847 Y75.6004
G01 X93.9852 Y75.5898
G00 Z2.0000
G00 X93.9852 Y73.0498
G01 F60.00
G01 Z-1.7000
G01 F120.00
G01 X93.9847 Y73.0392
G01 X93.9831 Y73.0287
G01 X93.9805 Y73.0184
G01 X93.9770 Y73.0084
G01 X93.9724 Y72.9989
G01 X93.9670 Y72.9898
G01 X93.9607 Y72.9813
G01 X93.9536 Y72.9734
G01 X93.9457 Y72.9663
G01 X93.9372 Y72.9600
G01 X93.9281 Y72.9545
G01 X93.9185 Y72.9500
G01 X93.9085 Y72.9464
G01 X93.8983 Y72.9438
G01 X93.8878 Y72.9423
G01 X93.8772 Y72.9418
G01 X93.8666 Y72.9423
G01 X93.8561 Y72.9438
G01 X93.8458 Y72.9464
G01 X93.8359 Y72.9500
G01 X93.8263 Y72.9545
G01 X93.8172 Y72.9600
G01 X93.8087 Y72.9663
G01 X93.8008 Y72.9734
G01 X93.7937 Y72.9813
G01 X93.7874 Y72.9898
G01 X93.7819 Y72.9989
G01 X93.7774 Y73.0084
G01 X93.7738 Y73.0184
G01 X93.7713 Y73.0287
G01 X93.7697 Y73.0392
G01 X93.7692 Y73.0498
G01 X93.7697 Y73.0604
G01 X93.7713 Y73.0708
G01 X93.7738 Y73.0811
G01 X93.7774 Y73.0911
G01 X93.7819 Y73.1007
G01 X93.7874 Y73.1098
G01 X93.7937 Y73.1183
G01 X93.8008 Y73.1261
G01 X93.8087 Y73.1333
G01 X93.8172 Y73.1396
G01 X93.8263 Y73.1450
G01 X93.8359 Y73.1496
G01 X93.8458 Y73.1531
G01 X93.8561 Y73.1557
G01 X93.8666 Y73.1573
G01 X93.8772 Y73.1578
G01 X93.8878 Y73.1573
G01 X93.8983 Y73.1557
G01 X93.9085 Y73.1531
G01 X93.9185 Y73.1496
G01 X93.9281 Y73.1450
G01 X93.9372 Y73.1396
G01 X93.9457 Y73.1333
G01 X93.9536 Y73.1261
G01 X93.9607 Y73.1183
G01 X93.9670 Y73.1098
G01 X93.9724 Y73.1007
G01 X93.9770 Y73.0911
G01 X93.9805 Y73.0811
G01 X93.9831 Y73.0708
G01 X93.9847 Y73.0604
G01 X93.9852 Y73.0498
G00 Z2.0000
G00 X93.9852 Y70.5098
G01 F60.00
G01 Z-1.7000
G01 F120.00
G01 X93.9847 Y70.4992
G01 X93.9831 Y70.4887
G01 X93.9805 Y70.4784
G01 X93.9770 Y70.4684
G01 X93.9724 Y70.4589
G01 X93.9670 Y70.4498
G01 X93.9607 Y70.4413
G01 X93.9536 Y70.4334
G01 X93.9457 Y70.4263
G01 X93.9372 Y70.4200
G01 X93.9281 Y70.4145
G01 X93.9185 Y70.4100
G01 X93.9085 Y70.4064
G01 X93.8983 Y70.4038
G01 X93.8878 Y70.4023
G01 X93.8772 Y70.4018
G01 X93.8666 Y70.4023
G01 X93.8561 Y70.4038
G01 X93.8458 Y70.4064
G01 X93.8359 Y70.4100
G01 X93.8263 Y70.4145
G01 X93.8172 Y70.4200
G01 X93.8087 Y70.4263
G01 X93.8008 Y70.4334
G01 X93.7937 Y70.4413
G01 X93.7874 Y70.4498
G01 X93.7819 Y70.4589
G01 X93.7774 Y70.4684
G01 X93.7738 Y70.4784
G01 X93.7713 Y70.4887
G01 X93.7697 Y70.4992
G01 X93.7692 Y70.5098
G01 X93.7697 Y70.5204
G01 X93.7713 Y70.5308
G01 X93.7738 Y70.5411
G01 X93.7774 Y70.5511
G01 X93.7819 Y70.5607
G01 X93.7874 Y70.5698
G01 X93.7937 Y70.5783
G01 X93.8008 Y70.5861
G01 X93.8087 Y70.5933
G01 X93.8172 Y70.5996
G01 X93.8263 Y70.6050
G01 X93.8359 Y70.6096
G01 X93.8458 Y70.6131
G01 X93.8561 Y70.6157
G01 X93.8666 Y70.6173
G01 X93.8772 Y70.6178
G01 X93.8878 Y70.6173
G01 X93.8983 Y70.6157
G01 X93.9085 Y70.6131
G01 X93.9185 Y70.6096
G01 X93.9281 Y70.6050
G01 X93.9372 Y70.5996
G01 X93.9457 Y70.5933
G01 X93.9536 Y70.5861
G01 X93.9607 Y70.5783
G01 X93.9670 Y70.5698
G01 X93.9724 Y70.5607
G01 X93.9770 Y70.5511
G01 X93.9805 Y70.5411
G01 X93.9831 Y70.5308
G01 X93.9847 Y70.5204
G01 X93.9852 Y70.5098
G00 Z2.0000
G00 X93.9852 Y67.9698
G01 F60.00
G01 Z-1.7000
G01 F120.00
G01 X93.9847 Y67.9592
G01 X93.9831 Y67.9487
G01 X93.9805 Y67.9384
G01 X93.9770 Y67.9284
G01 X93.9724 Y67.9189
G01 X93.9670 Y67.9098
G01 X93.9607 Y67.9013
G01 X93.9536 Y67.8934
G01 X93.9457 Y67.8863
G01 X93.9372 Y67.8800
G01 X93.9281 Y67.8745
G01 X93.9185 Y67.8700
G01 X93.9085 Y67.8664
G01 X93.8983 Y67.8638
G01 X93.8878 Y67.8623
G01 X93.8772 Y67.8618
G01 X93.8666 Y67.8623
G01 X93.8561 Y67.8638
G01 X93.8458 Y67.8664
G01 X93.8359 Y67.8700
G01 X93.8263 Y67.8745
G01 X93.8172 Y67.8800
G01 X93.8087 Y67.8863
G01 X93.8008 Y67.8934
G01 X93.7937 Y67.9013
G01 X93.7874 Y67.9098
G01 X93.7819 Y67.9189
G01 X93.7774 Y67.9284
G01 X93.7738 Y67.9384
G01 X93.7713 Y67.9487
G01 X93.7697 Y67.9592
G01 X93.7692 Y67.9698
G01 X93.7697 Y67.9804
G01 X93.7713 Y67.9908
G01 X93.7738 Y68.0011
G01 X93.7774 Y68.0111
G01 X93.7819 Y68.0207
G01 X93.7874 Y68.0298
G01 X93.7937 Y68.0383
G01 X93.8008 Y68.0461
G01 X93.8087 Y68.0533
G01 X93.8172 Y68.0596
G01 X93.8263 Y68.0650
G01 X93.8359 Y68.0696
G01 X93.8458 Y68.0731
G01 X93.8561 Y68.0757
G01 X93.8666 Y68.0773
G01 X93.8772 Y68.0778
G01 X93.8878 Y68.0773
G01 X93.8983 Y68.0757
G01 X93.9085 Y68.0731
G01 X93.9185 Y68.0696
G01 X93.9281 Y68.0650
G01 X93.9372 Y68.0596
G01 X93.9457 Y68.0533
G01 X93.9536 Y68.0461
G01 X93.9607 Y68.0383
G01 X93.9670 Y68.0298
G01 X93.9724 Y68.0207
G01 X93.9770 Y68.0111
G01 X93.9805 Y68.0011
G01 X93.9831 Y67.9908
G01 X93.9847 Y67.9804
G01 X93.9852 Y67.9698
G00 Z2.0000
G00 X93.9852 Y65.4298
G01 F60.00
G01 Z-1.7000
G01 F120.00
G01 X93.9847 Y65.4192
G01 X93.9831 Y65.4087
G01 X93.9805 Y65.3984
G01 X93.9770 Y65.3884
G01 X93.9724 Y65.3789
G01 X93.9670 Y65.3698
G01 X93.9607 Y65.3613
G01 X93.9536 Y65.3534
G01 X93.9457 Y65.3463
G01 X93.9372 Y65.3400
G01 X93.9281 Y65.3345
G01 X93.9185 Y65.3300
G01 X93.9085 Y65.3264
G01 X93.8983 Y65.3238
G01 X93.8878 Y65.3223
G01 X93.8772 Y65.3218
G01 X93.8666 Y65.3223
G01 X93.8561 Y65.3238
G01 X93.8458 Y65.3264
G01 X93.8359 Y65.3300
G01 X93.8263 Y65.3345
G01 X93.8172 Y65.3400
G01 X93.8087 Y65.3463
G01 X93.8008 Y65.3534
G01 X93.7937 Y65.3613
G01 X93.7874 Y65.3698
