(G-CODE GENERATED BY FLATCAM v8.993 - www.flatcam.org - Version Date: 2020/06/05)

(Name: Slot_1)
(Type: G-code from Geometry)
(Units: MM)

(Created on Monday, 22 March 2021 at 10:22)

(This preprocessor is the default preprocessor used by FlatCAM.)
(It is made to work with MACH3 compatible motion controllers.)

(TOOL DIAMETER: 1.0 mm)
(Feedrate_XY: 120.0 mm/min)
(Feedrate_Z: 60.0 mm/min)
(Feedrate rapids 1500.0 mm/min)

(Z_Cut: -1.7 mm)
(Z_Move: 2.0 mm)
(Z Start: None mm)
(Z End: 15.0 mm)
(Steps per circle: 64)
(Preprocessor Geometry: default)

(X range:  178.8702 ...  179.0642  mm)
(Y range:   63.5929 ...   68.7932  mm)

(Spindle Speed: None RPM)
G21
G90
G94



G01 F120.00
G00 Z2.0000

M03
G00 X178.8702 Y63.6950
G01 F60.00
G01 Z-1.7000
G01 F120.00
G01 X178.8709 Y63.7068
G01 X178.8725 Y63.7162
G01 X178.8751 Y63.7254
G01 X178.8785 Y63.7343
G01 X178.8828 Y63.7428
G01 X178.8879 Y63.7508
G01 X178.8937 Y63.7583
G01 X178.9003 Y63.7652
G01 X178.9075 Y63.7714
G01 X178.9153 Y63.7769
G01 X178.9236 Y63.7816
G01 X178.9323 Y63.7855
G01 X178.9436 Y63.7890
G01 X178.9530 Y63.7909
G01 X178.9624 Y63.7918
G01 X178.9719 Y63.7918
G01 X178.9814 Y63.7909
G01 X178.9908 Y63.7890
G01 X178.9999 Y63.7863
G01 X179.0087 Y63.7826
G01 X179.0171 Y63.7782
G01 X179.0269 Y63.7714
G01 X179.0341 Y63.7652
G01 X179.0406 Y63.7583
G01 X179.0465 Y63.7508
G01 X179.0516 Y63.7428
G01 X179.0559 Y63.7343
G01 X179.0593 Y63.7254
G01 X179.0618 Y63.7162
G01 X179.0635 Y63.7068
G01 X179.0642 Y63.6973
G01 X179.0641 Y63.6851
G01 X179.0631 Y63.6756
G01 X179.0613 Y63.6663
G01 X179.0585 Y63.6572
G01 X179.0549 Y63.6484
G01 X179.0504 Y63.6400
G01 X179.0451 Y63.6321
G01 X179.0391 Y63.6247
G01 X179.0323 Y63.6180
G01 X179.0250 Y63.6120
G01 X179.0171 Y63.6067
G01 X179.0087 Y63.6022
G01 X178.9999 Y63.5985
G01 X178.9908 Y63.5958
G01 X178.9814 Y63.5939
G01 X178.9719 Y63.5930
G01 X178.9624 Y63.5930
G01 X178.9530 Y63.5939
G01 X178.9436 Y63.5958
G01 X178.9345 Y63.5985
G01 X178.9257 Y63.6022
G01 X178.9173 Y63.6067
G01 X178.9094 Y63.6120
G01 X178.9020 Y63.6180
G01 X178.8953 Y63.6247
G01 X178.8893 Y63.6321
G01 X178.8840 Y63.6400
G01 X178.8795 Y63.6484
G01 X178.8759 Y63.6572
G01 X178.8731 Y63.6663
G01 X178.8712 Y63.6756
G01 X178.8703 Y63.6851
G01 X178.8702 Y63.6950
G00 Z2.0000
G00 X178.8702 Y68.6962
G01 F60.00
G01 Z-1.7000
G01 F120.00
G01 X178.8709 Y68.7081
G01 X178.8725 Y68.7175
G01 X178.8751 Y68.7266
G01 X178.8785 Y68.7355
G01 X178.8828 Y68.7440
G01 X178.8879 Y68.7521
G01 X178.8937 Y68.7596
G01 X178.9003 Y68.7665
G01 X178.9075 Y68.7727
G01 X178.9173 Y68.7794
G01 X178.9257 Y68.7839
G01 X178.9345 Y68.7875
G01 X178.9436 Y68.7903
G01 X178.9530 Y68.7922
G01 X178.9624 Y68.7931
G01 X178.9719 Y68.7931
G01 X178.9814 Y68.7922
G01 X178.9908 Y68.7903
G01 X178.9999 Y68.7875
G01 X179.0087 Y68.7839
G01 X179.0171 Y68.7794
G01 X179.0269 Y68.7727
G01 X179.0341 Y68.7665
G01 X179.0406 Y68.7596
G01 X179.0465 Y68.7521
G01 X179.0516 Y68.7440
G01 X179.0559 Y68.7355
G01 X179.0593 Y68.7266
G01 X179.0618 Y68.7175
G01 X179.0635 Y68.7081
G01 X179.0642 Y68.6986
G01 X179.0641 Y68.6864
G01 X179.0631 Y68.6769
G01 X179.0613 Y68.6676
G01 X179.0585 Y68.6585
G01 X179.0549 Y68.6497
G01 X179.0504 Y68.6413
G01 X179.0451 Y68.6333
G01 X179.0391 Y68.6260
G01 X179.0323 Y68.6193
G01 X179.0250 Y68.6132
G01 X179.0171 Y68.6079
G01 X179.0087 Y68.6034
G01 X178.9999 Y68.5998
G01 X178.9908 Y68.5970
G01 X178.9814 Y68.5952
G01 X178.9719 Y68.5942
G01 X178.9624 Y68.5942
G01 X178.9530 Y68.5952
G01 X178.9436 Y68.5970
G01 X178.9345 Y68.5998
G01 X178.9257 Y68.6034
G01 X178.9173 Y68.6079
G01 X178.9094 Y68.6132
G01 X178.9020 Y68.6193
G01 X178.8953 Y68.6260
G01 X178.8893 Y68.6333
G01 X178.8840 Y68.6413
G01 X178.8795 Y68.6497
G01 X178.8759 Y68.6585
G01 X178.8731 Y68.6676
G01 X178.8712 Y68.6769
G01 X178.8703 Y68.6864
G01 X178.8702 Y68.6962
G00 Z2.0000
M05
G00 Z2.0000
G00 Z15.00

