(G-CODE GENERATED BY FLATCAM v8.993 - www.flatcam.org - Version Date: 2020/06/05)

(Name: TopLayer_0.109)
(Type: G-code from Geometry)
(Units: MM)

(Created on Monday, 22 March 2021 at 10:31)

(This preprocessor is the default preprocessor used by FlatCAM.)
(It is made to work with MACH3 compatible motion controllers.)

(TOOL DIAMETER: 0.109 mm)
(Feedrate_XY: 120.0 mm/min)
(Feedrate_Z: 60.0 mm/min)
(Feedrate rapids 1500.0 mm/min)

(Z_Cut: -0.05 mm)
(Z_Move: 2.0 mm)
(Z Start: None mm)
(Z End: 15.0 mm)
(Steps per circle: 64)
(Preprocessor Geometry: default)

(X range:   51.7832 ...  227.6551  mm)
(Y range:   61.7832 ...  156.1217  mm)

(Spindle Speed: None RPM)
G21
G90
G94



G01 F120.00
G00 Z2.0000

M03
G00 X17.8768 Y17.9285
G01 F60.00
G01 Z-0.0500
G01 F120.00
G01 X17.8818 Y17.8263
G01 X17.8973 Y17.7223
G01 X17.9228 Y17.6204
G01 X17.9582 Y17.5215
G01 X18.0031 Y17.4266
G01 X18.0571 Y17.3365
G01 X18.1197 Y17.2521
G01 X18.1902 Y17.1742
G01 X18.2681 Y17.1037
G01 X18.3525 Y17.0411
G01 X18.4426 Y16.9871
G01 X18.5375 Y16.9422
G01 X18.6364 Y16.9068
G01 X18.7383 Y16.8813
G01 X18.8423 Y16.8658
G01 X18.9472 Y16.8607
G01 X19.0521 Y16.8658
G01 X19.1560 Y16.8813
G01 X19.2579 Y16.9068
G01 X19.3568 Y16.9422
G01 X19.4518 Y16.9871
G01 X19.5419 Y17.0411
G01 X19.6263 Y17.1037
G01 X19.7041 Y17.1742
G01 X19.7747 Y17.2521
G01 X19.8373 Y17.3365
G01 X19.8913 Y17.4266
G01 X19.9362 Y17.5215
G01 X19.9716 Y17.6204
G01 X19.9971 Y17.7223
G01 X20.0125 Y17.8263
G01 X20.0177 Y17.9312
G01 X20.0125 Y18.0361
G01 X19.9971 Y18.1400
G01 X19.9716 Y18.2419
G01 X19.9362 Y18.3408
G01 X19.8913 Y18.4358
G01 X19.8373 Y18.5259
G01 X19.7747 Y18.6103
G01 X19.7041 Y18.6881
G01 X19.6263 Y18.7587
G01 X19.5419 Y18.8213
G01 X19.4518 Y18.8753
G01 X19.3568 Y18.9202
G01 X19.2579 Y18.9556
G01 X19.1560 Y18.9811
G01 X19.0521 Y18.9965
G01 X18.9472 Y19.0017
G01 X18.8423 Y18.9965
G01 X18.7383 Y18.9811
G01 X18.6364 Y18.9556
G01 X18.5375 Y18.9202
G01 X18.4426 Y18.8753
G01 X18.3525 Y18.8213
G01 X18.2681 Y18.7587
G01 X18.1902 Y18.6881
G01 X18.1197 Y18.6103
G01 X18.0571 Y18.5259
G01 X18.0031 Y18.4358
G01 X17.9582 Y18.3408
G01 X17.9228 Y18.2419
G01 X17.8973 Y18.1400
G01 X17.8818 Y18.0361
G01 X17.8768 Y17.9339
G01 X17.8768 Y17.9285
G00 Z2.0000
G00 X21.0515 Y23.8896
G01 F60.00
G01 Z-0.0500
G01 F120.00
G01 X21.0039 Y23.8541
G01 X20.9504 Y23.8058
G01 X20.9000 Y23.7505
G01 X20.8537 Y23.6885
G01 X20.8153 Y23.6243
G01 X20.7833 Y23.5567
G01 X20.7574 Y23.4838
G01 X20.7399 Y23.4138
G01 X20.7293 Y23.3425
G01 X20.7253 Y23.2652
G01 X20.7290 Y23.1905
G01 X20.7405 Y23.1139
G01 X20.7581 Y23.0440
G01 X20.7823 Y22.9761
G01 X20.8153 Y22.9060
G01 X20.8537 Y22.8419
G01 X20.9000 Y22.7798
G01 X20.9504 Y22.7246
G01 X21.0039 Y22.6762
G01 X21.0515 Y22.6408
G01 X21.0515 Y19.0017
G01 X20.4685 Y19.0016
G01 X20.4606 Y19.0006
G01 X20.4516 Y18.9980
G01 X20.4443 Y18.9946
G01 X20.4377 Y18.9902
G01 X20.4317 Y18.9848
G01 X20.4266 Y18.9786
G01 X20.4219 Y18.9705
G01 X20.4190 Y18.9630
G01 X20.4173 Y18.9552
G01 X20.4167 Y18.9472
G01 X20.4167 Y16.9152
G01 X20.4170 Y16.9098
G01 X20.4177 Y16.9046
G01 X20.4203 Y16.8956
G01 X20.4244 Y16.8872
G01 X20.4299 Y16.8796
G01 X20.4356 Y16.8739
G01 X20.4432 Y16.8684
G01 X20.4516 Y16.8643
G01 X20.4606 Y16.8617
G01 X20.4699 Y16.8607
G01 X22.5032 Y16.8607
G01 X22.5112 Y16.8613
G01 X22.5203 Y16.8634
G01 X22.5289 Y16.8671
G01 X22.5367 Y16.8722
G01 X22.5436 Y16.8786
G01 X22.5492 Y16.8860
G01 X22.5535 Y16.8943
G01 X22.5553 Y16.8994
G01 X22.5566 Y16.9046
G01 X22.5577 Y16.9139
G01 X22.5577 Y18.9472
G01 X22.5573 Y18.9539
G01 X22.5557 Y18.9617
G01 X22.5530 Y18.9693
G01 X22.5492 Y18.9763
G01 X22.5445 Y18.9828
G01 X22.5378 Y18.9893
G01 X22.5312 Y18.9939
G01 X22.5240 Y18.9975
G01 X22.5151 Y19.0004
G01 X22.5072 Y19.0015
G01 X21.9229 Y19.0017
G01 X21.9229 Y22.6408
G01 X21.9705 Y22.6762
G01 X22.0240 Y22.7246
G01 X22.0744 Y22.7798
G01 X22.1207 Y22.8419
G01 X22.1591 Y22.9060
G01 X22.1920 Y22.9761
G01 X22.2163 Y23.0440
G01 X22.2338 Y23.1139
G01 X22.2454 Y23.1905
G01 X22.2491 Y23.2652
G01 X22.2454 Y23.3399
G01 X22.2338 Y23.4164
G01 X22.2163 Y23.4864
G01 X22.1920 Y23.5543
G01 X22.1591 Y23.6243
G01 X22.1207 Y23.6885
G01 X22.0744 Y23.7505
G01 X22.0240 Y23.8058
G01 X21.9705 Y23.8541
G01 X21.9229 Y23.8896
G01 X21.9229 Y25.6247
G01 X22.4297 Y26.1315
G01 X35.4572 Y26.1315
G01 X35.4999 Y26.1336
G01 X35.5396 Y26.1394
G01 X35.5448 Y26.1405
G01 X35.5862 Y26.1511
G01 X35.6239 Y26.1647
G01 X35.6626 Y26.1829
G01 X35.6992 Y26.2049
G01 X35.7336 Y26.2304
G01 X35.7653 Y26.2591
G01 X36.7813 Y27.2751
G01 X36.8082 Y27.3048
G01 X36.8116 Y27.3089
G01 X36.8369 Y27.3434
G01 X36.8574 Y27.3778
G01 X36.8757 Y27.4165
G01 X36.8908 Y27.4593
G01 X36.9005 Y27.4982
G01 X36.9066 Y27.5392
G01 X36.9089 Y27.5832
G01 X36.9089 Y36.2927
G01 X38.9397 Y38.3235
G01 X87.2732 Y38.3235
G01 X87.3159 Y38.3256
G01 X87.3582 Y38.3319
G01 X87.3997 Y38.3423
G01 X87.4399 Y38.3567
G01 X87.4786 Y38.3749
G01 X87.5152 Y38.3969
G01 X87.5496 Y38.4224
G01 X87.5803 Y38.4502
G01 X88.3451 Y39.2150
G01 X88.3720 Y39.2448
G01 X88.3974 Y39.2791
G01 X88.4194 Y39.3158
G01 X88.4366 Y39.3520
G01 X88.4513 Y39.3922
G01 X88.4528 Y39.3973
G01 X88.4625 Y39.4362
G01 X88.4686 Y39.4772
G01 X88.4709 Y39.5212
G01 X88.4709 Y47.2147
G01 X92.8819 Y51.6257
G01 X92.8819 Y51.5341
G01 X92.8829 Y51.5248
G01 X92.8851 Y51.5170
G01 X92.8883 Y51.5097
G01 X92.8926 Y51.5029
G01 X92.8979 Y51.4969
G01 X92.9039 Y51.4916
G01 X92.9107 Y51.4873
G01 X92.9180 Y51.4841
G01 X92.9245 Y51.4822
G01 X92.9324 Y51.4810
G01 X94.8160 Y51.4809
G01 X94.8213 Y51.4812
G01 X94.8266 Y51.4819
G01 X94.8318 Y51.4832
G01 X94.8369 Y51.4850
G01 X94.8452 Y51.4893
G01 X94.8495 Y51.4924
G01 X94.8536 Y51.4959
G01 X94.8573 Y51.4998
G01 X94.8606 Y51.5040
G01 X94.8634 Y51.5085
G01 X94.8658 Y51.5133
G01 X94.8677 Y51.5183
G01 X94.8694 Y51.5248
G01 X94.8702 Y51.5300
G01 X94.8705 Y51.5354
G01 X94.8705 Y53.4150
G01 X94.8702 Y53.4203
G01 X94.8694 Y53.4256
G01 X94.8681 Y53.4308
G01 X94.8663 Y53.4358
G01 X94.8627 Y53.4430
G01 X94.8581 Y53.4496
G01 X94.8526 Y53.4554
G01 X94.8463 Y53.4603
G01 X94.8393 Y53.4643
G01 X94.8318 Y53.4671
G01 X94.8240 Y53.4689
G01 X94.8160 Y53.4695
G01 X92.9364 Y53.4695
G01 X92.9271 Y53.4687
G01 X92.9180 Y53.4663
G01 X92.9095 Y53.4624
G01 X92.9018 Y53.4571
G01 X92.8979 Y53.4535
G01 X92.8934 Y53.4485
G01 X92.8897 Y53.4430
G01 X92.8871 Y53.4383
G01 X92.8851 Y53.4333
G01 X92.8832 Y53.4269
G01 X92.8823 Y53.4217
G01 X92.8819 Y53.4163
G01 X92.8819 Y52.8428
G01 X92.8720 Y52.8367
G01 X92.8398 Y52.8128
G01 X92.8071 Y52.7833
G01 X87.7271 Y47.7033
G01 X87.6968 Y47.6695
G01 X87.6729 Y47.6372
G01 X87.6509 Y47.6006
G01 X87.6317 Y47.5594
G01 X87.6183 Y47.5217
G01 X87.6085 Y47.4828
G01 X87.6016 Y47.4379
G01 X87.5995 Y47.3952
G01 X87.5995 Y39.7017
G01 X87.0927 Y39.1949
G01 X38.7592 Y39.1949
G01 X38.7165 Y39.1928
G01 X38.6729 Y39.1862
G01 X38.6327 Y39.1761
G01 X38.5950 Y39.1627
G01 X38.5538 Y39.1434
G01 X38.5171 Y39.1214
G01 X38.4849 Y39.0976
G01 X38.4511 Y39.0673
G01 X36.1642 Y36.7803
G01 X36.1348 Y36.7475
G01 X36.1109 Y36.7152
G01 X36.0903 Y36.6809
G01 X36.0707 Y36.6399
G01 X36.0559 Y36.5984
G01 X36.0459 Y36.5582
G01 X36.0399 Y36.5185
G01 X36.0375 Y36.4732
G01 X36.0375 Y27.7637
G01 X35.2767 Y27.0029
G01 X22.2492 Y27.0029
G01 X22.2065 Y27.0008
G01 X22.1629 Y26.9942
G01 X22.1227 Y26.9841
G01 X22.0850 Y26.9707
G01 X22.0438 Y26.9514
G01 X22.0049 Y26.9279
G01 X21.9728 Y26.9040
G01 X21.9421 Y26.8762
G01 X21.1782 Y26.1123
G01 X21.1504 Y26.0816
G01 X21.1249 Y26.0472
G01 X21.1029 Y26.0106
G01 X21.0837 Y25.9694
G01 X21.0703 Y25.9317
G01 X21.0599 Y25.8902
G01 X21.0536 Y25.8479
G01 X21.0515 Y25.8065
G01 X21.0515 Y23.8896
G00 Z2.0000
G00 X20.6461 Y34.1848
G01 F60.00
G01 Z-0.0500
G01 F120.00
G01 X20.6501 Y34.1049
G01 X20.6622 Y34.0232
G01 X20.6823 Y33.9431
G01 X20.7101 Y33.8653
G01 X20.7455 Y33.7906
G01 X20.7879 Y33.7197
G01 X20.8372 Y33.6533
G01 X20.8926 Y33.5921
G01 X20.9539 Y33.5366
G01 X21.0202 Y33.4874
G01 X21.0911 Y33.4450
G01 X21.1658 Y33.4096
G01 X21.2436 Y33.3818
G01 X21.3237 Y33.3617
G01 X21.4054 Y33.3496
G01 X21.4880 Y33.3455
G01 X21.5705 Y33.3496
G01 X21.6522 Y33.3617
G01 X21.7323 Y33.3818
G01 X21.8101 Y33.4096
G01 X21.8848 Y33.4450
G01 X21.9557 Y33.4874
G01 X22.0220 Y33.5366
G01 X22.0833 Y33.5921
G01 X22.1387 Y33.6533
G01 X22.1880 Y33.7197
G01 X22.2304 Y33.7906
G01 X22.2658 Y33.8653
G01 X22.2936 Y33.9431
G01 X22.3137 Y34.0232
G01 X22.3258 Y34.1049
G01 X22.3298 Y34.1874
G01 X22.3258 Y34.2700
G01 X22.3137 Y34.3517
G01 X22.2936 Y34.4318
G01 X22.2658 Y34.5096
G01 X22.2304 Y34.5843
G01 X22.1880 Y34.6552
G01 X22.1387 Y34.7215
G01 X22.0833 Y34.7828
G01 X22.0220 Y34.8382
G01 X21.9557 Y34.8875
G01 X21.8848 Y34.9299
G01 X21.8101 Y34.9653
G01 X21.7323 Y34.9931
G01 X21.6522 Y35.0132
G01 X21.5705 Y35.0253
G01 X21.4880 Y35.0293
G01 X21.4054 Y35.0253
G01 X21.3237 Y35.0132
G01 X21.2436 Y34.9931
G01 X21.1658 Y34.9653
G01 X21.0911 Y34.9299
G01 X21.0202 Y34.8875
G01 X20.9539 Y34.8382
G01 X20.8926 Y34.7828
G01 X20.8372 Y34.7215
G01 X20.7879 Y34.6552
G01 X20.7455 Y34.5843
G01 X20.7101 Y34.5096
G01 X20.6823 Y34.4318
G01 X20.6622 Y34.3517
G01 X20.6501 Y34.2700
G01 X20.6461 Y34.1901
G01 X20.6461 Y34.1848
G00 Z2.0000
G00 X18.1061 Y34.1848
G01 F60.00
G01 Z-0.0500
G01 F120.00
G01 X18.1101 Y34.1049
G01 X18.1222 Y34.0232
G01 X18.1423 Y33.9431
G01 X18.1701 Y33.8653
G01 X18.2055 Y33.7906
G01 X18.2479 Y33.7197
G01 X18.2972 Y33.6533
G01 X18.3526 Y33.5921
G01 X18.4139 Y33.5366
G01 X18.4802 Y33.4874
G01 X18.5511 Y33.4450
G01 X18.6258 Y33.4096
G01 X18.7036 Y33.3818
G01 X18.7837 Y33.3617
G01 X18.8654 Y33.3496
G01 X18.9480 Y33.3455
G01 X19.0305 Y33.3496
G01 X19.1122 Y33.3617
G01 X19.1923 Y33.3818
G01 X19.2701 Y33.4096
G01 X19.3448 Y33.4450
G01 X19.4157 Y33.4874
G01 X19.4820 Y33.5366
G01 X19.5433 Y33.5921
G01 X19.5987 Y33.6533
G01 X19.6480 Y33.7197
G01 X19.6904 Y33.7906
G01 X19.7258 Y33.8653
G01 X19.7536 Y33.9431
G01 X19.7737 Y34.0232
G01 X19.7858 Y34.1049
G01 X19.7898 Y34.1874
G01 X19.7858 Y34.2700
G01 X19.7737 Y34.3517
G01 X19.7536 Y34.4318
G01 X19.7258 Y34.5096
G01 X19.6904 Y34.5843
G01 X19.6480 Y34.6552
G01 X19.5987 Y34.7215
G01 X19.5433 Y34.7828
G01 X19.4820 Y34.8382
G01 X19.4157 Y34.8875
G01 X19.3448 Y34.9299
G01 X19.2701 Y34.9653
G01 X19.1923 Y34.9931
G01 X19.1122 Y35.0132
G01 X19.0305 Y35.0253
G01 X18.9480 Y35.0293
G01 X18.8654 Y35.0253
G01 X18.7837 Y35.0132
G01 X18.7036 Y34.9931
G01 X18.6258 Y34.9653
G01 X18.5511 Y34.9299
G01 X18.4802 Y34.8875
G01 X18.4139 Y34.8382
G01 X18.3526 Y34.7828
G01 X18.2972 Y34.7215
G01 X18.2479 Y34.6552
G01 X18.2055 Y34.5843
G01 X18.1701 Y34.5096
G01 X18.1423 Y34.4318
G01 X18.1222 Y34.3517
G01 X18.1101 Y34.2700
G01 X18.1061 Y34.1901
G01 X18.1061 Y34.1848
G00 Z2.0000
G00 X15.5661 Y34.1848
G01 F60.00
G01 Z-0.0500
G01 F120.00
G01 X15.5701 Y34.1049
G01 X15.5822 Y34.0232
G01 X15.6023 Y33.9431
G01 X15.6301 Y33.8653
G01 X15.6655 Y33.7906
G01 X15.7079 Y33.7197
G01 X15.7572 Y33.6533
G01 X15.8126 Y33.5921
G01 X15.8739 Y33.5366
G01 X15.9402 Y33.4874
G01 X16.0111 Y33.4450
G01 X16.0858 Y33.4096
G01 X16.1636 Y33.3818
G01 X16.2437 Y33.3617
G01 X16.3254 Y33.3496
G01 X16.4080 Y33.3455
G01 X16.4905 Y33.3496
G01 X16.5722 Y33.3617
G01 X16.6523 Y33.3818
G01 X16.7301 Y33.4096
G01 X16.8048 Y33.4450
G01 X16.8757 Y33.4874
G01 X16.9420 Y33.5366
G01 X17.0033 Y33.5921
G01 X17.0587 Y33.6533
G01 X17.1080 Y33.7197
G01 X17.1504 Y33.7906
G01 X17.1858 Y33.8653
G01 X17.2136 Y33.9431
G01 X17.2337 Y34.0232
G01 X17.2458 Y34.1049
G01 X17.2498 Y34.1874
G01 X17.2458 Y34.2700
G01 X17.2337 Y34.3517
G01 X17.2136 Y34.4318
G01 X17.1858 Y34.5096
G01 X17.1504 Y34.5843
G01 X17.1080 Y34.6552
G01 X17.0587 Y34.7215
G01 X17.0033 Y34.7828
G01 X16.9420 Y34.8382
G01 X16.8757 Y34.8875
G01 X16.8048 Y34.9299
G01 X16.7301 Y34.9653
G01 X16.6523 Y34.9931
G01 X16.5722 Y35.0132
G01 X16.4905 Y35.0253
G01 X16.4080 Y35.0293
G01 X16.3254 Y35.0253
G01 X16.2437 Y35.0132
G01 X16.1636 Y34.9931
G01 X16.0858 Y34.9653
G01 X16.0111 Y34.9299
G01 X15.9402 Y34.8875
G01 X15.8739 Y34.8382
G01 X15.8126 Y34.7828
G01 X15.7572 Y34.7215
G01 X15.7079 Y34.6552
G01 X15.6655 Y34.5843
G01 X15.6301 Y34.5096
G01 X15.6023 Y34.4318
G01 X15.5822 Y34.3517
G01 X15.5701 Y34.2700
G01 X15.5661 Y34.1901
G01 X15.5661 Y34.1848
G00 Z2.0000
G00 X23.1861 Y34.1848
G01 F60.00
G01 Z-0.0500
G01 F120.00
G01 X23.1901 Y34.1049
G01 X23.2022 Y34.0232
G01 X23.2223 Y33.9431
G01 X23.2501 Y33.8653
G01 X23.2855 Y33.7906
G01 X23.3279 Y33.7197
G01 X23.3772 Y33.6533
G01 X23.4326 Y33.5921
G01 X23.4939 Y33.5366
G01 X23.5602 Y33.4874
G01 X23.6311 Y33.4450
G01 X23.7058 Y33.4096
G01 X23.7836 Y33.3818
G01 X23.8637 Y33.3617
G01 X23.9454 Y33.3496
G01 X24.0280 Y33.3455
G01 X24.1105 Y33.3496
G01 X24.1922 Y33.3617
G01 X24.2723 Y33.3818
G01 X24.3501 Y33.4096
G01 X24.4248 Y33.4450
G01 X24.4957 Y33.4874
G01 X24.5620 Y33.5366
G01 X24.6233 Y33.5921
G01 X24.6787 Y33.6533
G01 X24.7280 Y33.7197
G01 X24.7704 Y33.7906
G01 X24.8058 Y33.8653
G01 X24.8336 Y33.9431
G01 X24.8537 Y34.0232
G01 X24.8658 Y34.1049
G01 X24.8698 Y34.1874
G01 X24.8658 Y34.2700
G01 X24.8537 Y34.3517
G01 X24.8336 Y34.4318
G01 X24.8058 Y34.5096
G01 X24.7704 Y34.5843
G01 X24.7280 Y34.6552
G01 X24.6787 Y34.7215
G01 X24.6233 Y34.7828
G01 X24.5620 Y34.8382
G01 X24.4957 Y34.8875
G01 X24.4248 Y34.9299
G01 X24.3501 Y34.9653
G01 X24.2723 Y34.9931
G01 X24.1922 Y35.0132
G01 X24.1105 Y35.0253
G01 X24.0280 Y35.0293
G01 X23.9454 Y35.0253
G01 X23.8637 Y35.0132
G01 X23.7836 Y34.9931
G01 X23.7058 Y34.9653
G01 X23.6311 Y34.9299
G01 X23.5602 Y34.8875
G01 X23.4939 Y34.8382
G01 X23.4326 Y34.7828
G01 X23.3772 Y34.7215
G01 X23.3279 Y34.6552
G01 X23.2855 Y34.5843
G01 X23.2501 Y34.5096
G01 X23.2223 Y34.4318
G01 X23.2022 Y34.3517
G01 X23.1901 Y34.2700
G01 X23.1861 Y34.1901
G01 X23.1861 Y34.1848
G00 Z2.0000
G00 X25.7261 Y34.1848
G01 F60.00
G01 Z-0.0500
G01 F120.00
G01 X25.7301 Y34.1049
G01 X25.7422 Y34.0232
G01 X25.7623 Y33.9431
G01 X25.7901 Y33.8653
G01 X25.8255 Y33.7906
G01 X25.8679 Y33.7197
G01 X25.9172 Y33.6533
G01 X25.9726 Y33.5921
G01 X26.0339 Y33.5366
G01 X26.1002 Y33.4874
G01 X26.1711 Y33.4450
G01 X26.2458 Y33.4096
G01 X26.3236 Y33.3818
G01 X26.4037 Y33.3617
G01 X26.4854 Y33.3496
G01 X26.5680 Y33.3455
G01 X26.6505 Y33.3496
G01 X26.7322 Y33.3617
G01 X26.8123 Y33.3818
G01 X26.8901 Y33.4096
G01 X26.9648 Y33.4450
G01 X27.0357 Y33.4874
G01 X27.1020 Y33.5366
G01 X27.1633 Y33.5921
G01 X27.2187 Y33.6533
G01 X27.2680 Y33.7197
G01 X27.3104 Y33.7906
G01 X27.3458 Y33.8653
G01 X27.3736 Y33.9431
G01 X27.3937 Y34.0232
G01 X27.4058 Y34.1049
G01 X27.4098 Y34.1874
G01 X27.4058 Y34.2700
G01 X27.3937 Y34.3517
G01 X27.3736 Y34.4318
G01 X27.3458 Y34.5096
G01 X27.3104 Y34.5843
G01 X27.2680 Y34.6552
G01 X27.2187 Y34.7215
G01 X27.1633 Y34.7828
G01 X27.1020 Y34.8382
G01 X27.0357 Y34.8875
G01 X26.9648 Y34.9299
G01 X26.8901 Y34.9653
G01 X26.8123 Y34.9931
G01 X26.7322 Y35.0132
G01 X26.6505 Y35.0253
G01 X26.5680 Y35.0293
G01 X26.4854 Y35.0253
G01 X26.4037 Y35.0132
G01 X26.3236 Y34.9931
G01 X26.2458 Y34.9653
G01 X26.1711 Y34.9299
G01 X26.1002 Y34.8875
G01 X26.0339 Y34.8382
G01 X25.9726 Y34.7828
G01 X25.9172 Y34.7215
G01 X25.8679 Y34.6552
G01 X25.8255 Y34.5843
G01 X25.7901 Y34.5096
G01 X25.7623 Y34.4318
G01 X25.7422 Y34.3517
G01 X25.7301 Y34.2700
G01 X25.7261 Y34.1901
G01 X25.7261 Y34.1848
G00 Z2.0000
G00 X28.2661 Y34.1848
G01 F60.00
G01 Z-0.0500
G01 F120.00
G01 X28.2701 Y34.1049
G01 X28.2822 Y34.0232
G01 X28.3023 Y33.9431
G01 X28.3301 Y33.8653
G01 X28.3655 Y33.7906
G01 X28.4079 Y33.7197
G01 X28.4572 Y33.6533
G01 X28.5126 Y33.5921
G01 X28.5739 Y33.5366
G01 X28.6402 Y33.4874
G01 X28.7111 Y33.4450
G01 X28.7858 Y33.4096
G01 X28.8636 Y33.3818
G01 X28.9437 Y33.3617
G01 X29.0254 Y33.3496
G01 X29.1080 Y33.3455
G01 X29.1905 Y33.3496
G01 X29.2722 Y33.3617
G01 X29.3523 Y33.3818
G01 X29.4301 Y33.4096
G01 X29.5048 Y33.4450
G01 X29.5757 Y33.4874
G01 X29.6420 Y33.5366
G01 X29.7033 Y33.5921
G01 X29.7587 Y33.6533
G01 X29.8080 Y33.7197
G01 X29.8504 Y33.7906
G01 X29.8858 Y33.8653
G01 X29.9136 Y33.9431
G01 X29.9337 Y34.0232
G01 X29.9458 Y34.1049
G01 X29.9498 Y34.1874
G01 X29.9458 Y34.2700
G01 X29.9337 Y34.3517
G01 X29.9136 Y34.4318
G01 X29.8858 Y34.5096
G01 X29.8504 Y34.5843
G01 X29.8080 Y34.6552
G01 X29.7587 Y34.7215
G01 X29.7033 Y34.7828
G01 X29.6420 Y34.8382
G01 X29.5757 Y34.8875
G01 X29.5048 Y34.9299
G01 X29.4301 Y34.9653
G01 X29.3523 Y34.9931
G01 X29.2722 Y35.0132
G01 X29.1905 Y35.0253
G01 X29.1080 Y35.0293
G01 X29.0254 Y35.0253
G01 X28.9437 Y35.0132
G01 X28.8636 Y34.9931
G01 X28.7858 Y34.9653
G01 X28.7111 Y34.9299
G01 X28.6402 Y34.8875
G01 X28.5739 Y34.8382
G01 X28.5126 Y34.7828
G01 X28.4572 Y34.7215
G01 X28.4079 Y34.6552
G01 X28.3655 Y34.5843
G01 X28.3301 Y34.5096
G01 X28.3023 Y34.4318
G01 X28.2822 Y34.3517
G01 X28.2701 Y34.2700
G01 X28.2661 Y34.1901
G01 X28.2661 Y34.1848
G00 Z2.0000
G00 X30.8061 Y34.1848
G01 F60.00
G01 Z-0.0500
G01 F120.00
G01 X30.8101 Y34.1049
G01 X30.8222 Y34.0232
G01 X30.8423 Y33.9431
G01 X30.8701 Y33.8653
G01 X30.9055 Y33.7906
G01 X30.9479 Y33.7197
G01 X30.9972 Y33.6533
G01 X31.0526 Y33.5921
G01 X31.1139 Y33.5366
G01 X31.1802 Y33.4874
G01 X31.2511 Y33.4450
G01 X31.3258 Y33.4096
G01 X31.4036 Y33.3818
G01 X31.4837 Y33.3617
G01 X31.5654 Y33.3496
G01 X31.6480 Y33.3455
G01 X31.7305 Y33.3496
G01 X31.8122 Y33.3617
G01 X31.8923 Y33.3818
G01 X31.9701 Y33.4096
G01 X32.0448 Y33.4450
G01 X32.1157 Y33.4874
G01 X32.1820 Y33.5366
G01 X32.2433 Y33.5921
G01 X32.2987 Y33.6533
G01 X32.3480 Y33.7197
G01 X32.3904 Y33.7906
G01 X32.4258 Y33.8653
G01 X32.4536 Y33.9431
G01 X32.4737 Y34.0232
G01 X32.4858 Y34.1049
G01 X32.4898 Y34.1874
G01 X32.4858 Y34.2700
G01 X32.4737 Y34.3517
G01 X32.4536 Y34.4318
G01 X32.4258 Y34.5096
G01 X32.3904 Y34.5843
G01 X32.3480 Y34.6552
G01 X32.2987 Y34.7215
G01 X32.2433 Y34.7828
G01 X32.1820 Y34.8382
G01 X32.1157 Y34.8875
G01 X32.0448 Y34.9299
G01 X31.9701 Y34.9653
G01 X31.8923 Y34.9931
G01 X31.8122 Y35.0132
G01 X31.7305 Y35.0253
G01 X31.6480 Y35.0293
G01 X31.5654 Y35.0253
G01 X31.4837 Y35.0132
G01 X31.4036 Y34.9931
G01 X31.3258 Y34.9653
G01 X31.2511 Y34.9299
G01 X31.1802 Y34.8875
G01 X31.1139 Y34.8382
G01 X31.0526 Y34.7828
G01 X30.9972 Y34.7215
G01 X30.9479 Y34.6552
G01 X30.9055 Y34.5843
G01 X30.8701 Y34.5096
G01 X30.8423 Y34.4318
G01 X30.8222 Y34.3517
G01 X30.8101 Y34.2700
G01 X30.8061 Y34.1901
G01 X30.8061 Y34.1848
G00 Z2.0000
G00 X35.0300 Y33.4002
G01 F60.00
G01 Z-0.0500
G01 F120.00
G01 X35.0300 Y34.9750
G01 X35.0297 Y34.9803
G01 X35.0290 Y34.9856
G01 X35.0272 Y34.9921
G01 X35.0253 Y34.9971
G01 X35.0229 Y35.0018
G01 X35.0201 Y35.0063
G01 X35.0168 Y35.0106
G01 X35.0131 Y35.0144
G01 X35.0090 Y35.0179
G01 X35.0047 Y35.0210
G01 X35.0000 Y35.0236
G01 X34.9951 Y35.0258
G01 X34.9900 Y35.0275
G01 X34.9848 Y35.0287
G01 X34.9755 Y35.0295
G01 X33.4007 Y35.0295
G01 X33.3954 Y35.0292
G01 X33.3901 Y35.0284
G01 X33.3836 Y35.0267
G01 X33.3786 Y35.0248
G01 X33.3738 Y35.0224
G01 X33.3693 Y35.0195
G01 X33.3651 Y35.0162
G01 X33.3612 Y35.0125
G01 X33.3577 Y35.0085
G01 X33.3547 Y35.0041
G01 X33.3520 Y34.9995
G01 X33.3499 Y34.9946
G01 X33.3482 Y34.9895
G01 X33.3470 Y34.9843
G01 X33.3462 Y34.9750
G01 X33.3462 Y33.4002
G01 X33.3465 Y33.3948
G01 X33.3475 Y33.3882
G01 X33.3490 Y33.3831
G01 X33.3509 Y33.3781
G01 X33.3533 Y33.3733
G01 X33.3561 Y33.3688
G01 X33.3594 Y33.3646
G01 X33.3631 Y33.3607
G01 X33.3672 Y33.3572
G01 X33.3715 Y33.3541
G01 X33.3762 Y33.3515
G01 X33.3811 Y33.3493
G01 X33.3901 Y33.3467
G01 X33.3954 Y33.3459
G01 X33.4007 Y33.3457
G01 X34.9768 Y33.3457
G01 X34.9822 Y33.3461
G01 X34.9874 Y33.3470
G01 X34.9926 Y33.3484
G01 X34.9976 Y33.3503
G01 X35.0024 Y33.3528
G01 X35.0069 Y33.3556
G01 X35.0140 Y33.3616
G01 X35.0176 Y33.3656
G01 X35.0208 Y33.3699
G01 X35.0236 Y33.3745
G01 X35.0259 Y33.3793
G01 X35.0277 Y33.3844
G01 X35.0290 Y33.3895
G01 X35.0297 Y33.3948
G01 X35.0300 Y33.4002
G00 Z2.0000
G00 X40.3096 Y35.1566
G01 F60.00
G01 Z-0.0500
G01 F120.00
G01 X38.7348 Y35.1566
G01 X38.7295 Y35.1563
G01 X38.7242 Y35.1555
G01 X38.7177 Y35.1538
G01 X38.7127 Y35.1519
G01 X38.7079 Y35.1495
G01 X38.7034 Y35.1466
G01 X38.6992 Y35.1433
G01 X38.6953 Y35.1396
G01 X38.6918 Y35.1356
G01 X38.6888 Y35.1312
G01 X38.6861 Y35.1266
G01 X38.6840 Y35.1217
G01 X38.6823 Y35.1166
G01 X38.6811 Y35.1114
G01 X38.6803 Y35.1021
G01 X38.6803 Y33.5273
G01 X38.6806 Y33.5219
G01 X38.6814 Y33.5166
G01 X38.6831 Y33.5102
G01 X38.6850 Y33.5052
G01 X38.6874 Y33.5004
G01 X38.6902 Y33.4959
G01 X38.6935 Y33.4917
G01 X38.6972 Y33.4878
G01 X38.7013 Y33.4843
G01 X38.7056 Y33.4812
G01 X38.7103 Y33.4786
G01 X38.7152 Y33.4764
G01 X38.7203 Y33.4747
G01 X38.7255 Y33.4736
G01 X38.7348 Y33.4728
G01 X40.3096 Y33.4728
G01 X40.3149 Y33.4730
G01 X40.3202 Y33.4738
G01 X40.3254 Y33.4751
G01 X40.3305 Y33.4769
G01 X40.3353 Y33.4792
G01 X40.3399 Y33.4820
G01 X40.3442 Y33.4851
G01 X40.3491 Y33.4897
G01 X40.3526 Y33.4937
G01 X40.3556 Y33.4981
G01 X40.3600 Y33.5064
G01 X40.3618 Y33.5115
G01 X40.3631 Y33.5166
G01 X40.3638 Y33.5219
G01 X40.3641 Y33.5273
G01 X40.3641 Y35.1034
G01 X40.3637 Y35.1087
G01 X40.3628 Y35.1140
G01 X40.3614 Y35.1192
G01 X40.3594 Y35.1242
G01 X40.3570 Y35.1289
G01 X40.3542 Y35.1334
G01 X40.3481 Y35.1406
G01 X40.3442 Y35.1442
G01 X40.3399 Y35.1474
G01 X40.3353 Y35.1501
G01 X40.3305 Y35.1524
G01 X40.3254 Y35.1542
G01 X40.3202 Y35.1555
G01 X40.3149 Y35.1563
G01 X40.3096 Y35.1566
G00 Z2.0000
G00 X41.2204 Y34.3120
G01 F60.00
G01 Z-0.0500
G01 F120.00
G01 X41.2244 Y34.2322
G01 X41.2365 Y34.1504
G01 X41.2566 Y34.0703
G01 X41.2844 Y33.9925
G01 X41.3197 Y33.9178
G01 X41.3622 Y33.8469
G01 X41.4114 Y33.7806
G01 X41.4669 Y33.7194
G01 X41.5281 Y33.6639
G01 X41.5945 Y33.6147
G01 X41.6653 Y33.5722
G01 X41.7400 Y33.5369
G01 X41.8178 Y33.5090
G01 X41.8980 Y33.4890
G01 X41.9797 Y33.4768
G01 X42.0622 Y33.4728
G01 X42.1447 Y33.4768
G01 X42.2265 Y33.4890
G01 X42.3066 Y33.5090
G01 X42.3844 Y33.5369
G01 X42.4591 Y33.5722
G01 X42.5299 Y33.6147
G01 X42.5963 Y33.6639
G01 X42.6575 Y33.7194
G01 X42.7130 Y33.7806
G01 X42.7622 Y33.8469
G01 X42.8047 Y33.9178
G01 X42.8400 Y33.9925
G01 X42.8678 Y34.0703
G01 X42.8879 Y34.1504
G01 X42.9000 Y34.2322
G01 X42.9041 Y34.3147
G01 X42.9000 Y34.3972
G01 X42.8879 Y34.4789
G01 X42.8678 Y34.5591
G01 X42.8400 Y34.6369
G01 X42.8047 Y34.7115
G01 X42.7622 Y34.7824
G01 X42.7130 Y34.8488
G01 X42.6575 Y34.9100
G01 X42.5963 Y34.9655
G01 X42.5299 Y35.0147
G01 X42.4591 Y35.0572
G01 X42.3844 Y35.0925
G01 X42.3066 Y35.1203
G01 X42.2265 Y35.1404
G01 X42.1447 Y35.1525
G01 X42.0622 Y35.1566
G01 X41.9797 Y35.1525
G01 X41.8980 Y35.1404
G01 X41.8178 Y35.1203
G01 X41.7400 Y35.0925
G01 X41.6653 Y35.0572
G01 X41.5945 Y35.0147
G01 X41.5281 Y34.9655
G01 X41.4669 Y34.9100
G01 X41.4114 Y34.8488
G01 X41.3622 Y34.7824
G01 X41.3197 Y34.7115
G01 X41.2844 Y34.6369
G01 X41.2566 Y34.5591
G01 X41.2365 Y34.4789
G01 X41.2244 Y34.3972
G01 X41.2204 Y34.3173
G01 X41.2204 Y34.3120
G00 Z2.0000
G00 X43.7604 Y34.3120
G01 F60.00
G01 Z-0.0500
G01 F120.00
G01 X43.7644 Y34.2322
G01 X43.7765 Y34.1504
G01 X43.7966 Y34.0703
G01 X43.8244 Y33.9925
G01 X43.8597 Y33.9178
G01 X43.9022 Y33.8469
G01 X43.9514 Y33.7806
G01 X44.0069 Y33.7194
G01 X44.0681 Y33.6639
G01 X44.1345 Y33.6147
G01 X44.2053 Y33.5722
G01 X44.2800 Y33.5369
G01 X44.3578 Y33.5090
G01 X44.4380 Y33.4890
G01 X44.5197 Y33.4768
G01 X44.6022 Y33.4728
G01 X44.6847 Y33.4768
G01 X44.7665 Y33.4890
G01 X44.8466 Y33.5090
G01 X44.9244 Y33.5369
G01 X44.9991 Y33.5722
G01 X45.0699 Y33.6147
G01 X45.1363 Y33.6639
G01 X45.1975 Y33.7194
G01 X45.2530 Y33.7806
G01 X45.3022 Y33.8469
G01 X45.3447 Y33.9178
G01 X45.3800 Y33.9925
G01 X45.4078 Y34.0703
G01 X45.4279 Y34.1504
G01 X45.4400 Y34.2322
G01 X45.4441 Y34.3147
G01 X45.4400 Y34.3972
G01 X45.4279 Y34.4789
G01 X45.4078 Y34.5591
G01 X45.3800 Y34.6369
G01 X45.3447 Y34.7115
G01 X45.3022 Y34.7824
G01 X45.2530 Y34.8488
G01 X45.1975 Y34.9100
G01 X45.1363 Y34.9655
G01 X45.0699 Y35.0147
G01 X44.9991 Y35.0572
G01 X44.9244 Y35.0925
G01 X44.8466 Y35.1203
G01 X44.7665 Y35.1404
G01 X44.6847 Y35.1525
G01 X44.6022 Y35.1566
G01 X44.5197 Y35.1525
G01 X44.4380 Y35.1404
G01 X44.3578 Y35.1203
G01 X44.2800 Y35.0925
G01 X44.2053 Y35.0572
G01 X44.1345 Y35.0147
G01 X44.0681 Y34.9655
G01 X44.0069 Y34.9100
G01 X43.9514 Y34.8488
G01 X43.9022 Y34.7824
G01 X43.8597 Y34.7115
G01 X43.8244 Y34.6369
G01 X43.7966 Y34.5591
G01 X43.7765 Y34.4789
G01 X43.7644 Y34.3972
G01 X43.7604 Y34.3173
G01 X43.7604 Y34.3120
G00 Z2.0000
G00 X46.3004 Y34.3120
G01 F60.00
G01 Z-0.0500
G01 F120.00
G01 X46.3044 Y34.2322
G01 X46.3165 Y34.1504
G01 X46.3366 Y34.0703
G01 X46.3644 Y33.9925
G01 X46.3997 Y33.9178
G01 X46.4422 Y33.8469
G01 X46.4914 Y33.7806
G01 X46.5469 Y33.7194
G01 X46.6081 Y33.6639
G01 X46.6745 Y33.6147
G01 X46.7453 Y33.5722
G01 X46.8200 Y33.5369
G01 X46.8978 Y33.5090
G01 X46.9780 Y33.4890
G01 X47.0597 Y33.4768
G01 X47.1422 Y33.4728
G01 X47.2247 Y33.4768
G01 X47.3065 Y33.4890
G01 X47.3866 Y33.5090
G01 X47.4644 Y33.5369
G01 X47.5391 Y33.5722
G01 X47.6099 Y33.6147
G01 X47.6763 Y33.6639
G01 X47.7375 Y33.7194
G01 X47.7930 Y33.7806
G01 X47.8422 Y33.8469
G01 X47.8847 Y33.9178
G01 X47.9200 Y33.9925
G01 X47.9478 Y34.0703
G01 X47.9679 Y34.1504
G01 X47.9800 Y34.2322
G01 X47.9841 Y34.3147
G01 X47.9800 Y34.3972
G01 X47.9679 Y34.4789
G01 X47.9478 Y34.5591
G01 X47.9200 Y34.6369
G01 X47.8847 Y34.7115
G01 X47.8422 Y34.7824
G01 X47.7930 Y34.8488
G01 X47.7375 Y34.9100
G01 X47.6763 Y34.9655
G01 X47.6099 Y35.0147
G01 X47.5391 Y35.0572
G01 X47.4644 Y35.0925
G01 X47.3866 Y35.1203
G01 X47.3065 Y35.1404
G01 X47.2247 Y35.1525
G01 X47.1422 Y35.1566
G01 X47.0597 Y35.1525
G01 X46.9780 Y35.1404
G01 X46.8978 Y35.1203
G01 X46.8200 Y35.0925
G01 X46.7453 Y35.0572
G01 X46.6745 Y35.0147
G01 X46.6081 Y34.9655
G01 X46.5469 Y34.9100
G01 X46.4914 Y34.8488
G01 X46.4422 Y34.7824
G01 X46.3997 Y34.7115
G01 X46.3644 Y34.6369
G01 X46.3366 Y34.5591
G01 X46.3165 Y34.4789
G01 X46.3044 Y34.3972
G01 X46.3004 Y34.3173
G01 X46.3004 Y34.3120
G00 Z2.0000
G00 X48.8404 Y34.3120
G01 F60.00
G01 Z-0.0500
G01 F120.00
G01 X48.8444 Y34.2322
G01 X48.8565 Y34.1504
G01 X48.8766 Y34.0703
G01 X48.9044 Y33.9925
G01 X48.9397 Y33.9178
G01 X48.9822 Y33.8469
G01 X49.0314 Y33.7806
G01 X49.0869 Y33.7194
G01 X49.1481 Y33.6639
G01 X49.2145 Y33.6147
G01 X49.2853 Y33.5722
G01 X49.3600 Y33.5369
G01 X49.4378 Y33.5090
G01 X49.5180 Y33.4890
G01 X49.5997 Y33.4768
G01 X49.6822 Y33.4728
G01 X49.7647 Y33.4768
G01 X49.8465 Y33.4890
G01 X49.9266 Y33.5090
G01 X50.0044 Y33.5369
G01 X50.0791 Y33.5722
G01 X50.1499 Y33.6147
G01 X50.2163 Y33.6639
G01 X50.2775 Y33.7194
G01 X50.3330 Y33.7806
G01 X50.3822 Y33.8469
G01 X50.4247 Y33.9178
G01 X50.4600 Y33.9925
G01 X50.4878 Y34.0703
G01 X50.5079 Y34.1504
G01 X50.5200 Y34.2322
G01 X50.5241 Y34.3147
G01 X50.5200 Y34.3972
G01 X50.5079 Y34.4789
G01 X50.4878 Y34.5591
G01 X50.4600 Y34.6369
G01 X50.4247 Y34.7115
G01 X50.3822 Y34.7824
G01 X50.3330 Y34.8488
G01 X50.2775 Y34.9100
G01 X50.2163 Y34.9655
G01 X50.1499 Y35.0147
G01 X50.0791 Y35.0572
G01 X50.0044 Y35.0925
G01 X49.9266 Y35.1203
G01 X49.8465 Y35.1404
G01 X49.7647 Y35.1525
G01 X49.6822 Y35.1566
G01 X49.5997 Y35.1525
G01 X49.5180 Y35.1404
G01 X49.4378 Y35.1203
G01 X49.3600 Y35.0925
G01 X49.2853 Y35.0572
G01 X49.2145 Y35.0147
G01 X49.1481 Y34.9655
G01 X49.0869 Y34.9100
G01 X49.0314 Y34.8488
G01 X48.9822 Y34.7824
G01 X48.9397 Y34.7115
G01 X48.9044 Y34.6369
G01 X48.8766 Y34.5591
G01 X48.8565 Y34.4789
G01 X48.8444 Y34.3972
G01 X48.8404 Y34.3173
G01 X48.8404 Y34.3120
G00 Z2.0000
G00 X51.3804 Y34.3120
G01 F60.00
G01 Z-0.0500
G01 F120.00
G01 X51.3844 Y34.2322
G01 X51.3965 Y34.1504
G01 X51.4166 Y34.0703
G01 X51.4444 Y33.9925
G01 X51.4797 Y33.9178
G01 X51.5222 Y33.8469
G01 X51.5714 Y33.7806
G01 X51.6269 Y33.7194
G01 X51.6881 Y33.6639
G01 X51.7545 Y33.6147
G01 X51.8253 Y33.5722
G01 X51.9000 Y33.5369
G01 X51.9778 Y33.5090
G01 X52.0580 Y33.4890
G01 X52.1397 Y33.4768
G01 X52.2222 Y33.4728
G01 X52.3047 Y33.4768
G01 X52.3865 Y33.4890
G01 X52.4666 Y33.5090
G01 X52.5444 Y33.5369
G01 X52.6191 Y33.5722
G01 X52.6899 Y33.6147
G01 X52.7563 Y33.6639
G01 X52.8175 Y33.7194
G01 X52.8730 Y33.7806
G01 X52.9222 Y33.8469
G01 X52.9647 Y33.9178
G01 X53.0000 Y33.9925
G01 X53.0278 Y34.0703
G01 X53.0479 Y34.1504
G01 X53.0600 Y34.2322
G01 X53.0641 Y34.3147
G01 X53.0600 Y34.3972
G01 X53.0479 Y34.4789
G01 X53.0278 Y34.5591
G01 X53.0000 Y34.6369
G01 X52.9647 Y34.7115
G01 X52.9222 Y34.7824
G01 X52.8730 Y34.8488
G01 X52.8175 Y34.9100
G01 X52.7563 Y34.9655
G01 X52.6899 Y35.0147
G01 X52.6191 Y35.0572
G01 X52.5444 Y35.0925
G01 X52.4666 Y35.1203
G01 X52.3865 Y35.1404
G01 X52.3047 Y35.1525
G01 X52.2222 Y35.1566
G01 X52.1397 Y35.1525
G01 X52.0580 Y35.1404
G01 X51.9778 Y35.1203
G01 X51.9000 Y35.0925
G01 X51.8253 Y35.0572
G01 X51.7545 Y35.0147
G01 X51.6881 Y34.9655
G01 X51.6269 Y34.9100
G01 X51.5714 Y34.8488
G01 X51.5222 Y34.7824
G01 X51.4797 Y34.7115
G01 X51.4444 Y34.6369
G01 X51.4166 Y34.5591
G01 X51.3965 Y34.4789
G01 X51.3844 Y34.3972
G01 X51.3804 Y34.3173
G01 X51.3804 Y34.3120
G00 Z2.0000
G00 X53.9204 Y34.3120
G01 F60.00
G01 Z-0.0500
G01 F120.00
G01 X53.9244 Y34.2322
G01 X53.9365 Y34.1504
G01 X53.9566 Y34.0703
G01 X53.9844 Y33.9925
G01 X54.0197 Y33.9178
G01 X54.0622 Y33.8469
G01 X54.1114 Y33.7806
G01 X54.1669 Y33.7194
G01 X54.2281 Y33.6639
G01 X54.2945 Y33.6147
G01 X54.3653 Y33.5722
G01 X54.4400 Y33.5369
G01 X54.5178 Y33.5090
G01 X54.5980 Y33.4890
G01 X54.6797 Y33.4768
G01 X54.7622 Y33.4728
G01 X54.8447 Y33.4768
G01 X54.9265 Y33.4890
G01 X55.0066 Y33.5090
G01 X55.0844 Y33.5369
G01 X55.1591 Y33.5722
G01 X55.2299 Y33.6147
G01 X55.2963 Y33.6639
G01 X55.3575 Y33.7194
G01 X55.4130 Y33.7806
G01 X55.4622 Y33.8469
G01 X55.5047 Y33.9178
G01 X55.5400 Y33.9925
G01 X55.5678 Y34.0703
G01 X55.5879 Y34.1504
G01 X55.6000 Y34.2322
G01 X55.6041 Y34.3147
G01 X55.6000 Y34.3972
G01 X55.5879 Y34.4789
G01 X55.5678 Y34.5591
G01 X55.5400 Y34.6369
G01 X55.5047 Y34.7115
G01 X55.4622 Y34.7824
G01 X55.4130 Y34.8488
G01 X55.3575 Y34.9100
G01 X55.2963 Y34.9655
G01 X55.2299 Y35.0147
G01 X55.1591 Y35.0572
G01 X55.0844 Y35.0925
G01 X55.0066 Y35.1203
G01 X54.9265 Y35.1404
G01 X54.8447 Y35.1525
G01 X54.7622 Y35.1566
G01 X54.6797 Y35.1525
G01 X54.5980 Y35.1404
G01 X54.5178 Y35.1203
G01 X54.4400 Y35.0925
G01 X54.3653 Y35.0572
G01 X54.2945 Y35.0147
G01 X54.2281 Y34.9655
G01 X54.1669 Y34.9100
G01 X54.1114 Y34.8488
G01 X54.0622 Y34.7824
G01 X54.0197 Y34.7115
G01 X53.9844 Y34.6369
G01 X53.9566 Y34.5591
G01 X53.9365 Y34.4789
G01 X53.9244 Y34.3972
G01 X53.9204 Y34.3173
G01 X53.9204 Y34.3120
G00 Z2.0000
G00 X56.4604 Y34.3120
G01 F60.00
G01 Z-0.0500
G01 F120.00
G01 X56.4644 Y34.2322
G01 X56.4765 Y34.1504
G01 X56.4966 Y34.0703
G01 X56.5244 Y33.9925
G01 X56.5597 Y33.9178
G01 X56.6022 Y33.8469
G01 X56.6514 Y33.7806
G01 X56.7069 Y33.7194
G01 X56.7681 Y33.6639
G01 X56.8345 Y33.6147
G01 X56.9053 Y33.5722
G01 X56.9800 Y33.5369
G01 X57.0578 Y33.5090
G01 X57.1380 Y33.4890
G01 X57.2197 Y33.4768
G01 X57.3022 Y33.4728
G01 X57.3847 Y33.4768
G01 X57.4665 Y33.4890
G01 X57.5466 Y33.5090
G01 X57.6244 Y33.5369
G01 X57.6991 Y33.5722
G01 X57.7699 Y33.6147
G01 X57.8363 Y33.6639
G01 X57.8975 Y33.7194
G01 X57.9530 Y33.7806
G01 X58.0022 Y33.8469
G01 X58.0447 Y33.9178
G01 X58.0800 Y33.9925
G01 X58.1078 Y34.0703
G01 X58.1279 Y34.1504
G01 X58.1400 Y34.2322
G01 X58.1441 Y34.3147
G01 X58.1400 Y34.3972
G01 X58.1279 Y34.4789
G01 X58.1078 Y34.5591
G01 X58.0800 Y34.6369
G01 X58.0447 Y34.7115
G01 X58.0022 Y34.7824
G01 X57.9530 Y34.8488
G01 X57.8975 Y34.9100
G01 X57.8363 Y34.9655
G01 X57.7699 Y35.0147
G01 X57.6991 Y35.0572
G01 X57.6244 Y35.0925
G01 X57.5466 Y35.1203
G01 X57.4665 Y35.1404
G01 X57.3847 Y35.1525
G01 X57.3022 Y35.1566
G01 X57.2197 Y35.1525
G01 X57.1380 Y35.1404
G01 X57.0578 Y35.1203
G01 X56.9800 Y35.0925
G01 X56.9053 Y35.0572
G01 X56.8345 Y35.0147
G01 X56.7681 Y34.9655
G01 X56.7069 Y34.9100
G01 X56.6514 Y34.8488
G01 X56.6022 Y34.7824
G01 X56.5597 Y34.7115
G01 X56.5244 Y34.6369
G01 X56.4966 Y34.5591
G01 X56.4765 Y34.4789
G01 X56.4644 Y34.3972
G01 X56.4604 Y34.3173
G01 X56.4604 Y34.3120
G00 Z2.0000
G00 X65.9636 Y35.1566
G01 F60.00
G01 Z-0.0500
G01 F120.00
G01 X64.3888 Y35.1566
G01 X64.3835 Y35.1563
G01 X64.3782 Y35.1555
G01 X64.3717 Y35.1538
G01 X64.3667 Y35.1519
G01 X64.3619 Y35.1495
G01 X64.3574 Y35.1466
G01 X64.3532 Y35.1433
G01 X64.3493 Y35.1396
G01 X64.3458 Y35.1356
G01 X64.3428 Y35.1312
G01 X64.3401 Y35.1266
G01 X64.3380 Y35.1217
G01 X64.3363 Y35.1166
G01 X64.3351 Y35.1114
G01 X64.3343 Y35.1021
G01 X64.3343 Y33.5273
G01 X64.3346 Y33.5219
G01 X64.3354 Y33.5166
G01 X64.3371 Y33.5102
G01 X64.3390 Y33.5052
G01 X64.3414 Y33.5004
G01 X64.3442 Y33.4959
G01 X64.3475 Y33.4917
G01 X64.3512 Y33.4878
G01 X64.3553 Y33.4843
G01 X64.3596 Y33.4812
G01 X64.3643 Y33.4786
G01 X64.3692 Y33.4764
G01 X64.3743 Y33.4747
G01 X64.3795 Y33.4736
G01 X64.3888 Y33.4728
G01 X65.9636 Y33.4728
G01 X65.9689 Y33.4730
G01 X65.9742 Y33.4738
G01 X65.9794 Y33.4751
G01 X65.9845 Y33.4769
G01 X65.9893 Y33.4792
G01 X65.9939 Y33.4820
G01 X65.9982 Y33.4851
G01 X66.0031 Y33.4897
G01 X66.0066 Y33.4937
G01 X66.0096 Y33.4981
G01 X66.0140 Y33.5064
G01 X66.0158 Y33.5115
G01 X66.0171 Y33.5166
G01 X66.0178 Y33.5219
G01 X66.0181 Y33.5273
G01 X66.0181 Y35.1034
G01 X66.0177 Y35.1087
G01 X66.0168 Y35.1140
G01 X66.0154 Y35.1192
G01 X66.0134 Y35.1242
G01 X66.0110 Y35.1289
G01 X66.0082 Y35.1334
G01 X66.0021 Y35.1406
G01 X65.9982 Y35.1442
G01 X65.9939 Y35.1474
G01 X65.9893 Y35.1501
G01 X65.9845 Y35.1524
G01 X65.9794 Y35.1542
G01 X65.9742 Y35.1555
G01 X65.9689 Y35.1563
G01 X65.9636 Y35.1566
G00 Z2.0000
G00 X65.9567 Y35.5581
G01 F60.00
G01 Z-0.0500
G01 F120.00
G01 X64.3952 Y35.5581
G01 X64.3095 Y35.5506
G01 X64.2329 Y35.5298
G01 X64.1611 Y35.4962
G01 X64.0957 Y35.4508
G01 X64.0396 Y35.3946
G01 X63.9942 Y35.3298
G01 X63.9607 Y35.2577
G01 X63.9403 Y35.1810
G01 X63.9328 Y35.0951
G01 X63.9328 Y33.5337
G01 X63.9403 Y33.4479
G01 X63.9607 Y33.3713
G01 X63.9942 Y33.2996
G01 X64.0396 Y33.2342
G01 X64.0957 Y33.1781
G01 X64.1611 Y33.1327
G01 X64.2328 Y33.0992
G01 X64.3094 Y33.0788
G01 X64.3952 Y33.0713
G01 X65.9567 Y33.0713
G01 X66.0425 Y33.0788
G01 X66.1192 Y33.0992
G01 X66.1913 Y33.1327
G01 X66.2561 Y33.1781
G01 X66.3123 Y33.2342
G01 X66.3577 Y33.2996
G01 X66.3913 Y33.3714
G01 X66.4121 Y33.4479
G01 X66.4183 Y33.5226
G01 X66.4195 Y33.5304
G01 X66.4331 Y33.5751
G01 X66.4361 Y33.5823
G01 X66.4394 Y33.5880
G01 X66.4434 Y33.5932
G01 X66.4720 Y33.6266
G01 X66.4788 Y33.6327
G01 X66.4876 Y33.6381
G01 X66.5259 Y33.6570
G01 X66.5308 Y33.6590
G01 X66.5358 Y33.6605
G01 X66.5448 Y33.6619
G01 X66.5913 Y33.6641
G01 X66.5992 Y33.6633
G01 X66.6069 Y33.6614
G01 X66.6480 Y33.6458
G01 X66.6566 Y33.6416
G01 X66.6612 Y33.6385
G01 X66.6654 Y33.6350
G01 X66.6999 Y33.6014
G01 X66.7038 Y33.5963
G01 X66.7279 Y33.5604
G01 X66.8242 Y33.4485
G01 X66.9327 Y33.3492
G01 X67.0525 Y33.2636
G01 X67.1814 Y33.1920
G01 X67.3181 Y33.1371
G01 X67.4603 Y33.0981
G01 X67.6058 Y33.0762
G01 X67.7527 Y33.0718
G01 X67.8997 Y33.0850
G01 X68.0437 Y33.1151
G01 X68.1833 Y33.1623
G01 X68.3162 Y33.2261
G01 X68.4408 Y33.3045
G01 X68.5551 Y33.3974
G01 X68.6578 Y33.5030
G01 X68.7474 Y33.6203
G01 X68.8222 Y33.7466
G01 X68.8421 Y33.7931
G01 X68.8450 Y33.7988
G01 X68.8695 Y33.8340
G01 X68.8745 Y33.8401
G01 X68.8793 Y33.8446
G01 X68.8835 Y33.8478
G01 X68.9162 Y33.8698
G01 X68.9247 Y33.8743
G01 X68.9326 Y33.8769
G01 X68.9710 Y33.8853
G01 X68.9764 Y33.8862
G01 X68.9833 Y33.8866
G01 X68.9901 Y33.8861
G01 X69.0286 Y33.8798
G01 X69.0351 Y33.8783
G01 X69.0401 Y33.8766
G01 X69.0472 Y33.8730
G01 X69.0825 Y33.8524
G01 X69.0887 Y33.8477
G01 X69.0942 Y33.8421
G01 X69.1187 Y33.8106
G01 X69.1229 Y33.8043
G01 X69.1856 Y33.6826
G01 X69.2679 Y33.5604
G01 X69.3642 Y33.4485
G01 X69.4727 Y33.3492
G01 X69.5925 Y33.2636
G01 X69.7214 Y33.1920
G01 X69.8581 Y33.1371
G01 X70.0003 Y33.0981
G01 X70.1458 Y33.0762
G01 X70.2927 Y33.0718
G01 X70.4397 Y33.0850
G01 X70.5837 Y33.1151
G01 X70.7233 Y33.1623
G01 X70.8562 Y33.2261
G01 X70.9808 Y33.3045
G01 X71.0951 Y33.3974
G01 X71.1978 Y33.5030
G01 X71.2874 Y33.6203
G01 X71.3622 Y33.7466
G01 X71.3821 Y33.7931
G01 X71.3850 Y33.7988
G01 X71.4095 Y33.8340
G01 X71.4145 Y33.8401
G01 X71.4183 Y33.8438
G01 X71.4235 Y33.8478
G01 X71.4562 Y33.8698
G01 X71.4647 Y33.8743
G01 X71.4726 Y33.8769
G01 X71.5110 Y33.8853
G01 X71.5164 Y33.8862
G01 X71.5233 Y33.8866
G01 X71.5301 Y33.8861
G01 X71.5686 Y33.8798
G01 X71.5738 Y33.8787
G01 X71.5788 Y33.8770
G01 X71.5861 Y33.8737
G01 X71.6214 Y33.8531
G01 X71.6267 Y33.8493
G01 X71.6315 Y33.8450
G01 X71.6358 Y33.8401
G01 X71.6587 Y33.8106
G01 X71.6629 Y33.8043
G01 X71.7256 Y33.6826
G01 X71.8079 Y33.5604
G01 X71.9042 Y33.4485
G01 X72.0127 Y33.3492
G01 X72.1325 Y33.2636
G01 X72.2614 Y33.1920
G01 X72.3981 Y33.1371
G01 X72.5403 Y33.0981
G01 X72.6858 Y33.0762
G01 X72.8327 Y33.0718
G01 X72.9797 Y33.0850
G01 X73.1237 Y33.1151
G01 X73.2633 Y33.1623
G01 X73.3962 Y33.2261
G01 X73.5208 Y33.3045
G01 X73.6351 Y33.3974
G01 X73.7378 Y33.5030
G01 X73.8274 Y33.6203
G01 X73.9022 Y33.7466
G01 X73.9221 Y33.7931
G01 X73.9250 Y33.7988
G01 X73.9495 Y33.8340
G01 X73.9545 Y33.8401
G01 X73.9593 Y33.8446
G01 X73.9635 Y33.8478
G01 X73.9962 Y33.8698
G01 X74.0047 Y33.8743
G01 X74.0126 Y33.8769
G01 X74.0510 Y33.8853
G01 X74.0564 Y33.8862
G01 X74.0633 Y33.8866
G01 X74.0701 Y33.8861
G01 X74.1086 Y33.8798
G01 X74.1138 Y33.8787
G01 X74.1188 Y33.8770
G01 X74.1261 Y33.8737
G01 X74.1614 Y33.8531
G01 X74.1667 Y33.8493
G01 X74.1715 Y33.8450
G01 X74.1758 Y33.8401
G01 X74.1987 Y33.8106
G01 X74.2029 Y33.8043
G01 X74.2656 Y33.6826
G01 X74.3479 Y33.5604
G01 X74.4442 Y33.4485
G01 X74.5527 Y33.3492
G01 X74.6725 Y33.2636
G01 X74.8014 Y33.1920
G01 X74.9381 Y33.1371
G01 X75.0803 Y33.0981
G01 X75.2258 Y33.0762
G01 X75.3727 Y33.0718
G01 X75.5197 Y33.0850
G01 X75.6637 Y33.1151
G01 X75.8033 Y33.1623
G01 X75.9362 Y33.2261
G01 X76.0608 Y33.3045
G01 X76.1751 Y33.3974
G01 X76.2778 Y33.5030
G01 X76.3674 Y33.6203
G01 X76.4422 Y33.7466
G01 X76.4621 Y33.7931
G01 X76.4650 Y33.7988
G01 X76.4895 Y33.8340
G01 X76.4945 Y33.8401
G01 X76.4983 Y33.8438
G01 X76.5035 Y33.8478
G01 X76.5362 Y33.8698
G01 X76.5447 Y33.8743
G01 X76.5526 Y33.8769
G01 X76.5910 Y33.8853
G01 X76.5964 Y33.8862
G01 X76.6033 Y33.8866
G01 X76.6101 Y33.8861
G01 X76.6486 Y33.8798
G01 X76.6538 Y33.8787
G01 X76.6588 Y33.8770
G01 X76.6661 Y33.8737
G01 X76.7014 Y33.8531
G01 X76.7067 Y33.8493
G01 X76.7115 Y33.8450
G01 X76.7158 Y33.8401
G01 X76.7387 Y33.8106
G01 X76.7429 Y33.8043
G01 X76.8056 Y33.6826
G01 X76.8879 Y33.5604
G01 X76.9842 Y33.4485
G01 X77.0927 Y33.3492
G01 X77.2125 Y33.2636
G01 X77.3414 Y33.1920
G01 X77.4781 Y33.1371
G01 X77.6203 Y33.0981
G01 X77.7658 Y33.0762
G01 X77.9127 Y33.0718
G01 X78.0597 Y33.0850
G01 X78.2037 Y33.1151
G01 X78.3433 Y33.1623
G01 X78.4762 Y33.2261
G01 X78.6008 Y33.3045
G01 X78.7151 Y33.3974
G01 X78.8178 Y33.5030
G01 X78.9074 Y33.6203
G01 X78.9822 Y33.7466
G01 X79.0021 Y33.7931
G01 X79.0050 Y33.7988
G01 X79.0295 Y33.8340
G01 X79.0345 Y33.8401
G01 X79.0383 Y33.8438
G01 X79.0435 Y33.8478
G01 X79.0762 Y33.8698
G01 X79.0847 Y33.8743
G01 X79.0926 Y33.8769
G01 X79.1310 Y33.8853
G01 X79.1364 Y33.8862
G01 X79.1433 Y33.8866
G01 X79.1501 Y33.8861
G01 X79.1886 Y33.8798
G01 X79.1938 Y33.8787
G01 X79.1988 Y33.8770
G01 X79.2061 Y33.8737
G01 X79.2414 Y33.8531
G01 X79.2467 Y33.8493
G01 X79.2515 Y33.8450
G01 X79.2558 Y33.8401
G01 X79.2787 Y33.8106
G01 X79.2829 Y33.8043
G01 X79.3456 Y33.6826
G01 X79.4279 Y33.5604
G01 X79.5242 Y33.4485
G01 X79.6327 Y33.3492
G01 X79.7525 Y33.2636
G01 X79.8814 Y33.1920
G01 X80.0181 Y33.1371
G01 X80.1603 Y33.0981
G01 X80.3058 Y33.0762
G01 X80.4527 Y33.0718
G01 X80.5997 Y33.0850
G01 X80.7437 Y33.1151
G01 X80.8833 Y33.1623
G01 X81.0162 Y33.2261
G01 X81.1408 Y33.3045
G01 X81.2551 Y33.3974
G01 X81.3579 Y33.5030
G01 X81.4474 Y33.6203
G01 X81.5222 Y33.7466
G01 X81.5421 Y33.7931
G01 X81.5450 Y33.7988
G01 X81.5696 Y33.8341
G01 X81.5745 Y33.8401
G01 X81.5793 Y33.8446
G01 X81.5835 Y33.8477
G01 X81.6161 Y33.8698
G01 X81.6247 Y33.8743
G01 X81.6326 Y33.8769
G01 X81.6710 Y33.8853
G01 X81.6778 Y33.8864
G01 X81.6833 Y33.8866
G01 X81.6901 Y33.8861
G01 X81.7286 Y33.8798
G01 X81.7338 Y33.8787
G01 X81.7389 Y33.8770
G01 X81.7461 Y33.8737
G01 X81.7814 Y33.8531
G01 X81.7867 Y33.8493
G01 X81.7915 Y33.8450
G01 X81.7958 Y33.8401
G01 X81.8187 Y33.8106
G01 X81.8229 Y33.8043
G01 X81.8856 Y33.6826
G01 X81.9679 Y33.5604
G01 X82.0642 Y33.4485
G01 X82.1727 Y33.3492
G01 X82.2925 Y33.2636
G01 X82.4214 Y33.1920
G01 X82.5581 Y33.1371
G01 X82.7003 Y33.0981
G01 X82.8458 Y33.0762
G01 X82.9927 Y33.0718
G01 X83.1397 Y33.0850
G01 X83.2837 Y33.1151
G01 X83.4233 Y33.1623
G01 X83.5562 Y33.2261
G01 X83.6808 Y33.3045
G01 X83.7951 Y33.3974
G01 X83.8979 Y33.5030
G01 X83.9874 Y33.6203
G01 X84.0623 Y33.7468
G01 X84.1217 Y33.8815
G01 X84.1645 Y34.0226
G01 X84.1903 Y34.1677
G01 X84.1990 Y34.3147
G01 X84.1903 Y34.4617
G01 X84.1645 Y34.6067
G01 X84.1217 Y34.7473
G01 X84.0623 Y34.8821
G01 X83.9874 Y35.0091
G01 X83.8979 Y35.1259
G01 X83.7951 Y35.2320
G01 X83.6808 Y35.3244
G01 X83.5562 Y35.4033
G01 X83.4234 Y35.4665
G01 X83.2837 Y35.5137
G01 X83.1397 Y35.5439
G01 X82.9927 Y35.5571
G01 X82.8457 Y35.5527
G01 X82.7002 Y35.5313
G01 X82.5582 Y35.4923
G01 X82.4214 Y35.4369
G01 X82.2925 Y35.3658
G01 X82.1727 Y35.2797
G01 X82.0642 Y35.1804
G01 X81.9678 Y35.0689
G01 X81.8856 Y34.9468
G01 X81.8228 Y34.8248
G01 X81.8189 Y34.8191
G01 X81.7961 Y34.7891
G01 X81.7917 Y34.7841
G01 X81.7868 Y34.7797
G01 X81.7814 Y34.7758
G01 X81.7461 Y34.7552
G01 X81.7389 Y34.7518
G01 X81.7338 Y34.7502
G01 X81.7286 Y34.7491
G01 X81.6902 Y34.7428
G01 X81.6822 Y34.7423
G01 X81.6769 Y34.7426
G01 X81.6703 Y34.7437
G01 X81.6319 Y34.7527
G01 X81.6240 Y34.7554
G01 X81.6167 Y34.7592
G01 X81.5840 Y34.7808
G01 X81.5796 Y34.7841
G01 X81.5745 Y34.7888
G01 X81.5693 Y34.7952
G01 X81.5453 Y34.8301
G01 X81.5422 Y34.8361
G01 X81.5222 Y34.8822
G01 X81.4474 Y35.0091
G01 X81.3579 Y35.1259
G01 X81.2551 Y35.2320
G01 X81.1408 Y35.3244
G01 X81.0162 Y35.4033
G01 X80.8834 Y35.4665
G01 X80.7437 Y35.5137
G01 X80.5997 Y35.5439
G01 X80.4527 Y35.5571
G01 X80.3057 Y35.5527
G01 X80.1602 Y35.5313
G01 X80.0182 Y35.4923
G01 X79.8814 Y35.4369
G01 X79.7525 Y35.3658
G01 X79.6327 Y35.2797
G01 X79.5242 Y35.1804
G01 X79.4278 Y35.0689
G01 X79.3456 Y34.9468
G01 X79.2828 Y34.8248
G01 X79.2789 Y34.8191
G01 X79.2561 Y34.7891
G01 X79.2517 Y34.7841
G01 X79.2468 Y34.7797
G01 X79.2414 Y34.7758
G01 X79.2061 Y34.7552
G01 X79.1988 Y34.7518
G01 X79.1938 Y34.7502
G01 X79.1886 Y34.7491
G01 X79.1502 Y34.7428
G01 X79.1422 Y34.7423
G01 X79.1369 Y34.7426
G01 X79.1303 Y34.7437
G01 X79.0919 Y34.7527
G01 X79.0840 Y34.7554
G01 X79.0767 Y34.7592
G01 X79.0440 Y34.7808
G01 X79.0396 Y34.7841
G01 X79.0345 Y34.7888
G01 X79.0293 Y34.7952
G01 X79.0053 Y34.8301
G01 X79.0022 Y34.8361
G01 X78.9822 Y34.8822
G01 X78.9074 Y35.0091
G01 X78.8178 Y35.1259
G01 X78.7151 Y35.2320
G01 X78.6008 Y35.3244
G01 X78.4762 Y35.4033
G01 X78.3434 Y35.4665
G01 X78.2037 Y35.5137
G01 X78.0597 Y35.5439
G01 X77.9127 Y35.5571
G01 X77.7657 Y35.5527
G01 X77.6202 Y35.5313
G01 X77.4782 Y35.4923
G01 X77.3414 Y35.4369
G01 X77.2125 Y35.3658
G01 X77.0927 Y35.2797
G01 X76.9842 Y35.1804
G01 X76.8878 Y35.0689
G01 X76.8056 Y34.9468
G01 X76.7428 Y34.8248
G01 X76.7389 Y34.8191
G01 X76.7136 Y34.7861
G01 X76.7078 Y34.7805
G01 X76.7014 Y34.7758
G01 X76.6672 Y34.7558
G01 X76.6601 Y34.7523
G01 X76.6551 Y34.7506
G01 X76.6499 Y34.7493
G01 X76.6115 Y34.7430
G01 X76.6035 Y34.7423
G01 X76.5982 Y34.7425
G01 X76.5916 Y34.7434
G01 X76.5519 Y34.7527
G01 X76.5440 Y34.7554
G01 X76.5367 Y34.7592
G01 X76.5029 Y34.7816
G01 X76.4975 Y34.7859
G01 X76.4927 Y34.7908
G01 X76.4893 Y34.7952
G01 X76.4653 Y34.8301
G01 X76.4622 Y34.8361
G01 X76.4422 Y34.8822
G01 X76.3674 Y35.0091
G01 X76.2778 Y35.1259
G01 X76.1751 Y35.2320
G01 X76.0608 Y35.3244
G01 X75.9362 Y35.4033
G01 X75.8034 Y35.4665
G01 X75.6637 Y35.5137
G01 X75.5197 Y35.5439
G01 X75.3727 Y35.5571
G01 X75.2257 Y35.5527
G01 X75.0802 Y35.5313
G01 X74.9382 Y35.4923
G01 X74.8014 Y35.4369
G01 X74.6725 Y35.3658
G01 X74.5527 Y35.2797
G01 X74.4442 Y35.1804
G01 X74.3478 Y35.0689
G01 X74.2656 Y34.9468
G01 X74.2028 Y34.8248
G01 X74.1989 Y34.8191
G01 X74.1727 Y34.7851
G01 X74.1678 Y34.7805
G01 X74.1614 Y34.7758
G01 X74.1261 Y34.7552
G01 X74.1188 Y34.7518
G01 X74.1138 Y34.7502
G01 X74.1086 Y34.7491
G01 X74.0702 Y34.7428
G01 X74.0622 Y34.7423
G01 X74.0569 Y34.7426
G01 X74.0503 Y34.7437
G01 X74.0119 Y34.7527
G01 X74.0040 Y34.7554
G01 X73.9967 Y34.7592
G01 X73.9629 Y34.7816
G01 X73.9575 Y34.7859
G01 X73.9527 Y34.7908
G01 X73.9493 Y34.7952
G01 X73.9253 Y34.8301
G01 X73.9222 Y34.8361
G01 X73.9022 Y34.8822
G01 X73.8274 Y35.0091
G01 X73.7378 Y35.1259
G01 X73.6351 Y35.2320
G01 X73.5208 Y35.3244
G01 X73.3962 Y35.4033
G01 X73.2634 Y35.4665
G01 X73.1237 Y35.5137
G01 X72.9797 Y35.5439
G01 X72.8327 Y35.5571
G01 X72.6857 Y35.5527
G01 X72.5402 Y35.5313
G01 X72.3982 Y35.4923
G01 X72.2614 Y35.4369
G01 X72.1325 Y35.3658
G01 X72.0127 Y35.2797
G01 X71.9042 Y35.1804
G01 X71.8078 Y35.0689
G01 X71.7256 Y34.9468
G01 X71.6628 Y34.8248
G01 X71.6589 Y34.8191
G01 X71.6361 Y34.7891
G01 X71.6317 Y34.7841
G01 X71.6268 Y34.7797
G01 X71.6214 Y34.7758
G01 X71.5861 Y34.7552
G01 X71.5788 Y34.7518
G01 X71.5738 Y34.7502
G01 X71.5686 Y34.7491
G01 X71.5302 Y34.7428
G01 X71.5222 Y34.7423
G01 X71.5169 Y34.7426
G01 X71.5103 Y34.7437
G01 X71.4719 Y34.7527
G01 X71.4640 Y34.7554
G01 X71.4567 Y34.7592
G01 X71.4229 Y34.7816
G01 X71.4175 Y34.7859
G01 X71.4127 Y34.7908
G01 X71.4093 Y34.7952
G01 X71.3853 Y34.8301
G01 X71.3822 Y34.8361
G01 X71.3622 Y34.8822
G01 X71.2874 Y35.0091
G01 X71.1978 Y35.1259
G01 X71.0951 Y35.2320
G01 X70.9808 Y35.3244
G01 X70.8562 Y35.4033
G01 X70.7234 Y35.4665
G01 X70.5837 Y35.5137
G01 X70.4397 Y35.5439
G01 X70.2927 Y35.5571
G01 X70.1457 Y35.5527
G01 X70.0002 Y35.5313
G01 X69.8582 Y35.4923
G01 X69.7214 Y35.4369
G01 X69.5925 Y35.3658
G01 X69.4727 Y35.2797
G01 X69.3642 Y35.1804
G01 X69.2678 Y35.0689
G01 X69.1856 Y34.9468
G01 X69.1228 Y34.8248
G01 X69.1189 Y34.8191
G01 X69.0961 Y34.7891
G01 X69.0917 Y34.7841
G01 X69.0868 Y34.7797
G01 X69.0814 Y34.7758
G01 X69.0461 Y34.7552
G01 X69.0388 Y34.7518
G01 X69.0338 Y34.7502
G01 X69.0286 Y34.7491
G01 X68.9902 Y34.7428
G01 X68.9822 Y34.7423
G01 X68.9769 Y34.7426
G01 X68.9703 Y34.7437
G01 X68.9319 Y34.7527
G01 X68.9240 Y34.7554
G01 X68.9167 Y34.7592
G01 X68.8829 Y34.7816
G01 X68.8775 Y34.7859
G01 X68.8727 Y34.7908
G01 X68.8693 Y34.7952
G01 X68.8453 Y34.8301
G01 X68.8422 Y34.8361
G01 X68.8222 Y34.8822
G01 X68.7474 Y35.0091
G01 X68.6578 Y35.1259
G01 X68.5551 Y35.2320
G01 X68.4408 Y35.3244
G01 X68.3162 Y35.4033
G01 X68.1834 Y35.4665
G01 X68.0437 Y35.5137
G01 X67.8997 Y35.5439
G01 X67.7527 Y35.5571
G01 X67.6057 Y35.5527
G01 X67.4602 Y35.5313
G01 X67.3182 Y35.4923
G01 X67.1814 Y35.4369
G01 X67.0525 Y35.3658
G01 X66.9327 Y35.2797
G01 X66.8242 Y35.1804
G01 X66.7280 Y35.0691
G01 X66.7040 Y35.0329
G01 X66.7000 Y35.0276
G01 X66.6655 Y34.9939
G01 X66.6578 Y34.9880
G01 X66.6505 Y34.9841
G01 X66.6094 Y34.9684
G01 X66.6043 Y34.9667
G01 X66.5992 Y34.9656
G01 X66.5939 Y34.9649
G01 X66.5886 Y34.9648
G01 X66.5448 Y34.9670
G01 X66.5396 Y34.9676
G01 X66.5345 Y34.9687
G01 X66.5259 Y34.9719
G01 X66.4865 Y34.9913
G01 X66.4786 Y34.9963
G01 X66.4718 Y35.0025
G01 X66.4431 Y35.0365
G01 X66.4398 Y35.0409
G01 X66.4363 Y35.0467
G01 X66.4331 Y35.0543
G01 X66.4195 Y35.0990
G01 X66.4183 Y35.1067
G01 X66.4121 Y35.1810
G01 X66.3913 Y35.2576
G01 X66.3577 Y35.3298
G01 X66.3123 Y35.3946
G01 X66.2561 Y35.4508
G01 X66.1913 Y35.4962
G01 X66.1191 Y35.5298
G01 X66.0424 Y35.5506
G01 X65.9567 Y35.5581
G00 Z2.0000
G00 X66.8744 Y34.3120
G01 F60.00
G01 Z-0.0500
G01 F120.00
G01 X66.8784 Y34.2322
G01 X66.8905 Y34.1504
G01 X66.9106 Y34.0703
G01 X66.9384 Y33.9925
G01 X66.9737 Y33.9178
G01 X67.0162 Y33.8469
G01 X67.0654 Y33.7806
G01 X67.1209 Y33.7194
G01 X67.1821 Y33.6639
G01 X67.2485 Y33.6147
G01 X67.3193 Y33.5722
G01 X67.3940 Y33.5369
G01 X67.4718 Y33.5090
G01 X67.5520 Y33.4890
G01 X67.6337 Y33.4768
G01 X67.7162 Y33.4728
G01 X67.7987 Y33.4768
G01 X67.8805 Y33.4890
G01 X67.9606 Y33.5090
G01 X68.0384 Y33.5369
G01 X68.1131 Y33.5722
G01 X68.1839 Y33.6147
G01 X68.2503 Y33.6639
G01 X68.3115 Y33.7194
G01 X68.3670 Y33.7806
G01 X68.4162 Y33.8469
G01 X68.4587 Y33.9178
G01 X68.4940 Y33.9925
G01 X68.5218 Y34.0703
G01 X68.5419 Y34.1504
G01 X68.5540 Y34.2322
G01 X68.5581 Y34.3147
G01 X68.5540 Y34.3972
G01 X68.5419 Y34.4789
G01 X68.5218 Y34.5591
G01 X68.4940 Y34.6369
G01 X68.4587 Y34.7115
G01 X68.4162 Y34.7824
G01 X68.3670 Y34.8488
G01 X68.3115 Y34.9100
G01 X68.2503 Y34.9655
G01 X68.1839 Y35.0147
G01 X68.1131 Y35.0572
G01 X68.0384 Y35.0925
G01 X67.9606 Y35.1203
G01 X67.8805 Y35.1404
G01 X67.7987 Y35.1525
G01 X67.7162 Y35.1566
G01 X67.6337 Y35.1525
G01 X67.5520 Y35.1404
G01 X67.4718 Y35.1203
G01 X67.3940 Y35.0925
G01 X67.3193 Y35.0572
G01 X67.2485 Y35.0147
G01 X67.1821 Y34.9655
G01 X67.1209 Y34.9100
G01 X67.0654 Y34.8488
G01 X67.0162 Y34.7824
G01 X66.9737 Y34.7115
G01 X66.9384 Y34.6369
G01 X66.9106 Y34.5591
G01 X66.8905 Y34.4789
G01 X66.8784 Y34.3972
G01 X66.8744 Y34.3173
G01 X66.8744 Y34.3120
G00 Z2.0000
G00 X69.4144 Y34.3120
G01 F60.00
G01 Z-0.0500
G01 F120.00
G01 X69.4184 Y34.2322
G01 X69.4305 Y34.1504
G01 X69.4506 Y34.0703
G01 X69.4784 Y33.9925
G01 X69.5137 Y33.9178
G01 X69.5562 Y33.8469
G01 X69.6054 Y33.7806
G01 X69.6609 Y33.7194
G01 X69.7221 Y33.6639
G01 X69.7885 Y33.6147
G01 X69.8593 Y33.5722
G01 X69.9340 Y33.5369
G01 X70.0118 Y33.5090
G01 X70.0920 Y33.4890
G01 X70.1737 Y33.4768
G01 X70.2562 Y33.4728
G01 X70.3387 Y33.4768
G01 X70.4205 Y33.4890
G01 X70.5006 Y33.5090
G01 X70.5784 Y33.5369
G01 X70.6531 Y33.5722
G01 X70.7239 Y33.6147
G01 X70.7903 Y33.6639
G01 X70.8515 Y33.7194
G01 X70.9070 Y33.7806
G01 X70.9562 Y33.8469
G01 X70.9987 Y33.9178
G01 X71.0340 Y33.9925
G01 X71.0618 Y34.0703
G01 X71.0819 Y34.1504
G01 X71.0940 Y34.2322
G01 X71.0981 Y34.3147
G01 X71.0940 Y34.3972
G01 X71.0819 Y34.4789
G01 X71.0618 Y34.5591
G01 X71.0340 Y34.6369
G01 X70.9987 Y34.7115
G01 X70.9562 Y34.7824
G01 X70.9070 Y34.8488
G01 X70.8515 Y34.9100
G01 X70.7903 Y34.9655
G01 X70.7239 Y35.0147
G01 X70.6531 Y35.0572
G01 X70.5784 Y35.0925
G01 X70.5006 Y35.1203
G01 X70.4205 Y35.1404
G01 X70.3387 Y35.1525
G01 X70.2562 Y35.1566
G01 X70.1737 Y35.1525
G01 X70.0920 Y35.1404
G01 X70.0118 Y35.1203
G01 X69.9340 Y35.0925
G01 X69.8593 Y35.0572
G01 X69.7885 Y35.0147
G01 X69.7221 Y34.9655
G01 X69.6609 Y34.9100
G01 X69.6054 Y34.8488
G01 X69.5562 Y34.7824
G01 X69.5137 Y34.7115
G01 X69.4784 Y34.6369
G01 X69.4506 Y34.5591
G01 X69.4305 Y34.4789
G01 X69.4184 Y34.3972
G01 X69.4144 Y34.3173
G01 X69.4144 Y34.3120
G00 Z2.0000
G00 X71.9544 Y34.3120
G01 F60.00
G01 Z-0.0500
G01 F120.00
G01 X71.9584 Y34.2322
G01 X71.9705 Y34.1504
G01 X71.9906 Y34.0703
G01 X72.0184 Y33.9925
G01 X72.0537 Y33.9178
G01 X72.0962 Y33.8469
G01 X72.1454 Y33.7806
G01 X72.2009 Y33.7194
G01 X72.2621 Y33.6639
G01 X72.3285 Y33.6147
G01 X72.3993 Y33.5722
G01 X72.4740 Y33.5369
G01 X72.5518 Y33.5090
G01 X72.6320 Y33.4890
G01 X72.7137 Y33.4768
G01 X72.7962 Y33.4728
G01 X72.8787 Y33.4768
G01 X72.9605 Y33.4890
G01 X73.0406 Y33.5090
G01 X73.1184 Y33.5369
G01 X73.1931 Y33.5722
G01 X73.2639 Y33.6147
G01 X73.3303 Y33.6639
G01 X73.3915 Y33.7194
G01 X73.4470 Y33.7806
G01 X73.4962 Y33.8469
G01 X73.5387 Y33.9178
G01 X73.5740 Y33.9925
G01 X73.6018 Y34.0703
G01 X73.6219 Y34.1504
G01 X73.6340 Y34.2322
G01 X73.6381 Y34.3147
G01 X73.6340 Y34.3972
G01 X73.6219 Y34.4789
G01 X73.6018 Y34.5591
G01 X73.5740 Y34.6369
G01 X73.5387 Y34.7115
G01 X73.4962 Y34.7824
G01 X73.4470 Y34.8488
G01 X73.3915 Y34.9100
G01 X73.3303 Y34.9655
G01 X73.2639 Y35.0147
G01 X73.1931 Y35.0572
G01 X73.1184 Y35.0925
G01 X73.0406 Y35.1203
G01 X72.9605 Y35.1404
G01 X72.8787 Y35.1525
G01 X72.7962 Y35.1566
G01 X72.7137 Y35.1525
G01 X72.6320 Y35.1404
G01 X72.5518 Y35.1203
G01 X72.4740 Y35.0925
G01 X72.3993 Y35.0572
G01 X72.3285 Y35.0147
G01 X72.2621 Y34.9655
G01 X72.2009 Y34.9100
G01 X72.1454 Y34.8488
G01 X72.0962 Y34.7824
G01 X72.0537 Y34.7115
G01 X72.0184 Y34.6369
G01 X71.9906 Y34.5591
G01 X71.9705 Y34.4789
G01 X71.9584 Y34.3972
G01 X71.9544 Y34.3173
G01 X71.9544 Y34.3120
G00 Z2.0000
G00 X74.4944 Y34.3120
G01 F60.00
G01 Z-0.0500
G01 F120.00
G01 X74.4984 Y34.2322
G01 X74.5105 Y34.1504
G01 X74.5306 Y34.0703
G01 X74.5584 Y33.9925
G01 X74.5937 Y33.9178
G01 X74.6362 Y33.8469
G01 X74.6854 Y33.7806
G01 X74.7409 Y33.7194
G01 X74.8021 Y33.6639
G01 X74.8685 Y33.6147
G01 X74.9393 Y33.5722
G01 X75.0140 Y33.5369
G01 X75.0918 Y33.5090
G01 X75.1720 Y33.4890
G01 X75.2537 Y33.4768
G01 X75.3362 Y33.4728
G01 X75.4187 Y33.4768
G01 X75.5005 Y33.4890
G01 X75.5806 Y33.5090
G01 X75.6584 Y33.5369
G01 X75.7331 Y33.5722
G01 X75.8039 Y33.6147
G01 X75.8703 Y33.6639
G01 X75.9315 Y33.7194
G01 X75.9870 Y33.7806
G01 X76.0362 Y33.8469
G01 X76.0787 Y33.9178
G01 X76.1140 Y33.9925
G01 X76.1418 Y34.0703
G01 X76.1619 Y34.1504
G01 X76.1740 Y34.2322
G01 X76.1781 Y34.3147
G01 X76.1740 Y34.3972
G01 X76.1619 Y34.4789
G01 X76.1418 Y34.5591
G01 X76.1140 Y34.6369
G01 X76.0787 Y34.7115
G01 X76.0362 Y34.7824
G01 X75.9870 Y34.8488
G01 X75.9315 Y34.9100
G01 X75.8703 Y34.9655
G01 X75.8039 Y35.0147
G01 X75.7331 Y35.0572
G01 X75.6584 Y35.0925
G01 X75.5806 Y35.1203
G01 X75.5005 Y35.1404
G01 X75.4187 Y35.1525
G01 X75.3362 Y35.1566
G01 X75.2537 Y35.1525
G01 X75.1720 Y35.1404
G01 X75.0918 Y35.1203
G01 X75.0140 Y35.0925
G01 X74.9393 Y35.0572
G01 X74.8685 Y35.0147
G01 X74.8021 Y34.9655
G01 X74.7409 Y34.9100
G01 X74.6854 Y34.8488
G01 X74.6362 Y34.7824
G01 X74.5937 Y34.7115
G01 X74.5584 Y34.6369
G01 X74.5306 Y34.5591
G01 X74.5105 Y34.4789
G01 X74.4984 Y34.3972
G01 X74.4944 Y34.3173
G01 X74.4944 Y34.3120
G00 Z2.0000
G00 X77.0344 Y34.3120
G01 F60.00
G01 Z-0.0500
G01 F120.00
G01 X77.0384 Y34.2322
G01 X77.0505 Y34.1504
G01 X77.0706 Y34.0703
G01 X77.0984 Y33.9925
G01 X77.1337 Y33.9178
G01 X77.1762 Y33.8469
G01 X77.2254 Y33.7806
G01 X77.2809 Y33.7194
G01 X77.3421 Y33.6639
G01 X77.4085 Y33.6147
G01 X77.4793 Y33.5722
G01 X77.5540 Y33.5369
G01 X77.6318 Y33.5090
G01 X77.7120 Y33.4890
G01 X77.7937 Y33.4768
G01 X77.8762 Y33.4728
G01 X77.9587 Y33.4768
G01 X78.0405 Y33.4890
G01 X78.1206 Y33.5090
G01 X78.1984 Y33.5369
G01 X78.2731 Y33.5722
G01 X78.3439 Y33.6147
G01 X78.4103 Y33.6639
G01 X78.4715 Y33.7194
G01 X78.5270 Y33.7806
G01 X78.5762 Y33.8469
G01 X78.6187 Y33.9178
G01 X78.6540 Y33.9925
G01 X78.6818 Y34.0703
G01 X78.7019 Y34.1504
G01 X78.7140 Y34.2322
G01 X78.7181 Y34.3147
G01 X78.7140 Y34.3972
G01 X78.7019 Y34.4789
G01 X78.6818 Y34.5591
G01 X78.6540 Y34.6369
G01 X78.6187 Y34.7115
G01 X78.5762 Y34.7824
G01 X78.5270 Y34.8488
G01 X78.4715 Y34.9100
G01 X78.4103 Y34.9655
G01 X78.3439 Y35.0147
G01 X78.2731 Y35.0572
G01 X78.1984 Y35.0925
G01 X78.1206 Y35.1203
G01 X78.0405 Y35.1404
G01 X77.9587 Y35.1525
G01 X77.8762 Y35.1566
G01 X77.7937 Y35.1525
G01 X77.7120 Y35.1404
G01 X77.6318 Y35.1203
G01 X77.5540 Y35.0925
G01 X77.4793 Y35.0572
G01 X77.4085 Y35.0147
G01 X77.3421 Y34.9655
G01 X77.2809 Y34.9100
G01 X77.2254 Y34.8488
G01 X77.1762 Y34.7824
G01 X77.1337 Y34.7115
G01 X77.0984 Y34.6369
G01 X77.0706 Y34.5591
G01 X77.0505 Y34.4789
G01 X77.0384 Y34.3972
G01 X77.0344 Y34.3173
G01 X77.0344 Y34.3120
G00 Z2.0000
G00 X79.5744 Y34.3120
G01 F60.00
G01 Z-0.0500
G01 F120.00
G01 X79.5784 Y34.2322
G01 X79.5905 Y34.1504
G01 X79.6106 Y34.0703
G01 X79.6384 Y33.9925
G01 X79.6737 Y33.9178
G01 X79.7162 Y33.8469
G01 X79.7654 Y33.7806
G01 X79.8209 Y33.7194
G01 X79.8821 Y33.6639
G01 X79.9485 Y33.6147
G01 X80.0193 Y33.5722
G01 X80.0940 Y33.5369
G01 X80.1718 Y33.5090
G01 X80.2520 Y33.4890
G01 X80.3337 Y33.4768
G01 X80.4162 Y33.4728
G01 X80.4987 Y33.4768
G01 X80.5805 Y33.4890
G01 X80.6606 Y33.5090
G01 X80.7384 Y33.5369
G01 X80.8131 Y33.5722
G01 X80.8839 Y33.6147
G01 X80.9503 Y33.6639
G01 X81.0115 Y33.7194
G01 X81.0670 Y33.7806
G01 X81.1162 Y33.8469
G01 X81.1587 Y33.9178
G01 X81.1940 Y33.9925
G01 X81.2218 Y34.0703
G01 X81.2419 Y34.1504
G01 X81.2540 Y34.2322
G01 X81.2581 Y34.3147
G01 X81.2540 Y34.3972
G01 X81.2419 Y34.4789
G01 X81.2218 Y34.5591
G01 X81.1940 Y34.6369
G01 X81.1587 Y34.7115
G01 X81.1162 Y34.7824
G01 X81.0670 Y34.8488
G01 X81.0115 Y34.9100
G01 X80.9503 Y34.9655
G01 X80.8839 Y35.0147
G01 X80.8131 Y35.0572
G01 X80.7384 Y35.0925
G01 X80.6606 Y35.1203
G01 X80.5805 Y35.1404
G01 X80.4987 Y35.1525
G01 X80.4162 Y35.1566
G01 X80.3337 Y35.1525
G01 X80.2520 Y35.1404
G01 X80.1718 Y35.1203
G01 X80.0940 Y35.0925
G01 X80.0193 Y35.0572
G01 X79.9485 Y35.0147
G01 X79.8821 Y34.9655
G01 X79.8209 Y34.9100
G01 X79.7654 Y34.8488
G01 X79.7162 Y34.7824
G01 X79.6737 Y34.7115
G01 X79.6384 Y34.6369
G01 X79.6106 Y34.5591
G01 X79.5905 Y34.4789
G01 X79.5784 Y34.3972
G01 X79.5744 Y34.3173
G01 X79.5744 Y34.3120
G00 Z2.0000
G00 X82.1144 Y34.3120
G01 F60.00
G01 Z-0.0500
G01 F120.00
G01 X82.1184 Y34.2322
G01 X82.1305 Y34.1504
G01 X82.1506 Y34.0703
G01 X82.1784 Y33.9925
G01 X82.2137 Y33.9178
G01 X82.2562 Y33.8469
G01 X82.3054 Y33.7806
G01 X82.3609 Y33.7194
G01 X82.4221 Y33.6639
G01 X82.4885 Y33.6147
G01 X82.5593 Y33.5722
G01 X82.6340 Y33.5369
G01 X82.7118 Y33.5090
G01 X82.7920 Y33.4890
G01 X82.8737 Y33.4768
G01 X82.9562 Y33.4728
G01 X83.0387 Y33.4768
G01 X83.1205 Y33.4890
G01 X83.2006 Y33.5090
G01 X83.2784 Y33.5369
G01 X83.3531 Y33.5722
G01 X83.4239 Y33.6147
G01 X83.4903 Y33.6639
G01 X83.5515 Y33.7194
G01 X83.6070 Y33.7806
G01 X83.6562 Y33.8469
G01 X83.6987 Y33.9178
G01 X83.7340 Y33.9925
G01 X83.7618 Y34.0703
G01 X83.7819 Y34.1504
G01 X83.7940 Y34.2322
G01 X83.7981 Y34.3147
G01 X83.7940 Y34.3972
G01 X83.7819 Y34.4789
G01 X83.7618 Y34.5591
G01 X83.7340 Y34.6369
G01 X83.6987 Y34.7115
G01 X83.6562 Y34.7824
G01 X83.6070 Y34.8488
G01 X83.5515 Y34.9100
G01 X83.4903 Y34.9655
G01 X83.4239 Y35.0147
G01 X83.3531 Y35.0572
G01 X83.2784 Y35.0925
G01 X83.2006 Y35.1203
G01 X83.1205 Y35.1404
G01 X83.0387 Y35.1525
G01 X82.9562 Y35.1566
G01 X82.8737 Y35.1525
G01 X82.7920 Y35.1404
G01 X82.7118 Y35.1203
G01 X82.6340 Y35.0925
G01 X82.5593 Y35.0572
G01 X82.4885 Y35.0147
G01 X82.4221 Y34.9655
G01 X82.3609 Y34.9100
G01 X82.3054 Y34.8488
G01 X82.2562 Y34.7824
G01 X82.2137 Y34.7115
G01 X82.1784 Y34.6369
G01 X82.1506 Y34.5591
G01 X82.1305 Y34.4789
G01 X82.1184 Y34.3972
G01 X82.1144 Y34.3173
G01 X82.1144 Y34.3120
G00 Z2.0000
G00 X81.1297 Y28.2983
G01 F60.00
G01 Z-0.0500
G01 F120.00
G01 X80.9414 Y28.2849
G01 X80.7551 Y28.2528
G01 X80.5728 Y28.2034
G01 X80.3963 Y28.1362
G01 X80.2268 Y28.0526
G01 X80.0662 Y27.9528
G01 X79.9160 Y27.8382
G01 X79.7776 Y27.7092
G01 X79.6520 Y27.5678
G01 X79.5414 Y27.4151
G01 X79.4455 Y27.2520
G01 X79.3659 Y27.0805
G01 X79.3031 Y26.9026
G01 X79.2577 Y26.7187
G01 X79.2305 Y26.5320
G01 X79.2216 Y26.3432
G01 X79.2305 Y26.1543
G01 X79.2577 Y25.9676
G01 X79.3031 Y25.7837
G01 X79.3659 Y25.6058
G01 X79.4455 Y25.4343
G01 X79.5414 Y25.2712
G01 X79.6520 Y25.1185
G01 X79.7776 Y24.9772
G01 X79.9160 Y24.8482
G01 X80.0662 Y24.7335
G01 X80.2268 Y24.6337
G01 X80.3963 Y24.5502
G01 X80.5728 Y24.4830
G01 X80.7551 Y24.4335
G01 X80.9414 Y24.4014
G01 X81.1297 Y24.3881
G01 X81.3191 Y24.3925
G01 X81.5063 Y24.4152
G01 X81.6911 Y24.4563
G01 X81.8706 Y24.5146
G01 X82.0441 Y24.5897
G01 X82.2091 Y24.6816
G01 X82.3648 Y24.7889
G01 X82.5091 Y24.9109
G01 X82.6411 Y25.0464
G01 X82.7597 Y25.1936
G01 X82.8629 Y25.3518
G01 X82.9509 Y25.5188
G01 X83.0221 Y25.6943
G01 X83.0765 Y25.8752
G01 X83.1125 Y26.0604
G01 X83.1308 Y26.2488
G01 X83.1308 Y26.4375
G01 X83.1125 Y26.6259
G01 X83.0765 Y26.8112
G01 X83.0221 Y26.9925
G01 X82.9509 Y27.1675
G01 X82.8629 Y27.3345
G01 X82.7597 Y27.4927
G01 X82.6411 Y27.6400
G01 X82.5090 Y27.7755
G01 X82.3648 Y27.8975
G01 X82.2091 Y28.0047
G01 X82.0441 Y28.0966
G01 X81.8706 Y28.1718
G01 X81.6911 Y28.2306
G01 X81.5064 Y28.2711
G01 X81.3191 Y28.2938
G01 X81.1297 Y28.2983
G00 Z2.0000
G00 X79.6229 Y26.3405
G01 F60.00
G01 Z-0.0500
G01 F120.00
G01 X79.6303 Y26.1908
G01 X79.6527 Y26.0399
G01 X79.6898 Y25.8920
G01 X79.7411 Y25.7483
G01 X79.8064 Y25.6104
G01 X79.8848 Y25.4796
G01 X79.9756 Y25.3571
G01 X80.0781 Y25.2441
G01 X80.1911 Y25.1416
G01 X80.3136 Y25.0508
G01 X80.4445 Y24.9723
G01 X80.5824 Y24.9071
G01 X80.7260 Y24.8557
G01 X80.8739 Y24.8187
G01 X81.0248 Y24.7963
G01 X81.1772 Y24.7888
G01 X81.3295 Y24.7963
G01 X81.4804 Y24.8187
G01 X81.6284 Y24.8557
G01 X81.7720 Y24.9071
G01 X81.9099 Y24.9723
G01 X82.0407 Y25.0508
G01 X82.1633 Y25.1416
G01 X82.2763 Y25.2441
G01 X82.3787 Y25.3571
G01 X82.4696 Y25.4796
G01 X82.5480 Y25.6104
G01 X82.6132 Y25.7483
G01 X82.6646 Y25.8920
G01 X82.7017 Y26.0399
G01 X82.7241 Y26.1908
G01 X82.7316 Y26.3432
G01 X82.7241 Y26.4955
G01 X82.7017 Y26.6464
G01 X82.6646 Y26.7944
G01 X82.6132 Y26.9380
G01 X82.5480 Y27.0759
G01 X82.4696 Y27.2067
G01 X82.3787 Y27.3292
G01 X82.2763 Y27.4423
G01 X82.1633 Y27.5447
G01 X82.0407 Y27.6356
G01 X81.9099 Y27.7140
G01 X81.7720 Y27.7792
G01 X81.6284 Y27.8306
G01 X81.4804 Y27.8677
G01 X81.3295 Y27.8900
G01 X81.1772 Y27.8975
G01 X81.0248 Y27.8900
G01 X80.8739 Y27.8677
G01 X80.7260 Y27.8306
G01 X80.5824 Y27.7792
G01 X80.4445 Y27.7140
G01 X80.3136 Y27.6356
G01 X80.1911 Y27.5447
G01 X80.0781 Y27.4423
G01 X79.9756 Y27.3292
G01 X79.8848 Y27.2067
G01 X79.8064 Y27.0759
G01 X79.7411 Y26.9380
G01 X79.6898 Y26.7944
G01 X79.6527 Y26.6464
G01 X79.6303 Y26.4955
G01 X79.6229 Y26.3458
G01 X79.6229 Y26.3405
G00 Z2.0000
G00 X81.2444 Y17.2985
G01 F60.00
G01 Z-0.0500
G01 F120.00
G01 X81.0556 Y17.2941
G01 X80.8679 Y17.2714
G01 X80.6835 Y17.2303
G01 X80.5036 Y17.1720
G01 X80.3302 Y17.0964
G01 X80.1651 Y17.0045
G01 X80.0099 Y16.8972
G01 X79.8651 Y16.7751
G01 X79.7331 Y16.6402
G01 X79.6150 Y16.4930
G01 X79.5112 Y16.3348
G01 X79.4233 Y16.1673
G01 X79.3521 Y15.9924
G01 X79.2982 Y15.8114
G01 X79.2617 Y15.6257
G01 X79.2439 Y15.4379
G01 X79.2439 Y15.2485
G01 X79.2617 Y15.0607
G01 X79.2982 Y14.8749
G01 X79.3521 Y14.6940
G01 X79.4233 Y14.5191
G01 X79.5112 Y14.3516
G01 X79.6150 Y14.1934
G01 X79.7331 Y14.0461
G01 X79.8651 Y13.9112
G01 X80.0099 Y13.7891
G01 X80.1651 Y13.6819
G01 X80.3302 Y13.5900
G01 X80.5036 Y13.5144
G01 X80.6835 Y13.4560
G01 X80.8679 Y13.4150
G01 X81.0556 Y13.3923
G01 X81.2444 Y13.3878
G01 X81.4327 Y13.4017
G01 X81.6190 Y13.4333
G01 X81.8014 Y13.4832
G01 X81.9784 Y13.5499
G01 X82.1478 Y13.6339
G01 X82.3085 Y13.7338
G01 X82.4582 Y13.8484
G01 X82.5967 Y13.9770
G01 X82.7222 Y14.1183
G01 X82.8334 Y14.2715
G01 X82.9292 Y14.4341
G01 X83.0088 Y14.6056
G01 X83.0715 Y14.7839
G01 X83.1165 Y14.9673
G01 X83.1437 Y15.1547
G01 X83.1531 Y15.3434
G01 X83.1437 Y15.5317
G01 X83.1165 Y15.7191
G01 X83.0715 Y15.9024
G01 X83.0088 Y16.0808
G01 X82.9292 Y16.2523
G01 X82.8334 Y16.4149
G01 X82.7222 Y16.5681
G01 X82.5967 Y16.7094
G01 X82.4582 Y16.8379
G01 X82.3085 Y16.9526
G01 X82.1478 Y17.0524
G01 X81.9784 Y17.1364
G01 X81.8014 Y17.2031
G01 X81.6190 Y17.2531
G01 X81.4327 Y17.2847
G01 X81.2444 Y17.2985
G00 Z2.0000
G00 X79.6430 Y15.3405
G01 F60.00
G01 Z-0.0500
G01 F120.00
G01 X79.6504 Y15.1909
G01 X79.6728 Y15.0400
G01 X79.7098 Y14.8920
G01 X79.7612 Y14.7484
G01 X79.8264 Y14.6105
G01 X79.9048 Y14.4796
G01 X79.9957 Y14.3571
G01 X80.0982 Y14.2441
G01 X80.2112 Y14.1417
G01 X80.3337 Y14.0508
G01 X80.4645 Y13.9724
G01 X80.6024 Y13.9072
G01 X80.7460 Y13.8558
G01 X80.8940 Y13.8187
G01 X81.0449 Y13.7963
G01 X81.1973 Y13.7888
G01 X81.3496 Y13.7963
G01 X81.5005 Y13.8187
G01 X81.6485 Y13.8558
G01 X81.7921 Y13.9072
G01 X81.9300 Y13.9724
G01 X82.0608 Y14.0508
G01 X82.1833 Y14.1417
G01 X82.2964 Y14.2441
G01 X82.3988 Y14.3571
G01 X82.4897 Y14.4796
G01 X82.5681 Y14.6105
G01 X82.6333 Y14.7484
G01 X82.6847 Y14.8920
G01 X82.7218 Y15.0400
G01 X82.7441 Y15.1909
G01 X82.7516 Y15.3432
G01 X82.7441 Y15.4956
G01 X82.7218 Y15.6464
G01 X82.6847 Y15.7944
G01 X82.6333 Y15.9380
G01 X82.5681 Y16.0759
G01 X82.4897 Y16.2068
G01 X82.3988 Y16.3293
G01 X82.2964 Y16.4423
G01 X82.1833 Y16.5447
G01 X82.0608 Y16.6356
G01 X81.9300 Y16.7140
G01 X81.7921 Y16.7793
G01 X81.6485 Y16.8306
G01 X81.5005 Y16.8677
G01 X81.3496 Y16.8901
G01 X81.1973 Y16.8976
G01 X81.0449 Y16.8901
G01 X80.8940 Y16.8677
G01 X80.7460 Y16.8306
G01 X80.6024 Y16.7793
G01 X80.4645 Y16.7140
G01 X80.3337 Y16.6356
G01 X80.2112 Y16.5447
G01 X80.0982 Y16.4423
G01 X79.9957 Y16.3293
G01 X79.9048 Y16.2068
G01 X79.8264 Y16.0759
G01 X79.7612 Y15.9380
G01 X79.7098 Y15.7944
G01 X79.6728 Y15.6464
G01 X79.6504 Y15.4956
G01 X79.6430 Y15.3459
G01 X79.6430 Y15.3405
G00 Z2.0000
G00 X84.7230 Y15.3405
G01 F60.00
G01 Z-0.0500
G01 F120.00
G01 X84.7304 Y15.1909
G01 X84.7528 Y15.0400
G01 X84.7898 Y14.8920
G01 X84.8412 Y14.7484
G01 X84.9064 Y14.6105
G01 X84.9848 Y14.4796
G01 X85.0757 Y14.3571
G01 X85.1782 Y14.2441
G01 X85.2912 Y14.1417
G01 X85.4137 Y14.0508
G01 X85.5445 Y13.9724
G01 X85.6824 Y13.9072
G01 X85.8260 Y13.8558
G01 X85.9740 Y13.8187
G01 X86.1249 Y13.7963
G01 X86.2773 Y13.7888
G01 X86.4296 Y13.7963
G01 X86.5805 Y13.8187
G01 X86.7285 Y13.8558
G01 X86.8721 Y13.9072
G01 X87.0100 Y13.9724
G01 X87.1408 Y14.0508
G01 X87.2633 Y14.1417
G01 X87.3764 Y14.2441
G01 X87.4788 Y14.3571
G01 X87.5697 Y14.4796
G01 X87.6481 Y14.6105
G01 X87.7133 Y14.7484
G01 X87.7647 Y14.8920
G01 X87.8018 Y15.0400
G01 X87.8241 Y15.1909
G01 X87.8316 Y15.3432
G01 X87.8241 Y15.4956
G01 X87.8018 Y15.6464
G01 X87.7647 Y15.7944
G01 X87.7133 Y15.9380
G01 X87.6481 Y16.0759
G01 X87.5697 Y16.2068
G01 X87.4788 Y16.3293
G01 X87.3764 Y16.4423
G01 X87.2633 Y16.5447
G01 X87.1408 Y16.6356
G01 X87.0100 Y16.7140
G01 X86.8721 Y16.7793
G01 X86.7285 Y16.8306
G01 X86.5805 Y16.8677
G01 X86.4296 Y16.8901
G01 X86.2773 Y16.8976
G01 X86.1249 Y16.8901
G01 X85.9740 Y16.8677
G01 X85.8260 Y16.8306
G01 X85.6824 Y16.7793
G01 X85.5445 Y16.7140
G01 X85.4137 Y16.6356
G01 X85.2912 Y16.5447
G01 X85.1782 Y16.4423
G01 X85.0757 Y16.3293
G01 X84.9848 Y16.2068
G01 X84.9064 Y16.0759
G01 X84.8412 Y15.9380
G01 X84.7898 Y15.7944
G01 X84.7528 Y15.6464
G01 X84.7304 Y15.4956
G01 X84.7230 Y15.3459
G01 X84.7230 Y15.3405
G00 Z2.0000
G00 X86.3244 Y17.2985
G01 F60.00
G01 Z-0.0500
G01 F120.00
G01 X86.1356 Y17.2941
G01 X85.9479 Y17.2714
G01 X85.7635 Y17.2303
G01 X85.5836 Y17.1720
G01 X85.4102 Y17.0964
G01 X85.2451 Y17.0045
G01 X85.0899 Y16.8972
G01 X84.9451 Y16.7751
G01 X84.8131 Y16.6402
G01 X84.6950 Y16.4930
G01 X84.5912 Y16.3348
G01 X84.5033 Y16.1673
G01 X84.4321 Y15.9924
G01 X84.3782 Y15.8114
G01 X84.3417 Y15.6257
G01 X84.3239 Y15.4379
G01 X84.3239 Y15.2485
G01 X84.3417 Y15.0607
G01 X84.3782 Y14.8749
G01 X84.4321 Y14.6940
G01 X84.5033 Y14.5191
G01 X84.5912 Y14.3516
G01 X84.6950 Y14.1934
G01 X84.8131 Y14.0461
G01 X84.9451 Y13.9112
G01 X85.0899 Y13.7891
G01 X85.2451 Y13.6819
G01 X85.4102 Y13.5900
G01 X85.5836 Y13.5144
G01 X85.7635 Y13.4560
G01 X85.9479 Y13.4150
G01 X86.1356 Y13.3923
G01 X86.3244 Y13.3878
G01 X86.5127 Y13.4017
G01 X86.6990 Y13.4333
G01 X86.8814 Y13.4832
G01 X87.0584 Y13.5499
G01 X87.2278 Y13.6339
G01 X87.3885 Y13.7338
G01 X87.5382 Y13.8484
G01 X87.6767 Y13.9770
G01 X87.8022 Y14.1183
G01 X87.9134 Y14.2715
G01 X88.0092 Y14.4341
G01 X88.0888 Y14.6056
G01 X88.1515 Y14.7839
G01 X88.1965 Y14.9673
G01 X88.2237 Y15.1547
G01 X88.2331 Y15.3434
G01 X88.2237 Y15.5317
G01 X88.1965 Y15.7191
G01 X88.1515 Y15.9024
G01 X88.0888 Y16.0808
G01 X88.0092 Y16.2523
G01 X87.9134 Y16.4149
G01 X87.8022 Y16.5681
G01 X87.6767 Y16.7094
G01 X87.5382 Y16.8379
G01 X87.3885 Y16.9526
G01 X87.2278 Y17.0524
G01 X87.0584 Y17.1364
G01 X86.8814 Y17.2031
G01 X86.6990 Y17.2531
G01 X86.5127 Y17.2847
G01 X86.3244 Y17.2985
G00 Z2.0000
G00 X94.6953 Y35.2579
G01 F60.00
G01 Z-0.0500
G01 F120.00
G01 X94.6448 Y35.3260
G01 X94.5793 Y35.3983
G01 X94.5070 Y35.4638
G01 X94.4286 Y35.5219
G01 X94.3449 Y35.5721
G01 X94.2567 Y35.6138
G01 X94.1648 Y35.6467
G01 X94.0702 Y35.6704
G01 X93.9737 Y35.6847
G01 X93.8762 Y35.6895
G01 X93.7787 Y35.6847
G01 X93.6822 Y35.6704
G01 X93.5876 Y35.6467
G01 X93.4957 Y35.6138
G01 X93.4075 Y35.5721
G01 X93.3238 Y35.5219
G01 X93.2454 Y35.4638
G01 X93.1731 Y35.3983
G01 X93.1076 Y35.3260
G01 X93.0495 Y35.2476
G01 X92.9993 Y35.1639
G01 X92.9576 Y35.0757
G01 X92.9247 Y34.9838
G01 X92.9010 Y34.8892
G01 X92.8867 Y34.7926
G01 X92.8819 Y34.6952
G01 X92.8867 Y34.5977
G01 X92.9010 Y34.5012
G01 X92.9247 Y34.4066
G01 X92.9576 Y34.3147
G01 X92.9993 Y34.2265
G01 X93.0495 Y34.1428
G01 X93.1076 Y34.0644
G01 X93.1731 Y33.9921
G01 X93.2454 Y33.9266
G01 X93.3216 Y33.8700
G01 X93.3261 Y33.8670
G01 X93.4099 Y33.8171
G01 X93.4957 Y33.7766
G01 X93.5850 Y33.7445
G01 X93.5901 Y33.7430
G01 X93.6822 Y33.7200
G01 X93.7774 Y33.7058
G01 X93.8735 Y33.7010
G01 X93.8789 Y33.7010
G01 X93.9737 Y33.7057
G01 X94.0675 Y33.7195
G01 X94.0728 Y33.7206
G01 X94.1648 Y33.7437
G01 X94.2542 Y33.7756
G01 X94.2591 Y33.7777
G01 X94.3449 Y33.8183
G01 X94.4263 Y33.8670
G01 X94.4308 Y33.8700
G01 X94.5070 Y33.9266
G01 X94.5773 Y33.9903
G01 X94.5811 Y33.9941
G01 X94.6448 Y34.0644
G01 X94.6953 Y34.1324
G01 X95.5971 Y34.1324
G01 X95.6476 Y34.0644
G01 X95.7113 Y33.9941
G01 X95.7151 Y33.9903
G01 X95.7854 Y33.9266
G01 X95.8616 Y33.8700
G01 X95.8661 Y33.8670
G01 X95.9475 Y33.8183
G01 X96.0333 Y33.7777
G01 X96.0382 Y33.7756
G01 X96.1276 Y33.7437
G01 X96.2196 Y33.7206
G01 X96.2249 Y33.7195
G01 X96.3187 Y33.7057
G01 X96.4135 Y33.7010
G01 X96.4189 Y33.7010
G01 X96.5150 Y33.7058
G01 X96.6102 Y33.7200
G01 X96.7048 Y33.7437
G01 X96.7967 Y33.7766
G01 X96.8825 Y33.8171
G01 X96.8872 Y33.8196
G01 X96.9686 Y33.8685
G01 X97.0449 Y33.9249
G01 X97.0490 Y33.9283
G01 X97.1211 Y33.9941
G01 X97.1848 Y34.0644
G01 X97.2353 Y34.1324
G01 X99.2112 Y34.1324
G01 X99.2663 Y34.1351
G01 X99.3183 Y34.1428
G01 X99.3720 Y34.1560
G01 X99.3771 Y34.1575
G01 X99.4265 Y34.1753
G01 X99.4741 Y34.1977
G01 X99.5216 Y34.2258
G01 X99.5682 Y34.2602
G01 X99.6082 Y34.2963
G01 X100.1190 Y34.8072
G01 X100.1542 Y34.8462
G01 X100.1871 Y34.8905
G01 X100.2155 Y34.9379
G01 X100.2401 Y34.9903
G01 X100.2577 Y35.0398
G01 X100.2711 Y35.0934
G01 X100.2792 Y35.1480
G01 X100.2819 Y35.2032
G01 X100.2819 Y35.8407
G01 X100.2794 Y35.8932
G01 X100.2782 Y35.9030
G01 X100.2794 Y35.9127
G01 X100.2819 Y35.9652
G01 X100.2819 Y62.6561
G01 X107.0391 Y69.4133
G01 X107.8739 Y69.4133
G01 X107.8793 Y69.4137
G01 X107.8858 Y69.4149
G01 X107.8909 Y69.4165
G01 X107.8959 Y69.4185
G01 X107.9006 Y69.4210
G01 X107.9051 Y69.4240
G01 X107.9092 Y69.4274
G01 X107.9130 Y69.4312
G01 X107.9164 Y69.4353
G01 X107.9193 Y69.4398
G01 X107.9234 Y69.4482
G01 X107.9260 Y69.4572
G01 X107.9268 Y69.4624
G01 X107.9271 Y69.4678
G01 X107.9271 Y71.0439
G01 X107.9263 Y71.0519
G01 X107.9243 Y71.0597
G01 X107.9213 Y71.0671
G01 X107.9171 Y71.0740
G01 X107.9121 Y71.0802
G01 X107.9061 Y71.0856
G01 X107.8983 Y71.0907
G01 X107.8909 Y71.0939
G01 X107.8819 Y71.0963
G01 X107.8726 Y71.0971
G01 X106.2978 Y71.0971
G01 X106.2924 Y71.0968
G01 X106.2872 Y71.0960
G01 X106.2782 Y71.0934
G01 X106.2698 Y71.0893
G01 X106.2653 Y71.0864
G01 X106.2612 Y71.0830
G01 X106.2565 Y71.0782
G01 X106.2532 Y71.0740
G01 X106.2504 Y71.0694
G01 X106.2480 Y71.0647
G01 X106.2460 Y71.0597
G01 X106.2446 Y71.0545
G01 X106.2437 Y71.0493
G01 X106.2433 Y71.0439
G01 X106.2433 Y70.2091
G01 X99.3213 Y63.2871
G01 X99.2842 Y63.2462
G01 X99.2513 Y63.2018
G01 X99.2229 Y63.1545
G01 X99.1983 Y63.1020
G01 X99.1807 Y63.0525
G01 X99.1672 Y62.9990
G01 X99.1591 Y62.9443
G01 X99.1564 Y62.8892
G01 X99.1564 Y35.9652
G01 X99.1589 Y35.9127
G01 X99.1601 Y35.9030
G01 X99.1589 Y35.8932
G01 X99.1564 Y35.8407
G01 X99.1564 Y35.4363
G01 X98.9781 Y35.2579
G01 X97.2353 Y35.2579
G01 X97.1848 Y35.3260
G01 X97.1211 Y35.3963
G01 X97.0490 Y35.4620
G01 X97.0449 Y35.4654
G01 X96.9686 Y35.5219
G01 X96.8849 Y35.5721
G01 X96.7991 Y35.6127
G01 X96.7942 Y35.6148
G01 X96.7048 Y35.6467
G01 X96.6128 Y35.6698
G01 X96.6075 Y35.6708
G01 X96.5137 Y35.6847
G01 X96.4189 Y35.6894
G01 X96.4135 Y35.6894
G01 X96.3161 Y35.6844
G01 X96.2222 Y35.6704
G01 X96.1301 Y35.6474
G01 X96.1250 Y35.6458
G01 X96.0357 Y35.6138
G01 X95.9475 Y35.5721
G01 X95.8638 Y35.5219
G01 X95.7875 Y35.4654
G01 X95.7834 Y35.4620
G01 X95.7113 Y35.3963
G01 X95.6476 Y35.3260
G01 X95.5971 Y35.2579
G01 X94.6953 Y35.2579
G00 Z2.0000
G00 X94.8160 Y38.2295
G01 F60.00
G01 Z-0.0500
G01 F120.00
G01 X92.9364 Y38.2295
G01 X92.9311 Y38.2292
G01 X92.9258 Y38.2284
G01 X92.9206 Y38.2271
G01 X92.9155 Y38.2253
G01 X92.9107 Y38.2231
G01 X92.9061 Y38.2203
G01 X92.9018 Y38.2171
G01 X92.8969 Y38.2126
G01 X92.8934 Y38.2085
G01 X92.8904 Y38.2041
G01 X92.8860 Y38.1958
G01 X92.8842 Y38.1908
G01 X92.8829 Y38.1856
G01 X92.8822 Y38.1803
G01 X92.8819 Y38.1750
G01 X92.8819 Y36.2954
G01 X92.8822 Y36.2900
G01 X92.8829 Y36.2848
G01 X92.8842 Y36.2796
G01 X92.8860 Y36.2745
G01 X92.8890 Y36.2685
G01 X92.8918 Y36.2640
G01 X92.8951 Y36.2598
G01 X92.8988 Y36.2559
G01 X92.9029 Y36.2524
G01 X92.9072 Y36.2493
G01 X92.9119 Y36.2467
G01 X92.9168 Y36.2445
G01 X92.9219 Y36.2429
G01 X92.9271 Y36.2417
G01 X92.9364 Y36.2409
G01 X94.8160 Y36.2409
G01 X94.8213 Y36.2412
G01 X94.8266 Y36.2419
G01 X94.8318 Y36.2432
G01 X94.8369 Y36.2450
G01 X94.8417 Y36.2473
G01 X94.8474 Y36.2508
G01 X94.8516 Y36.2541
G01 X94.8555 Y36.2578
G01 X94.8590 Y36.2619
G01 X94.8620 Y36.2662
G01 X94.8647 Y36.2709
G01 X94.8668 Y36.2758
G01 X94.8685 Y36.2809
G01 X94.8697 Y36.2861
G01 X94.8705 Y36.2954
G01 X94.8705 Y38.1763
G01 X94.8694 Y38.1856
G01 X94.8681 Y38.1908
G01 X94.8663 Y38.1958
G01 X94.8641 Y38.2007
G01 X94.8613 Y38.2053
G01 X94.8581 Y38.2096
G01 X94.8545 Y38.2135
G01 X94.8506 Y38.2171
G01 X94.8463 Y38.2203
G01 X94.8417 Y38.2231
G01 X94.8369 Y38.2253
G01 X94.8318 Y38.2271
G01 X94.8266 Y38.2284
G01 X94.8213 Y38.2292
G01 X94.8160 Y38.2295
G00 Z2.0000
G00 X94.8160 Y40.7695
G01 F60.00
G01 Z-0.0500
G01 F120.00
G01 X92.9364 Y40.7695
G01 X92.9311 Y40.7692
G01 X92.9258 Y40.7684
G01 X92.9193 Y40.7667
G01 X92.9143 Y40.7648
G01 X92.9095 Y40.7624
G01 X92.9050 Y40.7595
G01 X92.9008 Y40.7563
G01 X92.8969 Y40.7526
G01 X92.8911 Y40.7453
G01 X92.8883 Y40.7407
G01 X92.8860 Y40.7358
G01 X92.8842 Y40.7308
G01 X92.8829 Y40.7256
G01 X92.8822 Y40.7203
G01 X92.8819 Y40.7150
G01 X92.8819 Y38.8354
G01 X92.8823 Y38.8287
G01 X92.8832 Y38.8234
G01 X92.8847 Y38.8183
G01 X92.8866 Y38.8133
G01 X92.8890 Y38.8085
G01 X92.8918 Y38.8040
G01 X92.8951 Y38.7998
G01 X92.8988 Y38.7959
G01 X92.9029 Y38.7924
G01 X92.9072 Y38.7893
G01 X92.9119 Y38.7867
G01 X92.9168 Y38.7845
G01 X92.9219 Y38.7829
G01 X92.9271 Y38.7817
G01 X92.9364 Y38.7809
G01 X94.8160 Y38.7809
G01 X94.8213 Y38.7812
G01 X94.8266 Y38.7819
G01 X94.8318 Y38.7832
G01 X94.8369 Y38.7850
G01 X94.8417 Y38.7873
G01 X94.8474 Y38.7908
G01 X94.8516 Y38.7941
G01 X94.8555 Y38.7978
G01 X94.8590 Y38.8019
G01 X94.8620 Y38.8062
G01 X94.8647 Y38.8109
G01 X94.8668 Y38.8158
G01 X94.8685 Y38.8209
G01 X94.8697 Y38.8261
G01 X94.8705 Y38.8354
G01 X94.8705 Y40.7163
G01 X94.8694 Y40.7256
G01 X94.8681 Y40.7308
G01 X94.8663 Y40.7358
G01 X94.8641 Y40.7407
G01 X94.8613 Y40.7453
G01 X94.8581 Y40.7496
G01 X94.8545 Y40.7535
G01 X94.8506 Y40.7571
G01 X94.8463 Y40.7603
G01 X94.8417 Y40.7631
G01 X94.8369 Y40.7653
G01 X94.8318 Y40.7671
G01 X94.8266 Y40.7684
G01 X94.8213 Y40.7692
G01 X94.8160 Y40.7695
G00 Z2.0000
G00 X94.8160 Y43.3095
G01 F60.00
G01 Z-0.0500
G01 F120.00
G01 X92.9364 Y43.3095
G01 X92.9311 Y43.3092
G01 X92.9258 Y43.3084
G01 X92.9206 Y43.3071
G01 X92.9155 Y43.3053
G01 X92.9107 Y43.3031
G01 X92.9061 Y43.3003
G01 X92.9018 Y43.2971
G01 X92.8969 Y43.2926
G01 X92.8934 Y43.2885
G01 X92.8904 Y43.2841
G01 X92.8860 Y43.2758
G01 X92.8842 Y43.2708
G01 X92.8829 Y43.2656
G01 X92.8822 Y43.2603
G01 X92.8819 Y43.2550
G01 X92.8819 Y41.3754
G01 X92.8822 Y41.3700
G01 X92.8829 Y41.3648
G01 X92.8842 Y41.3596
G01 X92.8860 Y41.3545
G01 X92.8890 Y41.3485
G01 X92.8918 Y41.3440
G01 X92.8951 Y41.3398
G01 X92.8988 Y41.3359
G01 X92.9029 Y41.3324
G01 X92.9072 Y41.3293
G01 X92.9119 Y41.3267
G01 X92.9168 Y41.3245
G01 X92.9219 Y41.3229
G01 X92.9271 Y41.3217
G01 X92.9364 Y41.3209
G01 X94.8160 Y41.3209
G01 X94.8213 Y41.3212
G01 X94.8266 Y41.3219
G01 X94.8318 Y41.3232
G01 X94.8369 Y41.3250
G01 X94.8417 Y41.3273
G01 X94.8474 Y41.3308
G01 X94.8516 Y41.3341
G01 X94.8555 Y41.3378
G01 X94.8590 Y41.3419
G01 X94.8620 Y41.3462
G01 X94.8647 Y41.3509
G01 X94.8668 Y41.3558
G01 X94.8685 Y41.3609
G01 X94.8697 Y41.3661
G01 X94.8705 Y41.3754
G01 X94.8705 Y43.2563
G01 X94.8694 Y43.2656
G01 X94.8681 Y43.2708
G01 X94.8663 Y43.2758
G01 X94.8641 Y43.2807
G01 X94.8613 Y43.2853
G01 X94.8581 Y43.2896
G01 X94.8545 Y43.2935
G01 X94.8506 Y43.2971
G01 X94.8463 Y43.3003
G01 X94.8417 Y43.3031
G01 X94.8369 Y43.3053
G01 X94.8318 Y43.3071
G01 X94.8266 Y43.3084
G01 X94.8213 Y43.3092
G01 X94.8160 Y43.3095
G00 Z2.0000
G00 X94.8160 Y45.8495
G01 F60.00
G01 Z-0.0500
G01 F120.00
G01 X92.9364 Y45.8495
G01 X92.9311 Y45.8492
G01 X92.9258 Y45.8484
G01 X92.9206 Y45.8471
G01 X92.9155 Y45.8453
G01 X92.9107 Y45.8431
G01 X92.9061 Y45.8403
G01 X92.9018 Y45.8371
G01 X92.8969 Y45.8326
G01 X92.8934 Y45.8285
G01 X92.8904 Y45.8241
G01 X92.8860 Y45.8158
G01 X92.8842 Y45.8108
G01 X92.8829 Y45.8056
G01 X92.8822 Y45.8003
G01 X92.8819 Y45.7950
G01 X92.8819 Y43.9154
G01 X92.8822 Y43.9100
G01 X92.8829 Y43.9048
G01 X92.8842 Y43.8996
G01 X92.8860 Y43.8945
G01 X92.8890 Y43.8885
G01 X92.8918 Y43.8840
G01 X92.8951 Y43.8798
G01 X92.8988 Y43.8759
G01 X92.9029 Y43.8724
G01 X92.9072 Y43.8693
G01 X92.9119 Y43.8667
G01 X92.9168 Y43.8645
G01 X92.9219 Y43.8629
G01 X92.9271 Y43.8617
G01 X92.9364 Y43.8609
G01 X94.8160 Y43.8609
G01 X94.8213 Y43.8612
G01 X94.8266 Y43.8619
G01 X94.8318 Y43.8632
G01 X94.8369 Y43.8650
G01 X94.8417 Y43.8673
G01 X94.8474 Y43.8708
G01 X94.8516 Y43.8741
G01 X94.8555 Y43.8778
G01 X94.8590 Y43.8819
G01 X94.8620 Y43.8862
G01 X94.8647 Y43.8909
G01 X94.8668 Y43.8958
G01 X94.8685 Y43.9009
G01 X94.8697 Y43.9061
G01 X94.8705 Y43.9154
G01 X94.8705 Y45.7963
G01 X94.8694 Y45.8056
G01 X94.8681 Y45.8108
G01 X94.8663 Y45.8158
G01 X94.8641 Y45.8207
G01 X94.8613 Y45.8253
G01 X94.8581 Y45.8296
G01 X94.8545 Y45.8335
G01 X94.8506 Y45.8371
G01 X94.8463 Y45.8403
G01 X94.8417 Y45.8431
G01 X94.8369 Y45.8453
G01 X94.8318 Y45.8471
G01 X94.8266 Y45.8484
G01 X94.8213 Y45.8492
G01 X94.8160 Y45.8495
G00 Z2.0000
G00 X94.8160 Y48.3895
G01 F60.00
G01 Z-0.0500
G01 F120.00
G01 X92.9364 Y48.3895
G01 X92.9284 Y48.3889
G01 X92.9206 Y48.3871
G01 X92.9143 Y48.3848
G01 X92.9072 Y48.3810
G01 X92.9018 Y48.3771
G01 X92.8969 Y48.3726
G01 X92.8934 Y48.3685
G01 X92.8897 Y48.3630
G01 X92.8866 Y48.3571
G01 X92.8842 Y48.3508
G01 X92.8827 Y48.3443
G01 X92.8820 Y48.3377
G01 X92.8819 Y47.8309
G01 X92.8599 Y47.8309
G01 X92.8198 Y47.8289
G01 X92.7775 Y47.8227
G01 X92.7347 Y47.8121
G01 X92.6957 Y47.7982
G01 X92.6558 Y47.7794
G01 X92.6191 Y47.7574
G01 X92.5848 Y47.7320
G01 X92.5541 Y47.7042
G01 X90.7742 Y45.9243
G01 X90.7448 Y45.8915
G01 X90.7209 Y45.8592
G01 X90.7003 Y45.8249
G01 X90.6807 Y45.7839
G01 X90.6663 Y45.7437
G01 X90.6559 Y45.7022
G01 X90.6499 Y45.6625
G01 X90.6475 Y45.6172
G01 X90.6475 Y26.2397
G01 X86.9455 Y22.5401
G01 X60.8662 Y22.5401
G01 X60.8554 Y22.5579
G01 X60.8093 Y22.6201
G01 X60.7546 Y22.6805
G01 X60.6942 Y22.7352
G01 X60.6320 Y22.7813
G01 X60.6129 Y22.7929
G01 X60.6129 Y23.9534
G01 X60.6320 Y23.9650
G01 X60.6963 Y24.0129
G01 X60.7546 Y24.0658
G01 X60.8076 Y24.1242
G01 X60.8546 Y24.1874
G01 X60.8576 Y24.1918
G01 X60.8973 Y24.2583
G01 X60.9311 Y24.3295
G01 X60.9578 Y24.4036
G01 X60.9593 Y24.4087
G01 X60.9781 Y24.4839
G01 X60.9898 Y24.5631
G01 X60.9938 Y24.6432
G01 X60.9900 Y24.7205
G01 X60.9895 Y24.7258
G01 X60.9778 Y24.8038
G01 X60.9586 Y24.8802
G01 X60.9316 Y24.9556
G01 X60.8973 Y25.0281
G01 X60.8576 Y25.0945
G01 X60.8546 Y25.0990
G01 X60.8067 Y25.1632
G01 X60.7546 Y25.2205
G01 X60.6952 Y25.2743
G01 X60.6309 Y25.3221
G01 X60.5621 Y25.3632
G01 X60.4897 Y25.3975
G01 X60.4168 Y25.4237
G01 X60.3392 Y25.4434
G01 X60.3339 Y25.4444
G01 X60.2573 Y25.4557
G01 X60.1759 Y25.4596
G01 X60.0972 Y25.4557
G01 X60.0180 Y25.4440
G01 X59.9402 Y25.4245
G01 X59.8673 Y25.3985
G01 X59.7948 Y25.3645
G01 X59.7900 Y25.3619
G01 X59.7236 Y25.3221
G01 X59.6593 Y25.2743
G01 X59.5999 Y25.2205
G01 X59.5461 Y25.1611
G01 X59.4984 Y25.0968
G01 X59.4585 Y25.0304
G01 X59.4240 Y24.9581
G01 X59.4219 Y24.9531
G01 X59.3959 Y24.8802
G01 X59.3762 Y24.8011
G01 X59.3647 Y24.7232
G01 X59.3608 Y24.6458
G01 X59.3647 Y24.5631
G01 X59.3764 Y24.4839
G01 X59.3952 Y24.4087
G01 X59.3968 Y24.4036
G01 X59.4234 Y24.3295
G01 X59.4572 Y24.2583
G01 X59.4969 Y24.1918
G01 X59.4999 Y24.1874
G01 X59.5470 Y24.1242
G01 X59.5999 Y24.0658
G01 X59.6583 Y24.0129
G01 X59.7225 Y23.9650
G01 X59.7416 Y23.9534
G01 X59.7416 Y22.7929
G01 X59.7225 Y22.7813
G01 X59.6603 Y22.7352
G01 X59.6009 Y22.6814
G01 X59.5461 Y22.6211
G01 X59.4976 Y22.5557
G01 X59.4560 Y22.4857
G01 X59.4229 Y22.4156
G01 X59.3968 Y22.3427
G01 X59.3764 Y22.2625
G01 X59.3646 Y22.1819
G01 X59.3608 Y22.1032
G01 X59.3647 Y22.0231
G01 X59.3764 Y21.9439
G01 X59.3959 Y21.8661
G01 X59.4229 Y21.7907
G01 X59.4572 Y21.7183
G01 X59.4984 Y21.6495
G01 X59.5444 Y21.5873
G01 X59.5999 Y21.5258
G01 X59.6593 Y21.4720
G01 X59.7236 Y21.4243
G01 X59.7948 Y21.3819
G01 X59.8648 Y21.3488
G01 X59.9377 Y21.3227
G01 X60.0154 Y21.3029
G01 X60.0972 Y21.2906
G01 X60.1773 Y21.2867
G01 X60.2599 Y21.2909
G01 X60.3365 Y21.3024
G01 X60.4117 Y21.3211
G01 X60.4897 Y21.3488
G01 X60.5633 Y21.3837
G01 X60.6309 Y21.4243
G01 X60.6931 Y21.4704
G01 X60.7536 Y21.5249
G01 X60.8093 Y21.5862
G01 X60.8554 Y21.6484
G01 X60.8677 Y21.6687
G01 X87.1259 Y21.6687
G01 X87.1686 Y21.6708
G01 X87.2082 Y21.6766
G01 X87.2135 Y21.6777
G01 X87.2549 Y21.6883
G01 X87.2926 Y21.7019
G01 X87.3312 Y21.7201
G01 X87.3679 Y21.7421
G01 X87.4001 Y21.7659
G01 X87.4339 Y21.7962
G01 X91.3912 Y25.7510
G01 X91.4215 Y25.7848
G01 X91.4454 Y25.8170
G01 X91.4661 Y25.8514
G01 X91.4857 Y25.8924
G01 X91.5005 Y25.9339
G01 X91.5105 Y25.9742
G01 X91.5164 Y26.0138
G01 X91.5189 Y26.0592
G01 X91.5189 Y45.4367
G01 X92.8819 Y46.7997
G01 X92.8819 Y46.4554
G01 X92.8822 Y46.4500
G01 X92.8839 Y46.4409
G01 X92.8866 Y46.4333
G01 X92.8904 Y46.4262
G01 X92.8960 Y46.4188
G01 X92.9018 Y46.4133
G01 X92.9095 Y46.4080
G01 X92.9180 Y46.4041
G01 X92.9258 Y46.4019
G01 X92.9311 Y46.4012
G01 X92.9364 Y46.4009
G01 X94.8160 Y46.4009
G01 X94.8253 Y46.4017
G01 X94.8305 Y46.4029
G01 X94.8356 Y46.4045
G01 X94.8440 Y46.4086
G01 X94.8485 Y46.4116
G01 X94.8526 Y46.4150
G01 X94.8564 Y46.4188
G01 X94.8598 Y46.4229
G01 X94.8634 Y46.4285
G01 X94.8658 Y46.4333
G01 X94.8677 Y46.4383
G01 X94.8694 Y46.4448
G01 X94.8702 Y46.4500
G01 X94.8705 Y46.4554
G01 X94.8705 Y48.3363
G01 X94.8694 Y48.3456
G01 X94.8681 Y48.3508
G01 X94.8663 Y48.3558
G01 X94.8641 Y48.3607
G01 X94.8613 Y48.3653
G01 X94.8581 Y48.3696
G01 X94.8545 Y48.3735
G01 X94.8506 Y48.3771
G01 X94.8463 Y48.3803
G01 X94.8417 Y48.3831
G01 X94.8369 Y48.3853
G01 X94.8318 Y48.3871
G01 X94.8266 Y48.3884
G01 X94.8213 Y48.3892
G01 X94.8160 Y48.3895
G00 Z2.0000
G00 X97.3560 Y48.3895
G01 F60.00
G01 Z-0.0500
G01 F120.00
G01 X95.4764 Y48.3895
G01 X95.4711 Y48.3892
G01 X95.4658 Y48.3884
G01 X95.4606 Y48.3871
G01 X95.4555 Y48.3853
G01 X95.4507 Y48.3831
G01 X95.4461 Y48.3803
G01 X95.4418 Y48.3771
G01 X95.4369 Y48.3726
G01 X95.4334 Y48.3685
G01 X95.4304 Y48.3641
G01 X95.4260 Y48.3558
G01 X95.4242 Y48.3508
G01 X95.4229 Y48.3456
G01 X95.4222 Y48.3403
G01 X95.4219 Y48.3350
G01 X95.4219 Y46.4554
G01 X95.4222 Y46.4500
G01 X95.4229 Y46.4448
G01 X95.4242 Y46.4396
G01 X95.4260 Y46.4345
G01 X95.4290 Y46.4285
G01 X95.4318 Y46.4240
G01 X95.4351 Y46.4198
G01 X95.4388 Y46.4159
G01 X95.4429 Y46.4124
G01 X95.4472 Y46.4093
G01 X95.4519 Y46.4067
G01 X95.4568 Y46.4045
G01 X95.4619 Y46.4029
G01 X95.4671 Y46.4017
G01 X95.4764 Y46.4009
G01 X97.3560 Y46.4009
G01 X97.3613 Y46.4012
G01 X97.3666 Y46.4019
G01 X97.3718 Y46.4032
G01 X97.3769 Y46.4050
G01 X97.3817 Y46.4073
G01 X97.3874 Y46.4108
G01 X97.3916 Y46.4141
G01 X97.3955 Y46.4178
G01 X97.3990 Y46.4219
G01 X97.4020 Y46.4262
G01 X97.4047 Y46.4309
G01 X97.4068 Y46.4358
G01 X97.4085 Y46.4409
G01 X97.4097 Y46.4461
G01 X97.4105 Y46.4554
G01 X97.4105 Y48.3363
G01 X97.4094 Y48.3456
G01 X97.4081 Y48.3508
G01 X97.4063 Y48.3558
G01 X97.4041 Y48.3607
G01 X97.4013 Y48.3653
G01 X97.3981 Y48.3696
G01 X97.3945 Y48.3735
G01 X97.3906 Y48.3771
G01 X97.3863 Y48.3803
G01 X97.3817 Y48.3831
G01 X97.3769 Y48.3853
G01 X97.3718 Y48.3871
G01 X97.3666 Y48.3884
G01 X97.3613 Y48.3892
G01 X97.3560 Y48.3895
G00 Z2.0000
G00 X97.3560 Y50.9295
G01 F60.00
G01 Z-0.0500
G01 F120.00
G01 X95.4764 Y50.9295
G01 X95.4711 Y50.9292
G01 X95.4658 Y50.9284
G01 X95.4606 Y50.9271
G01 X95.4555 Y50.9253
G01 X95.4507 Y50.9231
G01 X95.4461 Y50.9203
G01 X95.4418 Y50.9171
G01 X95.4369 Y50.9126
G01 X95.4334 Y50.9085
G01 X95.4304 Y50.9041
G01 X95.4260 Y50.8958
G01 X95.4242 Y50.8908
G01 X95.4229 Y50.8856
G01 X95.4222 Y50.8803
G01 X95.4219 Y50.8750
G01 X95.4219 Y48.9954
G01 X95.4222 Y48.9900
G01 X95.4229 Y48.9848
G01 X95.4242 Y48.9796
G01 X95.4260 Y48.9745
G01 X95.4290 Y48.9685
G01 X95.4318 Y48.9640
G01 X95.4351 Y48.9598
G01 X95.4388 Y48.9559
G01 X95.4429 Y48.9524
G01 X95.4472 Y48.9493
G01 X95.4519 Y48.9467
G01 X95.4568 Y48.9445
G01 X95.4619 Y48.9429
G01 X95.4671 Y48.9417
G01 X95.4764 Y48.9409
G01 X97.3560 Y48.9409
G01 X97.3613 Y48.9412
G01 X97.3666 Y48.9419
G01 X97.3718 Y48.9432
G01 X97.3769 Y48.9450
G01 X97.3817 Y48.9473
G01 X97.3874 Y48.9508
G01 X97.3916 Y48.9541
G01 X97.3955 Y48.9578
G01 X97.3990 Y48.9619
G01 X97.4020 Y48.9662
G01 X97.4047 Y48.9709
G01 X97.4068 Y48.9758
G01 X97.4085 Y48.9809
G01 X97.4097 Y48.9861
G01 X97.4105 Y48.9954
G01 X97.4105 Y50.8763
G01 X97.4094 Y50.8856
G01 X97.4081 Y50.8908
G01 X97.4063 Y50.8958
G01 X97.4041 Y50.9007
G01 X97.4013 Y50.9053
G01 X97.3981 Y50.9096
G01 X97.3945 Y50.9135
G01 X97.3906 Y50.9171
G01 X97.3863 Y50.9203
G01 X97.3817 Y50.9231
G01 X97.3769 Y50.9253
G01 X97.3718 Y50.9271
G01 X97.3666 Y50.9284
G01 X97.3613 Y50.9292
G01 X97.3560 Y50.9295
G00 Z2.0000
G00 X97.3560 Y53.4695
G01 F60.00
G01 Z-0.0500
G01 F120.00
G01 X95.4764 Y53.4695
G01 X95.4711 Y53.4692
G01 X95.4658 Y53.4684
G01 X95.4606 Y53.4671
G01 X95.4555 Y53.4653
G01 X95.4507 Y53.4631
G01 X95.4461 Y53.4603
G01 X95.4418 Y53.4571
G01 X95.4369 Y53.4526
G01 X95.4334 Y53.4485
G01 X95.4304 Y53.4441
G01 X95.4260 Y53.4358
G01 X95.4242 Y53.4308
G01 X95.4229 Y53.4256
G01 X95.4222 Y53.4203
G01 X95.4219 Y53.4150
G01 X95.4219 Y51.5354
G01 X95.4222 Y51.5300
G01 X95.4229 Y51.5248
G01 X95.4242 Y51.5196
G01 X95.4260 Y51.5145
G01 X95.4290 Y51.5085
G01 X95.4318 Y51.5040
G01 X95.4351 Y51.4998
G01 X95.4388 Y51.4959
G01 X95.4429 Y51.4924
G01 X95.4472 Y51.4893
G01 X95.4519 Y51.4867
G01 X95.4568 Y51.4845
G01 X95.4619 Y51.4829
G01 X95.4671 Y51.4817
G01 X95.4764 Y51.4809
G01 X97.3560 Y51.4809
G01 X97.3613 Y51.4812
G01 X97.3666 Y51.4819
G01 X97.3718 Y51.4832
G01 X97.3769 Y51.4850
G01 X97.3817 Y51.4873
G01 X97.3874 Y51.4908
G01 X97.3916 Y51.4941
G01 X97.3955 Y51.4978
G01 X97.3990 Y51.5019
G01 X97.4020 Y51.5062
G01 X97.4047 Y51.5109
G01 X97.4068 Y51.5158
G01 X97.4085 Y51.5209
G01 X97.4097 Y51.5261
G01 X97.4105 Y51.5354
G01 X97.4105 Y53.4163
G01 X97.4094 Y53.4256
G01 X97.4081 Y53.4308
G01 X97.4063 Y53.4358
G01 X97.4041 Y53.4407
G01 X97.4013 Y53.4453
G01 X97.3981 Y53.4496
G01 X97.3945 Y53.4535
G01 X97.3906 Y53.4571
G01 X97.3863 Y53.4603
G01 X97.3817 Y53.4631
G01 X97.3769 Y53.4653
G01 X97.3718 Y53.4671
G01 X97.3666 Y53.4684
G01 X97.3613 Y53.4692
G01 X97.3560 Y53.4695
G00 Z2.0000
G00 X97.3560 Y56.0095
G01 F60.00
G01 Z-0.0500
G01 F120.00
G01 X95.4764 Y56.0095
G01 X95.4711 Y56.0092
G01 X95.4658 Y56.0084
G01 X95.4606 Y56.0071
G01 X95.4555 Y56.0053
G01 X95.4507 Y56.0031
G01 X95.4461 Y56.0003
G01 X95.4418 Y55.9971
G01 X95.4369 Y55.9926
G01 X95.4334 Y55.9885
G01 X95.4304 Y55.9841
G01 X95.4260 Y55.9758
G01 X95.4242 Y55.9708
G01 X95.4229 Y55.9656
G01 X95.4222 Y55.9603
G01 X95.4219 Y55.9550
G01 X95.4219 Y54.0754
G01 X95.4222 Y54.0700
G01 X95.4229 Y54.0648
G01 X95.4242 Y54.0596
G01 X95.4260 Y54.0545
G01 X95.4290 Y54.0485
G01 X95.4318 Y54.0440
G01 X95.4351 Y54.0398
G01 X95.4388 Y54.0359
G01 X95.4429 Y54.0324
G01 X95.4472 Y54.0293
G01 X95.4519 Y54.0267
G01 X95.4568 Y54.0245
G01 X95.4619 Y54.0229
G01 X95.4671 Y54.0217
G01 X95.4764 Y54.0209
G01 X97.3560 Y54.0209
G01 X97.3613 Y54.0212
G01 X97.3666 Y54.0219
G01 X97.3718 Y54.0232
G01 X97.3769 Y54.0250
G01 X97.3817 Y54.0273
G01 X97.3874 Y54.0308
G01 X97.3916 Y54.0341
G01 X97.3955 Y54.0378
G01 X97.3990 Y54.0419
G01 X97.4020 Y54.0462
G01 X97.4047 Y54.0509
G01 X97.4068 Y54.0558
G01 X97.4085 Y54.0609
G01 X97.4097 Y54.0661
G01 X97.4105 Y54.0754
G01 X97.4105 Y55.9563
G01 X97.4094 Y55.9656
G01 X97.4081 Y55.9708
G01 X97.4063 Y55.9758
G01 X97.4041 Y55.9807
G01 X97.4013 Y55.9853
G01 X97.3981 Y55.9896
G01 X97.3945 Y55.9935
G01 X97.3906 Y55.9971
G01 X97.3863 Y56.0003
G01 X97.3817 Y56.0031
G01 X97.3769 Y56.0053
G01 X97.3718 Y56.0071
G01 X97.3666 Y56.0084
G01 X97.3613 Y56.0092
G01 X97.3560 Y56.0095
G00 Z2.0000
G00 X97.3560 Y58.5495
G01 F60.00
G01 Z-0.0500
G01 F120.00
G01 X95.4764 Y58.5495
G01 X95.4711 Y58.5492
G01 X95.4658 Y58.5484
G01 X95.4606 Y58.5471
G01 X95.4555 Y58.5453
G01 X95.4507 Y58.5431
G01 X95.4461 Y58.5403
G01 X95.4418 Y58.5371
G01 X95.4369 Y58.5326
G01 X95.4334 Y58.5285
G01 X95.4304 Y58.5241
G01 X95.4260 Y58.5158
G01 X95.4242 Y58.5108
G01 X95.4229 Y58.5056
G01 X95.4222 Y58.5003
G01 X95.4219 Y58.4950
G01 X95.4219 Y56.6154
G01 X95.4222 Y56.6100
G01 X95.4229 Y56.6048
G01 X95.4242 Y56.5996
G01 X95.4260 Y56.5945
G01 X95.4290 Y56.5885
G01 X95.4318 Y56.5840
G01 X95.4351 Y56.5798
G01 X95.4388 Y56.5759
G01 X95.4429 Y56.5724
G01 X95.4472 Y56.5693
G01 X95.4519 Y56.5667
G01 X95.4568 Y56.5645
G01 X95.4619 Y56.5629
G01 X95.4671 Y56.5617
G01 X95.4764 Y56.5609
G01 X97.3560 Y56.5609
G01 X97.3613 Y56.5612
G01 X97.3666 Y56.5619
G01 X97.3718 Y56.5632
G01 X97.3769 Y56.5650
G01 X97.3817 Y56.5673
G01 X97.3874 Y56.5708
G01 X97.3916 Y56.5741
G01 X97.3955 Y56.5778
G01 X97.3990 Y56.5819
G01 X97.4020 Y56.5862
G01 X97.4047 Y56.5909
G01 X97.4068 Y56.5958
G01 X97.4085 Y56.6009
G01 X97.4097 Y56.6061
G01 X97.4105 Y56.6154
G01 X97.4105 Y58.4963
G01 X97.4094 Y58.5056
G01 X97.4081 Y58.5108
G01 X97.4063 Y58.5158
G01 X97.4041 Y58.5207
G01 X97.4013 Y58.5253
G01 X97.3981 Y58.5296
G01 X97.3945 Y58.5335
G01 X97.3906 Y58.5371
G01 X97.3863 Y58.5403
G01 X97.3817 Y58.5431
G01 X97.3769 Y58.5453
G01 X97.3718 Y58.5471
G01 X97.3666 Y58.5484
G01 X97.3613 Y58.5492
G01 X97.3560 Y58.5495
G00 Z2.0000
G00 X97.3560 Y61.0895
G01 F60.00
G01 Z-0.0500
G01 F120.00
G01 X95.4764 Y61.0895
G01 X95.4711 Y61.0892
G01 X95.4658 Y61.0884
G01 X95.4593 Y61.0867
G01 X95.4543 Y61.0848
G01 X95.4495 Y61.0824
G01 X95.4450 Y61.0795
G01 X95.4408 Y61.0763
G01 X95.4369 Y61.0726
G01 X95.4311 Y61.0653
G01 X95.4283 Y61.0607
G01 X95.4260 Y61.0558
G01 X95.4242 Y61.0508
G01 X95.4229 Y61.0456
G01 X95.4222 Y61.0403
G01 X95.4219 Y61.0350
G01 X95.4219 Y59.1554
G01 X95.4223 Y59.1487
G01 X95.4232 Y59.1434
G01 X95.4247 Y59.1383
G01 X95.4266 Y59.1333
G01 X95.4290 Y59.1285
G01 X95.4318 Y59.1240
G01 X95.4351 Y59.1198
G01 X95.4388 Y59.1159
G01 X95.4429 Y59.1124
G01 X95.4472 Y59.1093
G01 X95.4519 Y59.1067
G01 X95.4568 Y59.1045
G01 X95.4619 Y59.1029
G01 X95.4671 Y59.1017
G01 X95.4764 Y59.1009
G01 X97.3560 Y59.1009
G01 X97.3613 Y59.1012
G01 X97.3666 Y59.1019
G01 X97.3718 Y59.1032
G01 X97.3769 Y59.1050
G01 X97.3817 Y59.1073
G01 X97.3874 Y59.1108
G01 X97.3916 Y59.1141
G01 X97.3955 Y59.1178
G01 X97.3990 Y59.1219
G01 X97.4020 Y59.1262
G01 X97.4047 Y59.1309
G01 X97.4068 Y59.1358
G01 X97.4085 Y59.1409
G01 X97.4097 Y59.1461
G01 X97.4105 Y59.1554
G01 X97.4105 Y61.0363
G01 X97.4094 Y61.0456
G01 X97.4081 Y61.0508
G01 X97.4063 Y61.0558
G01 X97.4041 Y61.0607
G01 X97.4013 Y61.0653
G01 X97.3981 Y61.0696
G01 X97.3945 Y61.0735
G01 X97.3906 Y61.0771
G01 X97.3863 Y61.0803
G01 X97.3817 Y61.0831
G01 X97.3769 Y61.0853
G01 X97.3718 Y61.0871
G01 X97.3666 Y61.0884
G01 X97.3613 Y61.0892
G01 X97.3560 Y61.0895
G00 Z2.0000
G00 X97.3560 Y63.6295
G01 F60.00
G01 Z-0.0500
G01 F120.00
G01 X95.4764 Y63.6295
G01 X95.4711 Y63.6292
G01 X95.4658 Y63.6284
G01 X95.4593 Y63.6267
G01 X95.4543 Y63.6248
G01 X95.4495 Y63.6224
G01 X95.4450 Y63.6195
G01 X95.4408 Y63.6163
G01 X95.4369 Y63.6126
G01 X95.4311 Y63.6053
G01 X95.4283 Y63.6007
G01 X95.4260 Y63.5958
G01 X95.4242 Y63.5908
G01 X95.4229 Y63.5856
G01 X95.4222 Y63.5803
G01 X95.4219 Y63.5750
G01 X95.4219 Y61.6954
G01 X95.4223 Y61.6887
G01 X95.4232 Y61.6834
G01 X95.4247 Y61.6783
G01 X95.4266 Y61.6733
G01 X95.4290 Y61.6685
G01 X95.4318 Y61.6640
G01 X95.4351 Y61.6598
G01 X95.4388 Y61.6559
G01 X95.4429 Y61.6524
G01 X95.4472 Y61.6493
G01 X95.4519 Y61.6467
G01 X95.4568 Y61.6445
G01 X95.4619 Y61.6429
G01 X95.4671 Y61.6417
G01 X95.4764 Y61.6409
G01 X97.3560 Y61.6409
G01 X97.3613 Y61.6412
G01 X97.3666 Y61.6419
G01 X97.3718 Y61.6432
G01 X97.3769 Y61.6450
G01 X97.3817 Y61.6473
G01 X97.3874 Y61.6508
G01 X97.3916 Y61.6541
G01 X97.3955 Y61.6578
G01 X97.3990 Y61.6619
G01 X97.4020 Y61.6662
G01 X97.4047 Y61.6709
G01 X97.4068 Y61.6758
G01 X97.4085 Y61.6809
G01 X97.4097 Y61.6861
G01 X97.4105 Y61.6954
G01 X97.4105 Y63.5763
G01 X97.4094 Y63.5856
G01 X97.4081 Y63.5908
G01 X97.4063 Y63.5958
G01 X97.4041 Y63.6007
G01 X97.4013 Y63.6053
G01 X97.3981 Y63.6096
G01 X97.3945 Y63.6135
G01 X97.3906 Y63.6171
G01 X97.3863 Y63.6203
G01 X97.3817 Y63.6231
G01 X97.3769 Y63.6253
G01 X97.3718 Y63.6271
G01 X97.3666 Y63.6284
G01 X97.3613 Y63.6292
G01 X97.3560 Y63.6295
G00 Z2.0000
G00 X97.3560 Y66.1695
G01 F60.00
G01 Z-0.0500
G01 F120.00
G01 X95.4764 Y66.1695
G01 X95.4711 Y66.1692
G01 X95.4658 Y66.1684
G01 X95.4593 Y66.1667
G01 X95.4543 Y66.1648
G01 X95.4495 Y66.1624
G01 X95.4450 Y66.1595
G01 X95.4408 Y66.1563
G01 X95.4369 Y66.1526
G01 X95.4311 Y66.1453
G01 X95.4283 Y66.1407
G01 X95.4260 Y66.1358
G01 X95.4242 Y66.1308
G01 X95.4229 Y66.1256
G01 X95.4222 Y66.1203
G01 X95.4219 Y66.1150
G01 X95.4219 Y64.2354
G01 X95.4223 Y64.2287
G01 X95.4232 Y64.2234
G01 X95.4247 Y64.2183
G01 X95.4266 Y64.2133
G01 X95.4290 Y64.2085
G01 X95.4318 Y64.2040
G01 X95.4351 Y64.1998
G01 X95.4388 Y64.1959
G01 X95.4429 Y64.1924
G01 X95.4472 Y64.1893
G01 X95.4519 Y64.1867
G01 X95.4568 Y64.1845
G01 X95.4619 Y64.1829
G01 X95.4671 Y64.1817
G01 X95.4764 Y64.1809
G01 X97.3560 Y64.1809
G01 X97.3613 Y64.1812
G01 X97.3666 Y64.1819
G01 X97.3718 Y64.1832
G01 X97.3769 Y64.1850
G01 X97.3817 Y64.1873
G01 X97.3874 Y64.1908
G01 X97.3916 Y64.1941
G01 X97.3955 Y64.1978
G01 X97.3990 Y64.2019
G01 X97.4020 Y64.2062
G01 X97.4047 Y64.2109
G01 X97.4068 Y64.2158
G01 X97.4085 Y64.2209
G01 X97.4097 Y64.2261
G01 X97.4105 Y64.2354
G01 X97.4105 Y66.1163
G01 X97.4094 Y66.1256
G01 X97.4081 Y66.1308
G01 X97.4063 Y66.1358
G01 X97.4041 Y66.1407
G01 X97.4013 Y66.1453
G01 X97.3981 Y66.1496
G01 X97.3945 Y66.1535
G01 X97.3906 Y66.1571
G01 X97.3863 Y66.1603
G01 X97.3817 Y66.1631
G01 X97.3769 Y66.1653
G01 X97.3718 Y66.1671
G01 X97.3666 Y66.1684
G01 X97.3613 Y66.1692
G01 X97.3560 Y66.1695
G00 Z2.0000
G00 X97.3560 Y68.7095
G01 F60.00
G01 Z-0.0500
G01 F120.00
G01 X95.4764 Y68.7095
G01 X95.4711 Y68.7092
G01 X95.4658 Y68.7084
G01 X95.4593 Y68.7067
G01 X95.4543 Y68.7048
G01 X95.4495 Y68.7024
G01 X95.4450 Y68.6995
G01 X95.4408 Y68.6963
G01 X95.4369 Y68.6926
G01 X95.4311 Y68.6853
G01 X95.4283 Y68.6807
G01 X95.4260 Y68.6758
G01 X95.4242 Y68.6708
G01 X95.4229 Y68.6656
G01 X95.4222 Y68.6603
G01 X95.4219 Y68.6550
G01 X95.4219 Y66.7754
G01 X95.4223 Y66.7687
G01 X95.4232 Y66.7634
G01 X95.4247 Y66.7583
G01 X95.4266 Y66.7533
G01 X95.4290 Y66.7485
G01 X95.4318 Y66.7440
G01 X95.4351 Y66.7398
G01 X95.4388 Y66.7359
G01 X95.4429 Y66.7324
G01 X95.4472 Y66.7293
G01 X95.4519 Y66.7267
G01 X95.4568 Y66.7245
G01 X95.4619 Y66.7229
G01 X95.4671 Y66.7217
G01 X95.4764 Y66.7209
G01 X97.3560 Y66.7209
G01 X97.3613 Y66.7212
G01 X97.3666 Y66.7219
G01 X97.3718 Y66.7232
G01 X97.3769 Y66.7250
G01 X97.3817 Y66.7273
G01 X97.3874 Y66.7308
G01 X97.3916 Y66.7341
G01 X97.3955 Y66.7378
G01 X97.3990 Y66.7419
G01 X97.4020 Y66.7462
G01 X97.4047 Y66.7509
G01 X97.4068 Y66.7558
G01 X97.4085 Y66.7609
G01 X97.4097 Y66.7661
G01 X97.4105 Y66.7754
G01 X97.4105 Y68.6563
G01 X97.4094 Y68.6656
G01 X97.4081 Y68.6708
G01 X97.4063 Y68.6758
G01 X97.4041 Y68.6807
G01 X97.4013 Y68.6853
G01 X97.3981 Y68.6896
G01 X97.3945 Y68.6935
G01 X97.3906 Y68.6971
G01 X97.3863 Y68.7003
G01 X97.3817 Y68.7031
G01 X97.3769 Y68.7053
G01 X97.3718 Y68.7071
G01 X97.3666 Y68.7084
G01 X97.3613 Y68.7092
G01 X97.3560 Y68.7095
G00 Z2.0000
G00 X97.3560 Y71.2495
G01 F60.00
G01 Z-0.0500
G01 F120.00
G01 X95.4764 Y71.2495
G01 X95.4711 Y71.2492
G01 X95.4658 Y71.2484
G01 X95.4593 Y71.2467
G01 X95.4543 Y71.2448
G01 X95.4495 Y71.2424
G01 X95.4450 Y71.2395
G01 X95.4408 Y71.2363
G01 X95.4369 Y71.2326
G01 X95.4311 Y71.2253
G01 X95.4283 Y71.2207
G01 X95.4260 Y71.2158
G01 X95.4242 Y71.2108
G01 X95.4229 Y71.2056
G01 X95.4222 Y71.2003
G01 X95.4219 Y71.1950
G01 X95.4219 Y69.3154
G01 X95.4223 Y69.3087
G01 X95.4232 Y69.3034
G01 X95.4247 Y69.2983
G01 X95.4266 Y69.2933
G01 X95.4290 Y69.2885
G01 X95.4318 Y69.2840
G01 X95.4351 Y69.2798
G01 X95.4388 Y69.2759
G01 X95.4429 Y69.2724
G01 X95.4472 Y69.2693
G01 X95.4519 Y69.2667
G01 X95.4568 Y69.2645
G01 X95.4619 Y69.2629
G01 X95.4671 Y69.2617
G01 X95.4764 Y69.2609
G01 X97.3560 Y69.2609
G01 X97.3613 Y69.2612
G01 X97.3666 Y69.2619
G01 X97.3718 Y69.2632
G01 X97.3769 Y69.2650
G01 X97.3817 Y69.2673
G01 X97.3874 Y69.2708
G01 X97.3916 Y69.2741
G01 X97.3955 Y69.2778
G01 X97.3990 Y69.2819
G01 X97.4020 Y69.2862
G01 X97.4047 Y69.2909
G01 X97.4068 Y69.2958
G01 X97.4085 Y69.3009
G01 X97.4097 Y69.3061
G01 X97.4105 Y69.3154
G01 X97.4105 Y71.1963
G01 X97.4094 Y71.2056
G01 X97.4081 Y71.2108
G01 X97.4063 Y71.2158
G01 X97.4041 Y71.2207
G01 X97.4013 Y71.2253
G01 X97.3981 Y71.2296
G01 X97.3945 Y71.2335
G01 X97.3906 Y71.2371
G01 X97.3863 Y71.2403
G01 X97.3817 Y71.2431
G01 X97.3769 Y71.2453
G01 X97.3718 Y71.2471
G01 X97.3666 Y71.2484
G01 X97.3613 Y71.2492
G01 X97.3560 Y71.2495
G00 Z2.0000
G00 X97.3560 Y73.7895
G01 F60.00
G01 Z-0.0500
G01 F120.00
G01 X95.4764 Y73.7895
G01 X95.4711 Y73.7892
G01 X95.4658 Y73.7884
G01 X95.4593 Y73.7867
G01 X95.4543 Y73.7848
G01 X95.4495 Y73.7824
G01 X95.4450 Y73.7795
G01 X95.4408 Y73.7763
G01 X95.4369 Y73.7726
G01 X95.4311 Y73.7653
G01 X95.4283 Y73.7607
G01 X95.4260 Y73.7558
G01 X95.4242 Y73.7508
G01 X95.4229 Y73.7456
G01 X95.4222 Y73.7403
G01 X95.4219 Y73.7350
G01 X95.4219 Y71.8554
G01 X95.4223 Y71.8487
G01 X95.4232 Y71.8434
G01 X95.4247 Y71.8383
G01 X95.4266 Y71.8333
G01 X95.4290 Y71.8285
G01 X95.4318 Y71.8240
G01 X95.4351 Y71.8198
G01 X95.4388 Y71.8159
G01 X95.4429 Y71.8124
G01 X95.4472 Y71.8093
G01 X95.4519 Y71.8067
G01 X95.4568 Y71.8045
G01 X95.4619 Y71.8029
G01 X95.4671 Y71.8017
G01 X95.4764 Y71.8009
G01 X97.3560 Y71.8009
G01 X97.3613 Y71.8012
G01 X97.3666 Y71.8019
G01 X97.3718 Y71.8032
G01 X97.3769 Y71.8050
G01 X97.3817 Y71.8073
G01 X97.3874 Y71.8108
G01 X97.3916 Y71.8141
G01 X97.3955 Y71.8178
G01 X97.3990 Y71.8219
G01 X97.4020 Y71.8262
G01 X97.4047 Y71.8309
G01 X97.4068 Y71.8358
G01 X97.4085 Y71.8409
G01 X97.4097 Y71.8461
G01 X97.4105 Y71.8554
G01 X97.4105 Y73.7363
G01 X97.4094 Y73.7456
G01 X97.4081 Y73.7508
G01 X97.4063 Y73.7558
G01 X97.4041 Y73.7607
G01 X97.4013 Y73.7653
G01 X97.3981 Y73.7696
G01 X97.3945 Y73.7735
G01 X97.3906 Y73.7771
G01 X97.3863 Y73.7803
G01 X97.3817 Y73.7831
G01 X97.3769 Y73.7853
G01 X97.3718 Y73.7871
G01 X97.3666 Y73.7884
G01 X97.3613 Y73.7892
G01 X97.3560 Y73.7895
G00 Z2.0000
G00 X97.3560 Y76.3295
G01 F60.00
G01 Z-0.0500
G01 F120.00
G01 X95.4764 Y76.3295
G01 X95.4711 Y76.3292
G01 X95.4658 Y76.3284
G01 X95.4593 Y76.3267
G01 X95.4543 Y76.3248
G01 X95.4495 Y76.3224
G01 X95.4450 Y76.3195
G01 X95.4408 Y76.3163
G01 X95.4369 Y76.3126
G01 X95.4311 Y76.3053
G01 X95.4283 Y76.3007
G01 X95.4260 Y76.2958
G01 X95.4242 Y76.2908
G01 X95.4229 Y76.2856
G01 X95.4222 Y76.2803
G01 X95.4219 Y76.2750
G01 X95.4219 Y74.3954
G01 X95.4223 Y74.3887
G01 X95.4232 Y74.3834
G01 X95.4247 Y74.3783
G01 X95.4266 Y74.3733
G01 X95.4290 Y74.3685
G01 X95.4318 Y74.3640
G01 X95.4351 Y74.3598
G01 X95.4388 Y74.3559
G01 X95.4429 Y74.3524
G01 X95.4472 Y74.3493
G01 X95.4519 Y74.3467
G01 X95.4568 Y74.3445
G01 X95.4619 Y74.3429
G01 X95.4671 Y74.3417
G01 X95.4764 Y74.3409
G01 X97.3560 Y74.3409
G01 X97.3613 Y74.3412
G01 X97.3666 Y74.3419
G01 X97.3718 Y74.3432
G01 X97.3769 Y74.3450
G01 X97.3817 Y74.3473
G01 X97.3874 Y74.3508
G01 X97.3916 Y74.3541
G01 X97.3955 Y74.3578
G01 X97.3990 Y74.3619
G01 X97.4020 Y74.3662
G01 X97.4047 Y74.3709
G01 X97.4068 Y74.3758
G01 X97.4085 Y74.3809
G01 X97.4097 Y74.3861
G01 X97.4105 Y74.3954
G01 X97.4105 Y76.2763
G01 X97.4094 Y76.2856
G01 X97.4081 Y76.2908
G01 X97.4063 Y76.2958
G01 X97.4041 Y76.3007
G01 X97.4013 Y76.3053
G01 X97.3981 Y76.3096
G01 X97.3945 Y76.3135
G01 X97.3906 Y76.3171
G01 X97.3863 Y76.3203
G01 X97.3817 Y76.3231
G01 X97.3769 Y76.3253
G01 X97.3718 Y76.3271
G01 X97.3666 Y76.3284
G01 X97.3613 Y76.3292
G01 X97.3560 Y76.3295
G00 Z2.0000
G00 X94.8160 Y76.3295
G01 F60.00
G01 Z-0.0500
G01 F120.00
G01 X92.9364 Y76.3295
G01 X92.9311 Y76.3292
G01 X92.9258 Y76.3284
G01 X92.9168 Y76.3258
G01 X92.9095 Y76.3224
G01 X92.9018 Y76.3171
G01 X92.8960 Y76.3116
G01 X92.8904 Y76.3041
G01 X92.8866 Y76.2971
G01 X92.8839 Y76.2895
G01 X92.8822 Y76.2803
G01 X92.8819 Y76.2750
G01 X92.8819 Y75.9306
G01 X92.0269 Y76.7857
G01 X92.0269 Y84.7332
G01 X92.0248 Y84.7759
G01 X92.0185 Y84.8182
G01 X92.0081 Y84.8597
G01 X91.9937 Y84.8999
G01 X91.9754 Y84.9386
G01 X91.9534 Y84.9752
G01 X91.9280 Y85.0096
G01 X91.8993 Y85.0413
G01 X84.8328 Y92.1077
G01 X84.8328 Y92.5711
G01 X84.8521 Y92.5828
G01 X84.9143 Y92.6289
G01 X84.9738 Y92.6827
G01 X85.0286 Y92.7430
G01 X85.0771 Y92.8085
G01 X85.1188 Y92.8785
G01 X85.1518 Y92.9486
G01 X85.1780 Y93.0215
G01 X85.1983 Y93.1018
G01 X85.2101 Y93.1811
G01 X85.2140 Y93.2612
