(G-CODE GENERATED BY FLATCAM v8.993 - www.flatcam.org - Version Date: 2020/06/05)
(Name: TopLayer_0.1)
(Type: G-code from Geometry)
(Units: MM)
(Created on Monday, 22 March 2021 at 10:30)
(This preprocessor is the default preprocessor used by FlatCAM.)
(It is made to work with MACH3 compatible motion controllers.)
(TOOL DIAMETER: 0.1 mm)
(Feedrate_XY: 120.0 mm/min)
(Feedrate_Z: 60.0 mm/min)
(Feedrate rapids 1500.0 mm/min)
(Z_Cut: -0.05 mm)
(Z_Move: 2.0 mm)
(Z Start: None mm)
(Z End: 15.0 mm)
(Steps per circle: 64)
(Preprocessor Geometry: default)
(X range:   11.7832 ...  187.6551  mm)
(Y range:   11.7832 ...  106.1217  mm)
(Spindle Speed: None RPM)
G21
G90
G94
G01 F120.00
G00 Z2.0000
M03
G00X17.877Y17.928Z2.009
G01F60.00X17.877Y17.928Z2.009
G01X17.877Y17.928Z-0.041
G01F120.00X17.877Y17.928Z-0.041
G01X17.882Y17.826Z-0.041
G01X17.897Y17.722Z-0.041
G01X17.923Y17.620Z-0.041
G01X17.958Y17.521Z-0.041
G01X18.003Y17.427Z-0.041
G01X18.057Y17.337Z-0.041
G01X18.120Y17.252Z-0.041
G01X18.190Y17.174Z-0.041
G01X18.268Y17.104Z-0.041
G01X18.353Y17.041Z-0.041
G01X18.443Y16.987Z-0.041
G01X18.538Y16.942Z-0.041
G01X18.636Y16.907Z-0.041
G01X18.738Y16.881Z-0.041
G01X18.842Y16.866Z-0.041
G01X18.947Y16.861Z-0.041
G01X19.052Y16.866Z-0.041
G01X19.156Y16.881Z-0.041
G01X19.258Y16.907Z-0.041
G01X19.357Y16.942Z-0.041
G01X19.452Y16.987Z-0.041
G01X19.542Y17.041Z-0.041
G01X19.626Y17.104Z-0.041
G01X19.704Y17.174Z-0.041
G01X19.775Y17.252Z-0.041
G01X19.837Y17.337Z-0.041
G01X19.891Y17.427Z-0.041
G01X19.936Y17.521Z-0.041
G01X19.972Y17.620Z-0.041
G01X19.997Y17.722Z-0.041
G01X20.013Y17.826Z-0.041
G01X20.018Y17.931Z-0.041
G01X20.013Y18.036Z-0.040
G01X19.997Y18.140Z-0.040
G01X19.972Y18.242Z-0.040
G01X19.936Y18.341Z-0.040
G01X19.891Y18.436Z-0.040
G01X19.837Y18.526Z-0.040
G01X19.775Y18.610Z-0.040
G01X19.704Y18.688Z-0.040
G01X19.626Y18.759Z-0.040
G01X19.542Y18.821Z-0.040
G01X19.452Y18.875Z-0.040
G01X19.357Y18.920Z-0.040
G01X19.258Y18.956Z-0.040
G01X19.156Y18.981Z-0.040
G01X19.052Y18.997Z-0.040
G01X18.947Y19.002Z-0.040
G01X18.842Y18.997Z-0.040
G01X18.738Y18.981Z-0.040
G01X18.636Y18.956Z-0.040
G01X18.538Y18.920Z-0.040
G01X18.443Y18.875Z-0.040
G01X18.353Y18.821Z-0.041
G01X18.268Y18.759Z-0.041
G01X18.190Y18.688Z-0.041
G01X18.120Y18.610Z-0.041
G01X18.057Y18.526Z-0.041
G01X18.003Y18.436Z-0.041
G01X17.958Y18.341Z-0.041
G01X17.923Y18.242Z-0.041
G01X17.897Y18.140Z-0.041
G01X17.882Y18.036Z-0.041
G01X17.877Y17.934Z-0.041
G01X17.877Y17.928Z-0.041
G00X17.877Y17.928Z2.009
G00X20.521Y22.894Z2.011
X21.052Y23.890Z2.012
G01F60.00X21.052Y23.890Z2.012
G01X21.052Y23.890Z-0.038
G01F120.00X21.052Y23.890Z-0.038
G01X21.004Y23.854Z-0.038
G01X20.950Y23.806Z-0.038
G01X20.900Y23.750Z-0.038
G01X20.854Y23.688Z-0.038
G01X20.815Y23.624Z-0.038
G01X20.783Y23.557Z-0.038
G01X20.757Y23.484Z-0.038
G01X20.740Y23.414Z-0.038
G01X20.729Y23.343Z-0.038
G01X20.725Y23.265Z-0.038
G01X20.729Y23.191Z-0.038
G01X20.740Y23.114Z-0.039
G01X20.758Y23.044Z-0.039
G01X20.782Y22.976Z-0.039
G01X20.815Y22.906Z-0.039
G01X20.854Y22.842Z-0.039
G01X20.900Y22.780Z-0.039
G01X20.950Y22.725Z-0.039
G01X21.004Y22.676Z-0.039
G01X21.052Y22.641Z-0.039
G01X21.052Y19.002Z-0.040
G01X20.469Y19.002Z-0.040
G01X20.461Y19.001Z-0.040
G01X20.452Y18.998Z-0.040
G01X20.444Y18.995Z-0.040
G01X20.438Y18.990Z-0.040
G01X20.432Y18.985Z-0.040
G01X20.427Y18.979Z-0.040
G01X20.422Y18.971Z-0.040
G01X20.419Y18.963Z-0.040
G01X20.417Y18.955Z-0.040
G01X20.417Y18.947Z-0.040
G01X20.417Y16.915Z-0.041
G01X20.417Y16.910Z-0.041
G01X20.418Y16.905Z-0.041
G01X20.420Y16.896Z-0.041
G01X20.424Y16.887Z-0.041
G01X20.430Y16.880Z-0.041
G01X20.436Y16.874Z-0.041
G01X20.443Y16.868Z-0.041
G01X20.452Y16.864Z-0.041
G01X20.461Y16.862Z-0.041
G01X20.470Y16.861Z-0.041
G01X22.503Y16.861Z-0.040
G01X22.511Y16.861Z-0.040
G01X22.520Y16.863Z-0.040
G01X22.529Y16.867Z-0.040
G01X22.537Y16.872Z-0.040
G01X22.544Y16.879Z-0.040
G01X22.549Y16.886Z-0.040
G01X22.553Y16.894Z-0.040
G01X22.555Y16.899Z-0.040
G01X22.557Y16.905Z-0.040
G01X22.558Y16.914Z-0.040
G01X22.558Y18.947Z-0.040
G01X22.557Y18.954Z-0.040
G01X22.556Y18.962Z-0.040
G01X22.553Y18.969Z-0.040
G01X22.549Y18.976Z-0.040
G01X22.545Y18.983Z-0.040
G01X22.538Y18.989Z-0.040
G01X22.531Y18.994Z-0.040
G01X22.524Y18.997Z-0.040
G01X22.515Y19.000Z-0.040
G01X22.507Y19.001Z-0.040
G01X21.923Y19.002Z-0.040
G01X21.923Y22.641Z-0.039
G01X21.971Y22.676Z-0.038
G01X22.024Y22.725Z-0.038
G01X22.074Y22.780Z-0.038
G01X22.121Y22.842Z-0.038
G01X22.159Y22.906Z-0.038
G01X22.192Y22.976Z-0.038
G01X22.216Y23.044Z-0.038
G01X22.234Y23.114Z-0.038
G01X22.245Y23.191Z-0.038
G01X22.249Y23.265Z-0.038
G01X22.245Y23.340Z-0.038
G01X22.234Y23.416Z-0.038
G01X22.216Y23.486Z-0.038
G01X22.192Y23.554Z-0.038
G01X22.159Y23.624Z-0.038
G01X22.121Y23.688Z-0.038
G01X22.074Y23.750Z-0.038
G01X22.024Y23.806Z-0.038
G01X21.971Y23.854Z-0.038
G01X21.923Y23.890Z-0.038
G01X21.923Y25.625Z-0.037
G01X22.430Y26.132Z-0.037
G01X31.686Y26.132Z-0.036
X35.457Y26.132Z-0.036
G01X35.500Y26.134Z-0.036
G01X35.540Y26.139Z-0.036
G01X35.545Y26.140Z-0.036
G01X35.586Y26.151Z-0.036
G01X35.624Y26.165Z-0.036
G01X35.663Y26.183Z-0.036
G01X35.699Y26.205Z-0.036
G01X35.734Y26.230Z-0.036
G01X35.765Y26.259Z-0.036
G01X36.781Y27.275Z-0.035
G01X36.808Y27.305Z-0.035
G01X36.812Y27.309Z-0.035
G01X36.837Y27.343Z-0.035
G01X36.857Y27.378Z-0.035
G01X36.876Y27.417Z-0.035
G01X36.891Y27.459Z-0.035
G01X36.901Y27.498Z-0.035
G01X36.907Y27.539Z-0.035
G01X36.909Y27.583Z-0.035
G01X36.909Y32.548Z-0.034
X36.909Y36.293Z-0.032
G01X38.940Y38.324Z-0.032
G01X48.196Y38.324Z-0.031
X57.452Y38.324Z-0.029
X66.709Y38.324Z-0.028
X75.965Y38.324Z-0.027
X85.221Y38.324Z-0.026
X87.273Y38.324Z-0.025
G01X87.316Y38.326Z-0.025
G01X87.358Y38.332Z-0.025
G01X87.400Y38.342Z-0.025
G01X87.440Y38.357Z-0.025
G01X87.479Y38.375Z-0.025
G01X87.515Y38.397Z-0.025
G01X87.550Y38.422Z-0.025
G01X87.580Y38.450Z-0.025
G01X88.345Y39.215Z-0.025
G01X88.372Y39.245Z-0.025
G01X88.397Y39.279Z-0.025
G01X88.419Y39.316Z-0.025
G01X88.437Y39.352Z-0.025
G01X88.451Y39.392Z-0.025
G01X88.453Y39.397Z-0.025
G01X88.463Y39.436Z-0.025
G01X88.469Y39.477Z-0.025
G01X88.471Y39.521Z-0.025
G01X88.471Y44.486Z-0.024
X88.471Y47.215Z-0.023
G01X92.882Y51.626Z-0.021
G01X92.882Y51.534Z-0.021
G01X92.883Y51.525Z-0.021
G01X92.885Y51.517Z-0.021
G01X92.888Y51.510Z-0.021
G01X92.893Y51.503Z-0.021
G01X92.898Y51.497Z-0.021
G01X92.904Y51.492Z-0.021
G01X92.911Y51.487Z-0.021
G01X92.918Y51.484Z-0.021
G01X92.924Y51.482Z-0.021
G01X92.932Y51.481Z-0.021
G01X94.816Y51.481Z-0.021
G01X94.821Y51.481Z-0.021
G01X94.827Y51.482Z-0.021
G01X94.832Y51.483Z-0.021
G01X94.837Y51.485Z-0.021
G01X94.845Y51.489Z-0.021
G01X94.850Y51.492Z-0.021
G01X94.854Y51.496Z-0.021
G01X94.857Y51.500Z-0.021
G01X94.861Y51.504Z-0.021
G01X94.863Y51.508Z-0.021
G01X94.866Y51.513Z-0.021
G01X94.868Y51.518Z-0.021
G01X94.869Y51.525Z-0.021
G01X94.870Y51.530Z-0.021
G01X94.870Y51.535Z-0.021
G01X94.870Y53.415Z-0.021
G01X94.870Y53.420Z-0.021
G01X94.869Y53.426Z-0.021
G01X94.868Y53.431Z-0.021
G01X94.866Y53.436Z-0.021
G01X94.863Y53.443Z-0.021
G01X94.858Y53.450Z-0.021
G01X94.853Y53.455Z-0.021
G01X94.846Y53.460Z-0.021
G01X94.839Y53.464Z-0.021
G01X94.832Y53.467Z-0.021
G01X94.824Y53.469Z-0.021
G01X94.816Y53.470Z-0.021
G01X92.936Y53.470Z-0.021
G01X92.927Y53.469Z-0.021
G01X92.918Y53.466Z-0.021
G01X92.910Y53.462Z-0.021
G01X92.902Y53.457Z-0.021
G01X92.898Y53.453Z-0.021
G01X92.893Y53.449Z-0.021
G01X92.890Y53.443Z-0.021
G01X92.887Y53.438Z-0.021
G01X92.885Y53.433Z-0.021
G01X92.883Y53.427Z-0.021
G01X92.882Y53.422Z-0.021
G01X92.882Y53.416Z-0.021
G01X92.882Y52.843Z-0.021
G01X92.872Y52.837Z-0.021
G01X92.840Y52.813Z-0.021
G01X92.807Y52.783Z-0.021
G01X87.842Y47.818Z-0.023
X87.727Y47.703Z-0.023
G01X87.697Y47.669Z-0.023
G01X87.673Y47.637Z-0.023
G01X87.651Y47.601Z-0.023
G01X87.632Y47.559Z-0.023
G01X87.618Y47.522Z-0.023
G01X87.608Y47.483Z-0.023
G01X87.602Y47.438Z-0.023
G01X87.600Y47.395Z-0.023
G01X87.600Y42.430Z-0.024
X87.600Y39.702Z-0.025
G01X87.093Y39.195Z-0.025
G01X77.836Y39.195Z-0.026
X68.580Y39.195Z-0.028
X59.324Y39.195Z-0.029
X50.067Y39.195Z-0.030
X40.811Y39.195Z-0.031
X38.759Y39.195Z-0.031
G01X38.716Y39.193Z-0.031
G01X38.673Y39.186Z-0.031
G01X38.633Y39.176Z-0.031
G01X38.595Y39.163Z-0.031
G01X38.554Y39.143Z-0.031
G01X38.517Y39.121Z-0.031
G01X38.485Y39.098Z-0.031
G01X38.451Y39.067Z-0.031
G01X36.164Y36.780Z-0.032
G01X36.135Y36.748Z-0.032
G01X36.111Y36.715Z-0.032
G01X36.090Y36.681Z-0.032
G01X36.071Y36.640Z-0.032
G01X36.056Y36.598Z-0.032
G01X36.046Y36.558Z-0.032
G01X36.040Y36.519Z-0.032
G01X36.037Y36.473Z-0.032
G01X36.037Y31.508Z-0.034
X36.037Y27.764Z-0.035
G01X35.277Y27.003Z-0.036
G01X26.020Y27.003Z-0.037
X22.249Y27.003Z-0.037
G01X22.206Y27.001Z-0.037
G01X22.163Y26.994Z-0.037
G01X22.123Y26.984Z-0.037
G01X22.085Y26.971Z-0.037
G01X22.044Y26.951Z-0.037
G01X22.005Y26.928Z-0.037
G01X21.973Y26.904Z-0.037
G01X21.942Y26.876Z-0.037
G01X21.178Y26.112Z-0.037
G01X21.150Y26.082Z-0.037
G01X21.125Y26.047Z-0.037
G01X21.103Y26.011Z-0.037
G01X21.084Y25.969Z-0.037
G01X21.070Y25.932Z-0.037
G01X21.060Y25.890Z-0.037
G01X21.054Y25.848Z-0.038
G01X21.052Y25.806Z-0.038
G01X21.052Y23.890Z-0.038
G00X21.052Y23.890Z2.012
G00X20.856Y28.855Z2.014
X20.660Y33.820Z2.015
X20.646Y34.185Z2.015
G01F60.00X20.646Y34.185Z2.015
G01X20.646Y34.185Z-0.035
G01F120.00X20.646Y34.185Z-0.035
G01X20.650Y34.105Z-0.035
G01X20.662Y34.023Z-0.035
G01X20.682Y33.943Z-0.035
G01X20.710Y33.865Z-0.035
G01X20.746Y33.791Z-0.035
G01X20.788Y33.720Z-0.035
G01X20.837Y33.653Z-0.035
G01X20.893Y33.592Z-0.035
G01X20.954Y33.537Z-0.035
G01X21.020Y33.487Z-0.035
G01X21.091Y33.445Z-0.035
G01X21.166Y33.410Z-0.035
G01X21.244Y33.382Z-0.035
G01X21.324Y33.362Z-0.035
G01X21.405Y33.350Z-0.035
G01X21.488Y33.346Z-0.035
G01X21.570Y33.350Z-0.035
G01X21.652Y33.362Z-0.035
G01X21.732Y33.382Z-0.035
G01X21.810Y33.410Z-0.035
G01X21.885Y33.445Z-0.035
G01X21.956Y33.487Z-0.035
G01X22.022Y33.537Z-0.035
G01X22.083Y33.592Z-0.035
G01X22.139Y33.653Z-0.035
G01X22.188Y33.720Z-0.035
G01X22.230Y33.791Z-0.035
G01X22.266Y33.865Z-0.034
G01X22.294Y33.943Z-0.034
G01X22.314Y34.023Z-0.034
G01X22.326Y34.105Z-0.034
G01X22.330Y34.187Z-0.034
G01X22.326Y34.270Z-0.034
G01X22.314Y34.352Z-0.034
G01X22.294Y34.432Z-0.034
G01X22.266Y34.510Z-0.034
G01X22.230Y34.584Z-0.034
G01X22.188Y34.655Z-0.034
G01X22.139Y34.722Z-0.034
G01X22.083Y34.783Z-0.034
G01X22.022Y34.838Z-0.034
G01X21.956Y34.888Z-0.034
G01X21.885Y34.930Z-0.034
G01X21.810Y34.965Z-0.034
G01X21.732Y34.993Z-0.034
G01X21.652Y35.013Z-0.034
G01X21.570Y35.025Z-0.034
G01X21.488Y35.029Z-0.034
G01X21.405Y35.025Z-0.034
G01X21.324Y35.013Z-0.034
G01X21.244Y34.993Z-0.034
G01X21.166Y34.965Z-0.034
G01X21.091Y34.930Z-0.034
G01X21.020Y34.888Z-0.034
G01X20.954Y34.838Z-0.034
G01X20.893Y34.783Z-0.034
G01X20.837Y34.722Z-0.034
G01X20.788Y34.655Z-0.034
G01X20.746Y34.584Z-0.034
G01X20.710Y34.510Z-0.034
G01X20.682Y34.432Z-0.034
G01X20.662Y34.352Z-0.035
G01X20.650Y34.270Z-0.035
G01X20.646Y34.190Z-0.035
G01X20.646Y34.185Z-0.035
G00X20.646Y34.185Z2.015
G00X18.106Y34.185Z2.015
G01F60.00X18.106Y34.185Z2.015
G01X18.106Y34.185Z-0.035
G01F120.00X18.106Y34.185Z-0.035
G01X18.110Y34.105Z-0.035
G01X18.122Y34.023Z-0.035
G01X18.142Y33.943Z-0.035
G01X18.170Y33.865Z-0.035
G01X18.205Y33.791Z-0.035
G01X18.248Y33.720Z-0.035
G01X18.297Y33.653Z-0.035
G01X18.353Y33.592Z-0.035
G01X18.414Y33.537Z-0.035
G01X18.480Y33.487Z-0.035
G01X18.551Y33.445Z-0.035
G01X18.626Y33.410Z-0.035
G01X18.704Y33.382Z-0.035
G01X18.784Y33.362Z-0.035
G01X18.865Y33.350Z-0.035
G01X18.948Y33.346Z-0.035
G01X19.031Y33.350Z-0.035
G01X19.112Y33.362Z-0.035
G01X19.192Y33.382Z-0.035
G01X19.270Y33.410Z-0.035
G01X19.345Y33.445Z-0.035
G01X19.416Y33.487Z-0.035
G01X19.482Y33.537Z-0.035
G01X19.543Y33.592Z-0.035
G01X19.599Y33.653Z-0.035
G01X19.648Y33.720Z-0.035
G01X19.690Y33.791Z-0.035
G01X19.726Y33.865Z-0.035
G01X19.754Y33.943Z-0.035
G01X19.774Y34.023Z-0.035
G01X19.786Y34.105Z-0.035
G01X19.790Y34.187Z-0.035
G01X19.786Y34.270Z-0.035
G01X19.774Y34.352Z-0.035
G01X19.754Y34.432Z-0.035
G01X19.726Y34.510Z-0.035
G01X19.690Y34.584Z-0.035
G01X19.648Y34.655Z-0.035
G01X19.599Y34.722Z-0.035
G01X19.543Y34.783Z-0.035
G01X19.482Y34.838Z-0.035
G01X19.416Y34.888Z-0.035
G01X19.345Y34.930Z-0.035
G01X19.270Y34.965Z-0.035
G01X19.192Y34.993Z-0.035
G01X19.112Y35.013Z-0.035
G01X19.031Y35.025Z-0.035
G01X18.948Y35.029Z-0.035
G01X18.865Y35.025Z-0.035
G01X18.784Y35.013Z-0.035
G01X18.704Y34.993Z-0.035
G01X18.626Y34.965Z-0.035
G01X18.551Y34.930Z-0.035
G01X18.480Y34.888Z-0.035
G01X18.414Y34.838Z-0.035
G01X18.353Y34.783Z-0.035
G01X18.297Y34.722Z-0.035
G01X18.248Y34.655Z-0.035
G01X18.205Y34.584Z-0.035
G01X18.170Y34.510Z-0.035
G01X18.142Y34.432Z-0.035
G01X18.122Y34.352Z-0.035
G01X18.110Y34.270Z-0.035
G01X18.106Y34.190Z-0.035
G01X18.106Y34.185Z-0.035
G00X18.106Y34.185Z2.015
G00X15.566Y34.185Z2.015
G01F60.00X15.566Y34.185Z2.015
G01X15.566Y34.185Z-0.035
G01F120.00X15.566Y34.185Z-0.035
G01X15.570Y34.105Z-0.035
G01X15.582Y34.023Z-0.035
G01X15.602Y33.943Z-0.035
G01X15.630Y33.865Z-0.035
G01X15.665Y33.791Z-0.035
G01X15.708Y33.720Z-0.035
G01X15.757Y33.653Z-0.035
G01X15.813Y33.592Z-0.035
G01X15.874Y33.537Z-0.035
G01X15.940Y33.487Z-0.035
G01X16.011Y33.445Z-0.036
G01X16.086Y33.410Z-0.036
G01X16.164Y33.382Z-0.036
G01X16.244Y33.362Z-0.036
G01X16.325Y33.350Z-0.035
G01X16.408Y33.346Z-0.035
G01X16.490Y33.350Z-0.035
G01X16.572Y33.362Z-0.035
G01X16.652Y33.382Z-0.035
G01X16.730Y33.410Z-0.035
G01X16.805Y33.445Z-0.035
G01X16.876Y33.487Z-0.035
G01X16.942Y33.537Z-0.035
G01X17.003Y33.592Z-0.035
G01X17.059Y33.653Z-0.035
G01X17.108Y33.720Z-0.035
G01X17.150Y33.791Z-0.035
G01X17.186Y33.865Z-0.035
G01X17.214Y33.943Z-0.035
G01X17.234Y34.023Z-0.035
G01X17.246Y34.105Z-0.035
G01X17.250Y34.187Z-0.035
G01X17.246Y34.270Z-0.035
G01X17.234Y34.352Z-0.035
G01X17.214Y34.432Z-0.035
G01X17.186Y34.510Z-0.035
G01X17.150Y34.584Z-0.035
G01X17.108Y34.655Z-0.035
G01X17.059Y34.722Z-0.035
G01X17.003Y34.783Z-0.035
G01X16.942Y34.838Z-0.035
G01X16.876Y34.888Z-0.035
G01X16.805Y34.930Z-0.035
G01X16.730Y34.965Z-0.035
G01X16.652Y34.993Z-0.035
G01X16.572Y35.013Z-0.035
G01X16.490Y35.025Z-0.035
G01X16.408Y35.029Z-0.035
G01X16.325Y35.025Z-0.035
G01X16.244Y35.013Z-0.035
G01X16.164Y34.993Z-0.035
G01X16.086Y34.965Z-0.035
G01X16.011Y34.930Z-0.035
G01X15.940Y34.888Z-0.035
G01X15.874Y34.838Z-0.035
G01X15.813Y34.783Z-0.035
G01X15.757Y34.722Z-0.035
G01X15.708Y34.655Z-0.035
G01X15.665Y34.584Z-0.035
G01X15.630Y34.510Z-0.035
G01X15.602Y34.432Z-0.035
G01X15.582Y34.352Z-0.035
G01X15.570Y34.270Z-0.035
G01X15.566Y34.190Z-0.035
G01X15.566Y34.185Z-0.035
G00X15.566Y34.185Z2.015
G00X23.186Y34.185Z2.016
G01F60.00X23.186Y34.185Z2.016
G01X23.186Y34.185Z-0.034
G01F120.00X23.186Y34.185Z-0.034
G01X23.190Y34.105Z-0.034
G01X23.202Y34.023Z-0.034
G01X23.222Y33.943Z-0.034
G01X23.250Y33.865Z-0.034
G01X23.285Y33.791Z-0.034
G01X23.328Y33.720Z-0.034
G01X23.377Y33.653Z-0.034
G01X23.433Y33.592Z-0.034
G01X23.494Y33.537Z-0.034
G01X23.560Y33.487Z-0.034
G01X23.631Y33.445Z-0.034
G01X23.706Y33.410Z-0.034
G01X23.784Y33.382Z-0.034
G01X23.864Y33.362Z-0.034
G01X23.945Y33.350Z-0.034
G01X24.028Y33.346Z-0.034
G01X24.111Y33.350Z-0.034
G01X24.192Y33.362Z-0.034
G01X24.272Y33.382Z-0.034
G01X24.350Y33.410Z-0.034
G01X24.425Y33.445Z-0.034
G01X24.496Y33.487Z-0.034
G01X24.562Y33.537Z-0.034
G01X24.623Y33.592Z-0.034
G01X24.679Y33.653Z-0.034
G01X24.728Y33.720Z-0.034
G01X24.770Y33.791Z-0.034
G01X24.806Y33.865Z-0.034
G01X24.834Y33.943Z-0.034
G01X24.854Y34.023Z-0.034
G01X24.866Y34.105Z-0.034
G01X24.870Y34.187Z-0.034
G01X24.866Y34.270Z-0.034
G01X24.854Y34.352Z-0.034
G01X24.834Y34.432Z-0.034
G01X24.806Y34.510Z-0.034
G01X24.770Y34.584Z-0.034
G01X24.728Y34.655Z-0.034
G01X24.679Y34.722Z-0.034
G01X24.623Y34.783Z-0.034
G01X24.562Y34.838Z-0.034
G01X24.496Y34.888Z-0.034
G01X24.425Y34.930Z-0.034
G01X24.350Y34.965Z-0.034
G01X24.272Y34.993Z-0.034
G01X24.192Y35.013Z-0.034
G01X24.111Y35.025Z-0.034
G01X24.028Y35.029Z-0.034
G01X23.945Y35.025Z-0.034
G01X23.864Y35.013Z-0.034
G01X23.784Y34.993Z-0.034
G01X23.706Y34.965Z-0.034
G01X23.631Y34.930Z-0.034
G01X23.560Y34.888Z-0.034
G01X23.494Y34.838Z-0.034
G01X23.433Y34.783Z-0.034
G01X23.377Y34.722Z-0.034
G01X23.328Y34.655Z-0.034
G01X23.285Y34.584Z-0.034
G01X23.250Y34.510Z-0.034
G01X23.222Y34.432Z-0.034
G01X23.202Y34.352Z-0.034
G01X23.190Y34.270Z-0.034
G01X23.186Y34.190Z-0.034
G01X23.186Y34.185Z-0.034
G00X23.186Y34.185Z2.016
G00X25.726Y34.185Z2.016
G01F60.00X25.726Y34.185Z2.016
G01X25.726Y34.185Z-0.034
G01F120.00X25.726Y34.185Z-0.034
G01X25.730Y34.105Z-0.034
G01X25.742Y34.023Z-0.034
G01X25.762Y33.943Z-0.034
G01X25.790Y33.865Z-0.034
G01X25.826Y33.791Z-0.034
G01X25.868Y33.720Z-0.034
G01X25.917Y33.653Z-0.034
G01X25.973Y33.592Z-0.034
G01X26.034Y33.537Z-0.034
G01X26.100Y33.487Z-0.034
G01X26.171Y33.445Z-0.034
G01X26.246Y33.410Z-0.034
G01X26.324Y33.382Z-0.034
G01X26.404Y33.362Z-0.034
G01X26.485Y33.350Z-0.034
G01X26.568Y33.346Z-0.034
G01X26.650Y33.350Z-0.034
G01X26.732Y33.362Z-0.034
G01X26.812Y33.382Z-0.034
G01X26.890Y33.410Z-0.034
G01X26.965Y33.445Z-0.034
G01X27.036Y33.487Z-0.034
G01X27.102Y33.537Z-0.034
G01X27.163Y33.592Z-0.034
G01X27.219Y33.653Z-0.034
G01X27.268Y33.720Z-0.034
G01X27.310Y33.791Z-0.034
G01X27.346Y33.865Z-0.034
G01X27.374Y33.943Z-0.034
G01X27.394Y34.023Z-0.034
G01X27.406Y34.105Z-0.034
G01X27.410Y34.187Z-0.034
G01X27.406Y34.270Z-0.034
G01X27.394Y34.352Z-0.034
G01X27.374Y34.432Z-0.034
G01X27.346Y34.510Z-0.034
G01X27.310Y34.584Z-0.034
G01X27.268Y34.655Z-0.034
G01X27.219Y34.722Z-0.034
G01X27.163Y34.783Z-0.034
G01X27.102Y34.838Z-0.034
G01X27.036Y34.888Z-0.034
G01X26.965Y34.930Z-0.034
G01X26.890Y34.965Z-0.034
G01X26.812Y34.993Z-0.034
G01X26.732Y35.013Z-0.034
G01X26.650Y35.025Z-0.034
G01X26.568Y35.029Z-0.034
G01X26.485Y35.025Z-0.034
G01X26.404Y35.013Z-0.034
G01X26.324Y34.993Z-0.034
G01X26.246Y34.965Z-0.034
G01X26.171Y34.930Z-0.034
G01X26.100Y34.888Z-0.034
G01X26.034Y34.838Z-0.034
G01X25.973Y34.783Z-0.034
G01X25.917Y34.722Z-0.034
G01X25.868Y34.655Z-0.034
G01X25.826Y34.584Z-0.034
G01X25.790Y34.510Z-0.034
G01X25.762Y34.432Z-0.034
G01X25.742Y34.352Z-0.034
G01X25.730Y34.270Z-0.034
G01X25.726Y34.190Z-0.034
G01X25.726Y34.185Z-0.034
G00X25.726Y34.185Z2.016
G00X28.266Y34.185Z2.016
G01F60.00X28.266Y34.185Z2.016
G01X28.266Y34.185Z-0.034
G01F120.00X28.266Y34.185Z-0.034
G01X28.270Y34.105Z-0.034
G01X28.282Y34.023Z-0.034
G01X28.302Y33.943Z-0.034
G01X28.330Y33.865Z-0.034
G01X28.365Y33.791Z-0.034
G01X28.408Y33.720Z-0.034
G01X28.457Y33.653Z-0.034
G01X28.513Y33.592Z-0.034
G01X28.574Y33.537Z-0.034
G01X28.640Y33.487Z-0.034
G01X28.711Y33.445Z-0.034
G01X28.786Y33.410Z-0.034
G01X28.864Y33.382Z-0.034
G01X28.944Y33.362Z-0.034
G01X29.025Y33.350Z-0.034
G01X29.108Y33.346Z-0.034
G01X29.191Y33.350Z-0.034
G01X29.272Y33.362Z-0.034
G01X29.352Y33.382Z-0.034
G01X29.430Y33.410Z-0.034
G01X29.505Y33.445Z-0.034
G01X29.576Y33.487Z-0.034
G01X29.642Y33.537Z-0.034
G01X29.703Y33.592Z-0.034
G01X29.759Y33.653Z-0.034
G01X29.808Y33.720Z-0.034
G01X29.850Y33.791Z-0.034
G01X29.886Y33.865Z-0.034
G01X29.914Y33.943Z-0.034
G01X29.934Y34.023Z-0.034
G01X29.946Y34.105Z-0.034
G01X29.950Y34.187Z-0.034
G01X29.946Y34.270Z-0.034
G01X29.934Y34.352Z-0.034
G01X29.914Y34.432Z-0.034
G01X29.886Y34.510Z-0.034
G01X29.850Y34.584Z-0.034
G01X29.808Y34.655Z-0.034
G01X29.759Y34.722Z-0.033
G01X29.703Y34.783Z-0.033
G01X29.642Y34.838Z-0.033
G01X29.576Y34.888Z-0.033
G01X29.505Y34.930Z-0.033
G01X29.430Y34.965Z-0.033
G01X29.352Y34.993Z-0.033
G01X29.272Y35.013Z-0.033
G01X29.191Y35.025Z-0.033
G01X29.108Y35.029Z-0.033
G01X29.025Y35.025Z-0.033
G01X28.944Y35.013Z-0.033
G01X28.864Y34.993Z-0.033
G01X28.786Y34.965Z-0.033
G01X28.711Y34.930Z-0.034
G01X28.640Y34.888Z-0.034
G01X28.574Y34.838Z-0.034
G01X28.513Y34.783Z-0.034
G01X28.457Y34.722Z-0.034
G01X28.408Y34.655Z-0.034
G01X28.365Y34.584Z-0.034
G01X28.330Y34.510Z-0.034
G01X28.302Y34.432Z-0.034
G01X28.282Y34.352Z-0.034
G01X28.270Y34.270Z-0.034
G01X28.266Y34.190Z-0.034
G01X28.266Y34.185Z-0.034
G00X28.266Y34.185Z2.016
G00X30.806Y34.185Z2.016
G01F60.00X30.806Y34.185Z2.016
G01X30.806Y34.185Z-0.034
G01F120.00X30.806Y34.185Z-0.034
G01X30.810Y34.105Z-0.034
G01X30.822Y34.023Z-0.034
G01X30.842Y33.943Z-0.034
G01X30.870Y33.865Z-0.034
G01X30.906Y33.791Z-0.034
G01X30.948Y33.720Z-0.034
G01X30.997Y33.653Z-0.034
G01X31.053Y33.592Z-0.034
G01X31.114Y33.537Z-0.034
G01X31.180Y33.487Z-0.034
G01X31.251Y33.445Z-0.034
G01X31.326Y33.410Z-0.034
G01X31.404Y33.382Z-0.034
G01X31.484Y33.362Z-0.034
G01X31.565Y33.350Z-0.034
G01X31.648Y33.346Z-0.034
G01X31.730Y33.350Z-0.034
G01X31.812Y33.362Z-0.034
G01X31.892Y33.382Z-0.034
G01X31.970Y33.410Z-0.034
G01X32.045Y33.445Z-0.034
G01X32.116Y33.487Z-0.034
G01X32.182Y33.537Z-0.034
G01X32.243Y33.592Z-0.034
G01X32.299Y33.653Z-0.034
G01X32.348Y33.720Z-0.034
G01X32.390Y33.791Z-0.034
G01X32.426Y33.865Z-0.034
G01X32.454Y33.943Z-0.034
G01X32.474Y34.023Z-0.033
G01X32.486Y34.105Z-0.033
G01X32.490Y34.187Z-0.033
G01X32.486Y34.270Z-0.033
G01X32.474Y34.352Z-0.033
G01X32.454Y34.432Z-0.033
G01X32.426Y34.510Z-0.033
G01X32.390Y34.584Z-0.033
G01X32.348Y34.655Z-0.033
G01X32.299Y34.722Z-0.033
G01X32.243Y34.783Z-0.033
G01X32.182Y34.838Z-0.033
G01X32.116Y34.888Z-0.033
G01X32.045Y34.930Z-0.033
G01X31.970Y34.965Z-0.033
G01X31.892Y34.993Z-0.033
G01X31.812Y35.013Z-0.033
G01X31.730Y35.025Z-0.033
G01X31.648Y35.029Z-0.033
G01X31.565Y35.025Z-0.033
G01X31.484Y35.013Z-0.033
G01X31.404Y34.993Z-0.033
G01X31.326Y34.965Z-0.033
G01X31.251Y34.930Z-0.033
G01X31.180Y34.888Z-0.033
G01X31.114Y34.838Z-0.033
G01X31.053Y34.783Z-0.033
G01X30.997Y34.722Z-0.033
G01X30.948Y34.655Z-0.033
G01X30.906Y34.584Z-0.033
G01X30.870Y34.510Z-0.033
G01X30.842Y34.432Z-0.033
G01X30.822Y34.352Z-0.034
G01X30.810Y34.270Z-0.034
G01X30.806Y34.190Z-0.034
G01X30.806Y34.185Z-0.034
G00X30.806Y34.185Z2.016
G00X35.030Y33.400Z2.017
G01F60.00X35.030Y33.400Z2.017
G01X35.030Y33.400Z-0.033
G01F120.00X35.030Y33.400Z-0.033
G01X35.030Y34.975Z-0.033
G01X35.030Y34.980Z-0.033
G01X35.029Y34.986Z-0.033
G01X35.027Y34.992Z-0.033
G01X35.025Y34.997Z-0.033
G01X35.023Y35.002Z-0.033
G01X35.020Y35.006Z-0.033
G01X35.017Y35.011Z-0.033
G01X35.013Y35.014Z-0.033
G01X35.009Y35.018Z-0.033
G01X35.005Y35.021Z-0.033
G01X35.000Y35.024Z-0.033
G01X34.995Y35.026Z-0.033
G01X34.990Y35.028Z-0.033
G01X34.985Y35.029Z-0.033
G01X34.975Y35.029Z-0.033
G01X33.401Y35.029Z-0.033
G01X33.395Y35.029Z-0.033
G01X33.390Y35.028Z-0.033
G01X33.384Y35.027Z-0.033
G01X33.379Y35.025Z-0.033
G01X33.374Y35.022Z-0.033
G01X33.369Y35.020Z-0.033
G01X33.365Y35.016Z-0.033
G01X33.361Y35.013Z-0.033
G01X33.358Y35.008Z-0.033
G01X33.355Y35.004Z-0.033
G01X33.352Y35.000Z-0.033
G01X33.350Y34.995Z-0.033
G01X33.348Y34.989Z-0.033
G01X33.347Y34.984Z-0.033
G01X33.346Y34.975Z-0.033
G01X33.346Y33.400Z-0.034
G01X33.347Y33.395Z-0.034
G01X33.347Y33.388Z-0.034
G01X33.349Y33.383Z-0.034
G01X33.351Y33.378Z-0.034
G01X33.353Y33.373Z-0.034
G01X33.356Y33.369Z-0.034
G01X33.359Y33.365Z-0.034
G01X33.363Y33.361Z-0.034
G01X33.367Y33.357Z-0.034
G01X33.371Y33.354Z-0.034
G01X33.376Y33.352Z-0.034
G01X33.381Y33.349Z-0.034
G01X33.390Y33.347Z-0.034
G01X33.395Y33.346Z-0.034
G01X33.401Y33.346Z-0.034
G01X34.977Y33.346Z-0.034
G01X34.982Y33.346Z-0.034
G01X34.987Y33.347Z-0.034
G01X34.993Y33.348Z-0.034
G01X34.998Y33.350Z-0.034
G01X35.002Y33.353Z-0.034
G01X35.007Y33.356Z-0.034
G01X35.014Y33.362Z-0.034
G01X35.018Y33.366Z-0.034
G01X35.021Y33.370Z-0.033
G01X35.024Y33.375Z-0.033
G01X35.026Y33.379Z-0.033
G01X35.028Y33.384Z-0.033
G01X35.029Y33.389Z-0.033
G01X35.030Y33.395Z-0.033
G01X35.030Y33.400Z-0.033
G00X35.030Y33.400Z2.017
G00X40.310Y35.157Z2.017
G01F60.00X40.310Y35.157Z2.017
G01X40.310Y35.157Z-0.033
G01F120.00X40.310Y35.157Z-0.033
G01X38.735Y35.157Z-0.033
G01X38.729Y35.156Z-0.033
G01X38.724Y35.155Z-0.033
G01X38.718Y35.154Z-0.033
G01X38.713Y35.152Z-0.033
G01X38.708Y35.150Z-0.033
G01X38.703Y35.147Z-0.033
G01X38.699Y35.143Z-0.033
G01X38.695Y35.140Z-0.033
G01X38.692Y35.136Z-0.033
G01X38.689Y35.131Z-0.033
G01X38.686Y35.127Z-0.033
G01X38.684Y35.122Z-0.033
G01X38.682Y35.117Z-0.033
G01X38.681Y35.111Z-0.033
G01X38.680Y35.102Z-0.033
G01X38.680Y33.527Z-0.033
G01X38.681Y33.522Z-0.033
G01X38.681Y33.517Z-0.033
G01X38.683Y33.510Z-0.033
G01X38.685Y33.505Z-0.033
G01X38.687Y33.500Z-0.033
G01X38.690Y33.496Z-0.033
G01X38.694Y33.492Z-0.033
G01X38.697Y33.488Z-0.033
G01X38.701Y33.484Z-0.033
G01X38.706Y33.481Z-0.033
G01X38.710Y33.479Z-0.033
G01X38.715Y33.476Z-0.033
G01X38.720Y33.475Z-0.033
G01X38.725Y33.474Z-0.033
G01X38.735Y33.473Z-0.033
G01X40.310Y33.473Z-0.033
G01X40.315Y33.473Z-0.033
G01X40.320Y33.474Z-0.033
G01X40.325Y33.475Z-0.033
G01X40.331Y33.477Z-0.033
G01X40.335Y33.479Z-0.033
G01X40.340Y33.482Z-0.033
G01X40.344Y33.485Z-0.033
G01X40.349Y33.490Z-0.033
G01X40.353Y33.494Z-0.033
G01X40.356Y33.498Z-0.033
G01X40.360Y33.506Z-0.033
G01X40.362Y33.512Z-0.033
G01X40.363Y33.517Z-0.033
G01X40.364Y33.522Z-0.033
G01X40.364Y33.527Z-0.033
G01X40.364Y35.103Z-0.033
G01X40.364Y35.109Z-0.033
G01X40.363Y35.114Z-0.033
G01X40.361Y35.119Z-0.033
G01X40.359Y35.124Z-0.033
G01X40.357Y35.129Z-0.033
G01X40.354Y35.133Z-0.033
G01X40.348Y35.141Z-0.033
G01X40.344Y35.144Z-0.033
G01X40.340Y35.147Z-0.033
G01X40.335Y35.150Z-0.033
G01X40.331Y35.152Z-0.033
G01X40.325Y35.154Z-0.033
G01X40.320Y35.155Z-0.033
G01X40.315Y35.156Z-0.033
G01X40.310Y35.157Z-0.033
G00X40.310Y35.157Z2.017
G00X41.220Y34.312Z2.017
G01F60.00X41.220Y34.312Z2.017
G01X41.220Y34.312Z-0.033
G01F120.00X41.220Y34.312Z-0.033
G01X41.224Y34.232Z-0.033
G01X41.236Y34.150Z-0.033
G01X41.257Y34.070Z-0.033
G01X41.284Y33.993Z-0.033
G01X41.320Y33.918Z-0.033
G01X41.362Y33.847Z-0.033
G01X41.411Y33.781Z-0.033
G01X41.467Y33.719Z-0.033
G01X41.528Y33.664Z-0.033
G01X41.595Y33.615Z-0.033
G01X41.665Y33.572Z-0.033
G01X41.740Y33.537Z-0.033
G01X41.818Y33.509Z-0.033
G01X41.898Y33.489Z-0.033
G01X41.980Y33.477Z-0.033
G01X42.062Y33.473Z-0.033
G01X42.145Y33.477Z-0.033
G01X42.227Y33.489Z-0.033
G01X42.307Y33.509Z-0.033
G01X42.384Y33.537Z-0.033
G01X42.459Y33.572Z-0.033
G01X42.530Y33.615Z-0.033
G01X42.596Y33.664Z-0.033
G01X42.658Y33.719Z-0.033
G01X42.713Y33.781Z-0.033
G01X42.762Y33.847Z-0.033
G01X42.805Y33.918Z-0.033
G01X42.840Y33.993Z-0.033
G01X42.868Y34.070Z-0.033
G01X42.888Y34.150Z-0.033
G01X42.900Y34.232Z-0.033
G01X42.904Y34.315Z-0.033
G01X42.900Y34.397Z-0.033
G01X42.888Y34.479Z-0.033
G01X42.868Y34.559Z-0.032
G01X42.840Y34.637Z-0.032
G01X42.805Y34.711Z-0.032
G01X42.762Y34.782Z-0.032
G01X42.713Y34.849Z-0.032
G01X42.658Y34.910Z-0.032
G01X42.596Y34.965Z-0.032
G01X42.530Y35.015Z-0.032
G01X42.459Y35.057Z-0.032
G01X42.384Y35.092Z-0.032
G01X42.307Y35.120Z-0.032
G01X42.227Y35.140Z-0.032
G01X42.145Y35.153Z-0.032
G01X42.062Y35.157Z-0.032
G01X41.980Y35.153Z-0.032
G01X41.898Y35.140Z-0.032
G01X41.818Y35.120Z-0.032
G01X41.740Y35.092Z-0.032
G01X41.665Y35.057Z-0.032
G01X41.595Y35.015Z-0.032
G01X41.528Y34.965Z-0.032
G01X41.467Y34.910Z-0.033
G01X41.411Y34.849Z-0.033
G01X41.362Y34.782Z-0.033
G01X41.320Y34.711Z-0.033
G01X41.284Y34.637Z-0.033
G01X41.257Y34.559Z-0.033
G01X41.236Y34.479Z-0.033
G01X41.224Y34.397Z-0.033
G01X41.220Y34.317Z-0.033
G01X41.220Y34.312Z-0.033
G00X41.220Y34.312Z2.017
G00X43.760Y34.312Z2.018
G01F60.00X43.760Y34.312Z2.018
G01X43.760Y34.312Z-0.032
G01F120.00X43.760Y34.312Z-0.032
G01X43.764Y34.232Z-0.033
G01X43.777Y34.150Z-0.033
G01X43.797Y34.070Z-0.033
G01X43.824Y33.993Z-0.033
G01X43.860Y33.918Z-0.033
G01X43.902Y33.847Z-0.033
G01X43.951Y33.781Z-0.033
G01X44.007Y33.719Z-0.033
G01X44.068Y33.664Z-0.033
G01X44.134Y33.615Z-0.033
G01X44.205Y33.572Z-0.033
G01X44.280Y33.537Z-0.033
G01X44.358Y33.509Z-0.033
G01X44.438Y33.489Z-0.033
G01X44.520Y33.477Z-0.033
G01X44.602Y33.473Z-0.033
G01X44.685Y33.477Z-0.033
G01X44.766Y33.489Z-0.033
G01X44.847Y33.509Z-0.033
G01X44.924Y33.537Z-0.033
G01X44.999Y33.572Z-0.033
G01X45.070Y33.615Z-0.033
G01X45.136Y33.664Z-0.033
G01X45.197Y33.719Z-0.032
G01X45.253Y33.781Z-0.032
G01X45.302Y33.847Z-0.032
G01X45.345Y33.918Z-0.032
G01X45.380Y33.993Z-0.032
G01X45.408Y34.070Z-0.032
G01X45.428Y34.150Z-0.032
G01X45.440Y34.232Z-0.032
G01X45.444Y34.315Z-0.032
G01X45.440Y34.397Z-0.032
G01X45.428Y34.479Z-0.032
G01X45.408Y34.559Z-0.032
G01X45.380Y34.637Z-0.032
G01X45.345Y34.711Z-0.032
G01X45.302Y34.782Z-0.032
G01X45.253Y34.849Z-0.032
G01X45.197Y34.910Z-0.032
G01X45.136Y34.965Z-0.032
G01X45.070Y35.015Z-0.032
G01X44.999Y35.057Z-0.032
G01X44.924Y35.092Z-0.032
G01X44.847Y35.120Z-0.032
G01X44.766Y35.140Z-0.032
G01X44.685Y35.153Z-0.032
G01X44.602Y35.157Z-0.032
G01X44.520Y35.153Z-0.032
G01X44.438Y35.140Z-0.032
G01X44.358Y35.120Z-0.032
G01X44.280Y35.092Z-0.032
G01X44.205Y35.057Z-0.032
G01X44.134Y35.015Z-0.032
G01X44.068Y34.965Z-0.032
G01X44.007Y34.910Z-0.032
G01X43.951Y34.849Z-0.032
G01X43.902Y34.782Z-0.032
G01X43.860Y34.711Z-0.032
G01X43.824Y34.637Z-0.032
G01X43.797Y34.559Z-0.032
G01X43.777Y34.479Z-0.032
G01X43.764Y34.397Z-0.032
G01X43.760Y34.317Z-0.032
G01X43.760Y34.312Z-0.032
G00X43.760Y34.312Z2.018
G00X46.300Y34.312Z2.018
G01F60.00X46.300Y34.312Z2.018
G01X46.300Y34.312Z-0.032
G01F120.00X46.300Y34.312Z-0.032
G01X46.304Y34.232Z-0.032
G01X46.317Y34.150Z-0.032
G01X46.337Y34.070Z-0.032
G01X46.364Y33.993Z-0.032
G01X46.400Y33.918Z-0.032
G01X46.442Y33.847Z-0.032
G01X46.491Y33.781Z-0.032
G01X46.547Y33.719Z-0.032
G01X46.608Y33.664Z-0.032
G01X46.674Y33.615Z-0.032
G01X46.745Y33.572Z-0.032
G01X46.820Y33.537Z-0.032
G01X46.898Y33.509Z-0.032
G01X46.978Y33.489Z-0.032
G01X47.060Y33.477Z-0.032
G01X47.142Y33.473Z-0.032
G01X47.225Y33.477Z-0.032
G01X47.306Y33.489Z-0.032
G01X47.387Y33.509Z-0.032
G01X47.464Y33.537Z-0.032
G01X47.539Y33.572Z-0.032
G01X47.610Y33.615Z-0.032
G01X47.676Y33.664Z-0.032
G01X47.737Y33.719Z-0.032
G01X47.793Y33.781Z-0.032
G01X47.842Y33.847Z-0.032
G01X47.885Y33.918Z-0.032
G01X47.920Y33.993Z-0.032
G01X47.948Y34.070Z-0.032
G01X47.968Y34.150Z-0.032
G01X47.980Y34.232Z-0.032
G01X47.984Y34.315Z-0.032
G01X47.980Y34.397Z-0.032
G01X47.968Y34.479Z-0.032
G01X47.948Y34.559Z-0.032
G01X47.920Y34.637Z-0.032
G01X47.885Y34.711Z-0.032
G01X47.842Y34.782Z-0.032
G01X47.793Y34.849Z-0.032
G01X47.737Y34.910Z-0.032
G01X47.676Y34.965Z-0.032
G01X47.610Y35.015Z-0.032
G01X47.539Y35.057Z-0.032
G01X47.464Y35.092Z-0.032
G01X47.387Y35.120Z-0.032
G01X47.306Y35.140Z-0.032
G01X47.225Y35.153Z-0.032
G01X47.142Y35.157Z-0.032
G01X47.060Y35.153Z-0.032
G01X46.978Y35.140Z-0.032
G01X46.898Y35.120Z-0.032
G01X46.820Y35.092Z-0.032
G01X46.745Y35.057Z-0.032
G01X46.674Y35.015Z-0.032
G01X46.608Y34.965Z-0.032
G01X46.547Y34.910Z-0.032
G01X46.491Y34.849Z-0.032
G01X46.442Y34.782Z-0.032
G01X46.400Y34.711Z-0.032
G01X46.364Y34.637Z-0.032
G01X46.337Y34.559Z-0.032
G01X46.317Y34.479Z-0.032
G01X46.304Y34.397Z-0.032
G01X46.300Y34.317Z-0.032
G01X46.300Y34.312Z-0.032
G00X46.300Y34.312Z2.018
G00X48.840Y34.312Z2.018
G01F60.00X48.840Y34.312Z2.018
G01X48.840Y34.312Z-0.032
G01F120.00X48.840Y34.312Z-0.032
G01X48.844Y34.232Z-0.032
G01X48.856Y34.150Z-0.032
G01X48.877Y34.070Z-0.032
G01X48.904Y33.993Z-0.032
G01X48.940Y33.918Z-0.032
G01X48.982Y33.847Z-0.032
G01X49.031Y33.781Z-0.032
G01X49.087Y33.719Z-0.032
G01X49.148Y33.664Z-0.032
G01X49.215Y33.615Z-0.032
G01X49.285Y33.572Z-0.032
G01X49.360Y33.537Z-0.032
G01X49.438Y33.509Z-0.032
G01X49.518Y33.489Z-0.032
G01X49.600Y33.477Z-0.032
G01X49.682Y33.473Z-0.032
G01X49.765Y33.477Z-0.032
G01X49.847Y33.489Z-0.032
G01X49.927Y33.509Z-0.032
G01X50.004Y33.537Z-0.032
G01X50.079Y33.572Z-0.032
G01X50.150Y33.615Z-0.032
G01X50.216Y33.664Z-0.032
G01X50.278Y33.719Z-0.032
G01X50.333Y33.781Z-0.032
G01X50.382Y33.847Z-0.032
G01X50.425Y33.918Z-0.032
G01X50.460Y33.993Z-0.032
G01X50.488Y34.070Z-0.032
G01X50.508Y34.150Z-0.032
G01X50.520Y34.232Z-0.032
G01X50.524Y34.315Z-0.032
G01X50.520Y34.397Z-0.032
G01X50.508Y34.479Z-0.032
G01X50.488Y34.559Z-0.031
G01X50.460Y34.637Z-0.031
G01X50.425Y34.711Z-0.031
G01X50.382Y34.782Z-0.031
G01X50.333Y34.849Z-0.031
G01X50.278Y34.910Z-0.031
G01X50.216Y34.965Z-0.031
G01X50.150Y35.015Z-0.031
G01X50.079Y35.057Z-0.031
G01X50.004Y35.092Z-0.031
G01X49.927Y35.120Z-0.031
G01X49.847Y35.140Z-0.031
G01X49.765Y35.153Z-0.031
G01X49.682Y35.157Z-0.031
G01X49.600Y35.153Z-0.031
G01X49.518Y35.140Z-0.031
G01X49.438Y35.120Z-0.031
G01X49.360Y35.092Z-0.031
G01X49.285Y35.057Z-0.031
G01X49.215Y35.015Z-0.032
G01X49.148Y34.965Z-0.032
G01X49.087Y34.910Z-0.032
G01X49.031Y34.849Z-0.032
G01X48.982Y34.782Z-0.032
G01X48.940Y34.711Z-0.032
G01X48.904Y34.637Z-0.032
G01X48.877Y34.559Z-0.032
G01X48.856Y34.479Z-0.032
G01X48.844Y34.397Z-0.032
G01X48.840Y34.317Z-0.032
G01X48.840Y34.312Z-0.032
G00X48.840Y34.312Z2.018
G00X51.380Y34.312Z2.019
G01F60.00X51.380Y34.312Z2.019
G01X51.380Y34.312Z-0.031
G01F120.00X51.380Y34.312Z-0.031
G01X51.384Y34.232Z-0.031
G01X51.396Y34.150Z-0.031
G01X51.417Y34.070Z-0.032
G01X51.444Y33.993Z-0.032
G01X51.480Y33.918Z-0.032
G01X51.522Y33.847Z-0.032
G01X51.571Y33.781Z-0.032
G01X51.627Y33.719Z-0.032
G01X51.688Y33.664Z-0.032
G01X51.755Y33.615Z-0.032
G01X51.825Y33.572Z-0.032
G01X51.900Y33.537Z-0.032
G01X51.978Y33.509Z-0.032
G01X52.058Y33.489Z-0.032
G01X52.140Y33.477Z-0.032
G01X52.222Y33.473Z-0.032
G01X52.305Y33.477Z-0.032
G01X52.387Y33.489Z-0.032
G01X52.467Y33.509Z-0.032
G01X52.544Y33.537Z-0.032
G01X52.619Y33.572Z-0.032
G01X52.690Y33.615Z-0.031
G01X52.756Y33.664Z-0.031
G01X52.818Y33.719Z-0.031
G01X52.873Y33.781Z-0.031
G01X52.922Y33.847Z-0.031
G01X52.965Y33.918Z-0.031
G01X53.000Y33.993Z-0.031
G01X53.028Y34.070Z-0.031
G01X53.048Y34.150Z-0.031
G01X53.060Y34.232Z-0.031
G01X53.064Y34.315Z-0.031
G01X53.060Y34.397Z-0.031
G01X53.048Y34.479Z-0.031
G01X53.028Y34.559Z-0.031
G01X53.000Y34.637Z-0.031
G01X52.965Y34.711Z-0.031
G01X52.922Y34.782Z-0.031
G01X52.873Y34.849Z-0.031
G01X52.818Y34.910Z-0.031
G01X52.756Y34.965Z-0.031
G01X52.690Y35.015Z-0.031
G01X52.619Y35.057Z-0.031
G01X52.544Y35.092Z-0.031
G01X52.467Y35.120Z-0.031
G01X52.387Y35.140Z-0.031
G01X52.305Y35.153Z-0.031
G01X52.222Y35.157Z-0.031
G01X52.140Y35.153Z-0.031
G01X52.058Y35.140Z-0.031
G01X51.978Y35.120Z-0.031
G01X51.900Y35.092Z-0.031
G01X51.825Y35.057Z-0.031
G01X51.755Y35.015Z-0.031
G01X51.688Y34.965Z-0.031
G01X51.627Y34.910Z-0.031
G01X51.571Y34.849Z-0.031
G01X51.522Y34.782Z-0.031
G01X51.480Y34.711Z-0.031
G01X51.444Y34.637Z-0.031
G01X51.417Y34.559Z-0.031
G01X51.396Y34.479Z-0.031
G01X51.384Y34.397Z-0.031
G01X51.380Y34.317Z-0.031
G01X51.380Y34.312Z-0.031
G00X51.380Y34.312Z2.019
G00X53.920Y34.312Z2.019
G01F60.00X53.920Y34.312Z2.019
G01X53.920Y34.312Z-0.031
G01F120.00X53.920Y34.312Z-0.031
G01X53.924Y34.232Z-0.031
G01X53.937Y34.150Z-0.031
G01X53.957Y34.070Z-0.031
G01X53.984Y33.993Z-0.031
G01X54.020Y33.918Z-0.031
G01X54.062Y33.847Z-0.031
G01X54.111Y33.781Z-0.031
G01X54.167Y33.719Z-0.031
G01X54.228Y33.664Z-0.031
G01X54.294Y33.615Z-0.031
G01X54.365Y33.572Z-0.031
G01X54.440Y33.537Z-0.031
G01X54.518Y33.509Z-0.031
G01X54.598Y33.489Z-0.031
G01X54.680Y33.477Z-0.031
G01X54.762Y33.473Z-0.031
G01X54.845Y33.477Z-0.031
G01X54.926Y33.489Z-0.031
G01X55.007Y33.509Z-0.031
G01X55.084Y33.537Z-0.031
G01X55.159Y33.572Z-0.031
G01X55.230Y33.615Z-0.031
G01X55.296Y33.664Z-0.031
G01X55.357Y33.719Z-0.031
G01X55.413Y33.781Z-0.031
G01X55.462Y33.847Z-0.031
G01X55.505Y33.918Z-0.031
G01X55.540Y33.993Z-0.031
G01X55.568Y34.070Z-0.031
G01X55.588Y34.150Z-0.031
G01X55.600Y34.232Z-0.031
G01X55.604Y34.315Z-0.031
G01X55.600Y34.397Z-0.031
G01X55.588Y34.479Z-0.031
G01X55.568Y34.559Z-0.031
G01X55.540Y34.637Z-0.031
G01X55.505Y34.711Z-0.031
G01X55.462Y34.782Z-0.031
G01X55.413Y34.849Z-0.031
G01X55.357Y34.910Z-0.031
G01X55.296Y34.965Z-0.031
G01X55.230Y35.015Z-0.031
G01X55.159Y35.057Z-0.031
G01X55.084Y35.092Z-0.031
G01X55.007Y35.120Z-0.031
G01X54.926Y35.140Z-0.031
G01X54.845Y35.153Z-0.031
G01X54.762Y35.157Z-0.031
G01X54.680Y35.153Z-0.031
G01X54.598Y35.140Z-0.031
G01X54.518Y35.120Z-0.031
G01X54.440Y35.092Z-0.031
G01X54.365Y35.057Z-0.031
G01X54.294Y35.015Z-0.031
G01X54.228Y34.965Z-0.031
G01X54.167Y34.910Z-0.031
G01X54.111Y34.849Z-0.031
G01X54.062Y34.782Z-0.031
G01X54.020Y34.711Z-0.031
G01X53.984Y34.637Z-0.031
G01X53.957Y34.559Z-0.031
G01X53.937Y34.479Z-0.031
G01X53.924Y34.397Z-0.031
G01X53.920Y34.317Z-0.031
G01X53.920Y34.312Z-0.031
G00X53.920Y34.312Z2.019
G00X56.460Y34.312Z2.019
G01F60.00X56.460Y34.312Z2.019
G01X56.460Y34.312Z-0.031
G01F120.00X56.460Y34.312Z-0.031
G01X56.464Y34.232Z-0.031
G01X56.477Y34.150Z-0.031
G01X56.497Y34.070Z-0.031
G01X56.524Y33.993Z-0.031
G01X56.560Y33.918Z-0.031
G01X56.602Y33.847Z-0.031
G01X56.651Y33.781Z-0.031
G01X56.707Y33.719Z-0.031
G01X56.768Y33.664Z-0.031
G01X56.834Y33.615Z-0.031
G01X56.905Y33.572Z-0.031
G01X56.980Y33.537Z-0.031
G01X57.058Y33.509Z-0.031
G01X57.138Y33.489Z-0.031
G01X57.220Y33.477Z-0.031
G01X57.302Y33.473Z-0.031
G01X57.385Y33.477Z-0.031
G01X57.466Y33.489Z-0.031
G01X57.547Y33.509Z-0.031
G01X57.624Y33.537Z-0.031
G01X57.699Y33.572Z-0.031
G01X57.770Y33.615Z-0.031
G01X57.836Y33.664Z-0.031
G01X57.897Y33.719Z-0.031
G01X57.953Y33.781Z-0.031
G01X58.002Y33.847Z-0.031
G01X58.045Y33.918Z-0.031
G01X58.080Y33.993Z-0.031
G01X58.108Y34.070Z-0.031
G01X58.128Y34.150Z-0.031
G01X58.140Y34.232Z-0.031
G01X58.144Y34.315Z-0.031
G01X58.140Y34.397Z-0.031
G01X58.128Y34.479Z-0.031
G01X58.108Y34.559Z-0.031
G01X58.080Y34.637Z-0.031
G01X58.045Y34.711Z-0.030
G01X58.002Y34.782Z-0.030
G01X57.953Y34.849Z-0.030
G01X57.897Y34.910Z-0.030
G01X57.836Y34.965Z-0.030
G01X57.770Y35.015Z-0.030
G01X57.699Y35.057Z-0.030
G01X57.624Y35.092Z-0.030
G01X57.547Y35.120Z-0.030
G01X57.466Y35.140Z-0.030
G01X57.385Y35.153Z-0.030
G01X57.302Y35.157Z-0.030
G01X57.220Y35.153Z-0.030
G01X57.138Y35.140Z-0.030
G01X57.058Y35.120Z-0.030
G01X56.980Y35.092Z-0.030
G01X56.905Y35.057Z-0.031
G01X56.834Y35.015Z-0.031
G01X56.768Y34.965Z-0.031
G01X56.707Y34.910Z-0.031
G01X56.651Y34.849Z-0.031
G01X56.602Y34.782Z-0.031
G01X56.560Y34.711Z-0.031
G01X56.524Y34.637Z-0.031
G01X56.497Y34.559Z-0.031
G01X56.477Y34.479Z-0.031
G01X56.464Y34.397Z-0.031
G01X56.460Y34.317Z-0.031
G01X56.460Y34.312Z-0.031
G00X56.460Y34.312Z2.019
G00X65.717Y35.135Z2.021
X65.964Y35.157Z2.021
G01F60.00X65.964Y35.157Z2.021
G01X65.964Y35.157Z-0.029
G01F120.00X65.964Y35.157Z-0.029
G01X64.389Y35.157Z-0.030
G01X64.383Y35.156Z-0.030
G01X64.378Y35.155Z-0.030
G01X64.372Y35.154Z-0.030
G01X64.367Y35.152Z-0.030
G01X64.362Y35.150Z-0.030
G01X64.357Y35.147Z-0.030
G01X64.353Y35.143Z-0.030
G01X64.349Y35.140Z-0.030
G01X64.346Y35.136Z-0.030
G01X64.343Y35.131Z-0.030
G01X64.340Y35.127Z-0.030
G01X64.338Y35.122Z-0.030
G01X64.336Y35.117Z-0.030
G01X64.335Y35.111Z-0.030
G01X64.334Y35.102Z-0.030
G01X64.334Y33.527Z-0.030
G01X64.335Y33.522Z-0.030
G01X64.335Y33.517Z-0.030
G01X64.337Y33.510Z-0.030
G01X64.339Y33.505Z-0.030
G01X64.341Y33.500Z-0.030
G01X64.344Y33.496Z-0.030
G01X64.348Y33.492Z-0.030
G01X64.351Y33.488Z-0.030
G01X64.355Y33.484Z-0.030
G01X64.360Y33.481Z-0.030
G01X64.364Y33.479Z-0.030
G01X64.369Y33.476Z-0.030
G01X64.374Y33.475Z-0.030
G01X64.380Y33.474Z-0.030
G01X64.389Y33.473Z-0.030
G01X65.964Y33.473Z-0.030
G01X65.969Y33.473Z-0.030
G01X65.974Y33.474Z-0.030
G01X65.979Y33.475Z-0.030
G01X65.984Y33.477Z-0.030
G01X65.989Y33.479Z-0.030
G01X65.994Y33.482Z-0.030
G01X65.998Y33.485Z-0.030
G01X66.003Y33.490Z-0.030
G01X66.007Y33.494Z-0.030
G01X66.010Y33.498Z-0.030
G01X66.014Y33.506Z-0.030
G01X66.016Y33.512Z-0.030
G01X66.017Y33.517Z-0.030
G01X66.018Y33.522Z-0.030
G01X66.018Y33.527Z-0.030
G01X66.018Y35.103Z-0.029
G01X66.018Y35.109Z-0.029
G01X66.017Y35.114Z-0.029
G01X66.015Y35.119Z-0.029
G01X66.013Y35.124Z-0.029
G01X66.011Y35.129Z-0.029
G01X66.008Y35.133Z-0.029
G01X66.002Y35.141Z-0.029
G01X65.998Y35.144Z-0.029
G01X65.994Y35.147Z-0.029
G01X65.989Y35.150Z-0.029
G01X65.984Y35.152Z-0.029
G01X65.979Y35.154Z-0.029
G01X65.974Y35.155Z-0.029
G01X65.969Y35.156Z-0.029
G01X65.964Y35.157Z-0.029
G00X65.964Y35.157Z2.021
G00X65.957Y35.558Z2.021
G01F60.00X65.957Y35.558Z2.021
G01X65.957Y35.558Z-0.029
G01F120.00X65.957Y35.558Z-0.029
G01X64.395Y35.558Z-0.029
G01X64.310Y35.551Z-0.029
G01X64.233Y35.530Z-0.029
G01X64.161Y35.496Z-0.030
G01X64.096Y35.451Z-0.030
G01X64.040Y35.395Z-0.030
G01X63.994Y35.330Z-0.030
G01X63.961Y35.258Z-0.030
G01X63.940Y35.181Z-0.030
G01X63.933Y35.095Z-0.030
G01X63.933Y33.534Z-0.030
G01X63.940Y33.448Z-0.030
G01X63.961Y33.371Z-0.030
G01X63.994Y33.300Z-0.030
G01X64.040Y33.234Z-0.030
G01X64.096Y33.178Z-0.030
G01X64.161Y33.133Z-0.030
G01X64.233Y33.099Z-0.030
G01X64.309Y33.079Z-0.030
G01X64.395Y33.071Z-0.030
G01X65.957Y33.071Z-0.030
G01X66.043Y33.079Z-0.030
G01X66.119Y33.099Z-0.030
G01X66.191Y33.133Z-0.030
G01X66.256Y33.178Z-0.030
G01X66.312Y33.234Z-0.030
G01X66.358Y33.300Z-0.030
G01X66.391Y33.371Z-0.030
G01X66.412Y33.448Z-0.030
G01X66.418Y33.523Z-0.030
G01X66.420Y33.530Z-0.030
G01X66.433Y33.575Z-0.030
G01X66.436Y33.582Z-0.030
G01X66.439Y33.588Z-0.030
G01X66.443Y33.593Z-0.030
G01X66.472Y33.627Z-0.030
G01X66.479Y33.633Z-0.030
G01X66.488Y33.638Z-0.030
G01X66.526Y33.657Z-0.030
G01X66.531Y33.659Z-0.030
G01X66.536Y33.660Z-0.030
G01X66.545Y33.662Z-0.030
G01X66.591Y33.664Z-0.030
G01X66.599Y33.663Z-0.030
G01X66.607Y33.661Z-0.030
G01X66.648Y33.646Z-0.030
G01X66.657Y33.642Z-0.030
G01X66.661Y33.639Z-0.030
G01X66.665Y33.635Z-0.030
G01X66.700Y33.601Z-0.030
G01X66.704Y33.596Z-0.030
G01X66.728Y33.560Z-0.030
G01X66.824Y33.449Z-0.030
G01X66.933Y33.349Z-0.030
G01X67.052Y33.264Z-0.030
G01X67.181Y33.192Z-0.030
G01X67.318Y33.137Z-0.030
G01X67.460Y33.098Z-0.030
G01X67.606Y33.076Z-0.030
G01X67.753Y33.072Z-0.030
G01X67.900Y33.085Z-0.030
G01X68.044Y33.115Z-0.030
G01X68.183Y33.162Z-0.030
G01X68.316Y33.226Z-0.030
G01X68.441Y33.305Z-0.030
G01X68.555Y33.397Z-0.030
G01X68.658Y33.503Z-0.030
G01X68.747Y33.620Z-0.030
G01X68.822Y33.747Z-0.029
G01X68.842Y33.793Z-0.029
G01X68.845Y33.799Z-0.029
G01X68.869Y33.834Z-0.029
G01X68.874Y33.840Z-0.029
G01X68.879Y33.845Z-0.029
G01X68.883Y33.848Z-0.029
G01X68.916Y33.870Z-0.029
G01X68.925Y33.874Z-0.029
G01X68.933Y33.877Z-0.029
G01X68.971Y33.885Z-0.029
G01X68.976Y33.886Z-0.029
G01X68.983Y33.887Z-0.029
G01X68.990Y33.886Z-0.029
G01X69.029Y33.880Z-0.029
G01X69.035Y33.878Z-0.029
G01X69.040Y33.877Z-0.029
G01X69.047Y33.873Z-0.029
G01X69.082Y33.852Z-0.029
G01X69.089Y33.848Z-0.029
G01X69.094Y33.842Z-0.029
G01X69.119Y33.811Z-0.029
G01X69.123Y33.804Z-0.029
G01X69.186Y33.683Z-0.029
G01X69.268Y33.560Z-0.029
G01X69.364Y33.449Z-0.030
G01X69.473Y33.349Z-0.030
G01X69.592Y33.264Z-0.030
G01X69.721Y33.192Z-0.030
G01X69.858Y33.137Z-0.030
G01X70.000Y33.098Z-0.030
G01X70.146Y33.076Z-0.030
G01X70.293Y33.072Z-0.030
G01X70.440Y33.085Z-0.029
G01X70.584Y33.115Z-0.029
G01X70.723Y33.162Z-0.029
G01X70.856Y33.226Z-0.029
G01X70.981Y33.305Z-0.029
G01X71.095Y33.397Z-0.029
G01X71.198Y33.503Z-0.029
G01X71.287Y33.620Z-0.029
G01X71.362Y33.747Z-0.029
G01X71.382Y33.793Z-0.029
G01X71.385Y33.799Z-0.029
G01X71.410Y33.834Z-0.029
G01X71.414Y33.840Z-0.029
G01X71.418Y33.844Z-0.029
G01X71.424Y33.848Z-0.029
G01X71.456Y33.870Z-0.029
G01X71.465Y33.874Z-0.029
G01X71.473Y33.877Z-0.029
G01X71.511Y33.885Z-0.029
G01X71.516Y33.886Z-0.029
G01X71.523Y33.887Z-0.029
G01X71.530Y33.886Z-0.029
G01X71.569Y33.880Z-0.029
G01X71.574Y33.879Z-0.029
G01X71.579Y33.877Z-0.029
G01X71.586Y33.874Z-0.029
G01X71.621Y33.853Z-0.029
G01X71.627Y33.849Z-0.029
G01X71.632Y33.845Z-0.029
G01X71.636Y33.840Z-0.029
G01X71.659Y33.811Z-0.029
G01X71.663Y33.804Z-0.029
G01X71.726Y33.683Z-0.029
G01X71.808Y33.560Z-0.029
G01X71.904Y33.449Z-0.029
G01X72.013Y33.349Z-0.029
G01X72.132Y33.264Z-0.029
G01X72.261Y33.192Z-0.029
G01X72.398Y33.137Z-0.029
G01X72.540Y33.098Z-0.029
G01X72.686Y33.076Z-0.029
G01X72.833Y33.072Z-0.029
G01X72.980Y33.085Z-0.029
G01X73.124Y33.115Z-0.029
G01X73.263Y33.162Z-0.029
G01X73.396Y33.226Z-0.029
G01X73.521Y33.305Z-0.029
G01X73.635Y33.397Z-0.029
G01X73.738Y33.503Z-0.029
G01X73.827Y33.620Z-0.029
G01X73.902Y33.747Z-0.029
G01X73.922Y33.793Z-0.029
G01X73.925Y33.799Z-0.029
G01X73.950Y33.834Z-0.029
G01X73.954Y33.840Z-0.029
G01X73.959Y33.845Z-0.029
G01X73.964Y33.848Z-0.029
G01X73.996Y33.870Z-0.029
G01X74.005Y33.874Z-0.029
G01X74.013Y33.877Z-0.029
G01X74.051Y33.885Z-0.029
G01X74.056Y33.886Z-0.029
G01X74.063Y33.887Z-0.029
G01X74.070Y33.886Z-0.029
G01X74.109Y33.880Z-0.029
G01X74.114Y33.879Z-0.029
G01X74.119Y33.877Z-0.029
G01X74.126Y33.874Z-0.029
G01X74.161Y33.853Z-0.029
G01X74.167Y33.849Z-0.029
G01X74.172Y33.845Z-0.029
G01X74.176Y33.840Z-0.029
G01X74.199Y33.811Z-0.029
G01X74.203Y33.804Z-0.029
G01X74.266Y33.683Z-0.029
G01X74.348Y33.560Z-0.029
G01X74.444Y33.449Z-0.029
G01X74.553Y33.349Z-0.029
G01X74.673Y33.264Z-0.029
G01X74.801Y33.192Z-0.029
G01X74.938Y33.137Z-0.029
G01X75.080Y33.098Z-0.029
G01X75.226Y33.076Z-0.029
G01X75.373Y33.072Z-0.029
G01X75.520Y33.085Z-0.029
G01X75.664Y33.115Z-0.029
G01X75.803Y33.162Z-0.029
G01X75.936Y33.226Z-0.029
G01X76.061Y33.305Z-0.029
G01X76.175Y33.397Z-0.028
G01X76.278Y33.503Z-0.028
G01X76.367Y33.620Z-0.028
G01X76.442Y33.747Z-0.028
G01X76.462Y33.793Z-0.028
G01X76.465Y33.799Z-0.028
G01X76.490Y33.834Z-0.028
G01X76.494Y33.840Z-0.028
G01X76.498Y33.844Z-0.028
G01X76.504Y33.848Z-0.028
G01X76.536Y33.870Z-0.028
G01X76.545Y33.874Z-0.028
G01X76.553Y33.877Z-0.028
G01X76.591Y33.885Z-0.028
G01X76.596Y33.886Z-0.028
G01X76.603Y33.887Z-0.028
G01X76.610Y33.886Z-0.028
G01X76.649Y33.880Z-0.028
G01X76.654Y33.879Z-0.028
G01X76.659Y33.877Z-0.028
G01X76.666Y33.874Z-0.028
G01X76.701Y33.853Z-0.028
G01X76.707Y33.849Z-0.028
G01X76.712Y33.845Z-0.028
G01X76.716Y33.840Z-0.028
G01X76.739Y33.811Z-0.028
G01X76.743Y33.804Z-0.028
G01X76.806Y33.683Z-0.028
G01X76.888Y33.560Z-0.028
G01X76.984Y33.449Z-0.028
G01X77.093Y33.349Z-0.028
G01X77.213Y33.264Z-0.028
G01X77.341Y33.192Z-0.028
G01X77.478Y33.137Z-0.028
G01X77.620Y33.098Z-0.028
G01X77.766Y33.076Z-0.028
G01X77.913Y33.072Z-0.028
G01X78.060Y33.085Z-0.028
G01X78.204Y33.115Z-0.028
G01X78.343Y33.162Z-0.028
G01X78.476Y33.226Z-0.028
G01X78.601Y33.305Z-0.028
G01X78.715Y33.397Z-0.028
G01X78.818Y33.503Z-0.028
G01X78.907Y33.620Z-0.028
G01X78.982Y33.747Z-0.028
G01X79.002Y33.793Z-0.028
G01X79.005Y33.799Z-0.028
G01X79.030Y33.834Z-0.028
G01X79.035Y33.840Z-0.028
G01X79.038Y33.844Z-0.028
G01X79.044Y33.848Z-0.028
G01X79.076Y33.870Z-0.028
G01X79.085Y33.874Z-0.028
G01X79.093Y33.877Z-0.028
G01X79.131Y33.885Z-0.028
G01X79.136Y33.886Z-0.028
G01X79.143Y33.887Z-0.028
G01X79.150Y33.886Z-0.028
G01X79.189Y33.880Z-0.028
G01X79.194Y33.879Z-0.028
G01X79.199Y33.877Z-0.028
G01X79.206Y33.874Z-0.028
G01X79.241Y33.853Z-0.028
G01X79.247Y33.849Z-0.028
G01X79.252Y33.845Z-0.028
G01X79.256Y33.840Z-0.028
G01X79.279Y33.811Z-0.028
G01X79.283Y33.804Z-0.028
G01X79.346Y33.683Z-0.028
G01X79.428Y33.560Z-0.028
G01X79.524Y33.449Z-0.028
G01X79.633Y33.349Z-0.028
G01X79.753Y33.264Z-0.028
G01X79.881Y33.192Z-0.028
G01X80.018Y33.137Z-0.028
G01X80.160Y33.098Z-0.028
G01X80.306Y33.076Z-0.028
G01X80.453Y33.072Z-0.028
G01X80.600Y33.085Z-0.028
G01X80.744Y33.115Z-0.028
G01X80.883Y33.162Z-0.028
G01X81.016Y33.226Z-0.028
G01X81.141Y33.305Z-0.028
G01X81.255Y33.397Z-0.028
G01X81.358Y33.503Z-0.027
G01X81.447Y33.620Z-0.027
G01X81.522Y33.747Z-0.027
G01X81.542Y33.793Z-0.027
G01X81.545Y33.799Z-0.027
G01X81.570Y33.834Z-0.027
G01X81.575Y33.840Z-0.027
G01X81.579Y33.845Z-0.027
G01X81.584Y33.848Z-0.027
G01X81.616Y33.870Z-0.027
G01X81.625Y33.874Z-0.027
G01X81.633Y33.877Z-0.027
G01X81.671Y33.885Z-0.027
G01X81.678Y33.886Z-0.027
G01X81.683Y33.887Z-0.027
G01X81.690Y33.886Z-0.027
G01X81.729Y33.880Z-0.027
G01X81.734Y33.879Z-0.027
G01X81.739Y33.877Z-0.027
G01X81.746Y33.874Z-0.027
G01X81.781Y33.853Z-0.027
G01X81.787Y33.849Z-0.027
G01X81.791Y33.845Z-0.027
G01X81.796Y33.840Z-0.027
G01X81.819Y33.811Z-0.027
G01X81.823Y33.804Z-0.027
G01X81.886Y33.683Z-0.027
G01X81.968Y33.560Z-0.027
G01X82.064Y33.449Z-0.027
G01X82.173Y33.349Z-0.027
G01X82.293Y33.264Z-0.027
G01X82.421Y33.192Z-0.027
G01X82.558Y33.137Z-0.027
G01X82.700Y33.098Z-0.027
G01X82.846Y33.076Z-0.027
G01X82.993Y33.072Z-0.027
G01X83.140Y33.085Z-0.027
G01X83.284Y33.115Z-0.027
G01X83.423Y33.162Z-0.027
G01X83.556Y33.226Z-0.027
G01X83.681Y33.305Z-0.027
G01X83.795Y33.397Z-0.027
G01X83.898Y33.503Z-0.027
G01X83.987Y33.620Z-0.027
G01X84.062Y33.747Z-0.027
G01X84.122Y33.882Z-0.027
G01X84.164Y34.023Z-0.027
G01X84.190Y34.168Z-0.027
G01X84.199Y34.315Z-0.027
G01X84.190Y34.462Z-0.027
G01X84.164Y34.607Z-0.027
G01X84.122Y34.747Z-0.027
G01X84.062Y34.882Z-0.027
G01X83.987Y35.009Z-0.027
G01X83.898Y35.126Z-0.027
G01X83.795Y35.232Z-0.027
G01X83.681Y35.324Z-0.027
G01X83.556Y35.403Z-0.027
G01X83.423Y35.466Z-0.027
G01X83.284Y35.514Z-0.027
G01X83.140Y35.544Z-0.027
G01X82.993Y35.557Z-0.027
G01X82.846Y35.553Z-0.027
G01X82.700Y35.531Z-0.027
G01X82.558Y35.492Z-0.027
G01X82.421Y35.437Z-0.027
G01X82.293Y35.366Z-0.027
G01X82.173Y35.280Z-0.027
G01X82.064Y35.180Z-0.027
G01X81.968Y35.069Z-0.027
G01X81.886Y34.947Z-0.027
G01X81.823Y34.825Z-0.027
G01X81.819Y34.819Z-0.027
G01X81.796Y34.789Z-0.027
G01X81.792Y34.784Z-0.027
G01X81.787Y34.780Z-0.027
G01X81.781Y34.776Z-0.027
G01X81.746Y34.755Z-0.027
G01X81.739Y34.752Z-0.027
G01X81.734Y34.750Z-0.027
G01X81.729Y34.749Z-0.027
G01X81.690Y34.743Z-0.027
G01X81.682Y34.742Z-0.027
G01X81.677Y34.743Z-0.027
G01X81.670Y34.744Z-0.027
G01X81.632Y34.753Z-0.027
G01X81.624Y34.755Z-0.027
G01X81.617Y34.759Z-0.027
G01X81.584Y34.781Z-0.027
G01X81.580Y34.784Z-0.027
G01X81.575Y34.789Z-0.027
G01X81.569Y34.795Z-0.027
G01X81.545Y34.830Z-0.027
G01X81.542Y34.836Z-0.027
G01X81.522Y34.882Z-0.027
G01X81.447Y35.009Z-0.027
G01X81.358Y35.126Z-0.027
G01X81.255Y35.232Z-0.027
G01X81.141Y35.324Z-0.027
G01X81.016Y35.403Z-0.027
G01X80.883Y35.466Z-0.027
G01X80.744Y35.514Z-0.027
G01X80.600Y35.544Z-0.027
G01X80.453Y35.557Z-0.027
G01X80.306Y35.553Z-0.027
G01X80.160Y35.531Z-0.027
G01X80.018Y35.492Z-0.027
G01X79.881Y35.437Z-0.027
G01X79.753Y35.366Z-0.027
G01X79.633Y35.280Z-0.027
G01X79.524Y35.180Z-0.027
G01X79.428Y35.069Z-0.027
G01X79.346Y34.947Z-0.027
G01X79.283Y34.825Z-0.027
G01X79.279Y34.819Z-0.027
G01X79.256Y34.789Z-0.027
G01X79.252Y34.784Z-0.027
G01X79.247Y34.780Z-0.027
G01X79.241Y34.776Z-0.027
G01X79.206Y34.755Z-0.027
G01X79.199Y34.752Z-0.027
G01X79.194Y34.750Z-0.028
G01X79.189Y34.749Z-0.028
G01X79.150Y34.743Z-0.028
G01X79.142Y34.742Z-0.028
G01X79.137Y34.743Z-0.028
G01X79.130Y34.744Z-0.028
G01X79.092Y34.753Z-0.028
G01X79.084Y34.755Z-0.028
G01X79.077Y34.759Z-0.028
G01X79.044Y34.781Z-0.028
G01X79.040Y34.784Z-0.028
G01X79.035Y34.789Z-0.028
G01X79.029Y34.795Z-0.028
G01X79.005Y34.830Z-0.028
G01X79.002Y34.836Z-0.028
G01X78.982Y34.882Z-0.028
G01X78.907Y35.009Z-0.027
G01X78.818Y35.126Z-0.027
G01X78.715Y35.232Z-0.027
G01X78.601Y35.324Z-0.027
G01X78.476Y35.403Z-0.027
G01X78.343Y35.466Z-0.027
G01X78.204Y35.514Z-0.027
G01X78.060Y35.544Z-0.027
G01X77.913Y35.557Z-0.027
G01X77.766Y35.553Z-0.028
G01X77.620Y35.531Z-0.028
G01X77.478Y35.492Z-0.028
G01X77.341Y35.437Z-0.028
G01X77.213Y35.366Z-0.028
G01X77.093Y35.280Z-0.028
G01X76.984Y35.180Z-0.028
G01X76.888Y35.069Z-0.028
G01X76.806Y34.947Z-0.028
G01X76.743Y34.825Z-0.028
G01X76.739Y34.819Z-0.028
G01X76.714Y34.786Z-0.028
G01X76.708Y34.780Z-0.028
G01X76.701Y34.776Z-0.028
G01X76.667Y34.756Z-0.028
G01X76.660Y34.752Z-0.028
G01X76.655Y34.751Z-0.028
G01X76.650Y34.749Z-0.028
G01X76.612Y34.743Z-0.028
G01X76.604Y34.742Z-0.028
G01X76.598Y34.743Z-0.028
G01X76.592Y34.743Z-0.028
G01X76.552Y34.753Z-0.028
G01X76.544Y34.755Z-0.028
G01X76.537Y34.759Z-0.028
G01X76.503Y34.782Z-0.028
G01X76.497Y34.786Z-0.028
G01X76.493Y34.791Z-0.028
G01X76.489Y34.795Z-0.028
G01X76.465Y34.830Z-0.028
G01X76.462Y34.836Z-0.028
G01X76.442Y34.882Z-0.028
G01X76.367Y35.009Z-0.028
G01X76.278Y35.126Z-0.028
G01X76.175Y35.232Z-0.028
G01X76.061Y35.324Z-0.028
G01X75.936Y35.403Z-0.028
G01X75.803Y35.466Z-0.028
G01X75.664Y35.514Z-0.028
G01X75.520Y35.544Z-0.028
G01X75.373Y35.557Z-0.028
G01X75.226Y35.553Z-0.028
G01X75.080Y35.531Z-0.028
G01X74.938Y35.492Z-0.028
G01X74.801Y35.437Z-0.028
G01X74.673Y35.366Z-0.028
G01X74.553Y35.280Z-0.028
G01X74.444Y35.180Z-0.028
G01X74.348Y35.069Z-0.028
G01X74.266Y34.947Z-0.028
G01X74.203Y34.825Z-0.028
G01X74.199Y34.819Z-0.028
G01X74.173Y34.785Z-0.028
G01X74.168Y34.780Z-0.028
G01X74.161Y34.776Z-0.028
G01X74.126Y34.755Z-0.028
G01X74.119Y34.752Z-0.028
G01X74.114Y34.750Z-0.028
G01X74.109Y34.749Z-0.028
G01X74.070Y34.743Z-0.028
G01X74.062Y34.742Z-0.028
G01X74.057Y34.743Z-0.028
G01X74.050Y34.744Z-0.028
G01X74.012Y34.753Z-0.028
G01X74.004Y34.755Z-0.028
G01X73.997Y34.759Z-0.028
G01X73.963Y34.782Z-0.028
G01X73.957Y34.786Z-0.028
G01X73.953Y34.791Z-0.028
G01X73.949Y34.795Z-0.028
G01X73.925Y34.830Z-0.028
G01X73.922Y34.836Z-0.028
G01X73.902Y34.882Z-0.028
G01X73.827Y35.009Z-0.028
G01X73.738Y35.126Z-0.028
G01X73.635Y35.232Z-0.028
G01X73.521Y35.324Z-0.028
G01X73.396Y35.403Z-0.028
G01X73.263Y35.466Z-0.028
G01X73.124Y35.514Z-0.028
G01X72.980Y35.544Z-0.028
G01X72.833Y35.557Z-0.028
G01X72.686Y35.553Z-0.028
G01X72.540Y35.531Z-0.028
G01X72.398Y35.492Z-0.028
G01X72.261Y35.437Z-0.028
G01X72.132Y35.366Z-0.028
G01X72.013Y35.280Z-0.029
G01X71.904Y35.180Z-0.029
G01X71.808Y35.069Z-0.029
G01X71.726Y34.947Z-0.029
G01X71.663Y34.825Z-0.029
G01X71.659Y34.819Z-0.029
G01X71.636Y34.789Z-0.029
G01X71.632Y34.784Z-0.029
G01X71.627Y34.780Z-0.029
G01X71.621Y34.776Z-0.029
G01X71.586Y34.755Z-0.029
G01X71.579Y34.752Z-0.029
G01X71.574Y34.750Z-0.029
G01X71.569Y34.749Z-0.029
G01X71.530Y34.743Z-0.029
G01X71.522Y34.742Z-0.029
G01X71.517Y34.743Z-0.029
G01X71.510Y34.744Z-0.029
G01X71.472Y34.753Z-0.029
G01X71.464Y34.755Z-0.029
G01X71.457Y34.759Z-0.029
G01X71.423Y34.782Z-0.029
G01X71.418Y34.786Z-0.029
G01X71.413Y34.791Z-0.029
G01X71.409Y34.795Z-0.029
G01X71.385Y34.830Z-0.029
G01X71.382Y34.836Z-0.029
G01X71.362Y34.882Z-0.029
G01X71.287Y35.009Z-0.029
G01X71.198Y35.126Z-0.029
G01X71.095Y35.232Z-0.029
G01X70.981Y35.324Z-0.029
G01X70.856Y35.403Z-0.029
G01X70.723Y35.466Z-0.029
G01X70.584Y35.514Z-0.029
G01X70.440Y35.544Z-0.029
G01X70.293Y35.557Z-0.029
G01X70.146Y35.553Z-0.029
G01X70.000Y35.531Z-0.029
G01X69.858Y35.492Z-0.029
G01X69.721Y35.437Z-0.029
G01X69.592Y35.366Z-0.029
G01X69.473Y35.280Z-0.029
G01X69.364Y35.180Z-0.029
G01X69.268Y35.069Z-0.029
G01X69.186Y34.947Z-0.029
G01X69.123Y34.825Z-0.029
G01X69.119Y34.819Z-0.029
G01X69.096Y34.789Z-0.029
G01X69.092Y34.784Z-0.029
G01X69.087Y34.780Z-0.029
G01X69.081Y34.776Z-0.029
G01X69.046Y34.755Z-0.029
G01X69.039Y34.752Z-0.029
G01X69.034Y34.750Z-0.029
G01X69.029Y34.749Z-0.029
G01X68.990Y34.743Z-0.029
G01X68.982Y34.742Z-0.029
G01X68.977Y34.743Z-0.029
G01X68.970Y34.744Z-0.029
G01X68.932Y34.753Z-0.029
G01X68.924Y34.755Z-0.029
G01X68.917Y34.759Z-0.029
G01X68.883Y34.782Z-0.029
G01X68.878Y34.786Z-0.029
G01X68.873Y34.791Z-0.029
G01X68.869Y34.795Z-0.029
G01X68.845Y34.830Z-0.029
G01X68.842Y34.836Z-0.029
G01X68.822Y34.882Z-0.029
G01X68.747Y35.009Z-0.029
G01X68.658Y35.126Z-0.029
G01X68.555Y35.232Z-0.029
G01X68.441Y35.324Z-0.029
G01X68.316Y35.403Z-0.029
G01X68.183Y35.466Z-0.029
G01X68.044Y35.514Z-0.029
G01X67.900Y35.544Z-0.029
G01X67.753Y35.557Z-0.029
G01X67.606Y35.553Z-0.029
G01X67.460Y35.531Z-0.029
G01X67.318Y35.492Z-0.029
G01X67.181Y35.437Z-0.029
G01X67.052Y35.366Z-0.029
G01X66.933Y35.280Z-0.029
G01X66.824Y35.180Z-0.029
G01X66.728Y35.069Z-0.029
G01X66.704Y35.033Z-0.029
G01X66.700Y35.028Z-0.029
G01X66.665Y34.994Z-0.029
G01X66.658Y34.988Z-0.029
G01X66.650Y34.984Z-0.029
G01X66.609Y34.968Z-0.029
G01X66.604Y34.967Z-0.029
G01X66.599Y34.966Z-0.029
G01X66.594Y34.965Z-0.029
G01X66.589Y34.965Z-0.029
G01X66.545Y34.967Z-0.029
G01X66.540Y34.968Z-0.029
G01X66.535Y34.969Z-0.029
G01X66.526Y34.972Z-0.029
G01X66.487Y34.991Z-0.029
G01X66.479Y34.996Z-0.029
G01X66.472Y35.002Z-0.029
G01X66.443Y35.036Z-0.029
G01X66.440Y35.041Z-0.029
G01X66.436Y35.047Z-0.029
G01X66.433Y35.054Z-0.029
G01X66.420Y35.099Z-0.029
G01X66.418Y35.107Z-0.029
G01X66.412Y35.181Z-0.029
G01X66.391Y35.258Z-0.029
G01X66.358Y35.330Z-0.029
G01X66.312Y35.395Z-0.029
G01X66.256Y35.451Z-0.029
G01X66.191Y35.496Z-0.029
G01X66.119Y35.530Z-0.029
G01X66.042Y35.551Z-0.029
G01X65.957Y35.558Z-0.029
G00X65.957Y35.558Z2.021
G00X66.874Y34.312Z2.020
G01F60.00X66.874Y34.312Z2.020
G01X66.874Y34.312Z-0.030
G01F120.00X66.874Y34.312Z-0.030
G01X66.878Y34.232Z-0.030
G01X66.891Y34.150Z-0.030
G01X66.911Y34.070Z-0.030
G01X66.938Y33.993Z-0.030
G01X66.974Y33.918Z-0.030
G01X67.016Y33.847Z-0.030
G01X67.065Y33.781Z-0.030
G01X67.121Y33.719Z-0.030
G01X67.182Y33.664Z-0.030
G01X67.248Y33.615Z-0.030
G01X67.319Y33.572Z-0.030
G01X67.394Y33.537Z-0.030
G01X67.472Y33.509Z-0.030
G01X67.552Y33.489Z-0.030
G01X67.634Y33.477Z-0.030
G01X67.716Y33.473Z-0.030
G01X67.799Y33.477Z-0.030
G01X67.881Y33.489Z-0.030
G01X67.961Y33.509Z-0.030
G01X68.038Y33.537Z-0.030
G01X68.113Y33.572Z-0.030
G01X68.184Y33.615Z-0.030
G01X68.250Y33.664Z-0.030
G01X68.312Y33.719Z-0.030
G01X68.367Y33.781Z-0.030
G01X68.416Y33.847Z-0.030
G01X68.459Y33.918Z-0.029
G01X68.494Y33.993Z-0.029
G01X68.522Y34.070Z-0.029
G01X68.542Y34.150Z-0.029
G01X68.554Y34.232Z-0.029
G01X68.558Y34.315Z-0.029
G01X68.554Y34.397Z-0.029
G01X68.542Y34.479Z-0.029
G01X68.522Y34.559Z-0.029
G01X68.494Y34.637Z-0.029
G01X68.459Y34.711Z-0.029
G01X68.416Y34.782Z-0.029
G01X68.367Y34.849Z-0.029
G01X68.312Y34.910Z-0.029
G01X68.250Y34.965Z-0.029
G01X68.184Y35.015Z-0.029
G01X68.113Y35.057Z-0.029
G01X68.038Y35.092Z-0.029
G01X67.961Y35.120Z-0.029
G01X67.881Y35.140Z-0.029
G01X67.799Y35.153Z-0.029
G01X67.716Y35.157Z-0.029
G01X67.634Y35.153Z-0.029
G01X67.552Y35.140Z-0.029
G01X67.472Y35.120Z-0.029
G01X67.394Y35.092Z-0.029
G01X67.319Y35.057Z-0.029
G01X67.248Y35.015Z-0.029
G01X67.182Y34.965Z-0.029
G01X67.121Y34.910Z-0.029
G01X67.065Y34.849Z-0.029
G01X67.016Y34.782Z-0.029
G01X66.974Y34.711Z-0.029
G01X66.938Y34.637Z-0.029
G01X66.911Y34.559Z-0.029
G01X66.891Y34.479Z-0.029
G01X66.878Y34.397Z-0.030
G01X66.874Y34.317Z-0.030
G01X66.874Y34.312Z-0.030
G00X66.874Y34.312Z2.020
G00X69.414Y34.312Z2.021
G01F60.00X69.414Y34.312Z2.021
G01X69.414Y34.312Z-0.029
G01F120.00X69.414Y34.312Z-0.029
G01X69.418Y34.232Z-0.029
G01X69.430Y34.150Z-0.029
G01X69.451Y34.070Z-0.029
G01X69.478Y33.993Z-0.029
G01X69.514Y33.918Z-0.029
G01X69.556Y33.847Z-0.029
G01X69.605Y33.781Z-0.029
G01X69.661Y33.719Z-0.029
G01X69.722Y33.664Z-0.029
G01X69.788Y33.615Z-0.029
G01X69.859Y33.572Z-0.029
G01X69.934Y33.537Z-0.029
G01X70.012Y33.509Z-0.029
G01X70.092Y33.489Z-0.029
G01X70.174Y33.477Z-0.029
G01X70.256Y33.473Z-0.029
G01X70.339Y33.477Z-0.029
G01X70.421Y33.489Z-0.029
G01X70.501Y33.509Z-0.029
G01X70.578Y33.537Z-0.029
G01X70.653Y33.572Z-0.029
G01X70.724Y33.615Z-0.029
G01X70.790Y33.664Z-0.029
G01X70.852Y33.719Z-0.029
G01X70.907Y33.781Z-0.029
G01X70.956Y33.847Z-0.029
G01X70.999Y33.918Z-0.029
G01X71.034Y33.993Z-0.029
G01X71.062Y34.070Z-0.029
G01X71.082Y34.150Z-0.029
G01X71.094Y34.232Z-0.029
G01X71.098Y34.315Z-0.029
G01X71.094Y34.397Z-0.029
G01X71.082Y34.479Z-0.029
G01X71.062Y34.559Z-0.029
G01X71.034Y34.637Z-0.029
G01X70.999Y34.711Z-0.029
G01X70.956Y34.782Z-0.029
G01X70.907Y34.849Z-0.029
G01X70.852Y34.910Z-0.029
G01X70.790Y34.965Z-0.029
G01X70.724Y35.015Z-0.029
G01X70.653Y35.057Z-0.029
G01X70.578Y35.092Z-0.029
G01X70.501Y35.120Z-0.029
G01X70.421Y35.140Z-0.029
G01X70.339Y35.153Z-0.029
G01X70.256Y35.157Z-0.029
G01X70.174Y35.153Z-0.029
G01X70.092Y35.140Z-0.029
G01X70.012Y35.120Z-0.029
G01X69.934Y35.092Z-0.029
G01X69.859Y35.057Z-0.029
G01X69.788Y35.015Z-0.029
G01X69.722Y34.965Z-0.029
G01X69.661Y34.910Z-0.029
G01X69.605Y34.849Z-0.029
G01X69.556Y34.782Z-0.029
G01X69.514Y34.711Z-0.029
G01X69.478Y34.637Z-0.029
G01X69.451Y34.559Z-0.029
G01X69.430Y34.479Z-0.029
G01X69.418Y34.397Z-0.029
G01X69.414Y34.317Z-0.029
G01X69.414Y34.312Z-0.029
G00X69.414Y34.312Z2.021
G00X71.954Y34.312Z2.021
G01F60.00X71.954Y34.312Z2.021
G01X71.954Y34.312Z-0.029
G01F120.00X71.954Y34.312Z-0.029
G01X71.958Y34.232Z-0.029
G01X71.970Y34.150Z-0.029
G01X71.991Y34.070Z-0.029
G01X72.018Y33.993Z-0.029
G01X72.054Y33.918Z-0.029
G01X72.096Y33.847Z-0.029
G01X72.145Y33.781Z-0.029
G01X72.201Y33.719Z-0.029
G01X72.262Y33.664Z-0.029
G01X72.328Y33.615Z-0.029
G01X72.399Y33.572Z-0.029
G01X72.474Y33.537Z-0.029
G01X72.552Y33.509Z-0.029
G01X72.632Y33.489Z-0.029
G01X72.714Y33.477Z-0.029
G01X72.796Y33.473Z-0.029
G01X72.879Y33.477Z-0.029
G01X72.961Y33.489Z-0.029
G01X73.041Y33.509Z-0.029
G01X73.118Y33.537Z-0.029
G01X73.193Y33.572Z-0.029
G01X73.264Y33.615Z-0.029
G01X73.330Y33.664Z-0.029
G01X73.392Y33.719Z-0.029
G01X73.447Y33.781Z-0.029
G01X73.496Y33.847Z-0.029
G01X73.539Y33.918Z-0.029
G01X73.574Y33.993Z-0.029
G01X73.602Y34.070Z-0.029
G01X73.622Y34.150Z-0.029
G01X73.634Y34.232Z-0.029
G01X73.638Y34.315Z-0.029
G01X73.634Y34.397Z-0.029
G01X73.622Y34.479Z-0.029
G01X73.602Y34.559Z-0.029
G01X73.574Y34.637Z-0.029
G01X73.539Y34.711Z-0.028
G01X73.496Y34.782Z-0.028
G01X73.447Y34.849Z-0.028
G01X73.392Y34.910Z-0.028
G01X73.330Y34.965Z-0.028
G01X73.264Y35.015Z-0.028
G01X73.193Y35.057Z-0.028
G01X73.118Y35.092Z-0.028
G01X73.041Y35.120Z-0.028
G01X72.961Y35.140Z-0.028
G01X72.879Y35.153Z-0.028
G01X72.796Y35.157Z-0.028
G01X72.714Y35.153Z-0.028
G01X72.632Y35.140Z-0.028
G01X72.552Y35.120Z-0.029
G01X72.474Y35.092Z-0.029
G01X72.399Y35.057Z-0.029
G01X72.328Y35.015Z-0.029
G01X72.262Y34.965Z-0.029
G01X72.201Y34.910Z-0.029
G01X72.145Y34.849Z-0.029
G01X72.096Y34.782Z-0.029
G01X72.054Y34.711Z-0.029
G01X72.018Y34.637Z-0.029
G01X71.991Y34.559Z-0.029
G01X71.970Y34.479Z-0.029
G01X71.958Y34.397Z-0.029
G01X71.954Y34.317Z-0.029
G01X71.954Y34.312Z-0.029
G00X71.954Y34.312Z2.021
G00X74.494Y34.312Z2.022
G01F60.00X74.494Y34.312Z2.022
G01X74.494Y34.312Z-0.028
G01F120.00X74.494Y34.312Z-0.028
G01X74.498Y34.232Z-0.029
G01X74.510Y34.150Z-0.029
G01X74.531Y34.070Z-0.029
G01X74.558Y33.993Z-0.029
G01X74.594Y33.918Z-0.029
G01X74.636Y33.847Z-0.029
G01X74.685Y33.781Z-0.029
G01X74.741Y33.719Z-0.029
G01X74.802Y33.664Z-0.029
G01X74.868Y33.615Z-0.029
G01X74.939Y33.572Z-0.029
G01X75.014Y33.537Z-0.029
G01X75.092Y33.509Z-0.029
G01X75.172Y33.489Z-0.029
G01X75.254Y33.477Z-0.029
G01X75.336Y33.473Z-0.029
G01X75.419Y33.477Z-0.029
G01X75.501Y33.489Z-0.029
G01X75.581Y33.509Z-0.029
G01X75.658Y33.537Z-0.029
G01X75.733Y33.572Z-0.029
G01X75.804Y33.615Z-0.028
G01X75.870Y33.664Z-0.028
G01X75.932Y33.719Z-0.028
G01X75.987Y33.781Z-0.028
G01X76.036Y33.847Z-0.028
G01X76.079Y33.918Z-0.028
G01X76.114Y33.993Z-0.028
G01X76.142Y34.070Z-0.028
G01X76.162Y34.150Z-0.028
G01X76.174Y34.232Z-0.028
G01X76.178Y34.315Z-0.028
G01X76.174Y34.397Z-0.028
G01X76.162Y34.479Z-0.028
G01X76.142Y34.559Z-0.028
G01X76.114Y34.637Z-0.028
G01X76.079Y34.711Z-0.028
G01X76.036Y34.782Z-0.028
G01X75.987Y34.849Z-0.028
G01X75.932Y34.910Z-0.028
G01X75.870Y34.965Z-0.028
G01X75.804Y35.015Z-0.028
G01X75.733Y35.057Z-0.028
G01X75.658Y35.092Z-0.028
G01X75.581Y35.120Z-0.028
G01X75.501Y35.140Z-0.028
G01X75.419Y35.153Z-0.028
G01X75.336Y35.157Z-0.028
G01X75.254Y35.153Z-0.028
G01X75.172Y35.140Z-0.028
G01X75.092Y35.120Z-0.028
G01X75.014Y35.092Z-0.028
G01X74.939Y35.057Z-0.028
G01X74.868Y35.015Z-0.028
G01X74.802Y34.965Z-0.028
G01X74.741Y34.910Z-0.028
G01X74.685Y34.849Z-0.028
G01X74.636Y34.782Z-0.028
G01X74.594Y34.711Z-0.028
G01X74.558Y34.637Z-0.028
G01X74.531Y34.559Z-0.028
G01X74.510Y34.479Z-0.028
G01X74.498Y34.397Z-0.028
G01X74.494Y34.317Z-0.028
G01X74.494Y34.312Z-0.028
G00X74.494Y34.312Z2.022
G00X77.034Y34.312Z2.022
G01F60.00X77.034Y34.312Z2.022
G01X77.034Y34.312Z-0.028
G01F120.00X77.034Y34.312Z-0.028
G01X77.038Y34.232Z-0.028
G01X77.050Y34.150Z-0.028
G01X77.071Y34.070Z-0.028
G01X77.098Y33.993Z-0.028
G01X77.134Y33.918Z-0.028
G01X77.176Y33.847Z-0.028
G01X77.225Y33.781Z-0.028
G01X77.281Y33.719Z-0.028
G01X77.342Y33.664Z-0.028
G01X77.409Y33.615Z-0.028
G01X77.479Y33.572Z-0.028
G01X77.554Y33.537Z-0.028
G01X77.632Y33.509Z-0.028
G01X77.712Y33.489Z-0.028
G01X77.794Y33.477Z-0.028
G01X77.876Y33.473Z-0.028
G01X77.959Y33.477Z-0.028
G01X78.040Y33.489Z-0.028
G01X78.121Y33.509Z-0.028
G01X78.198Y33.537Z-0.028
G01X78.273Y33.572Z-0.028
G01X78.344Y33.615Z-0.028
G01X78.410Y33.664Z-0.028
G01X78.471Y33.719Z-0.028
G01X78.527Y33.781Z-0.028
G01X78.576Y33.847Z-0.028
G01X78.619Y33.918Z-0.028
G01X78.654Y33.993Z-0.028
G01X78.682Y34.070Z-0.028
G01X78.702Y34.150Z-0.028
G01X78.714Y34.232Z-0.028
G01X78.718Y34.315Z-0.028
G01X78.714Y34.397Z-0.028
G01X78.702Y34.479Z-0.028
G01X78.682Y34.559Z-0.028
G01X78.654Y34.637Z-0.028
G01X78.619Y34.711Z-0.028
G01X78.576Y34.782Z-0.028
G01X78.527Y34.849Z-0.028
G01X78.471Y34.910Z-0.028
G01X78.410Y34.965Z-0.028
G01X78.344Y35.015Z-0.028
G01X78.273Y35.057Z-0.028
G01X78.198Y35.092Z-0.028
G01X78.121Y35.120Z-0.028
G01X78.040Y35.140Z-0.028
G01X77.959Y35.153Z-0.028
G01X77.876Y35.157Z-0.028
G01X77.794Y35.153Z-0.028
G01X77.712Y35.140Z-0.028
G01X77.632Y35.120Z-0.028
G01X77.554Y35.092Z-0.028
G01X77.479Y35.057Z-0.028
G01X77.409Y35.015Z-0.028
G01X77.342Y34.965Z-0.028
G01X77.281Y34.910Z-0.028
G01X77.225Y34.849Z-0.028
G01X77.176Y34.782Z-0.028
G01X77.134Y34.711Z-0.028
G01X77.098Y34.637Z-0.028
G01X77.071Y34.559Z-0.028
G01X77.050Y34.479Z-0.028
G01X77.038Y34.397Z-0.028
G01X77.034Y34.317Z-0.028
G01X77.034Y34.312Z-0.028
G00X77.034Y34.312Z2.022
G00X79.574Y34.312Z2.022
G01F60.00X79.574Y34.312Z2.022
G01X79.574Y34.312Z-0.028
G01F120.00X79.574Y34.312Z-0.028
G01X79.578Y34.232Z-0.028
G01X79.590Y34.150Z-0.028
G01X79.611Y34.070Z-0.028
G01X79.638Y33.993Z-0.028
G01X79.674Y33.918Z-0.028
G01X79.716Y33.847Z-0.028
G01X79.765Y33.781Z-0.028
G01X79.821Y33.719Z-0.028
G01X79.882Y33.664Z-0.028
G01X79.949Y33.615Z-0.028
G01X80.019Y33.572Z-0.028
G01X80.094Y33.537Z-0.028
G01X80.172Y33.509Z-0.028
G01X80.252Y33.489Z-0.028
G01X80.334Y33.477Z-0.028
G01X80.416Y33.473Z-0.028
G01X80.499Y33.477Z-0.028
G01X80.580Y33.489Z-0.028
G01X80.661Y33.509Z-0.028
G01X80.738Y33.537Z-0.028
G01X80.813Y33.572Z-0.028
G01X80.884Y33.615Z-0.028
G01X80.950Y33.664Z-0.027
G01X81.011Y33.719Z-0.027
G01X81.067Y33.781Z-0.027
G01X81.116Y33.847Z-0.027
G01X81.159Y33.918Z-0.027
G01X81.194Y33.993Z-0.027
G01X81.222Y34.070Z-0.027
G01X81.242Y34.150Z-0.027
G01X81.254Y34.232Z-0.027
G01X81.258Y34.315Z-0.027
G01X81.254Y34.397Z-0.027
G01X81.242Y34.479Z-0.027
G01X81.222Y34.559Z-0.027
G01X81.194Y34.637Z-0.027
G01X81.159Y34.711Z-0.027
G01X81.116Y34.782Z-0.027
G01X81.067Y34.849Z-0.027
G01X81.011Y34.910Z-0.027
G01X80.950Y34.965Z-0.027
G01X80.884Y35.015Z-0.027
G01X80.813Y35.057Z-0.027
G01X80.738Y35.092Z-0.027
G01X80.661Y35.120Z-0.027
G01X80.580Y35.140Z-0.027
G01X80.499Y35.153Z-0.027
G01X80.416Y35.157Z-0.027
G01X80.334Y35.153Z-0.027
G01X80.252Y35.140Z-0.027
G01X80.172Y35.120Z-0.027
G01X80.094Y35.092Z-0.027
G01X80.019Y35.057Z-0.027
G01X79.949Y35.015Z-0.027
G01X79.882Y34.965Z-0.027
G01X79.821Y34.910Z-0.027
G01X79.765Y34.849Z-0.027
G01X79.716Y34.782Z-0.027
G01X79.674Y34.711Z-0.027
G01X79.638Y34.637Z-0.027
G01X79.611Y34.559Z-0.027
G01X79.590Y34.479Z-0.028
G01X79.578Y34.397Z-0.028
G01X79.574Y34.317Z-0.028
G01X79.574Y34.312Z-0.028
G00X79.574Y34.312Z2.022
G00X82.114Y34.312Z2.023
G01F60.00X82.114Y34.312Z2.023
G01X82.114Y34.312Z-0.027
G01F120.00X82.114Y34.312Z-0.027
G01X82.118Y34.232Z-0.027
G01X82.131Y34.150Z-0.027
G01X82.151Y34.070Z-0.027
G01X82.178Y33.993Z-0.027
G01X82.214Y33.918Z-0.027
G01X82.256Y33.847Z-0.027
G01X82.305Y33.781Z-0.027
G01X82.361Y33.719Z-0.027
G01X82.422Y33.664Z-0.027
G01X82.489Y33.615Z-0.027
G01X82.559Y33.572Z-0.027
G01X82.634Y33.537Z-0.027
G01X82.712Y33.509Z-0.027
G01X82.792Y33.489Z-0.027
G01X82.874Y33.477Z-0.027
G01X82.956Y33.473Z-0.027
G01X83.039Y33.477Z-0.027
G01X83.120Y33.489Z-0.027
G01X83.201Y33.509Z-0.027
G01X83.278Y33.537Z-0.027
G01X83.353Y33.572Z-0.027
G01X83.424Y33.615Z-0.027
G01X83.490Y33.664Z-0.027
G01X83.551Y33.719Z-0.027
G01X83.607Y33.781Z-0.027
G01X83.656Y33.847Z-0.027
G01X83.699Y33.918Z-0.027
G01X83.734Y33.993Z-0.027
G01X83.762Y34.070Z-0.027
G01X83.782Y34.150Z-0.027
G01X83.794Y34.232Z-0.027
G01X83.798Y34.315Z-0.027
G01X83.794Y34.397Z-0.027
G01X83.782Y34.479Z-0.027
G01X83.762Y34.559Z-0.027
G01X83.734Y34.637Z-0.027
G01X83.699Y34.711Z-0.027
G01X83.656Y34.782Z-0.027
G01X83.607Y34.849Z-0.027
G01X83.551Y34.910Z-0.027
G01X83.490Y34.965Z-0.027
G01X83.424Y35.015Z-0.027
G01X83.353Y35.057Z-0.027
G01X83.278Y35.092Z-0.027
G01X83.201Y35.120Z-0.027
G01X83.120Y35.140Z-0.027
G01X83.039Y35.153Z-0.027
G01X82.956Y35.157Z-0.027
G01X82.874Y35.153Z-0.027
G01X82.792Y35.140Z-0.027
G01X82.712Y35.120Z-0.027
G01X82.634Y35.092Z-0.027
G01X82.559Y35.057Z-0.027
G01X82.489Y35.015Z-0.027
G01X82.422Y34.965Z-0.027
G01X82.361Y34.910Z-0.027
G01X82.305Y34.849Z-0.027
G01X82.256Y34.782Z-0.027
G01X82.214Y34.711Z-0.027
G01X82.178Y34.637Z-0.027
G01X82.151Y34.559Z-0.027
G01X82.131Y34.479Z-0.027
G01X82.118Y34.397Z-0.027
G01X82.114Y34.317Z-0.027
G01X82.114Y34.312Z-0.027
G00X82.114Y34.312Z2.023
G00X81.301Y29.347Z2.021
X81.130Y28.298Z2.021
G01F60.00X81.130Y28.298Z2.021
G01X81.130Y28.298Z-0.029
G01F120.00X81.130Y28.298Z-0.029
G01X80.941Y28.285Z-0.029
G01X80.755Y28.253Z-0.029
G01X80.573Y28.203Z-0.029
G01X80.396Y28.136Z-0.029
G01X80.227Y28.053Z-0.029
G01X80.066Y27.953Z-0.029
G01X79.916Y27.838Z-0.030
G01X79.778Y27.709Z-0.030
G01X79.652Y27.568Z-0.030
G01X79.541Y27.415Z-0.030
G01X79.446Y27.252Z-0.030
G01X79.366Y27.080Z-0.030
G01X79.303Y26.903Z-0.030
G01X79.258Y26.719Z-0.030
G01X79.230Y26.532Z-0.030
G01X79.222Y26.343Z-0.030
G01X79.230Y26.154Z-0.030
G01X79.258Y25.968Z-0.030
G01X79.303Y25.784Z-0.030
G01X79.366Y25.606Z-0.030
G01X79.446Y25.434Z-0.030
G01X79.541Y25.271Z-0.030
G01X79.652Y25.118Z-0.030
G01X79.778Y24.977Z-0.030
G01X79.916Y24.848Z-0.030
G01X80.066Y24.733Z-0.030
G01X80.227Y24.634Z-0.030
G01X80.396Y24.550Z-0.030
G01X80.573Y24.483Z-0.030
G01X80.755Y24.434Z-0.030
G01X80.941Y24.401Z-0.030
G01X81.130Y24.388Z-0.030
G01X81.319Y24.392Z-0.030
G01X81.506Y24.415Z-0.030
G01X81.691Y24.456Z-0.030
G01X81.871Y24.515Z-0.030
G01X82.044Y24.590Z-0.030
G01X82.209Y24.682Z-0.030
G01X82.365Y24.789Z-0.030
G01X82.509Y24.911Z-0.030
G01X82.641Y25.046Z-0.030
G01X82.760Y25.194Z-0.030
G01X82.863Y25.352Z-0.030
G01X82.951Y25.519Z-0.030
G01X83.022Y25.694Z-0.030
G01X83.076Y25.875Z-0.030
G01X83.113Y26.060Z-0.029
G01X83.131Y26.249Z-0.029
G01X83.131Y26.438Z-0.029
G01X83.113Y26.626Z-0.029
G01X83.076Y26.811Z-0.029
G01X83.022Y26.993Z-0.029
G01X82.951Y27.167Z-0.029
G01X82.863Y27.334Z-0.029
G01X82.760Y27.493Z-0.029
G01X82.641Y27.640Z-0.029
G01X82.509Y27.775Z-0.029
G01X82.365Y27.897Z-0.029
G01X82.209Y28.005Z-0.029
G01X82.044Y28.097Z-0.029
G01X81.871Y28.172Z-0.029
G01X81.691Y28.231Z-0.029
G01X81.506Y28.271Z-0.029
G01X81.319Y28.294Z-0.029
G01X81.130Y28.298Z-0.029
G00X81.130Y28.298Z2.021
G00X79.623Y26.340Z2.020
G01F60.00X79.623Y26.340Z2.020
G01X79.623Y26.340Z-0.030
G01F120.00X79.623Y26.340Z-0.030
G01X79.630Y26.191Z-0.030
G01X79.653Y26.040Z-0.030
G01X79.690Y25.892Z-0.030
G01X79.741Y25.748Z-0.030
G01X79.806Y25.610Z-0.030
G01X79.885Y25.480Z-0.030
G01X79.976Y25.357Z-0.030
G01X80.078Y25.244Z-0.030
G01X80.191Y25.142Z-0.030
G01X80.314Y25.051Z-0.030
G01X80.445Y24.972Z-0.030
G01X80.582Y24.907Z-0.030
G01X80.726Y24.856Z-0.030
G01X80.874Y24.819Z-0.030
G01X81.025Y24.796Z-0.030
G01X81.177Y24.789Z-0.030
G01X81.329Y24.796Z-0.030
G01X81.480Y24.819Z-0.030
G01X81.628Y24.856Z-0.030
G01X81.772Y24.907Z-0.030
G01X81.910Y24.972Z-0.030
G01X82.041Y25.051Z-0.030
G01X82.163Y25.142Z-0.030
G01X82.276Y25.244Z-0.030
G01X82.379Y25.357Z-0.030
G01X82.470Y25.480Z-0.030
G01X82.548Y25.610Z-0.030
G01X82.613Y25.748Z-0.030
G01X82.665Y25.892Z-0.030
G01X82.702Y26.040Z-0.030
G01X82.724Y26.191Z-0.029
G01X82.732Y26.343Z-0.029
G01X82.724Y26.496Z-0.029
G01X82.702Y26.646Z-0.029
G01X82.665Y26.794Z-0.029
G01X82.613Y26.938Z-0.029
G01X82.548Y27.076Z-0.029
G01X82.470Y27.207Z-0.029
G01X82.379Y27.329Z-0.029
G01X82.276Y27.442Z-0.029
G01X82.163Y27.545Z-0.029
G01X82.041Y27.636Z-0.029
G01X81.910Y27.714Z-0.029
G01X81.772Y27.779Z-0.029
G01X81.628Y27.831Z-0.029
G01X81.480Y27.868Z-0.029
G01X81.329Y27.890Z-0.029
G01X81.177Y27.897Z-0.029
G01X81.025Y27.890Z-0.029
G01X80.874Y27.868Z-0.029
G01X80.726Y27.831Z-0.029
G01X80.582Y27.779Z-0.029
G01X80.445Y27.714Z-0.029
G01X80.314Y27.636Z-0.029
G01X80.191Y27.545Z-0.030
G01X80.078Y27.442Z-0.030
G01X79.976Y27.329Z-0.030
G01X79.885Y27.207Z-0.030
G01X79.806Y27.076Z-0.030
G01X79.741Y26.938Z-0.030
G01X79.690Y26.794Z-0.030
G01X79.653Y26.646Z-0.030
G01X79.630Y26.496Z-0.030
G01X79.623Y26.346Z-0.030
G01X79.623Y26.340Z-0.030
G00X79.623Y26.340Z2.020
G00X80.513Y21.375Z2.018
X81.244Y17.299Z2.017
G01F60.00X81.244Y17.299Z2.017
G01X81.244Y17.299Z-0.033
G01F120.00X81.244Y17.299Z-0.033
G01X81.056Y17.294Z-0.033
G01X80.868Y17.271Z-0.033
G01X80.684Y17.230Z-0.033
G01X80.504Y17.172Z-0.033
G01X80.330Y17.096Z-0.033
G01X80.165Y17.004Z-0.033
G01X80.010Y16.897Z-0.033
G01X79.865Y16.775Z-0.033
G01X79.733Y16.640Z-0.033
G01X79.615Y16.493Z-0.033
G01X79.511Y16.335Z-0.034
G01X79.423Y16.167Z-0.034
G01X79.352Y15.992Z-0.034
G01X79.298Y15.811Z-0.034
G01X79.262Y15.626Z-0.034
G01X79.244Y15.438Z-0.034
G01X79.244Y15.248Z-0.034
G01X79.262Y15.061Z-0.034
G01X79.298Y14.875Z-0.034
G01X79.352Y14.694Z-0.034
G01X79.423Y14.519Z-0.034
G01X79.511Y14.352Z-0.034
G01X79.615Y14.193Z-0.034
G01X79.733Y14.046Z-0.034
G01X79.865Y13.911Z-0.034
G01X80.010Y13.789Z-0.034
G01X80.165Y13.682Z-0.034
G01X80.330Y13.590Z-0.034
G01X80.504Y13.514Z-0.034
G01X80.684Y13.456Z-0.034
G01X80.868Y13.415Z-0.034
G01X81.056Y13.392Z-0.034
G01X81.244Y13.388Z-0.034
G01X81.433Y13.402Z-0.034
G01X81.619Y13.433Z-0.034
G01X81.801Y13.483Z-0.034
G01X81.978Y13.550Z-0.034
G01X82.148Y13.634Z-0.034
G01X82.309Y13.734Z-0.034
G01X82.458Y13.848Z-0.034
G01X82.597Y13.977Z-0.034
G01X82.722Y14.118Z-0.034
G01X82.833Y14.271Z-0.034
G01X82.929Y14.434Z-0.034
G01X83.009Y14.606Z-0.033
G01X83.072Y14.784Z-0.033
G01X83.117Y14.967Z-0.033
G01X83.144Y15.155Z-0.033
G01X83.153Y15.343Z-0.033
G01X83.144Y15.532Z-0.033
G01X83.117Y15.719Z-0.033
G01X83.072Y15.902Z-0.033
G01X83.009Y16.081Z-0.033
G01X82.929Y16.252Z-0.033
G01X82.833Y16.415Z-0.033
G01X82.722Y16.568Z-0.033
G01X82.597Y16.709Z-0.033
G01X82.458Y16.838Z-0.033
G01X82.309Y16.953Z-0.033
G01X82.148Y17.052Z-0.033
G01X81.978Y17.136Z-0.033
G01X81.801Y17.203Z-0.033
G01X81.619Y17.253Z-0.033
G01X81.433Y17.285Z-0.033
G01X81.244Y17.299Z-0.033
G00X81.244Y17.299Z2.017
G00X79.643Y15.340Z2.016
G01F60.00X79.643Y15.340Z2.016
G01X79.643Y15.340Z-0.034
G01F120.00X79.643Y15.340Z-0.034
G01X79.650Y15.191Z-0.034
G01X79.673Y15.040Z-0.034
G01X79.710Y14.892Z-0.034
G01X79.761Y14.748Z-0.034
G01X79.826Y14.611Z-0.034
G01X79.905Y14.480Z-0.034
G01X79.996Y14.357Z-0.034
G01X80.098Y14.244Z-0.034
G01X80.211Y14.142Z-0.034
G01X80.334Y14.051Z-0.034
G01X80.465Y13.972Z-0.034
G01X80.602Y13.907Z-0.034
G01X80.746Y13.856Z-0.034
G01X80.894Y13.819Z-0.034
G01X81.045Y13.796Z-0.034
G01X81.197Y13.789Z-0.034
G01X81.350Y13.796Z-0.034
G01X81.501Y13.819Z-0.034
G01X81.648Y13.856Z-0.034
G01X81.792Y13.907Z-0.034
G01X81.930Y13.972Z-0.034
G01X82.061Y14.051Z-0.034
G01X82.183Y14.142Z-0.034
G01X82.296Y14.244Z-0.034
G01X82.399Y14.357Z-0.034
G01X82.490Y14.480Z-0.034
G01X82.568Y14.611Z-0.034
G01X82.633Y14.748Z-0.033
G01X82.685Y14.892Z-0.033
G01X82.722Y15.040Z-0.033
G01X82.744Y15.191Z-0.033
G01X82.752Y15.343Z-0.033
G01X82.744Y15.496Z-0.033
G01X82.722Y15.646Z-0.033
G01X82.685Y15.794Z-0.033
G01X82.633Y15.938Z-0.033
G01X82.568Y16.076Z-0.033
G01X82.490Y16.207Z-0.033
G01X82.399Y16.329Z-0.033
G01X82.296Y16.442Z-0.033
G01X82.183Y16.545Z-0.033
G01X82.061Y16.636Z-0.033
G01X81.930Y16.714Z-0.033
G01X81.792Y16.779Z-0.033
G01X81.648Y16.831Z-0.033
G01X81.501Y16.868Z-0.033
G01X81.350Y16.890Z-0.033
G01X81.197Y16.898Z-0.033
G01X81.045Y16.890Z-0.033
G01X80.894Y16.868Z-0.033
G01X80.746Y16.831Z-0.033
G01X80.602Y16.779Z-0.033
G01X80.465Y16.714Z-0.033
G01X80.334Y16.636Z-0.033
G01X80.211Y16.545Z-0.033
G01X80.098Y16.442Z-0.033
G01X79.996Y16.329Z-0.033
G01X79.905Y16.207Z-0.034
G01X79.826Y16.076Z-0.034
G01X79.761Y15.938Z-0.034
G01X79.710Y15.794Z-0.034
G01X79.673Y15.646Z-0.034
G01X79.650Y15.496Z-0.034
G01X79.643Y15.346Z-0.034
G01X79.643Y15.340Z-0.034
G00X79.643Y15.340Z2.016
G00X84.723Y15.340Z2.017
G01F60.00X84.723Y15.340Z2.017
G01X84.723Y15.340Z-0.033
G01F120.00X84.723Y15.340Z-0.033
G01X84.730Y15.191Z-0.033
G01X84.753Y15.040Z-0.033
G01X84.790Y14.892Z-0.033
G01X84.841Y14.748Z-0.033
G01X84.906Y14.611Z-0.033
G01X84.985Y14.480Z-0.033
G01X85.076Y14.357Z-0.033
G01X85.178Y14.244Z-0.033
G01X85.291Y14.142Z-0.033
G01X85.414Y14.051Z-0.033
G01X85.545Y13.972Z-0.033
G01X85.682Y13.907Z-0.033
G01X85.826Y13.856Z-0.033
G01X85.974Y13.819Z-0.033
G01X86.125Y13.796Z-0.033
G01X86.277Y13.789Z-0.033
G01X86.430Y13.796Z-0.033
G01X86.580Y13.819Z-0.033
G01X86.729Y13.856Z-0.033
G01X86.872Y13.907Z-0.033
G01X87.010Y13.972Z-0.033
G01X87.141Y14.051Z-0.033
G01X87.263Y14.142Z-0.033
G01X87.376Y14.244Z-0.033
G01X87.479Y14.357Z-0.033
G01X87.570Y14.480Z-0.033
G01X87.648Y14.611Z-0.033
G01X87.713Y14.748Z-0.032
G01X87.765Y14.892Z-0.032
G01X87.802Y15.040Z-0.032
G01X87.824Y15.191Z-0.032
G01X87.832Y15.343Z-0.032
G01X87.824Y15.496Z-0.032
G01X87.802Y15.646Z-0.032
G01X87.765Y15.794Z-0.032
G01X87.713Y15.938Z-0.032
G01X87.648Y16.076Z-0.032
G01X87.570Y16.207Z-0.032
G01X87.479Y16.329Z-0.032
G01X87.376Y16.442Z-0.032
G01X87.263Y16.545Z-0.032
G01X87.141Y16.636Z-0.032
G01X87.010Y16.714Z-0.032
G01X86.872Y16.779Z-0.032
G01X86.729Y16.831Z-0.032
G01X86.580Y16.868Z-0.032
G01X86.430Y16.890Z-0.032
G01X86.277Y16.898Z-0.032
G01X86.125Y16.890Z-0.032
G01X85.974Y16.868Z-0.032
G01X85.826Y16.831Z-0.032
G01X85.682Y16.779Z-0.032
G01X85.545Y16.714Z-0.032
G01X85.414Y16.636Z-0.032
G01X85.291Y16.545Z-0.032
G01X85.178Y16.442Z-0.032
G01X85.076Y16.329Z-0.032
G01X84.985Y16.207Z-0.033
G01X84.906Y16.076Z-0.033
G01X84.841Y15.938Z-0.033
G01X84.790Y15.794Z-0.033
G01X84.753Y15.646Z-0.033
G01X84.730Y15.496Z-0.033
G01X84.723Y15.346Z-0.033
G01X84.723Y15.340Z-0.033
G00X84.723Y15.340Z2.017
G00X86.324Y17.299Z2.018
G01F60.00X86.324Y17.299Z2.018
G01X86.324Y17.299Z-0.032
G01F120.00X86.324Y17.299Z-0.032
G01X86.136Y17.294Z-0.032
G01X85.948Y17.271Z-0.032
G01X85.763Y17.230Z-0.032
G01X85.584Y17.172Z-0.032
G01X85.410Y17.096Z-0.032
G01X85.245Y17.004Z-0.032
G01X85.090Y16.897Z-0.032
G01X84.945Y16.775Z-0.032
G01X84.813Y16.640Z-0.032
G01X84.695Y16.493Z-0.033
G01X84.591Y16.335Z-0.033
G01X84.503Y16.167Z-0.033
G01X84.432Y15.992Z-0.033
G01X84.378Y15.811Z-0.033
G01X84.342Y15.626Z-0.033
G01X84.324Y15.438Z-0.033
G01X84.324Y15.248Z-0.033
G01X84.342Y15.061Z-0.033
G01X84.378Y14.875Z-0.033
G01X84.432Y14.694Z-0.033
G01X84.503Y14.519Z-0.033
G01X84.591Y14.352Z-0.033
G01X84.695Y14.193Z-0.033
G01X84.813Y14.046Z-0.033
G01X84.945Y13.911Z-0.033
G01X85.090Y13.789Z-0.033
G01X85.245Y13.682Z-0.033
G01X85.410Y13.590Z-0.033
G01X85.584Y13.514Z-0.033
G01X85.763Y13.456Z-0.033
G01X85.948Y13.415Z-0.033
G01X86.136Y13.392Z-0.033
G01X86.324Y13.388Z-0.033
G01X86.513Y13.402Z-0.033
G01X86.699Y13.433Z-0.033
G01X86.881Y13.483Z-0.033
G01X87.058Y13.550Z-0.033
G01X87.228Y13.634Z-0.033
G01X87.388Y13.734Z-0.033
G01X87.538Y13.848Z-0.033
G01X87.677Y13.977Z-0.033
G01X87.802Y14.118Z-0.033
G01X87.913Y14.271Z-0.033
G01X88.009Y14.434Z-0.033
G01X88.089Y14.606Z-0.032
G01X88.151Y14.784Z-0.032
G01X88.197Y14.967Z-0.032
G01X88.224Y15.155Z-0.032
G01X88.233Y15.343Z-0.032
G01X88.224Y15.532Z-0.032
G01X88.197Y15.719Z-0.032
G01X88.151Y15.902Z-0.032
G01X88.089Y16.081Z-0.032
G01X88.009Y16.252Z-0.032
G01X87.913Y16.415Z-0.032
G01X87.802Y16.568Z-0.032
G01X87.677Y16.709Z-0.032
G01X87.538Y16.838Z-0.032
G01X87.388Y16.953Z-0.032
G01X87.228Y17.052Z-0.032
G01X87.058Y17.136Z-0.032
G01X86.881Y17.203Z-0.032
G01X86.699Y17.253Z-0.032
G01X86.513Y17.285Z-0.032
G01X86.324Y17.299Z-0.032
G00X86.324Y17.299Z2.018
G00X88.639Y22.264Z2.020
X90.953Y27.229Z2.022
X93.267Y32.194Z2.024
X94.695Y35.258Z2.024
G01F60.00X94.695Y35.258Z2.024
G01X94.695Y35.258Z-0.026
G01F120.00X94.695Y35.258Z-0.026
G01X94.645Y35.326Z-0.026
G01X94.579Y35.398Z-0.026
G01X94.507Y35.464Z-0.025
G01X94.429Y35.522Z-0.025
G01X94.345Y35.572Z-0.025
G01X94.257Y35.614Z-0.025
G01X94.165Y35.647Z-0.025
G01X94.070Y35.670Z-0.025
G01X93.974Y35.685Z-0.025
G01X93.876Y35.689Z-0.025
G01X93.779Y35.685Z-0.025
G01X93.682Y35.670Z-0.026
G01X93.588Y35.647Z-0.026
G01X93.496Y35.614Z-0.026
G01X93.408Y35.572Z-0.026
G01X93.324Y35.522Z-0.026
G01X93.245Y35.464Z-0.026
G01X93.173Y35.398Z-0.026
G01X93.108Y35.326Z-0.026
G01X93.049Y35.248Z-0.026
G01X92.999Y35.164Z-0.026
G01X92.958Y35.076Z-0.026
G01X92.925Y34.984Z-0.026
G01X92.901Y34.889Z-0.026
G01X92.887Y34.793Z-0.026
G01X92.882Y34.695Z-0.026
G01X92.887Y34.598Z-0.026
G01X92.901Y34.501Z-0.026
G01X92.925Y34.407Z-0.026
G01X92.958Y34.315Z-0.026
G01X92.999Y34.227Z-0.026
G01X93.049Y34.143Z-0.026
G01X93.108Y34.064Z-0.026
G01X93.173Y33.992Z-0.026
G01X93.245Y33.927Z-0.026
G01X93.322Y33.870Z-0.026
G01X93.326Y33.867Z-0.026
G01X93.410Y33.817Z-0.026
G01X93.496Y33.777Z-0.026
G01X93.585Y33.744Z-0.026
G01X93.590Y33.743Z-0.026
G01X93.682Y33.720Z-0.026
G01X93.777Y33.706Z-0.026
G01X93.873Y33.701Z-0.026
G01X93.879Y33.701Z-0.026
G01X93.974Y33.706Z-0.026
G01X94.067Y33.720Z-0.026
G01X94.073Y33.721Z-0.026
G01X94.165Y33.744Z-0.026
G01X94.254Y33.776Z-0.026
G01X94.259Y33.778Z-0.026
G01X94.345Y33.818Z-0.026
G01X94.426Y33.867Z-0.026
G01X94.431Y33.870Z-0.026
G01X94.507Y33.927Z-0.026
G01X94.577Y33.990Z-0.026
G01X94.581Y33.994Z-0.026
G01X94.645Y34.064Z-0.026
G01X94.695Y34.132Z-0.026
G01X95.597Y34.132Z-0.026
G01X95.648Y34.064Z-0.026
G01X95.711Y33.994Z-0.026
G01X95.715Y33.990Z-0.026
G01X95.785Y33.927Z-0.026
G01X95.862Y33.870Z-0.026
G01X95.866Y33.867Z-0.026
G01X95.948Y33.818Z-0.026
G01X96.033Y33.778Z-0.026
G01X96.038Y33.776Z-0.026
G01X96.128Y33.744Z-0.026
G01X96.220Y33.721Z-0.026
G01X96.225Y33.720Z-0.026
G01X96.319Y33.706Z-0.026
G01X96.413Y33.701Z-0.026
G01X96.419Y33.701Z-0.026
G01X96.515Y33.706Z-0.026
G01X96.610Y33.720Z-0.026
G01X96.705Y33.744Z-0.026
G01X96.797Y33.777Z-0.026
G01X96.882Y33.817Z-0.026
G01X96.887Y33.820Z-0.026
G01X96.969Y33.868Z-0.026
G01X97.045Y33.925Z-0.026
G01X97.049Y33.928Z-0.026
G01X97.121Y33.994Z-0.026
G01X97.185Y34.064Z-0.026
G01X97.235Y34.132Z-0.026
G01X99.211Y34.132Z-0.025
G01X99.266Y34.135Z-0.025
G01X99.318Y34.143Z-0.025
G01X99.372Y34.156Z-0.025
G01X99.377Y34.158Z-0.025
G01X99.426Y34.175Z-0.025
G01X99.474Y34.198Z-0.025
G01X99.522Y34.226Z-0.025
G01X99.568Y34.260Z-0.025
G01X99.608Y34.296Z-0.025
G01X100.119Y34.807Z-0.025
G01X100.154Y34.846Z-0.025
G01X100.187Y34.890Z-0.025
G01X100.215Y34.938Z-0.025
G01X100.240Y34.990Z-0.025
G01X100.258Y35.040Z-0.025
G01X100.271Y35.093Z-0.025
G01X100.279Y35.148Z-0.025
G01X100.282Y35.203Z-0.025
G01X100.282Y35.841Z-0.025
G01X100.279Y35.893Z-0.025
G01X100.278Y35.903Z-0.025
G01X100.279Y35.913Z-0.025
G01X100.282Y35.965Z-0.025
G01X100.282Y40.930Z-0.024
X100.282Y45.896Z-0.022
X100.282Y50.861Z-0.021
X100.282Y55.826Z-0.020
X100.282Y60.792Z-0.018
X100.282Y62.656Z-0.018
G01X105.247Y67.621Z-0.017
X107.039Y69.413Z-0.016
G01X107.874Y69.413Z-0.016
G01X107.879Y69.414Z-0.016
G01X107.886Y69.415Z-0.016
G01X107.891Y69.416Z-0.016
G01X107.896Y69.419Z-0.016
G01X107.901Y69.421Z-0.016
G01X107.905Y69.424Z-0.016
G01X107.909Y69.427Z-0.016
G01X107.913Y69.431Z-0.016
G01X107.916Y69.435Z-0.016
G01X107.919Y69.440Z-0.016
G01X107.923Y69.448Z-0.016
G01X107.926Y69.457Z-0.016
G01X107.927Y69.462Z-0.016
G01X107.927Y69.468Z-0.016
G01X107.927Y71.044Z-0.016
G01X107.926Y71.052Z-0.016
G01X107.924Y71.060Z-0.016
G01X107.921Y71.067Z-0.016
G01X107.917Y71.074Z-0.016
G01X107.912Y71.080Z-0.016
G01X107.906Y71.086Z-0.016
G01X107.898Y71.091Z-0.016
G01X107.891Y71.094Z-0.016
G01X107.882Y71.096Z-0.016
G01X107.873Y71.097Z-0.016
G01X106.298Y71.097Z-0.016
G01X106.292Y71.097Z-0.016
G01X106.287Y71.096Z-0.016
G01X106.278Y71.093Z-0.016
G01X106.270Y71.089Z-0.016
G01X106.265Y71.086Z-0.016
G01X106.261Y71.083Z-0.016
G01X106.257Y71.078Z-0.016
G01X106.253Y71.074Z-0.016
G01X106.250Y71.069Z-0.016
G01X106.248Y71.065Z-0.016
G01X106.246Y71.060Z-0.016
G01X106.245Y71.054Z-0.016
G01X106.244Y71.049Z-0.016
G01X106.243Y71.044Z-0.016
G01X106.243Y70.209Z-0.016
G01X101.278Y65.244Z-0.017
X99.321Y63.287Z-0.018
G01X99.284Y63.246Z-0.018
G01X99.251Y63.202Z-0.018
G01X99.223Y63.154Z-0.018
G01X99.198Y63.102Z-0.018
G01X99.181Y63.053Z-0.018
G01X99.167Y62.999Z-0.018
G01X99.159Y62.944Z-0.018
G01X99.156Y62.889Z-0.018
G01X99.156Y57.924Z-0.019
X99.156Y52.959Z-0.021
X99.156Y47.993Z-0.022
X99.156Y43.028Z-0.023
X99.156Y38.063Z-0.024
X99.156Y35.965Z-0.025
G01X99.159Y35.913Z-0.025
G01X99.160Y35.903Z-0.025
G01X99.159Y35.893Z-0.025
G01X99.156Y35.841Z-0.025
G01X99.156Y35.436Z-0.025
G01X98.978Y35.258Z-0.025
G01X97.235Y35.258Z-0.025
G01X97.185Y35.326Z-0.025
G01X97.121Y35.396Z-0.025
G01X97.049Y35.462Z-0.025
G01X97.045Y35.465Z-0.025
G01X96.969Y35.522Z-0.025
G01X96.885Y35.572Z-0.025
G01X96.799Y35.613Z-0.025
G01X96.794Y35.615Z-0.025
G01X96.705Y35.647Z-0.025
G01X96.613Y35.670Z-0.025
G01X96.607Y35.671Z-0.025
G01X96.514Y35.685Z-0.025
G01X96.419Y35.689Z-0.025
G01X96.413Y35.689Z-0.025
G01X96.316Y35.684Z-0.025
G01X96.222Y35.670Z-0.025
G01X96.130Y35.647Z-0.025
G01X96.125Y35.646Z-0.025
G01X96.036Y35.614Z-0.025
G01X95.948Y35.572Z-0.025
G01X95.864Y35.522Z-0.025
G01X95.787Y35.465Z-0.025
G01X95.783Y35.462Z-0.025
G01X95.711Y35.396Z-0.025
G01X95.648Y35.326Z-0.025
G01X95.597Y35.258Z-0.025
G01X94.695Y35.258Z-0.026
G00X94.695Y35.258Z2.024
G00X94.816Y38.229Z2.025
G01F60.00X94.816Y38.229Z2.025
G01X94.816Y38.229Z-0.025
G01F120.00X94.816Y38.229Z-0.025
G01X92.936Y38.229Z-0.025
G01X92.931Y38.229Z-0.025
G01X92.926Y38.228Z-0.025
G01X92.921Y38.227Z-0.025
G01X92.915Y38.225Z-0.025
G01X92.911Y38.223Z-0.025
G01X92.906Y38.220Z-0.025
G01X92.902Y38.217Z-0.025
G01X92.897Y38.213Z-0.025
G01X92.893Y38.208Z-0.025
G01X92.890Y38.204Z-0.025
G01X92.886Y38.196Z-0.025
G01X92.884Y38.191Z-0.025
G01X92.883Y38.186Z-0.025
G01X92.882Y38.180Z-0.025
G01X92.882Y38.175Z-0.025
G01X92.882Y36.295Z-0.025
G01X92.882Y36.290Z-0.025
G01X92.883Y36.285Z-0.025
G01X92.884Y36.280Z-0.025
G01X92.886Y36.275Z-0.025
G01X92.889Y36.269Z-0.025
G01X92.892Y36.264Z-0.025
G01X92.895Y36.260Z-0.025
G01X92.899Y36.256Z-0.025
G01X92.903Y36.252Z-0.025
G01X92.907Y36.249Z-0.025
G01X92.912Y36.247Z-0.025
G01X92.917Y36.244Z-0.025
G01X92.922Y36.243Z-0.025
G01X92.927Y36.242Z-0.025
G01X92.936Y36.241Z-0.025
G01X94.816Y36.241Z-0.025
G01X94.821Y36.241Z-0.025
G01X94.827Y36.242Z-0.025
G01X94.832Y36.243Z-0.025
G01X94.837Y36.245Z-0.025
G01X94.842Y36.247Z-0.025
G01X94.847Y36.251Z-0.025
G01X94.852Y36.254Z-0.025
G01X94.855Y36.258Z-0.025
G01X94.859Y36.262Z-0.025
G01X94.862Y36.266Z-0.025
G01X94.865Y36.271Z-0.025
G01X94.867Y36.276Z-0.025
G01X94.868Y36.281Z-0.025
G01X94.870Y36.286Z-0.025
G01X94.870Y36.295Z-0.025
G01X94.870Y38.176Z-0.025
G01X94.869Y38.186Z-0.025
G01X94.868Y38.191Z-0.025
G01X94.866Y38.196Z-0.025
G01X94.864Y38.201Z-0.025
G01X94.861Y38.205Z-0.025
G01X94.858Y38.210Z-0.025
G01X94.854Y38.214Z-0.025
G01X94.851Y38.217Z-0.025
G01X94.846Y38.220Z-0.025
G01X94.842Y38.223Z-0.025
G01X94.837Y38.225Z-0.025
G01X94.832Y38.227Z-0.025
G01X94.827Y38.228Z-0.025
G01X94.821Y38.229Z-0.025
G01X94.816Y38.229Z-0.025
G00X94.816Y38.229Z2.025
G00X94.816Y40.770Z2.026
G01F60.00X94.816Y40.770Z2.026
G01X94.816Y40.770Z-0.024
G01F120.00X94.816Y40.770Z-0.024
G01X92.936Y40.770Z-0.024
G01X92.931Y40.769Z-0.024
G01X92.926Y40.768Z-0.024
G01X92.919Y40.767Z-0.024
G01X92.914Y40.765Z-0.024
G01X92.910Y40.762Z-0.024
G01X92.905Y40.759Z-0.024
G01X92.901Y40.756Z-0.024
G01X92.897Y40.753Z-0.024
G01X92.891Y40.745Z-0.024
G01X92.888Y40.741Z-0.024
G01X92.886Y40.736Z-0.024
G01X92.884Y40.731Z-0.024
G01X92.883Y40.726Z-0.024
G01X92.882Y40.720Z-0.024
G01X92.882Y40.715Z-0.024
G01X92.882Y38.835Z-0.025
G01X92.882Y38.829Z-0.025
G01X92.883Y38.823Z-0.025
G01X92.885Y38.818Z-0.025
G01X92.887Y38.813Z-0.025
G01X92.889Y38.808Z-0.025
G01X92.892Y38.804Z-0.025
G01X92.895Y38.800Z-0.025
G01X92.899Y38.796Z-0.025
G01X92.903Y38.792Z-0.025
G01X92.907Y38.789Z-0.025
G01X92.912Y38.787Z-0.025
G01X92.917Y38.785Z-0.025
G01X92.922Y38.783Z-0.025
G01X92.927Y38.782Z-0.025
G01X92.936Y38.781Z-0.025
G01X94.816Y38.781Z-0.025
G01X94.821Y38.781Z-0.025
G01X94.827Y38.782Z-0.025
G01X94.832Y38.783Z-0.025
G01X94.837Y38.785Z-0.025
G01X94.842Y38.787Z-0.025
G01X94.847Y38.791Z-0.025
G01X94.852Y38.794Z-0.025
G01X94.855Y38.798Z-0.025
G01X94.859Y38.802Z-0.025
G01X94.862Y38.806Z-0.025
G01X94.865Y38.811Z-0.025
G01X94.867Y38.816Z-0.025
G01X94.868Y38.821Z-0.025
G01X94.870Y38.826Z-0.025
G01X94.870Y38.835Z-0.025
G01X94.870Y40.716Z-0.024
G01X94.869Y40.726Z-0.024
G01X94.868Y40.731Z-0.024
G01X94.866Y40.736Z-0.024
G01X94.864Y40.741Z-0.024
G01X94.861Y40.745Z-0.024
G01X94.858Y40.750Z-0.024
G01X94.854Y40.754Z-0.024
G01X94.851Y40.757Z-0.024
G01X94.846Y40.760Z-0.024
G01X94.842Y40.763Z-0.024
G01X94.837Y40.765Z-0.024
G01X94.832Y40.767Z-0.024
G01X94.827Y40.768Z-0.024
G01X94.821Y40.769Z-0.024
G01X94.816Y40.770Z-0.024
G00X94.816Y40.770Z2.026
G00X94.816Y43.310Z2.027
G01F60.00X94.816Y43.310Z2.027
G01X94.816Y43.310Z-0.023
G01F120.00X94.816Y43.310Z-0.023
G01X92.936Y43.310Z-0.024
G01X92.931Y43.309Z-0.024
G01X92.926Y43.308Z-0.024
G01X92.921Y43.307Z-0.024
G01X92.915Y43.305Z-0.024
G01X92.911Y43.303Z-0.024
G01X92.906Y43.300Z-0.024
G01X92.902Y43.297Z-0.024
G01X92.897Y43.293Z-0.024
G01X92.893Y43.289Z-0.024
G01X92.890Y43.284Z-0.024
G01X92.886Y43.276Z-0.024
G01X92.884Y43.271Z-0.024
G01X92.883Y43.266Z-0.024
G01X92.882Y43.260Z-0.024
G01X92.882Y43.255Z-0.024
G01X92.882Y41.375Z-0.024
G01X92.882Y41.370Z-0.024
G01X92.883Y41.365Z-0.024
G01X92.884Y41.360Z-0.024
G01X92.886Y41.354Z-0.024
G01X92.889Y41.348Z-0.024
G01X92.892Y41.344Z-0.024
G01X92.895Y41.340Z-0.024
G01X92.899Y41.336Z-0.024
G01X92.903Y41.332Z-0.024
G01X92.907Y41.329Z-0.024
G01X92.912Y41.327Z-0.024
G01X92.917Y41.325Z-0.024
G01X92.922Y41.323Z-0.024
G01X92.927Y41.322Z-0.024
G01X92.936Y41.321Z-0.024
G01X94.816Y41.321Z-0.024
G01X94.821Y41.321Z-0.024
G01X94.827Y41.322Z-0.024
G01X94.832Y41.323Z-0.024
G01X94.837Y41.325Z-0.024
G01X94.842Y41.327Z-0.024
G01X94.847Y41.331Z-0.024
G01X94.852Y41.334Z-0.024
G01X94.855Y41.338Z-0.024
G01X94.859Y41.342Z-0.024
G01X94.862Y41.346Z-0.024
G01X94.865Y41.351Z-0.024
G01X94.867Y41.356Z-0.024
G01X94.868Y41.361Z-0.024
G01X94.870Y41.366Z-0.024
G01X94.870Y41.375Z-0.024
G01X94.870Y43.256Z-0.023
G01X94.869Y43.266Z-0.023
G01X94.868Y43.271Z-0.023
G01X94.866Y43.276Z-0.023
G01X94.864Y43.281Z-0.023
G01X94.861Y43.285Z-0.023
G01X94.858Y43.290Z-0.023
G01X94.854Y43.293Z-0.023
G01X94.851Y43.297Z-0.023
G01X94.846Y43.300Z-0.023
G01X94.842Y43.303Z-0.023
G01X94.837Y43.305Z-0.023
G01X94.832Y43.307Z-0.023
G01X94.827Y43.308Z-0.023
G01X94.821Y43.309Z-0.023
G01X94.816Y43.310Z-0.023
G00X94.816Y43.310Z2.027
G00X94.816Y45.849Z2.027
G01F60.00X94.816Y45.849Z2.027
G01X94.816Y45.849Z-0.023
G01F120.00X94.816Y45.849Z-0.023
G01X92.936Y45.849Z-0.023
G01X92.931Y45.849Z-0.023
G01X92.926Y45.848Z-0.023
G01X92.921Y45.847Z-0.023
G01X92.915Y45.845Z-0.023
G01X92.911Y45.843Z-0.023
G01X92.906Y45.840Z-0.023
G01X92.902Y45.837Z-0.023
G01X92.897Y45.833Z-0.023
G01X92.893Y45.828Z-0.023
G01X92.890Y45.824Z-0.023
G01X92.886Y45.816Z-0.023
G01X92.884Y45.811Z-0.023
G01X92.883Y45.806Z-0.023
G01X92.882Y45.800Z-0.023
G01X92.882Y45.795Z-0.023
G01X92.882Y43.915Z-0.023
G01X92.882Y43.910Z-0.023
G01X92.883Y43.905Z-0.023
G01X92.884Y43.900Z-0.023
G01X92.886Y43.895Z-0.023
G01X92.889Y43.889Z-0.023
G01X92.892Y43.884Z-0.023
G01X92.895Y43.880Z-0.023
G01X92.899Y43.876Z-0.023
G01X92.903Y43.872Z-0.023
G01X92.907Y43.869Z-0.023
G01X92.912Y43.867Z-0.023
G01X92.917Y43.864Z-0.023
G01X92.922Y43.863Z-0.023
G01X92.927Y43.862Z-0.023
G01X92.936Y43.861Z-0.023
G01X94.816Y43.861Z-0.023
G01X94.821Y43.861Z-0.023
G01X94.827Y43.862Z-0.023
G01X94.832Y43.863Z-0.023
G01X94.837Y43.865Z-0.023
G01X94.842Y43.867Z-0.023
G01X94.847Y43.871Z-0.023
G01X94.852Y43.874Z-0.023
G01X94.855Y43.878Z-0.023
G01X94.859Y43.882Z-0.023
G01X94.862Y43.886Z-0.023
G01X94.865Y43.891Z-0.023
G01X94.867Y43.896Z-0.023
G01X94.868Y43.901Z-0.023
G01X94.870Y43.906Z-0.023
G01X94.870Y43.915Z-0.023
G01X94.870Y45.796Z-0.023
G01X94.869Y45.806Z-0.023
G01X94.868Y45.811Z-0.023
G01X94.866Y45.816Z-0.023
G01X94.864Y45.821Z-0.023
G01X94.861Y45.825Z-0.023
G01X94.858Y45.830Z-0.023
G01X94.854Y45.833Z-0.023
G01X94.851Y45.837Z-0.023
G01X94.846Y45.840Z-0.023
G01X94.842Y45.843Z-0.023
G01X94.837Y45.845Z-0.023
G01X94.832Y45.847Z-0.023
G01X94.827Y45.848Z-0.023
G01X94.821Y45.849Z-0.023
G01X94.816Y45.849Z-0.023
G00X94.816Y45.849Z2.027
G00X94.816Y48.389Z2.028
G01F60.00X94.816Y48.389Z2.028
G01X94.816Y48.389Z-0.022
G01F120.00X94.816Y48.389Z-0.022
G01X92.936Y48.389Z-0.022
G01X92.928Y48.389Z-0.022
G01X92.921Y48.387Z-0.022
G01X92.914Y48.385Z-0.022
G01X92.907Y48.381Z-0.022
G01X92.902Y48.377Z-0.022
G01X92.897Y48.373Z-0.022
G01X92.893Y48.368Z-0.022
G01X92.890Y48.363Z-0.022
G01X92.887Y48.357Z-0.022
G01X92.884Y48.351Z-0.022
G01X92.883Y48.344Z-0.022
G01X92.882Y48.338Z-0.022
G01X92.882Y47.831Z-0.022
G01X92.860Y47.831Z-0.022
G01X92.820Y47.829Z-0.022
G01X92.777Y47.823Z-0.022
G01X92.735Y47.812Z-0.022
G01X92.696Y47.798Z-0.022
G01X92.656Y47.779Z-0.022
G01X92.619Y47.757Z-0.022
G01X92.585Y47.732Z-0.022
G01X92.554Y47.704Z-0.022
G01X90.774Y45.924Z-0.023
G01X90.745Y45.891Z-0.023
G01X90.721Y45.859Z-0.023
G01X90.700Y45.825Z-0.023
G01X90.681Y45.784Z-0.023
G01X90.666Y45.744Z-0.023
G01X90.656Y45.702Z-0.023
G01X90.650Y45.662Z-0.023
G01X90.647Y45.617Z-0.023
G01X90.647Y40.652Z-0.025
X90.647Y35.687Z-0.026
X90.647Y30.721Z-0.027
X90.647Y26.240Z-0.028
G01X86.946Y22.540Z-0.030
G01X77.689Y22.540Z-0.032
X68.433Y22.540Z-0.033
X60.866Y22.540Z-0.034
G01X60.855Y22.558Z-0.034
G01X60.809Y22.620Z-0.034
G01X60.755Y22.681Z-0.034
G01X60.694Y22.735Z-0.034
G01X60.632Y22.781Z-0.034
G01X60.613Y22.793Z-0.034
G01X60.613Y23.953Z-0.034
G01X60.632Y23.965Z-0.034
G01X60.696Y24.013Z-0.034
G01X60.755Y24.066Z-0.034
G01X60.808Y24.124Z-0.034
G01X60.855Y24.187Z-0.034
G01X60.858Y24.192Z-0.034
G01X60.897Y24.258Z-0.034
G01X60.931Y24.330Z-0.034
G01X60.958Y24.404Z-0.034
G01X60.959Y24.409Z-0.034
G01X60.978Y24.484Z-0.034
G01X60.990Y24.563Z-0.033
G01X60.994Y24.643Z-0.033
G01X60.990Y24.721Z-0.033
G01X60.989Y24.726Z-0.033
G01X60.978Y24.804Z-0.033
G01X60.959Y24.880Z-0.033
G01X60.932Y24.956Z-0.033
G01X60.897Y25.028Z-0.033
G01X60.858Y25.094Z-0.033
G01X60.855Y25.099Z-0.033
G01X60.807Y25.163Z-0.033
G01X60.755Y25.221Z-0.033
G01X60.695Y25.274Z-0.033
G01X60.631Y25.322Z-0.033
G01X60.562Y25.363Z-0.033
G01X60.490Y25.397Z-0.033
G01X60.417Y25.424Z-0.033
G01X60.339Y25.443Z-0.033
G01X60.334Y25.444Z-0.033
G01X60.257Y25.456Z-0.033
G01X60.176Y25.460Z-0.033
G01X60.097Y25.456Z-0.033
G01X60.018Y25.444Z-0.033
G01X59.940Y25.424Z-0.033
G01X59.867Y25.399Z-0.033
G01X59.795Y25.365Z-0.033
G01X59.790Y25.362Z-0.033
G01X59.724Y25.322Z-0.033
G01X59.659Y25.274Z-0.033
G01X59.600Y25.221Z-0.033
G01X59.546Y25.161Z-0.033
G01X59.498Y25.097Z-0.034
G01X59.458Y25.030Z-0.034
G01X59.424Y24.958Z-0.034
G01X59.422Y24.953Z-0.034
G01X59.396Y24.880Z-0.034
G01X59.376Y24.801Z-0.034
G01X59.365Y24.723Z-0.034
G01X59.361Y24.646Z-0.034
G01X59.365Y24.563Z-0.034
G01X59.376Y24.484Z-0.034
G01X59.395Y24.409Z-0.034
G01X59.397Y24.404Z-0.034
G01X59.423Y24.330Z-0.034
G01X59.457Y24.258Z-0.034
G01X59.497Y24.192Z-0.034
G01X59.500Y24.187Z-0.034
G01X59.547Y24.124Z-0.034
G01X59.600Y24.066Z-0.034
G01X59.658Y24.013Z-0.034
G01X59.722Y23.965Z-0.034
G01X59.742Y23.953Z-0.034
G01X59.742Y22.793Z-0.034
G01X59.722Y22.781Z-0.034
G01X59.660Y22.735Z-0.034
G01X59.601Y22.681Z-0.034
G01X59.546Y22.621Z-0.034
G01X59.498Y22.556Z-0.034
G01X59.456Y22.486Z-0.034
G01X59.423Y22.416Z-0.034
G01X59.397Y22.343Z-0.034
G01X59.376Y22.263Z-0.034
G01X59.365Y22.182Z-0.035
G01X59.361Y22.103Z-0.035
G01X59.365Y22.023Z-0.035
G01X59.376Y21.944Z-0.035
G01X59.396Y21.866Z-0.035
G01X59.423Y21.791Z-0.035
G01X59.457Y21.718Z-0.035
G01X59.498Y21.649Z-0.035
G01X59.544Y21.587Z-0.035
G01X59.600Y21.526Z-0.035
G01X59.659Y21.472Z-0.035
G01X59.724Y21.424Z-0.035
G01X59.795Y21.382Z-0.035
G01X59.865Y21.349Z-0.035
G01X59.938Y21.323Z-0.035
G01X60.015Y21.303Z-0.035
G01X60.097Y21.291Z-0.035
G01X60.177Y21.287Z-0.035
G01X60.260Y21.291Z-0.035
G01X60.336Y21.302Z-0.035
G01X60.412Y21.321Z-0.035
G01X60.490Y21.349Z-0.035
G01X60.563Y21.384Z-0.035
G01X60.631Y21.424Z-0.035
G01X60.693Y21.470Z-0.035
G01X60.754Y21.525Z-0.035
G01X60.809Y21.586Z-0.035
G01X60.855Y21.648Z-0.034
G01X60.868Y21.669Z-0.034
G01X70.124Y21.669Z-0.033
X79.380Y21.669Z-0.032
X87.126Y21.669Z-0.030
G01X87.169Y21.671Z-0.030
G01X87.208Y21.677Z-0.030
G01X87.214Y21.678Z-0.030
G01X87.255Y21.688Z-0.030
G01X87.293Y21.702Z-0.030
G01X87.331Y21.720Z-0.030
G01X87.368Y21.742Z-0.030
G01X87.400Y21.766Z-0.030
G01X87.434Y21.796Z-0.030
G01X91.391Y25.751Z-0.028
G01X91.422Y25.785Z-0.028
G01X91.445Y25.817Z-0.028
G01X91.466Y25.851Z-0.028
G01X91.486Y25.892Z-0.028
G01X91.501Y25.934Z-0.028
G01X91.510Y25.974Z-0.028
G01X91.516Y26.014Z-0.028
G01X91.519Y26.059Z-0.028
G01X91.519Y31.024Z-0.027
X91.519Y35.990Z-0.026
X91.519Y40.955Z-0.024
X91.519Y45.437Z-0.023
G01X92.882Y46.800Z-0.023
G01X92.882Y46.455Z-0.023
G01X92.882Y46.450Z-0.023
G01X92.884Y46.441Z-0.023
G01X92.887Y46.433Z-0.023
G01X92.890Y46.426Z-0.023
G01X92.896Y46.419Z-0.023
G01X92.902Y46.413Z-0.023
G01X92.910Y46.408Z-0.023
G01X92.918Y46.404Z-0.023
G01X92.926Y46.402Z-0.023
G01X92.931Y46.401Z-0.023
G01X92.936Y46.401Z-0.023
G01X94.816Y46.401Z-0.023
G01X94.825Y46.402Z-0.023
G01X94.830Y46.403Z-0.023
G01X94.836Y46.404Z-0.023
G01X94.844Y46.409Z-0.023
G01X94.849Y46.412Z-0.023
G01X94.853Y46.415Z-0.023
G01X94.856Y46.419Z-0.023
G01X94.860Y46.423Z-0.023
G01X94.863Y46.429Z-0.023
G01X94.866Y46.433Z-0.023
G01X94.868Y46.438Z-0.023
G01X94.869Y46.445Z-0.022
G01X94.870Y46.450Z-0.022
G01X94.870Y46.455Z-0.022
G01X94.870Y48.336Z-0.022
G01X94.869Y48.346Z-0.022
G01X94.868Y48.351Z-0.022
G01X94.866Y48.356Z-0.022
G01X94.864Y48.361Z-0.022
G01X94.861Y48.365Z-0.022
G01X94.858Y48.370Z-0.022
G01X94.854Y48.374Z-0.022
G01X94.851Y48.377Z-0.022
G01X94.846Y48.380Z-0.022
G01X94.842Y48.383Z-0.022
G01X94.837Y48.385Z-0.022
G01X94.832Y48.387Z-0.022
G01X94.827Y48.388Z-0.022
G01X94.821Y48.389Z-0.022
G01X94.816Y48.389Z-0.022
G00X94.816Y48.389Z2.028
G00X97.356Y48.389Z2.028
G01F60.00X97.356Y48.389Z2.028
G01X97.356Y48.389Z-0.022
G01F120.00X97.356Y48.389Z-0.022
G01X95.476Y48.389Z-0.022
G01X95.471Y48.389Z-0.022
G01X95.466Y48.388Z-0.022
G01X95.461Y48.387Z-0.022
G01X95.455Y48.385Z-0.022
G01X95.451Y48.383Z-0.022
G01X95.446Y48.380Z-0.022
G01X95.442Y48.377Z-0.022
G01X95.437Y48.373Z-0.022
G01X95.433Y48.368Z-0.022
G01X95.430Y48.364Z-0.022
G01X95.426Y48.356Z-0.022
G01X95.424Y48.351Z-0.022
G01X95.423Y48.346Z-0.022
G01X95.422Y48.340Z-0.022
G01X95.422Y48.335Z-0.022
G01X95.422Y46.455Z-0.022
G01X95.422Y46.450Z-0.022
G01X95.423Y46.445Z-0.022
G01X95.424Y46.440Z-0.022
G01X95.426Y46.435Z-0.022
G01X95.429Y46.429Z-0.022
G01X95.432Y46.424Z-0.022
G01X95.435Y46.420Z-0.022
G01X95.439Y46.416Z-0.022
G01X95.443Y46.412Z-0.022
G01X95.447Y46.409Z-0.022
G01X95.452Y46.407Z-0.022
G01X95.457Y46.404Z-0.022
G01X95.462Y46.403Z-0.022
G01X95.467Y46.402Z-0.022
G01X95.476Y46.401Z-0.022
G01X97.356Y46.401Z-0.022
G01X97.361Y46.401Z-0.022
G01X97.367Y46.402Z-0.022
G01X97.372Y46.403Z-0.022
G01X97.377Y46.405Z-0.022
G01X97.382Y46.407Z-0.022
G01X97.387Y46.411Z-0.022
G01X97.392Y46.414Z-0.022
G01X97.396Y46.418Z-0.022
G01X97.399Y46.422Z-0.022
G01X97.402Y46.426Z-0.022
G01X97.405Y46.431Z-0.022
G01X97.407Y46.436Z-0.022
G01X97.409Y46.441Z-0.022
G01X97.410Y46.446Z-0.022
G01X97.410Y46.455Z-0.022
G01X97.410Y48.336Z-0.022
G01X97.409Y48.346Z-0.022
G01X97.408Y48.351Z-0.022
G01X97.406Y48.356Z-0.022
G01X97.404Y48.361Z-0.022
G01X97.401Y48.365Z-0.022
G01X97.398Y48.370Z-0.022
G01X97.395Y48.374Z-0.022
G01X97.391Y48.377Z-0.022
G01X97.386Y48.380Z-0.022
G01X97.382Y48.383Z-0.022
G01X97.377Y48.385Z-0.022
G01X97.372Y48.387Z-0.022
G01X97.367Y48.388Z-0.022
G01X97.361Y48.389Z-0.022
G01X97.356Y48.389Z-0.022
G00X97.356Y48.389Z2.028
G00X97.356Y50.930Z2.029
G01F60.00X97.356Y50.930Z2.029
G01X97.356Y50.930Z-0.021
G01F120.00X97.356Y50.930Z-0.021
G01X95.476Y50.930Z-0.021
G01X95.471Y50.929Z-0.021
G01X95.466Y50.928Z-0.021
G01X95.461Y50.927Z-0.021
G01X95.455Y50.925Z-0.021
G01X95.451Y50.923Z-0.021
G01X95.446Y50.920Z-0.021
G01X95.442Y50.917Z-0.021
G01X95.437Y50.913Z-0.021
G01X95.433Y50.909Z-0.021
G01X95.430Y50.904Z-0.021
G01X95.426Y50.896Z-0.021
G01X95.424Y50.891Z-0.021
G01X95.423Y50.886Z-0.021
G01X95.422Y50.880Z-0.021
G01X95.422Y50.875Z-0.021
G01X95.422Y48.995Z-0.022
G01X95.422Y48.990Z-0.022
G01X95.423Y48.985Z-0.022
G01X95.424Y48.980Z-0.022
G01X95.426Y48.974Z-0.022
G01X95.429Y48.968Z-0.022
G01X95.432Y48.964Z-0.022
G01X95.435Y48.960Z-0.022
G01X95.439Y48.956Z-0.022
G01X95.443Y48.952Z-0.022
G01X95.447Y48.949Z-0.022
G01X95.452Y48.947Z-0.022
G01X95.457Y48.944Z-0.022
G01X95.462Y48.943Z-0.022
G01X95.467Y48.942Z-0.022
G01X95.476Y48.941Z-0.022
G01X97.356Y48.941Z-0.022
G01X97.361Y48.941Z-0.022
G01X97.367Y48.942Z-0.022
G01X97.372Y48.943Z-0.022
G01X97.377Y48.945Z-0.022
G01X97.382Y48.947Z-0.022
G01X97.387Y48.951Z-0.022
G01X97.392Y48.954Z-0.022
G01X97.396Y48.958Z-0.022
G01X97.399Y48.962Z-0.022
G01X97.402Y48.966Z-0.022
G01X97.405Y48.971Z-0.022
G01X97.407Y48.976Z-0.022
G01X97.409Y48.981Z-0.022
G01X97.410Y48.986Z-0.022
G01X97.410Y48.995Z-0.022
G01X97.410Y50.876Z-0.021
G01X97.409Y50.886Z-0.021
G01X97.408Y50.891Z-0.021
G01X97.406Y50.896Z-0.021
G01X97.404Y50.901Z-0.021
G01X97.401Y50.905Z-0.021
G01X97.398Y50.910Z-0.021
G01X97.395Y50.914Z-0.021
G01X97.391Y50.917Z-0.021
G01X97.386Y50.920Z-0.021
G01X97.382Y50.923Z-0.021
G01X97.377Y50.925Z-0.021
G01X97.372Y50.927Z-0.021
G01X97.367Y50.928Z-0.021
G01X97.361Y50.929Z-0.021
G01X97.356Y50.930Z-0.021
G00X97.356Y50.930Z2.029
G00X97.356Y53.470Z2.029
G01F60.00X97.356Y53.470Z2.029
G01X97.356Y53.470Z-0.021
G01F120.00X97.356Y53.470Z-0.021
G01X95.476Y53.470Z-0.021
G01X95.471Y53.469Z-0.021
G01X95.466Y53.468Z-0.021
G01X95.461Y53.467Z-0.021
G01X95.455Y53.465Z-0.021
G01X95.451Y53.463Z-0.021
G01X95.446Y53.460Z-0.021
G01X95.442Y53.457Z-0.021
G01X95.437Y53.453Z-0.021
G01X95.433Y53.449Z-0.021
G01X95.430Y53.444Z-0.021
G01X95.426Y53.436Z-0.021
G01X95.424Y53.431Z-0.021
G01X95.423Y53.426Z-0.021
G01X95.422Y53.420Z-0.021
G01X95.422Y53.415Z-0.021
G01X95.422Y51.535Z-0.021
G01X95.422Y51.530Z-0.021
G01X95.423Y51.525Z-0.021
G01X95.424Y51.520Z-0.021
G01X95.426Y51.514Z-0.021
G01X95.429Y51.508Z-0.021
G01X95.432Y51.504Z-0.021
G01X95.435Y51.500Z-0.021
G01X95.439Y51.496Z-0.021
G01X95.443Y51.492Z-0.021
G01X95.447Y51.489Z-0.021
G01X95.452Y51.487Z-0.021
G01X95.457Y51.485Z-0.021
G01X95.462Y51.483Z-0.021
G01X95.467Y51.482Z-0.021
G01X95.476Y51.481Z-0.021
