(G-CODE GENERATED BY FLATCAM v8.993 - www.flatcam.org - Version Date: 2020/06/05)

(Name: Drill_2.4)
(Type: G-code from Geometry)
(Units: MM)

(Created on Thursday, 27 May 2021 at 14:21)

(This preprocessor is the default preprocessor used by FlatCAM.)
(It is made to work with MACH3 compatible motion controllers.)

(TOOL DIAMETER: 2.4 mm)
(Feedrate_XY: 120.0 mm/min)
(Feedrate_Z: 60.0 mm/min)
(Feedrate rapids 1500.0 mm/min)

(Z_Cut: -1.8 mm)
(Z_Move: 2.0 mm)
(Z Start: None mm)
(Z End: 15.0 mm)
(Steps per circle: 64)
(Preprocessor Geometry: default)

(X range:    4.5999 ...   55.4001  mm)
(Y range:    4.5999 ...   55.4001  mm)

(Spindle Speed: None RPM)
G21
G90
G94



G01 F120.00
G00 Z2.0000

M03
G00 X5.4001 Y5.0000
G01 F60.00
G01 Z-1.8000
G01 F120.00
G01 X5.3996 Y4.9804
G01 X5.3982 Y4.9608
G01 X5.3958 Y4.9413
G01 X5.3924 Y4.9219
G01 X5.3881 Y4.9028
G01 X5.3829 Y4.8839
G01 X5.3767 Y4.8652
G01 X5.3696 Y4.8469
G01 X5.3617 Y4.8289
G01 X5.3529 Y4.8114
G01 X5.3432 Y4.7943
G01 X5.3327 Y4.7777
G01 X5.3214 Y4.7617
G01 X5.3093 Y4.7462
G01 X5.2965 Y4.7313
G01 X5.2829 Y4.7171
G01 X5.2687 Y4.7035
G01 X5.2538 Y4.6907
G01 X5.2383 Y4.6786
G01 X5.2223 Y4.6673
G01 X5.2057 Y4.6568
G01 X5.1886 Y4.6471
G01 X5.1711 Y4.6383
G01 X5.1531 Y4.6304
G01 X5.1348 Y4.6233
G01 X5.1161 Y4.6171
G01 X5.0972 Y4.6119
G01 X5.0781 Y4.6076
G01 X5.0587 Y4.6042
G01 X5.0392 Y4.6018
G01 X5.0196 Y4.6004
G01 X5.0000 Y4.5999
G01 X4.9804 Y4.6004
G01 X4.9608 Y4.6018
G01 X4.9413 Y4.6042
G01 X4.9219 Y4.6076
G01 X4.9028 Y4.6119
G01 X4.8839 Y4.6171
G01 X4.8652 Y4.6233
G01 X4.8469 Y4.6304
G01 X4.8289 Y4.6383
G01 X4.8114 Y4.6471
G01 X4.7943 Y4.6568
G01 X4.7777 Y4.6673
G01 X4.7617 Y4.6786
G01 X4.7462 Y4.6907
G01 X4.7313 Y4.7035
G01 X4.7171 Y4.7171
G01 X4.7035 Y4.7313
G01 X4.6907 Y4.7462
G01 X4.6786 Y4.7617
G01 X4.6673 Y4.7777
G01 X4.6568 Y4.7943
G01 X4.6471 Y4.8114
G01 X4.6383 Y4.8289
G01 X4.6304 Y4.8469
G01 X4.6233 Y4.8652
G01 X4.6171 Y4.8839
G01 X4.6119 Y4.9028
G01 X4.6076 Y4.9219
G01 X4.6042 Y4.9413
G01 X4.6018 Y4.9608
G01 X4.6004 Y4.9804
G01 X4.5999 Y5.0000
G01 X4.6004 Y5.0196
G01 X4.6018 Y5.0392
G01 X4.6042 Y5.0587
G01 X4.6076 Y5.0781
G01 X4.6119 Y5.0972
G01 X4.6171 Y5.1161
G01 X4.6233 Y5.1348
G01 X4.6304 Y5.1531
G01 X4.6383 Y5.1711
G01 X4.6471 Y5.1886
G01 X4.6568 Y5.2057
G01 X4.6673 Y5.2223
G01 X4.6786 Y5.2383
G01 X4.6907 Y5.2538
G01 X4.7035 Y5.2687
G01 X4.7171 Y5.2829
G01 X4.7313 Y5.2965
G01 X4.7462 Y5.3093
G01 X4.7617 Y5.3214
G01 X4.7777 Y5.3327
G01 X4.7943 Y5.3432
G01 X4.8114 Y5.3529
G01 X4.8289 Y5.3617
G01 X4.8469 Y5.3696
G01 X4.8652 Y5.3767
G01 X4.8839 Y5.3829
G01 X4.9028 Y5.3881
G01 X4.9219 Y5.3924
G01 X4.9413 Y5.3958
G01 X4.9608 Y5.3982
G01 X4.9804 Y5.3996
G01 X5.0000 Y5.4001
G01 X5.0196 Y5.3996
G01 X5.0392 Y5.3982
G01 X5.0587 Y5.3958
G01 X5.0781 Y5.3924
G01 X5.0972 Y5.3881
G01 X5.1161 Y5.3829
G01 X5.1348 Y5.3767
G01 X5.1531 Y5.3696
G01 X5.1711 Y5.3617
G01 X5.1886 Y5.3529
G01 X5.2057 Y5.3432
G01 X5.2223 Y5.3327
G01 X5.2383 Y5.3214
G01 X5.2538 Y5.3093
G01 X5.2687 Y5.2965
G01 X5.2829 Y5.2829
G01 X5.2965 Y5.2687
G01 X5.3093 Y5.2538
G01 X5.3214 Y5.2383
G01 X5.3327 Y5.2223
G01 X5.3432 Y5.2057
G01 X5.3529 Y5.1886
G01 X5.3617 Y5.1711
G01 X5.3696 Y5.1531
G01 X5.3767 Y5.1348
G01 X5.3829 Y5.1161
G01 X5.3881 Y5.0972
G01 X5.3924 Y5.0781
G01 X5.3958 Y5.0587
G01 X5.3982 Y5.0392
G01 X5.3996 Y5.0196
G01 X5.4001 Y5.0000
G00 Z2.0000
G00 X5.4001 Y55.0000
G01 F60.00
G01 Z-1.8000
G01 F120.00
G01 X5.3996 Y54.9804
G01 X5.3982 Y54.9608
G01 X5.3958 Y54.9413
G01 X5.3924 Y54.9219
G01 X5.3881 Y54.9028
G01 X5.3829 Y54.8839
G01 X5.3767 Y54.8652
G01 X5.3696 Y54.8469
G01 X5.3617 Y54.8289
G01 X5.3529 Y54.8114
G01 X5.3432 Y54.7943
G01 X5.3327 Y54.7777
G01 X5.3214 Y54.7617
G01 X5.3093 Y54.7462
G01 X5.2965 Y54.7313
G01 X5.2829 Y54.7171
G01 X5.2687 Y54.7035
G01 X5.2538 Y54.6907
G01 X5.2383 Y54.6786
G01 X5.2223 Y54.6673
G01 X5.2057 Y54.6568
G01 X5.1886 Y54.6471
G01 X5.1711 Y54.6383
G01 X5.1531 Y54.6304
G01 X5.1348 Y54.6233
G01 X5.1161 Y54.6171
G01 X5.0972 Y54.6119
G01 X5.0781 Y54.6076
G01 X5.0587 Y54.6042
G01 X5.0392 Y54.6018
G01 X5.0196 Y54.6004
G01 X5.0000 Y54.5999
G01 X4.9804 Y54.6004
G01 X4.9608 Y54.6018
G01 X4.9413 Y54.6042
G01 X4.9219 Y54.6076
G01 X4.9028 Y54.6119
G01 X4.8839 Y54.6171
G01 X4.8652 Y54.6233
G01 X4.8469 Y54.6304
G01 X4.8289 Y54.6383
G01 X4.8114 Y54.6471
G01 X4.7943 Y54.6568
G01 X4.7777 Y54.6673
G01 X4.7617 Y54.6786
G01 X4.7462 Y54.6907
G01 X4.7313 Y54.7035
G01 X4.7171 Y54.7171
G01 X4.7035 Y54.7313
G01 X4.6907 Y54.7462
G01 X4.6786 Y54.7617
G01 X4.6673 Y54.7777
G01 X4.6568 Y54.7943
G01 X4.6471 Y54.8114
G01 X4.6383 Y54.8289
G01 X4.6304 Y54.8469
G01 X4.6233 Y54.8652
G01 X4.6171 Y54.8839
G01 X4.6119 Y54.9028
G01 X4.6076 Y54.9219
G01 X4.6042 Y54.9413
G01 X4.6018 Y54.9608
G01 X4.6004 Y54.9804
G01 X4.5999 Y55.0000
G01 X4.6004 Y55.0196
G01 X4.6018 Y55.0392
G01 X4.6042 Y55.0587
G01 X4.6076 Y55.0781
G01 X4.6119 Y55.0972
G01 X4.6171 Y55.1161
G01 X4.6233 Y55.1348
G01 X4.6304 Y55.1531
G01 X4.6383 Y55.1711
G01 X4.6471 Y55.1886
G01 X4.6568 Y55.2057
G01 X4.6673 Y55.2223
G01 X4.6786 Y55.2383
G01 X4.6907 Y55.2538
G01 X4.7035 Y55.2687
G01 X4.7171 Y55.2829
G01 X4.7313 Y55.2965
G01 X4.7462 Y55.3093
G01 X4.7617 Y55.3214
G01 X4.7777 Y55.3327
G01 X4.7943 Y55.3432
G01 X4.8114 Y55.3529
G01 X4.8289 Y55.3617
G01 X4.8469 Y55.3696
G01 X4.8652 Y55.3767
G01 X4.8839 Y55.3829
G01 X4.9028 Y55.3881
G01 X4.9219 Y55.3924
G01 X4.9413 Y55.3958
G01 X4.9608 Y55.3982
G01 X4.9804 Y55.3996
G01 X5.0000 Y55.4001
G01 X5.0196 Y55.3996
G01 X5.0392 Y55.3982
G01 X5.0587 Y55.3958
G01 X5.0781 Y55.3924
G01 X5.0972 Y55.3881
G01 X5.1161 Y55.3829
G01 X5.1348 Y55.3767
G01 X5.1531 Y55.3696
G01 X5.1711 Y55.3617
G01 X5.1886 Y55.3529
G01 X5.2057 Y55.3432
G01 X5.2223 Y55.3327
G01 X5.2383 Y55.3214
G01 X5.2538 Y55.3093
G01 X5.2687 Y55.2965
G01 X5.2829 Y55.2829
G01 X5.2965 Y55.2687
G01 X5.3093 Y55.2538
G01 X5.3214 Y55.2383
G01 X5.3327 Y55.2223
G01 X5.3432 Y55.2057
G01 X5.3529 Y55.1886
G01 X5.3617 Y55.1711
G01 X5.3696 Y55.1531
G01 X5.3767 Y55.1348
G01 X5.3829 Y55.1161
G01 X5.3881 Y55.0972
G01 X5.3924 Y55.0781
G01 X5.3958 Y55.0587
G01 X5.3982 Y55.0392
G01 X5.3996 Y55.0196
G01 X5.4001 Y55.0000
G00 Z2.0000
G00 X55.4001 Y55.0000
G01 F60.00
G01 Z-1.8000
G01 F120.00
G01 X55.3996 Y54.9804
G01 X55.3982 Y54.9608
G01 X55.3958 Y54.9413
G01 X55.3924 Y54.9219
G01 X55.3881 Y54.9028
G01 X55.3829 Y54.8839
G01 X55.3767 Y54.8652
G01 X55.3696 Y54.8469
G01 X55.3617 Y54.8289
G01 X55.3529 Y54.8114
G01 X55.3432 Y54.7943
G01 X55.3327 Y54.7777
G01 X55.3214 Y54.7617
G01 X55.3093 Y54.7462
G01 X55.2965 Y54.7313
G01 X55.2829 Y54.7171
G01 X55.2687 Y54.7035
G01 X55.2538 Y54.6907
G01 X55.2383 Y54.6786
G01 X55.2223 Y54.6673
G01 X55.2057 Y54.6568
G01 X55.1886 Y54.6471
G01 X55.1711 Y54.6383
G01 X55.1531 Y54.6304
G01 X55.1348 Y54.6233
G01 X55.1161 Y54.6171
G01 X55.0972 Y54.6119
G01 X55.0781 Y54.6076
G01 X55.0587 Y54.6042
G01 X55.0392 Y54.6018
G01 X55.0196 Y54.6004
G01 X55.0000 Y54.5999
G01 X54.9804 Y54.6004
G01 X54.9608 Y54.6018
G01 X54.9413 Y54.6042
G01 X54.9219 Y54.6076
G01 X54.9028 Y54.6119
G01 X54.8839 Y54.6171
G01 X54.8652 Y54.6233
G01 X54.8469 Y54.6304
G01 X54.8289 Y54.6383
G01 X54.8114 Y54.6471
G01 X54.7943 Y54.6568
G01 X54.7777 Y54.6673
G01 X54.7617 Y54.6786
G01 X54.7462 Y54.6907
G01 X54.7313 Y54.7035
G01 X54.7171 Y54.7171
G01 X54.7035 Y54.7313
G01 X54.6907 Y54.7462
G01 X54.6786 Y54.7617
G01 X54.6673 Y54.7777
G01 X54.6568 Y54.7943
G01 X54.6471 Y54.8114
G01 X54.6383 Y54.8289
G01 X54.6304 Y54.8469
G01 X54.6233 Y54.8652
G01 X54.6171 Y54.8839
G01 X54.6119 Y54.9028
G01 X54.6076 Y54.9219
G01 X54.6042 Y54.9413
G01 X54.6018 Y54.9608
G01 X54.6004 Y54.9804
G01 X54.5999 Y55.0000
G01 X54.6004 Y55.0196
G01 X54.6018 Y55.0392
G01 X54.6042 Y55.0587
G01 X54.6076 Y55.0781
G01 X54.6119 Y55.0972
G01 X54.6171 Y55.1161
G01 X54.6233 Y55.1348
G01 X54.6304 Y55.1531
G01 X54.6383 Y55.1711
G01 X54.6471 Y55.1886
G01 X54.6568 Y55.2057
G01 X54.6673 Y55.2223
G01 X54.6786 Y55.2383
G01 X54.6907 Y55.2538
G01 X54.7035 Y55.2687
G01 X54.7171 Y55.2829
G01 X54.7313 Y55.2965
G01 X54.7462 Y55.3093
G01 X54.7617 Y55.3214
G01 X54.7777 Y55.3327
G01 X54.7943 Y55.3432
G01 X54.8114 Y55.3529
G01 X54.8289 Y55.3617
G01 X54.8469 Y55.3696
G01 X54.8652 Y55.3767
G01 X54.8839 Y55.3829
G01 X54.9028 Y55.3881
G01 X54.9219 Y55.3924
G01 X54.9413 Y55.3958
G01 X54.9608 Y55.3982
G01 X54.9804 Y55.3996
G01 X55.0000 Y55.4001
G01 X55.0196 Y55.3996
G01 X55.0392 Y55.3982
G01 X55.0587 Y55.3958
G01 X55.0781 Y55.3924
G01 X55.0972 Y55.3881
G01 X55.1161 Y55.3829
G01 X55.1348 Y55.3767
G01 X55.1531 Y55.3696
G01 X55.1711 Y55.3617
G01 X55.1886 Y55.3529
G01 X55.2057 Y55.3432
G01 X55.2223 Y55.3327
G01 X55.2383 Y55.3214
G01 X55.2538 Y55.3093
G01 X55.2687 Y55.2965
G01 X55.2829 Y55.2829
G01 X55.2965 Y55.2687
G01 X55.3093 Y55.2538
G01 X55.3214 Y55.2383
G01 X55.3327 Y55.2223
G01 X55.3432 Y55.2057
G01 X55.3529 Y55.1886
G01 X55.3617 Y55.1711
G01 X55.3696 Y55.1531
G01 X55.3767 Y55.1348
G01 X55.3829 Y55.1161
G01 X55.3881 Y55.0972
G01 X55.3924 Y55.0781
G01 X55.3958 Y55.0587
G01 X55.3982 Y55.0392
G01 X55.3996 Y55.0196
G01 X55.4001 Y55.0000
G00 Z2.0000
G00 X55.4001 Y5.0000
G01 F60.00
G01 Z-1.8000
G01 F120.00
G01 X55.3996 Y4.9804
G01 X55.3982 Y4.9608
G01 X55.3958 Y4.9413
G01 X55.3924 Y4.9219
G01 X55.3881 Y4.9028
G01 X55.3829 Y4.8839
G01 X55.3767 Y4.8652
G01 X55.3696 Y4.8469
G01 X55.3617 Y4.8289
G01 X55.3529 Y4.8114
G01 X55.3432 Y4.7943
G01 X55.3327 Y4.7777
G01 X55.3214 Y4.7617
G01 X55.3093 Y4.7462
G01 X55.2965 Y4.7313
G01 X55.2829 Y4.7171
G01 X55.2687 Y4.7035
G01 X55.2538 Y4.6907
G01 X55.2383 Y4.6786
G01 X55.2223 Y4.6673
G01 X55.2057 Y4.6568
G01 X55.1886 Y4.6471
G01 X55.1711 Y4.6383
G01 X55.1531 Y4.6304
G01 X55.1348 Y4.6233
G01 X55.1161 Y4.6171
G01 X55.0972 Y4.6119
G01 X55.0781 Y4.6076
G01 X55.0587 Y4.6042
G01 X55.0392 Y4.6018
G01 X55.0196 Y4.6004
G01 X55.0000 Y4.5999
G01 X54.9804 Y4.6004
G01 X54.9608 Y4.6018
G01 X54.9413 Y4.6042
G01 X54.9219 Y4.6076
G01 X54.9028 Y4.6119
G01 X54.8839 Y4.6171
G01 X54.8652 Y4.6233
G01 X54.8469 Y4.6304
G01 X54.8289 Y4.6383
G01 X54.8114 Y4.6471
G01 X54.7943 Y4.6568
G01 X54.7777 Y4.6673
G01 X54.7617 Y4.6786
G01 X54.7462 Y4.6907
G01 X54.7313 Y4.7035
G01 X54.7171 Y4.7171
G01 X54.7035 Y4.7313
G01 X54.6907 Y4.7462
G01 X54.6786 Y4.7617
G01 X54.6673 Y4.7777
G01 X54.6568 Y4.7943
G01 X54.6471 Y4.8114
G01 X54.6383 Y4.8289
G01 X54.6304 Y4.8469
G01 X54.6233 Y4.8652
G01 X54.6171 Y4.8839
G01 X54.6119 Y4.9028
G01 X54.6076 Y4.9219
G01 X54.6042 Y4.9413
G01 X54.6018 Y4.9608
G01 X54.6004 Y4.9804
G01 X54.5999 Y5.0000
G01 X54.6004 Y5.0196
G01 X54.6018 Y5.0392
G01 X54.6042 Y5.0587
G01 X54.6076 Y5.0781
G01 X54.6119 Y5.0972
G01 X54.6171 Y5.1161
G01 X54.6233 Y5.1348
G01 X54.6304 Y5.1531
G01 X54.6383 Y5.1711
G01 X54.6471 Y5.1886
G01 X54.6568 Y5.2057
G01 X54.6673 Y5.2223
G01 X54.6786 Y5.2383
G01 X54.6907 Y5.2538
G01 X54.7035 Y5.2687
G01 X54.7171 Y5.2829
G01 X54.7313 Y5.2965
G01 X54.7462 Y5.3093
G01 X54.7617 Y5.3214
G01 X54.7777 Y5.3327
G01 X54.7943 Y5.3432
G01 X54.8114 Y5.3529
G01 X54.8289 Y5.3617
G01 X54.8469 Y5.3696
G01 X54.8652 Y5.3767
G01 X54.8839 Y5.3829
G01 X54.9028 Y5.3881
G01 X54.9219 Y5.3924
G01 X54.9413 Y5.3958
G01 X54.9608 Y5.3982
G01 X54.9804 Y5.3996
G01 X55.0000 Y5.4001
G01 X55.0196 Y5.3996
G01 X55.0392 Y5.3982
G01 X55.0587 Y5.3958
G01 X55.0781 Y5.3924
G01 X55.0972 Y5.3881
G01 X55.1161 Y5.3829
G01 X55.1348 Y5.3767
G01 X55.1531 Y5.3696
G01 X55.1711 Y5.3617
G01 X55.1886 Y5.3529
G01 X55.2057 Y5.3432
G01 X55.2223 Y5.3327
G01 X55.2383 Y5.3214
G01 X55.2538 Y5.3093
G01 X55.2687 Y5.2965
G01 X55.2829 Y5.2829
G01 X55.2965 Y5.2687
G01 X55.3093 Y5.2538
G01 X55.3214 Y5.2383
G01 X55.3327 Y5.2223
G01 X55.3432 Y5.2057
G01 X55.3529 Y5.1886
G01 X55.3617 Y5.1711
G01 X55.3696 Y5.1531
G01 X55.3767 Y5.1348
G01 X55.3829 Y5.1161
G01 X55.3881 Y5.0972
G01 X55.3924 Y5.0781
G01 X55.3958 Y5.0587
G01 X55.3982 Y5.0392
G01 X55.3996 Y5.0196
G01 X55.4001 Y5.0000
G00 Z2.0000
M05
G00 Z2.0000
G00 Z15.00

