(G-CODE GENERATED BY FLATCAM v8.993 - www.flatcam.org - Version Date: 2020/06/05)

(Name: Box_2.4)
(Type: G-code from Geometry)
(Units: MM)

(Created on Thursday, 15 April 2021 at 19:12)

(This preprocessor is the default preprocessor used by FlatCAM.)
(It is made to work with MACH3 compatible motion controllers.)

(TOOL DIAMETER: 2.4 mm)
(Feedrate_XY: 120.0 mm/min)
(Feedrate_Z: 60.0 mm/min)
(Feedrate rapids 1500.0 mm/min)

(Z_Cut: -1.9 mm)
(DepthPerCut: 0.7 mm <=>3 passes)
(Z_Move: 2.0 mm)
(Z Start: None mm)
(Z End: 15.0 mm)
(Steps per circle: 64)
(Preprocessor Geometry: default)

(X range:    4.0000 ...  200.0000  mm)
(Y range:    0.0000 ...  100.0000  mm)

(Spindle Speed: None RPM)
G21
G90
G94



G01 F120.00
G00 Z2.0000

M03
G00 X4.0000 Y46.8000
G01 F60.00
G01 Z-0.7000
G01 F120.00
G01 X4.0000 Y-0.0000
G01 X106.8000 Y-0.0000
G00 X106.8000 Y-0.0000
G01 F60.00
G01 Z-1.4000
G01 F120.00
G01 X4.0000 Y-0.0000
G01 X4.0000 Y46.8000
G00 X4.0000 Y46.8000
G01 F60.00
G01 Z-1.9000
G01 F120.00
G01 X4.0000 Y-0.0000
G01 X106.8000 Y-0.0000
G00 Z2.0000
G00 X113.2000 Y0.0000
G01 F60.00
G01 Z-0.7000
G01 F120.00
G01 X200.0000 Y-0.0000
G01 X200.0000 Y46.8000
G00 X200.0000 Y46.8000
G01 F60.00
G01 Z-1.4000
G01 F120.00
G01 X200.0000 Y-0.0000
G01 X113.2000 Y0.0000
G00 X113.2000 Y0.0000
G01 F60.00
G01 Z-1.9000
G01 F120.00
G01 X200.0000 Y-0.0000
G01 X200.0000 Y46.8000
G00 Z2.0000
G00 X200.0000 Y53.2000
G01 F60.00
G01 Z-0.7000
G01 F120.00
G01 X200.0000 Y100.0000
G01 X113.2000 Y100.0000
G00 X113.2000 Y100.0000
G01 F60.00
G01 Z-1.4000
G01 F120.00
G01 X200.0000 Y100.0000
G01 X200.0000 Y53.2000
G00 X200.0000 Y53.2000
G01 F60.00
G01 Z-1.9000
G01 F120.00
G01 X200.0000 Y100.0000
G01 X113.2000 Y100.0000
G00 Z2.0000
G00 X106.8000 Y100.0000
G01 F60.00
G01 Z-0.7000
G01 F120.00
G01 X4.0000 Y100.0000
G00 X4.0000 Y100.0000
G01 F60.00
G01 Z-1.4000
G01 F120.00
G01 X106.8000 Y100.0000
G00 X106.8000 Y100.0000
G01 F60.00
G01 Z-1.9000
G01 F120.00
G01 X4.0000 Y100.0000
G00 Z2.0000
G00 X4.0000 Y100.0000
G01 F60.00
G01 Z-0.7000
G01 F120.00
G01 X4.0000 Y53.2000
G00 X4.0000 Y53.2000
G01 F60.00
G01 Z-1.4000
G01 F120.00
G01 X4.0000 Y100.0000
G00 X4.0000 Y100.0000
G01 F60.00
G01 Z-1.9000
G01 F120.00
G01 X4.0000 Y53.2000
G00 Z2.0000
M05
G00 Z2.0000
G00 Z15.00

