(G-CODE GENERATED BY FLATCAM v8.993 - www.flatcam.org - Version Date: 2020/06/05)

(Name: Drill1_0.8)
(Type: G-code from Geometry)
(Units: MM)

(Created on Thursday, 15 April 2021 at 19:13)

(This preprocessor is the default preprocessor used by FlatCAM.)
(It is made to work with MACH3 compatible motion controllers.)

(TOOL DIAMETER: 0.9905 mm)
(Feedrate_XY: 120.0 mm/min)
(Feedrate_Z: 60.0 mm/min)
(Feedrate rapids 1500.0 mm/min)

(Z_Cut: -1.8 mm)
(Z_Move: 2.0 mm)
(Z Start: None mm)
(Z End: 15.0 mm)
(Steps per circle: 64)
(Preprocessor Geometry: default)

(X range:   15.4211 ...  185.3472  mm)
(Y range:    6.6607 ...   93.8437  mm)

(Spindle Speed: None RPM)
G21
G90
G94



G01 F120.00
G00 Z2.0000

M03
G00 X17.7072 Y9.2312
G01 F60.00
G01 Z-1.8000
G01 F120.00
G01 X17.7072 Y9.2311
G01 X17.7071 Y9.2312
G01 X17.7072 Y9.2312
G01 X17.7072 Y9.2312
G00 Z2.0000
G00 X20.2472 Y9.2312
G01 F60.00
G01 Z-1.8000
G01 F120.00
G01 X20.2472 Y9.2311
G01 X20.2471 Y9.2312
G01 X20.2472 Y9.2312
G01 X20.2472 Y9.2312
G00 Z2.0000
G00 X22.7872 Y9.2312
G01 F60.00
G01 Z-1.8000
G01 F120.00
G01 X22.7872 Y9.2311
G01 X22.7871 Y9.2312
G01 X22.7872 Y9.2312
G01 X22.7872 Y9.2312
G00 Z2.0000
G00 X22.7872 Y14.5652
G01 F60.00
G01 Z-1.8000
G01 F120.00
G01 X22.7872 Y14.5651
G01 X22.7871 Y14.5652
G01 X22.7872 Y14.5652
G01 X22.7872 Y14.5652
G00 Z2.0000
G00 X17.7072 Y14.5652
G01 F60.00
G01 Z-1.8000
G01 F120.00
G01 X17.7072 Y14.5651
G01 X17.7071 Y14.5652
G01 X17.7072 Y14.5652
G01 X17.7072 Y14.5652
G00 Z2.0000
G00 X17.9612 Y24.9792
G01 F60.00
G01 Z-1.8000
G01 F120.00
G01 X17.9612 Y24.9791
G01 X17.9611 Y24.9792
G01 X17.9612 Y24.9792
G01 X17.9612 Y24.9792
G00 Z2.0000
G00 X20.5012 Y24.9792
G01 F60.00
G01 Z-1.8000
G01 F120.00
G01 X20.5012 Y24.9791
G01 X20.5011 Y24.9792
G01 X20.5012 Y24.9792
G01 X20.5012 Y24.9792
G00 Z2.0000
G00 X23.0412 Y24.9792
G01 F60.00
G01 Z-1.8000
G01 F120.00
G01 X23.0412 Y24.9791
G01 X23.0411 Y24.9792
G01 X23.0412 Y24.9792
G01 X23.0412 Y24.9792
G00 Z2.0000
G00 X25.5812 Y24.9792
G01 F60.00
G01 Z-1.8000
G01 F120.00
G01 X25.5812 Y24.9791
G01 X25.5811 Y24.9792
G01 X25.5812 Y24.9792
G01 X25.5812 Y24.9792
G00 Z2.0000
G00 X28.1212 Y24.9792
G01 F60.00
G01 Z-1.8000
G01 F120.00
G01 X28.1212 Y24.9791
G01 X28.1211 Y24.9792
G01 X28.1212 Y24.9792
G01 X28.1212 Y24.9792
G00 Z2.0000
G00 X30.6612 Y24.9792
G01 F60.00
G01 Z-1.8000
G01 F120.00
G01 X30.6612 Y24.9791
G01 X30.6611 Y24.9792
G01 X30.6612 Y24.9792
G01 X30.6612 Y24.9792
G00 Z2.0000
G00 X33.2012 Y24.9792
G01 F60.00
G01 Z-1.8000
G01 F120.00
G01 X33.2012 Y24.9791
G01 X33.2011 Y24.9792
G01 X33.2012 Y24.9792
G01 X33.2012 Y24.9792
G00 Z2.0000
G00 X35.7412 Y24.9792
G01 F60.00
G01 Z-1.8000
G01 F120.00
G01 X35.7412 Y24.9791
G01 X35.7411 Y24.9792
G01 X35.7412 Y24.9792
G01 X35.7412 Y24.9792
G00 Z2.0000
G00 X40.8212 Y24.8522
G01 F60.00
G01 Z-1.8000
G01 F120.00
G01 X40.8212 Y24.8521
G01 X40.8211 Y24.8522
G01 X40.8212 Y24.8522
G01 X40.8212 Y24.8522
G00 Z2.0000
G00 X43.3612 Y24.8522
G01 F60.00
G01 Z-1.8000
G01 F120.00
G01 X43.3612 Y24.8521
G01 X43.3611 Y24.8522
G01 X43.3612 Y24.8522
G01 X43.3612 Y24.8522
G00 Z2.0000
G00 X45.9012 Y24.8522
G01 F60.00
G01 Z-1.8000
G01 F120.00
G01 X45.9012 Y24.8521
G01 X45.9011 Y24.8522
G01 X45.9012 Y24.8522
G01 X45.9012 Y24.8522
G00 Z2.0000
G00 X48.4412 Y24.8522
G01 F60.00
G01 Z-1.8000
G01 F120.00
G01 X48.4412 Y24.8521
G01 X48.4411 Y24.8522
G01 X48.4412 Y24.8522
G01 X48.4412 Y24.8522
G00 Z2.0000
G00 X50.9812 Y24.8522
G01 F60.00
G01 Z-1.8000
G01 F120.00
G01 X50.9812 Y24.8521
G01 X50.9811 Y24.8522
G01 X50.9812 Y24.8522
G01 X50.9812 Y24.8522
G00 Z2.0000
G00 X53.5212 Y24.8522
G01 F60.00
G01 Z-1.8000
G01 F120.00
G01 X53.5212 Y24.8521
G01 X53.5211 Y24.8522
G01 X53.5212 Y24.8522
G01 X53.5212 Y24.8522
G00 Z2.0000
G00 X56.0612 Y24.8522
G01 F60.00
G01 Z-1.8000
G01 F120.00
G01 X56.0612 Y24.8521
G01 X56.0611 Y24.8522
G01 X56.0612 Y24.8522
G01 X56.0612 Y24.8522
G00 Z2.0000
G00 X58.6012 Y24.8522
G01 F60.00
G01 Z-1.8000
G01 F120.00
G01 X58.6012 Y24.8521
G01 X58.6011 Y24.8522
G01 X58.6012 Y24.8522
G01 X58.6012 Y24.8522
G00 Z2.0000
G00 X61.1412 Y24.8522
G01 F60.00
G01 Z-1.8000
G01 F120.00
G01 X61.1412 Y24.8521
G01 X61.1411 Y24.8522
G01 X61.1412 Y24.8522
G01 X61.1412 Y24.8522
G00 Z2.0000
G00 X66.2212 Y24.8522
G01 F60.00
G01 Z-1.8000
G01 F120.00
G01 X66.2212 Y24.8521
G01 X66.2211 Y24.8522
G01 X66.2212 Y24.8522
G01 X66.2212 Y24.8522
G00 Z2.0000
G00 X68.7612 Y24.8522
G01 F60.00
G01 Z-1.8000
G01 F120.00
G01 X68.7612 Y24.8521
G01 X68.7611 Y24.8522
G01 X68.7612 Y24.8522
G01 X68.7612 Y24.8522
G00 Z2.0000
G00 X71.3012 Y24.8522
G01 F60.00
G01 Z-1.8000
G01 F120.00
G01 X71.3012 Y24.8521
G01 X71.3011 Y24.8522
G01 X71.3012 Y24.8522
G01 X71.3012 Y24.8522
G00 Z2.0000
G00 X73.8412 Y24.8522
G01 F60.00
G01 Z-1.8000
G01 F120.00
G01 X73.8412 Y24.8521
G01 X73.8411 Y24.8522
G01 X73.8412 Y24.8522
G01 X73.8412 Y24.8522
G00 Z2.0000
G00 X76.3812 Y24.8522
G01 F60.00
G01 Z-1.8000
G01 F120.00
G01 X76.3812 Y24.8521
G01 X76.3811 Y24.8522
G01 X76.3812 Y24.8522
G01 X76.3812 Y24.8522
G00 Z2.0000
G00 X78.9212 Y24.8522
G01 F60.00
G01 Z-1.8000
G01 F120.00
G01 X78.9212 Y24.8521
G01 X78.9211 Y24.8522
G01 X78.9212 Y24.8522
G01 X78.9212 Y24.8522
G00 Z2.0000
G00 X81.4612 Y24.8522
G01 F60.00
G01 Z-1.8000
G01 F120.00
G01 X81.4612 Y24.8521
G01 X81.4611 Y24.8522
G01 X81.4612 Y24.8522
G01 X81.4612 Y24.8522
G00 Z2.0000
G00 X84.0012 Y24.8522
G01 F60.00
G01 Z-1.8000
G01 F120.00
G01 X84.0012 Y24.8521
G01 X84.0011 Y24.8522
G01 X84.0012 Y24.8522
G01 X84.0012 Y24.8522
G00 Z2.0000
G00 X86.5412 Y24.8522
G01 F60.00
G01 Z-1.8000
G01 F120.00
G01 X86.5412 Y24.8521
G01 X86.5411 Y24.8522
G01 X86.5412 Y24.8522
G01 X86.5412 Y24.8522
G00 Z2.0000
G00 X91.3672 Y19.1372
G01 F60.00
G01 Z-1.8000
G01 F120.00
G01 X91.3672 Y19.1371
G01 X91.3671 Y19.1372
G01 X91.3672 Y19.1372
G01 X91.3672 Y19.1372
G00 Z2.0000
G00 X88.4970 Y14.7100
G01 F60.00
G01 Z-1.8000
G01 F120.00
G01 X88.4970 Y14.7099
G01 X88.4969 Y14.7100
G01 X88.4970 Y14.7100
G01 X88.4970 Y14.7100
G00 Z2.0000
G00 X85.6980 Y15.9800
G01 F60.00
G01 Z-1.8000
G01 F120.00
G01 X85.6979 Y15.9799
G01 X85.6979 Y15.9800
G01 X85.6979 Y15.9800
G01 X85.6980 Y15.9800
G00 Z2.0000
G00 X85.6980 Y13.4400
G01 F60.00
G01 Z-1.8000
G01 F120.00
G01 X85.6979 Y13.4399
G01 X85.6979 Y13.4400
G01 X85.6979 Y13.4400
G01 X85.6980 Y13.4400
G00 Z2.0000
G00 X85.6980 Y10.9000
G01 F60.00
G01 Z-1.8000
G01 F120.00
G01 X85.6979 Y10.8999
G01 X85.6979 Y10.9000
G01 X85.6979 Y10.9000
G01 X85.6980 Y10.9000
G00 Z2.0000
G00 X85.6980 Y8.3600
G01 F60.00
G01 Z-1.8000
G01 F120.00
G01 X85.6979 Y8.3599
G01 X85.6979 Y8.3600
G01 X85.6979 Y8.3600
G01 X85.6980 Y8.3600
G00 Z2.0000
G00 X88.4970 Y9.7112
G01 F60.00
G01 Z-1.8000
G01 F120.00
G01 X88.4970 Y9.7112
G01 X88.4969 Y9.7112
G01 X88.4970 Y9.7113
G01 X88.4970 Y9.7112
G00 Z2.0000
G00 X95.1772 Y26.2492
G01 F60.00
G01 Z-1.8000
G01 F120.00
G01 X95.1772 Y26.2491
G01 X95.1771 Y26.2492
G01 X95.1772 Y26.2492
G01 X95.1772 Y26.2492
G00 Z2.0000
G00 X95.1772 Y28.7892
G01 F60.00
G01 Z-1.8000
G01 F120.00
G01 X95.1772 Y28.7891
G01 X95.1771 Y28.7892
G01 X95.1772 Y28.7892
G01 X95.1772 Y28.7892
G00 Z2.0000
G00 X97.7172 Y28.7892
G01 F60.00
G01 Z-1.8000
G01 F120.00
G01 X97.7172 Y28.7891
G01 X97.7171 Y28.7892
G01 X97.7172 Y28.7892
G01 X97.7172 Y28.7892
G00 Z2.0000
G00 X97.7172 Y26.2492
G01 F60.00
G01 Z-1.8000
G01 F120.00
G01 X97.7172 Y26.2491
G01 X97.7171 Y26.2492
G01 X97.7172 Y26.2492
G01 X97.7172 Y26.2492
G00 Z2.0000
G00 X97.7172 Y31.3292
G01 F60.00
G01 Z-1.8000
G01 F120.00
G01 X97.7172 Y31.3291
G01 X97.7171 Y31.3292
G01 X97.7172 Y31.3292
G01 X97.7172 Y31.3292
G00 Z2.0000
G00 X97.7172 Y33.8692
G01 F60.00
G01 Z-1.8000
G01 F120.00
G01 X97.7172 Y33.8691
G01 X97.7171 Y33.8692
G01 X97.7172 Y33.8692
G01 X97.7172 Y33.8692
G00 Z2.0000
G00 X97.7172 Y36.4092
G01 F60.00
G01 Z-1.8000
G01 F120.00
G01 X97.7172 Y36.4091
G01 X97.7171 Y36.4092
G01 X97.7172 Y36.4092
G01 X97.7172 Y36.4092
G00 Z2.0000
G00 X97.7172 Y38.9492
G01 F60.00
G01 Z-1.8000
G01 F120.00
G01 X97.7172 Y38.9491
G01 X97.7171 Y38.9492
G01 X97.7172 Y38.9492
G01 X97.7172 Y38.9492
G00 Z2.0000
G00 X97.7172 Y41.4892
G01 F60.00
G01 Z-1.8000
G01 F120.00
G01 X97.7172 Y41.4891
G01 X97.7171 Y41.4892
G01 X97.7172 Y41.4892
G01 X97.7172 Y41.4892
G00 Z2.0000
G00 X97.7172 Y44.0292
G01 F60.00
G01 Z-1.8000
G01 F120.00
G01 X97.7172 Y44.0291
G01 X97.7171 Y44.0292
G01 X97.7172 Y44.0292
G01 X97.7172 Y44.0292
G00 Z2.0000
G00 X97.7172 Y46.5692
G01 F60.00
G01 Z-1.8000
G01 F120.00
G01 X97.7172 Y46.5691
G01 X97.7171 Y46.5692
G01 X97.7172 Y46.5692
G01 X97.7172 Y46.5692
G00 Z2.0000
G00 X97.7172 Y49.1092
G01 F60.00
G01 Z-1.8000
G01 F120.00
G01 X97.7172 Y49.1091
G01 X97.7171 Y49.1092
G01 X97.7172 Y49.1092
G01 X97.7172 Y49.1092
G00 Z2.0000
G00 X97.7172 Y51.6492
G01 F60.00
G01 Z-1.8000
G01 F120.00
G01 X97.7172 Y51.6491
G01 X97.7171 Y51.6492
G01 X97.7172 Y51.6492
G01 X97.7172 Y51.6492
G00 Z2.0000
G00 X97.7172 Y54.1892
G01 F60.00
G01 Z-1.8000
G01 F120.00
G01 X97.7172 Y54.1891
G01 X97.7171 Y54.1892
G01 X97.7172 Y54.1892
G01 X97.7172 Y54.1892
G00 Z2.0000
G00 X97.7172 Y56.7292
G01 F60.00
G01 Z-1.8000
G01 F120.00
G01 X97.7172 Y56.7291
G01 X97.7171 Y56.7292
G01 X97.7172 Y56.7292
G01 X97.7172 Y56.7292
G00 Z2.0000
G00 X95.1772 Y56.7292
G01 F60.00
G01 Z-1.8000
G01 F120.00
G01 X95.1772 Y56.7291
G01 X95.1771 Y56.7292
G01 X95.1772 Y56.7292
G01 X95.1772 Y56.7292
G00 Z2.0000
G00 X95.1772 Y54.1892
G01 F60.00
G01 Z-1.8000
G01 F120.00
G01 X95.1772 Y54.1891
G01 X95.1771 Y54.1892
G01 X95.1772 Y54.1892
G01 X95.1772 Y54.1892
G00 Z2.0000
G00 X95.1772 Y51.6492
G01 F60.00
G01 Z-1.8000
G01 F120.00
G01 X95.1772 Y51.6491
G01 X95.1771 Y51.6492
G01 X95.1772 Y51.6492
G01 X95.1772 Y51.6492
G00 Z2.0000
G00 X95.1772 Y49.1092
G01 F60.00
G01 Z-1.8000
G01 F120.00
G01 X95.1772 Y49.1091
G01 X95.1771 Y49.1092
G01 X95.1772 Y49.1092
G01 X95.1772 Y49.1092
G00 Z2.0000
G00 X95.1772 Y46.5692
G01 F60.00
G01 Z-1.8000
G01 F120.00
G01 X95.1772 Y46.5691
G01 X95.1771 Y46.5692
G01 X95.1772 Y46.5692
G01 X95.1772 Y46.5692
G00 Z2.0000
G00 X95.1772 Y44.0292
G01 F60.00
G01 Z-1.8000
G01 F120.00
G01 X95.1772 Y44.0291
G01 X95.1771 Y44.0292
G01 X95.1772 Y44.0292
G01 X95.1772 Y44.0292
G00 Z2.0000
G00 X95.1772 Y41.4892
G01 F60.00
G01 Z-1.8000
G01 F120.00
G01 X95.1772 Y41.4891
G01 X95.1771 Y41.4892
G01 X95.1772 Y41.4892
G01 X95.1772 Y41.4892
G00 Z2.0000
G00 X95.1772 Y38.9492
G01 F60.00
G01 Z-1.8000
G01 F120.00
G01 X95.1772 Y38.9491
G01 X95.1771 Y38.9492
G01 X95.1772 Y38.9492
G01 X95.1772 Y38.9492
G00 Z2.0000
G00 X95.1772 Y36.4092
G01 F60.00
G01 Z-1.8000
G01 F120.00
G01 X95.1772 Y36.4091
G01 X95.1771 Y36.4092
G01 X95.1772 Y36.4092
G01 X95.1772 Y36.4092
G00 Z2.0000
G00 X95.1772 Y33.8692
G01 F60.00
G01 Z-1.8000
G01 F120.00
G01 X95.1772 Y33.8691
G01 X95.1771 Y33.8692
G01 X95.1772 Y33.8692
G01 X95.1772 Y33.8692
G00 Z2.0000
G00 X95.1772 Y31.3292
G01 F60.00
G01 Z-1.8000
G01 F120.00
G01 X95.1772 Y31.3291
G01 X95.1771 Y31.3292
G01 X95.1772 Y31.3292
G01 X95.1772 Y31.3292
G00 Z2.0000
G00 X105.3372 Y31.0752
G01 F60.00
G01 Z-1.8000
G01 F120.00
G01 X105.3372 Y31.0751
G01 X105.3371 Y31.0752
G01 X105.3372 Y31.0752
G01 X105.3372 Y31.0752
G00 Z2.0000
G00 X107.8772 Y31.0752
G01 F60.00
G01 Z-1.8000
G01 F120.00
G01 X107.8772 Y31.0751
G01 X107.8771 Y31.0752
G01 X107.8772 Y31.0752
G01 X107.8772 Y31.0752
G00 Z2.0000
G00 X110.4172 Y31.0752
G01 F60.00
G01 Z-1.8000
G01 F120.00
G01 X110.4172 Y31.0751
G01 X110.4171 Y31.0752
G01 X110.4172 Y31.0752
G01 X110.4172 Y31.0752
G00 Z2.0000
G00 X112.9572 Y31.0752
G01 F60.00
G01 Z-1.8000
G01 F120.00
G01 X112.9572 Y31.0751
G01 X112.9571 Y31.0752
G01 X112.9572 Y31.0752
G01 X112.9572 Y31.0752
G00 Z2.0000
G00 X115.4972 Y31.0752
G01 F60.00
G01 Z-1.8000
G01 F120.00
G01 X115.4972 Y31.0751
G01 X115.4971 Y31.0752
G01 X115.4972 Y31.0752
G01 X115.4972 Y31.0752
G00 Z2.0000
G00 X118.0372 Y31.0752
G01 F60.00
G01 Z-1.8000
G01 F120.00
G01 X118.0372 Y31.0751
G01 X118.0371 Y31.0752
G01 X118.0372 Y31.0752
G01 X118.0372 Y31.0752
G00 Z2.0000
G00 X120.5772 Y31.0752
G01 F60.00
G01 Z-1.8000
G01 F120.00
G01 X120.5772 Y31.0751
G01 X120.5771 Y31.0752
G01 X120.5772 Y31.0752
G01 X120.5772 Y31.0752
G00 Z2.0000
G00 X123.1172 Y31.0752
G01 F60.00
G01 Z-1.8000
G01 F120.00
G01 X123.1172 Y31.0751
G01 X123.1171 Y31.0752
G01 X123.1172 Y31.0752
G01 X123.1172 Y31.0752
G00 Z2.0000
G00 X123.1172 Y26.2492
G01 F60.00
G01 Z-1.8000
G01 F120.00
G01 X123.1172 Y26.2491
G01 X123.1171 Y26.2492
G01 X123.1172 Y26.2492
G01 X123.1172 Y26.2492
G00 Z2.0000
G00 X120.5772 Y26.2492
G01 F60.00
G01 Z-1.8000
G01 F120.00
G01 X120.5772 Y26.2491
G01 X120.5771 Y26.2492
G01 X120.5772 Y26.2492
G01 X120.5772 Y26.2492
G00 Z2.0000
G00 X118.0372 Y26.2492
G01 F60.00
G01 Z-1.8000
G01 F120.00
G01 X118.0372 Y26.2491
G01 X118.0371 Y26.2492
G01 X118.0372 Y26.2492
G01 X118.0372 Y26.2492
G00 Z2.0000
G00 X115.4972 Y26.2492
G01 F60.00
G01 Z-1.8000
G01 F120.00
G01 X115.4972 Y26.2491
G01 X115.4971 Y26.2492
G01 X115.4972 Y26.2492
G01 X115.4972 Y26.2492
G00 Z2.0000
G00 X112.9572 Y26.2492
G01 F60.00
G01 Z-1.8000
G01 F120.00
G01 X112.9572 Y26.2491
G01 X112.9571 Y26.2492
G01 X112.9572 Y26.2492
G01 X112.9572 Y26.2492
G00 Z2.0000
G00 X110.4172 Y26.2492
G01 F60.00
G01 Z-1.8000
G01 F120.00
G01 X110.4172 Y26.2491
G01 X110.4171 Y26.2492
G01 X110.4172 Y26.2492
G01 X110.4172 Y26.2492
G00 Z2.0000
G00 X107.8772 Y26.2492
G01 F60.00
G01 Z-1.8000
G01 F120.00
G01 X107.8772 Y26.2491
G01 X107.8771 Y26.2492
G01 X107.8772 Y26.2492
G01 X107.8772 Y26.2492
G00 Z2.0000
G00 X105.3372 Y26.2492
G01 F60.00
G01 Z-1.8000
G01 F120.00
G01 X105.3372 Y26.2491
G01 X105.3371 Y26.2492
G01 X105.3372 Y26.2492
G01 X105.3372 Y26.2492
G00 Z2.0000
G00 X105.3372 Y22.1852
G01 F60.00
G01 Z-1.8000
G01 F120.00
G01 X105.3372 Y22.1851
G01 X105.3371 Y22.1852
G01 X105.3372 Y22.1852
G01 X105.3372 Y22.1852
G00 Z2.0000
G00 X107.8772 Y22.1852
G01 F60.00
G01 Z-1.8000
G01 F120.00
G01 X107.8772 Y22.1851
G01 X107.8771 Y22.1852
G01 X107.8772 Y22.1852
G01 X107.8772 Y22.1852
G00 Z2.0000
G00 X110.4172 Y22.1852
G01 F60.00
G01 Z-1.8000
G01 F120.00
G01 X110.4172 Y22.1851
G01 X110.4171 Y22.1852
G01 X110.4172 Y22.1852
G01 X110.4172 Y22.1852
G00 Z2.0000
G00 X112.9572 Y22.1852
G01 F60.00
G01 Z-1.8000
G01 F120.00
G01 X112.9572 Y22.1851
G01 X112.9571 Y22.1852
G01 X112.9572 Y22.1852
G01 X112.9572 Y22.1852
G00 Z2.0000
G00 X115.4972 Y22.1852
G01 F60.00
G01 Z-1.8000
G01 F120.00
G01 X115.4972 Y22.1851
G01 X115.4971 Y22.1852
G01 X115.4972 Y22.1852
G01 X115.4972 Y22.1852
G00 Z2.0000
G00 X118.0372 Y22.1852
G01 F60.00
G01 Z-1.8000
G01 F120.00
G01 X118.0372 Y22.1851
G01 X118.0371 Y22.1852
G01 X118.0372 Y22.1852
G01 X118.0372 Y22.1852
G00 Z2.0000
G00 X120.5772 Y22.1852
G01 F60.00
G01 Z-1.8000
G01 F120.00
G01 X120.5772 Y22.1851
G01 X120.5771 Y22.1852
G01 X120.5772 Y22.1852
G01 X120.5772 Y22.1852
G00 Z2.0000
G00 X123.1172 Y22.1852
G01 F60.00
G01 Z-1.8000
G01 F120.00
G01 X123.1172 Y22.1851
G01 X123.1171 Y22.1852
G01 X123.1172 Y22.1852
G01 X123.1172 Y22.1852
G00 Z2.0000
G00 X128.1972 Y22.1852
G01 F60.00
G01 Z-1.8000
G01 F120.00
G01 X128.1972 Y22.1851
G01 X128.1971 Y22.1852
G01 X128.1972 Y22.1852
G01 X128.1972 Y22.1852
G00 Z2.0000
G00 X130.7372 Y22.1852
G01 F60.00
G01 Z-1.8000
G01 F120.00
G01 X130.7372 Y22.1851
G01 X130.7371 Y22.1852
G01 X130.7372 Y22.1852
G01 X130.7372 Y22.1852
G00 Z2.0000
G00 X133.2772 Y22.1852
G01 F60.00
G01 Z-1.8000
G01 F120.00
G01 X133.2772 Y22.1851
G01 X133.2771 Y22.1852
G01 X133.2772 Y22.1852
G01 X133.2772 Y22.1852
G00 Z2.0000
G00 X135.8172 Y22.1852
G01 F60.00
G01 Z-1.8000
G01 F120.00
G01 X135.8172 Y22.1851
G01 X135.8171 Y22.1852
G01 X135.8172 Y22.1852
G01 X135.8172 Y22.1852
G00 Z2.0000
G00 X138.3572 Y22.1852
G01 F60.00
G01 Z-1.8000
G01 F120.00
G01 X138.3572 Y22.1851
G01 X138.3571 Y22.1852
G01 X138.3572 Y22.1852
G01 X138.3572 Y22.1852
G00 Z2.0000
G00 X140.8972 Y22.1852
G01 F60.00
G01 Z-1.8000
G01 F120.00
G01 X140.8972 Y22.1851
G01 X140.8971 Y22.1852
G01 X140.8972 Y22.1852
G01 X140.8972 Y22.1852
G00 Z2.0000
G00 X143.4372 Y22.1852
G01 F60.00
G01 Z-1.8000
G01 F120.00
G01 X143.4372 Y22.1851
G01 X143.4371 Y22.1852
G01 X143.4372 Y22.1852
G01 X143.4372 Y22.1852
G00 Z2.0000
G00 X145.9772 Y22.1852
G01 F60.00
G01 Z-1.8000
G01 F120.00
G01 X145.9772 Y22.1851
G01 X145.9771 Y22.1852
G01 X145.9772 Y22.1852
G01 X145.9772 Y22.1852
G00 Z2.0000
G00 X150.0412 Y22.1852
G01 F60.00
G01 Z-1.8000
G01 F120.00
G01 X150.0412 Y22.1851
G01 X150.0411 Y22.1852
G01 X150.0412 Y22.1852
G01 X150.0412 Y22.1852
G00 Z2.0000
G00 X152.5812 Y22.1852
G01 F60.00
G01 Z-1.8000
G01 F120.00
G01 X152.5812 Y22.1851
G01 X152.5811 Y22.1852
G01 X152.5812 Y22.1852
G01 X152.5812 Y22.1852
G00 Z2.0000
G00 X155.1212 Y22.1852
G01 F60.00
G01 Z-1.8000
G01 F120.00
G01 X155.1212 Y22.1851
G01 X155.1211 Y22.1852
G01 X155.1212 Y22.1852
G01 X155.1212 Y22.1852
G00 Z2.0000
G00 X157.6612 Y22.1852
G01 F60.00
G01 Z-1.8000
G01 F120.00
G01 X157.6612 Y22.1851
G01 X157.6611 Y22.1852
G01 X157.6612 Y22.1852
G01 X157.6612 Y22.1852
G00 Z2.0000
G00 X160.2012 Y22.1852
G01 F60.00
G01 Z-1.8000
G01 F120.00
G01 X160.2012 Y22.1851
G01 X160.2011 Y22.1852
G01 X160.2012 Y22.1852
G01 X160.2012 Y22.1852
G00 Z2.0000
G00 X162.7412 Y22.1852
G01 F60.00
G01 Z-1.8000
G01 F120.00
G01 X162.7412 Y22.1851
G01 X162.7411 Y22.1852
G01 X162.7412 Y22.1852
G01 X162.7412 Y22.1852
G00 Z2.0000
G00 X165.2812 Y22.1852
G01 F60.00
G01 Z-1.8000
G01 F120.00
G01 X165.2812 Y22.1851
G01 X165.2811 Y22.1852
G01 X165.2812 Y22.1852
G01 X165.2812 Y22.1852
G00 Z2.0000
G00 X167.8212 Y22.1852
G01 F60.00
G01 Z-1.8000
G01 F120.00
G01 X167.8212 Y22.1851
G01 X167.8211 Y22.1852
G01 X167.8212 Y22.1852
G01 X167.8212 Y22.1852
G00 Z2.0000
G00 X170.3612 Y22.1852
G01 F60.00
G01 Z-1.8000
G01 F120.00
G01 X170.3612 Y22.1851
G01 X170.3611 Y22.1852
G01 X170.3612 Y22.1852
G01 X170.3612 Y22.1852
G00 Z2.0000
G00 X172.9012 Y22.1852
G01 F60.00
G01 Z-1.8000
G01 F120.00
G01 X172.9012 Y22.1851
G01 X172.9011 Y22.1852
G01 X172.9012 Y22.1852
G01 X172.9012 Y22.1852
G00 Z2.0000
G00 X172.9012 Y25.9952
G01 F60.00
G01 Z-1.8000
G01 F120.00
G01 X172.9012 Y25.9951
G01 X172.9011 Y25.9952
G01 X172.9012 Y25.9952
G01 X172.9012 Y25.9952
G00 Z2.0000
G00 X170.3612 Y25.9952
G01 F60.00
G01 Z-1.8000
G01 F120.00
G01 X170.3612 Y25.9951
G01 X170.3611 Y25.9952
G01 X170.3612 Y25.9952
G01 X170.3612 Y25.9952
G00 Z2.0000
G00 X167.8212 Y26.2492
G01 F60.00
G01 Z-1.8000
G01 F120.00
G01 X167.8212 Y26.2491
G01 X167.8211 Y26.2492
G01 X167.8212 Y26.2492
G01 X167.8212 Y26.2492
G00 Z2.0000
G00 X165.2812 Y26.2492
G01 F60.00
G01 Z-1.8000
G01 F120.00
G01 X165.2812 Y26.2491
G01 X165.2811 Y26.2492
G01 X165.2812 Y26.2492
G01 X165.2812 Y26.2492
G00 Z2.0000
G00 X162.7412 Y26.2492
G01 F60.00
G01 Z-1.8000
G01 F120.00
G01 X162.7412 Y26.2491
G01 X162.7411 Y26.2492
G01 X162.7412 Y26.2492
G01 X162.7412 Y26.2492
G00 Z2.0000
G00 X160.2012 Y26.2492
G01 F60.00
G01 Z-1.8000
G01 F120.00
G01 X160.2012 Y26.2491
G01 X160.2011 Y26.2492
G01 X160.2012 Y26.2492
G01 X160.2012 Y26.2492
G00 Z2.0000
G00 X157.6612 Y26.2492
G01 F60.00
G01 Z-1.8000
G01 F120.00
G01 X157.6612 Y26.2491
G01 X157.6611 Y26.2492
G01 X157.6612 Y26.2492
G01 X157.6612 Y26.2492
G00 Z2.0000
G00 X155.1212 Y26.2492
G01 F60.00
G01 Z-1.8000
G01 F120.00
G01 X155.1212 Y26.2491
G01 X155.1211 Y26.2492
G01 X155.1212 Y26.2492
G01 X155.1212 Y26.2492
G00 Z2.0000
G00 X152.5812 Y26.2492
G01 F60.00
G01 Z-1.8000
G01 F120.00
G01 X152.5812 Y26.2491
G01 X152.5811 Y26.2492
G01 X152.5812 Y26.2492
G01 X152.5812 Y26.2492
G00 Z2.0000
G00 X150.0412 Y26.2492
G01 F60.00
G01 Z-1.8000
G01 F120.00
G01 X150.0412 Y26.2491
G01 X150.0411 Y26.2492
G01 X150.0412 Y26.2492
G01 X150.0412 Y26.2492
G00 Z2.0000
G00 X145.9772 Y26.2492
G01 F60.00
G01 Z-1.8000
G01 F120.00
G01 X145.9772 Y26.2491
G01 X145.9771 Y26.2492
G01 X145.9772 Y26.2492
G01 X145.9772 Y26.2492
G00 Z2.0000
G00 X143.4372 Y26.2492
G01 F60.00
G01 Z-1.8000
G01 F120.00
G01 X143.4372 Y26.2491
G01 X143.4371 Y26.2492
G01 X143.4372 Y26.2492
G01 X143.4372 Y26.2492
G00 Z2.0000
G00 X140.8972 Y26.2492
G01 F60.00
G01 Z-1.8000
G01 F120.00
G01 X140.8972 Y26.2491
G01 X140.8971 Y26.2492
G01 X140.8972 Y26.2492
G01 X140.8972 Y26.2492
G00 Z2.0000
G00 X138.3572 Y26.2492
G01 F60.00
G01 Z-1.8000
G01 F120.00
G01 X138.3572 Y26.2491
G01 X138.3571 Y26.2492
G01 X138.3572 Y26.2492
G01 X138.3572 Y26.2492
G00 Z2.0000
G00 X135.8172 Y26.2492
G01 F60.00
G01 Z-1.8000
G01 F120.00
G01 X135.8172 Y26.2491
G01 X135.8171 Y26.2492
G01 X135.8172 Y26.2492
G01 X135.8172 Y26.2492
G00 Z2.0000
G00 X133.2772 Y26.2492
G01 F60.00
G01 Z-1.8000
G01 F120.00
G01 X133.2772 Y26.2491
G01 X133.2771 Y26.2492
G01 X133.2772 Y26.2492
G01 X133.2772 Y26.2492
G00 Z2.0000
G00 X130.7372 Y26.2492
G01 F60.00
G01 Z-1.8000
G01 F120.00
G01 X130.7372 Y26.2491
G01 X130.7371 Y26.2492
G01 X130.7372 Y26.2492
G01 X130.7372 Y26.2492
G00 Z2.0000
G00 X128.1972 Y26.2492
G01 F60.00
G01 Z-1.8000
G01 F120.00
G01 X128.1972 Y26.2491
G01 X128.1971 Y26.2492
G01 X128.1972 Y26.2492
G01 X128.1972 Y26.2492
G00 Z2.0000
G00 X128.1972 Y31.0752
G01 F60.00
G01 Z-1.8000
G01 F120.00
G01 X128.1972 Y31.0751
G01 X128.1971 Y31.0752
G01 X128.1972 Y31.0752
G01 X128.1972 Y31.0752
G00 Z2.0000
G00 X130.7372 Y31.0752
G01 F60.00
G01 Z-1.8000
G01 F120.00
G01 X130.7372 Y31.0751
G01 X130.7371 Y31.0752
G01 X130.7372 Y31.0752
G01 X130.7372 Y31.0752
G00 Z2.0000
G00 X133.2772 Y31.0752
G01 F60.00
G01 Z-1.8000
G01 F120.00
G01 X133.2772 Y31.0751
G01 X133.2771 Y31.0752
G01 X133.2772 Y31.0752
G01 X133.2772 Y31.0752
G00 Z2.0000
G00 X135.8172 Y31.0752
G01 F60.00
G01 Z-1.8000
G01 F120.00
G01 X135.8172 Y31.0751
G01 X135.8171 Y31.0752
G01 X135.8172 Y31.0752
G01 X135.8172 Y31.0752
G00 Z2.0000
G00 X138.3572 Y31.0752
G01 F60.00
G01 Z-1.8000
G01 F120.00
G01 X138.3572 Y31.0751
G01 X138.3571 Y31.0752
G01 X138.3572 Y31.0752
G01 X138.3572 Y31.0752
G00 Z2.0000
G00 X140.8972 Y31.0752
G01 F60.00
G01 Z-1.8000
G01 F120.00
G01 X140.8972 Y31.0751
G01 X140.8971 Y31.0752
G01 X140.8972 Y31.0752
G01 X140.8972 Y31.0752
G00 Z2.0000
G00 X143.4372 Y31.0752
G01 F60.00
G01 Z-1.8000
G01 F120.00
G01 X143.4372 Y31.0751
G01 X143.4371 Y31.0752
G01 X143.4372 Y31.0752
G01 X143.4372 Y31.0752
G00 Z2.0000
G00 X145.9772 Y31.0752
G01 F60.00
G01 Z-1.8000
G01 F120.00
G01 X145.9772 Y31.0751
G01 X145.9771 Y31.0752
G01 X145.9772 Y31.0752
G01 X145.9772 Y31.0752
G00 Z2.0000
G00 X150.0412 Y31.0752
G01 F60.00
G01 Z-1.8000
G01 F120.00
G01 X150.0412 Y31.0751
G01 X150.0411 Y31.0752
G01 X150.0412 Y31.0752
G01 X150.0412 Y31.0752
G00 Z2.0000
G00 X152.5812 Y31.0752
G01 F60.00
G01 Z-1.8000
G01 F120.00
G01 X152.5812 Y31.0751
G01 X152.5811 Y31.0752
G01 X152.5812 Y31.0752
G01 X152.5812 Y31.0752
G00 Z2.0000
G00 X155.1212 Y31.0752
G01 F60.00
G01 Z-1.8000
G01 F120.00
G01 X155.1212 Y31.0751
G01 X155.1211 Y31.0752
G01 X155.1212 Y31.0752
G01 X155.1212 Y31.0752
G00 Z2.0000
G00 X157.6612 Y31.0752
G01 F60.00
G01 Z-1.8000
G01 F120.00
G01 X157.6612 Y31.0751
G01 X157.6611 Y31.0752
G01 X157.6612 Y31.0752
G01 X157.6612 Y31.0752
G00 Z2.0000
G00 X160.2012 Y31.0752
G01 F60.00
G01 Z-1.8000
G01 F120.00
G01 X160.2012 Y31.0751
G01 X160.2011 Y31.0752
G01 X160.2012 Y31.0752
G01 X160.2012 Y31.0752
G00 Z2.0000
G00 X162.7412 Y31.0752
G01 F60.00
G01 Z-1.8000
G01 F120.00
G01 X162.7412 Y31.0751
G01 X162.7411 Y31.0752
G01 X162.7412 Y31.0752
G01 X162.7412 Y31.0752
G00 Z2.0000
G00 X165.2812 Y31.0752
G01 F60.00
G01 Z-1.8000
G01 F120.00
G01 X165.2812 Y31.0751
G01 X165.2811 Y31.0752
G01 X165.2812 Y31.0752
G01 X165.2812 Y31.0752
G00 Z2.0000
G00 X167.8212 Y31.0752
G01 F60.00
G01 Z-1.8000
G01 F120.00
G01 X167.8212 Y31.0751
G01 X167.8211 Y31.0752
G01 X167.8212 Y31.0752
G01 X167.8212 Y31.0752
G00 Z2.0000
G00 X170.3612 Y31.0752
G01 F60.00
G01 Z-1.8000
G01 F120.00
G01 X170.3612 Y31.0751
G01 X170.3611 Y31.0752
G01 X170.3612 Y31.0752
G01 X170.3612 Y31.0752
G00 Z2.0000
G00 X172.9012 Y31.0752
G01 F60.00
G01 Z-1.8000
G01 F120.00
G01 X172.9012 Y31.0751
G01 X172.9011 Y31.0752
G01 X172.9012 Y31.0752
G01 X172.9012 Y31.0752
G00 Z2.0000
G00 X169.8532 Y38.6952
G01 F60.00
G01 Z-1.8000
G01 F120.00
G01 X169.8532 Y38.6951
G01 X169.8531 Y38.6952
G01 X169.8532 Y38.6952
G01 X169.8532 Y38.6952
G00 Z2.0000
G00 X169.8532 Y41.2352
G01 F60.00
G01 Z-1.8000
G01 F120.00
G01 X169.8532 Y41.2351
G01 X169.8531 Y41.2352
G01 X169.8532 Y41.2352
G01 X169.8532 Y41.2352
G00 Z2.0000
G00 X169.8532 Y43.7752
G01 F60.00
G01 Z-1.8000
G01 F120.00
G01 X169.8532 Y43.7751
G01 X169.8531 Y43.7752
G01 X169.8532 Y43.7752
G01 X169.8532 Y43.7752
G00 Z2.0000
G00 X169.8532 Y46.3152
G01 F60.00
G01 Z-1.8000
G01 F120.00
G01 X169.8532 Y46.3151
G01 X169.8531 Y46.3152
G01 X169.8532 Y46.3152
G01 X169.8532 Y46.3152
G00 Z2.0000
G00 X169.8532 Y48.8552
G01 F60.00
G01 Z-1.8000
G01 F120.00
G01 X169.8532 Y48.8551
G01 X169.8531 Y48.8552
G01 X169.8532 Y48.8552
G01 X169.8532 Y48.8552
G00 Z2.0000
G00 X169.8532 Y51.3952
G01 F60.00
G01 Z-1.8000
G01 F120.00
G01 X169.8532 Y51.3951
G01 X169.8531 Y51.3952
G01 X169.8532 Y51.3952
G01 X169.8532 Y51.3952
G00 Z2.0000
G00 X169.8532 Y53.9352
G01 F60.00
G01 Z-1.8000
G01 F120.00
G01 X169.8532 Y53.9351
G01 X169.8531 Y53.9352
G01 X169.8532 Y53.9352
G01 X169.8532 Y53.9352
G00 Z2.0000
G00 X169.8532 Y56.4752
G01 F60.00
G01 Z-1.8000
G01 F120.00
G01 X169.8532 Y56.4751
G01 X169.8531 Y56.4752
G01 X169.8532 Y56.4752
G01 X169.8532 Y56.4752
G00 Z2.0000
G00 X169.8532 Y59.0152
G01 F60.00
G01 Z-1.8000
G01 F120.00
G01 X169.8532 Y59.0151
G01 X169.8531 Y59.0152
G01 X169.8532 Y59.0152
G01 X169.8532 Y59.0152
G00 Z2.0000
G00 X169.8532 Y61.5552
G01 F60.00
G01 Z-1.8000
G01 F120.00
G01 X169.8532 Y61.5551
G01 X169.8531 Y61.5552
G01 X169.8532 Y61.5552
G01 X169.8532 Y61.5552
G00 Z2.0000
G00 X165.7892 Y61.5552
G01 F60.00
G01 Z-1.8000
G01 F120.00
G01 X165.7892 Y61.5551
G01 X165.7891 Y61.5552
G01 X165.7892 Y61.5552
G01 X165.7892 Y61.5552
G00 Z2.0000
G00 X165.7892 Y59.0152
G01 F60.00
G01 Z-1.8000
G01 F120.00
G01 X165.7892 Y59.0151
G01 X165.7891 Y59.0152
G01 X165.7892 Y59.0152
G01 X165.7892 Y59.0152
G00 Z2.0000
G00 X165.7892 Y56.4752
G01 F60.00
G01 Z-1.8000
G01 F120.00
G01 X165.7892 Y56.4751
G01 X165.7891 Y56.4752
G01 X165.7892 Y56.4752
G01 X165.7892 Y56.4752
G00 Z2.0000
G00 X165.7892 Y53.9352
G01 F60.00
G01 Z-1.8000
G01 F120.00
G01 X165.7892 Y53.9351
G01 X165.7891 Y53.9352
G01 X165.7892 Y53.9352
G01 X165.7892 Y53.9352
G00 Z2.0000
G00 X165.7892 Y51.3952
G01 F60.00
G01 Z-1.8000
G01 F120.00
G01 X165.7892 Y51.3951
G01 X165.7891 Y51.3952
G01 X165.7892 Y51.3952
G01 X165.7892 Y51.3952
G00 Z2.0000
G00 X165.7892 Y48.8552
G01 F60.00
G01 Z-1.8000
G01 F120.00
G01 X165.7892 Y48.8551
G01 X165.7891 Y48.8552
G01 X165.7892 Y48.8552
G01 X165.7892 Y48.8552
G00 Z2.0000
G00 X165.7892 Y46.3152
G01 F60.00
G01 Z-1.8000
G01 F120.00
G01 X165.7892 Y46.3151
G01 X165.7891 Y46.3152
G01 X165.7892 Y46.3152
G01 X165.7892 Y46.3152
G00 Z2.0000
G00 X165.7892 Y43.7752
G01 F60.00
G01 Z-1.8000
G01 F120.00
G01 X165.7892 Y43.7751
G01 X165.7891 Y43.7752
G01 X165.7892 Y43.7752
G01 X165.7892 Y43.7752
G00 Z2.0000
G00 X165.7892 Y41.2352
G01 F60.00
G01 Z-1.8000
G01 F120.00
G01 X165.7892 Y41.2351
G01 X165.7891 Y41.2352
G01 X165.7892 Y41.2352
G01 X165.7892 Y41.2352
G00 Z2.0000
G00 X165.7892 Y38.6952
G01 F60.00
G01 Z-1.8000
G01 F120.00
G01 X165.7892 Y38.6951
G01 X165.7891 Y38.6952
G01 X165.7892 Y38.6952
G01 X165.7892 Y38.6952
G00 Z2.0000
G00 X159.1852 Y38.6952
G01 F60.00
G01 Z-1.8000
G01 F120.00
G01 X159.1852 Y38.6951
G01 X159.1851 Y38.6952
G01 X159.1852 Y38.6952
G01 X159.1852 Y38.6952
G00 Z2.0000
G00 X159.1852 Y41.2352
G01 F60.00
G01 Z-1.8000
G01 F120.00
G01 X159.1852 Y41.2351
G01 X159.1851 Y41.2352
G01 X159.1852 Y41.2352
G01 X159.1852 Y41.2352
G00 Z2.0000
G00 X159.1852 Y43.7752
G01 F60.00
G01 Z-1.8000
G01 F120.00
G01 X159.1852 Y43.7751
G01 X159.1851 Y43.7752
G01 X159.1852 Y43.7752
G01 X159.1852 Y43.7752
G00 Z2.0000
G00 X159.1852 Y46.3152
G01 F60.00
G01 Z-1.8000
G01 F120.00
G01 X159.1852 Y46.3151
G01 X159.1851 Y46.3152
G01 X159.1852 Y46.3152
G01 X159.1852 Y46.3152
G00 Z2.0000
G00 X159.1852 Y48.8552
G01 F60.00
G01 Z-1.8000
G01 F120.00
G01 X159.1852 Y48.8551
G01 X159.1851 Y48.8552
G01 X159.1852 Y48.8552
G01 X159.1852 Y48.8552
G00 Z2.0000
G00 X159.1852 Y51.3952
G01 F60.00
G01 Z-1.8000
G01 F120.00
G01 X159.1852 Y51.3951
G01 X159.1851 Y51.3952
G01 X159.1852 Y51.3952
G01 X159.1852 Y51.3952
G00 Z2.0000
G00 X159.1852 Y53.9352
G01 F60.00
G01 Z-1.8000
G01 F120.00
G01 X159.1852 Y53.9351
G01 X159.1851 Y53.9352
G01 X159.1852 Y53.9352
G01 X159.1852 Y53.9352
G00 Z2.0000
G00 X159.1852 Y56.4752
G01 F60.00
G01 Z-1.8000
G01 F120.00
G01 X159.1852 Y56.4751
G01 X159.1851 Y56.4752
G01 X159.1852 Y56.4752
G01 X159.1852 Y56.4752
G00 Z2.0000
G00 X159.1852 Y59.0152
G01 F60.00
G01 Z-1.8000
G01 F120.00
G01 X159.1852 Y59.0151
G01 X159.1851 Y59.0152
G01 X159.1852 Y59.0152
G01 X159.1852 Y59.0152
G00 Z2.0000
G00 X159.1852 Y61.5552
G01 F60.00
G01 Z-1.8000
G01 F120.00
G01 X159.1852 Y61.5551
G01 X159.1851 Y61.5552
G01 X159.1852 Y61.5552
G01 X159.1852 Y61.5552
G00 Z2.0000
G00 X155.3752 Y61.5552
G01 F60.00
G01 Z-1.8000
G01 F120.00
G01 X155.3752 Y61.5551
G01 X155.3751 Y61.5552
G01 X155.3752 Y61.5552
G01 X155.3752 Y61.5552
G00 Z2.0000
G00 X155.3752 Y59.0152
G01 F60.00
G01 Z-1.8000
G01 F120.00
G01 X155.3752 Y59.0151
G01 X155.3751 Y59.0152
G01 X155.3752 Y59.0152
G01 X155.3752 Y59.0152
G00 Z2.0000
G00 X155.3752 Y56.4752
G01 F60.00
G01 Z-1.8000
G01 F120.00
G01 X155.3752 Y56.4751
G01 X155.3751 Y56.4752
G01 X155.3752 Y56.4752
G01 X155.3752 Y56.4752
G00 Z2.0000
G00 X155.3752 Y53.9352
G01 F60.00
G01 Z-1.8000
G01 F120.00
G01 X155.3752 Y53.9351
G01 X155.3751 Y53.9352
G01 X155.3752 Y53.9352
G01 X155.3752 Y53.9352
G00 Z2.0000
G00 X155.3752 Y51.3952
G01 F60.00
G01 Z-1.8000
G01 F120.00
G01 X155.3752 Y51.3951
G01 X155.3751 Y51.3952
G01 X155.3752 Y51.3952
G01 X155.3752 Y51.3952
G00 Z2.0000
G00 X155.3752 Y48.8552
G01 F60.00
G01 Z-1.8000
G01 F120.00
G01 X155.3752 Y48.8551
G01 X155.3751 Y48.8552
G01 X155.3752 Y48.8552
G01 X155.3752 Y48.8552
G00 Z2.0000
G00 X155.3752 Y46.3152
G01 F60.00
G01 Z-1.8000
G01 F120.00
G01 X155.3752 Y46.3151
G01 X155.3751 Y46.3152
G01 X155.3752 Y46.3152
G01 X155.3752 Y46.3152
G00 Z2.0000
G00 X155.3752 Y43.7752
G01 F60.00
G01 Z-1.8000
G01 F120.00
G01 X155.3752 Y43.7751
G01 X155.3751 Y43.7752
G01 X155.3752 Y43.7752
G01 X155.3752 Y43.7752
G00 Z2.0000
G00 X155.3752 Y41.2352
G01 F60.00
G01 Z-1.8000
G01 F120.00
G01 X155.3752 Y41.2351
G01 X155.3751 Y41.2352
G01 X155.3752 Y41.2352
G01 X155.3752 Y41.2352
G00 Z2.0000
G00 X155.3752 Y38.6952
G01 F60.00
G01 Z-1.8000
G01 F120.00
G01 X155.3752 Y38.6951
G01 X155.3751 Y38.6952
G01 X155.3752 Y38.6952
G01 X155.3752 Y38.6952
G00 Z2.0000
G00 X148.0092 Y43.0132
G01 F60.00
G01 Z-1.8000
G01 F120.00
G01 X148.0092 Y43.0131
G01 X148.0091 Y43.0132
G01 X148.0092 Y43.0132
G01 X148.0092 Y43.0132
G00 Z2.0000
G00 X148.0092 Y45.5532
G01 F60.00
G01 Z-1.8000
G01 F120.00
G01 X148.0092 Y45.5531
G01 X148.0091 Y45.5532
G01 X148.0092 Y45.5532
G01 X148.0092 Y45.5532
G00 Z2.0000
G00 X148.0092 Y48.0932
G01 F60.00
G01 Z-1.8000
G01 F120.00
G01 X148.0092 Y48.0931
G01 X148.0091 Y48.0932
G01 X148.0092 Y48.0932
G01 X148.0092 Y48.0932
G00 Z2.0000
G00 X148.0092 Y50.6332
G01 F60.00
G01 Z-1.8000
G01 F120.00
G01 X148.0092 Y50.6331
G01 X148.0091 Y50.6332
G01 X148.0092 Y50.6332
G01 X148.0092 Y50.6332
G00 Z2.0000
G00 X148.0092 Y53.1732
G01 F60.00
G01 Z-1.8000
G01 F120.00
G01 X148.0092 Y53.1731
G01 X148.0091 Y53.1732
G01 X148.0092 Y53.1732
G01 X148.0092 Y53.1732
G00 Z2.0000
G00 X143.4372 Y53.1732
G01 F60.00
G01 Z-1.8000
G01 F120.00
G01 X143.4372 Y53.1731
G01 X143.4371 Y53.1732
G01 X143.4372 Y53.1732
G01 X143.4372 Y53.1732
G00 Z2.0000
G00 X143.4372 Y50.6332
G01 F60.00
G01 Z-1.8000
G01 F120.00
G01 X143.4372 Y50.6331
G01 X143.4371 Y50.6332
G01 X143.4372 Y50.6332
G01 X143.4372 Y50.6332
G00 Z2.0000
G00 X143.4372 Y48.0932
G01 F60.00
G01 Z-1.8000
G01 F120.00
G01 X143.4372 Y48.0931
G01 X143.4371 Y48.0932
G01 X143.4372 Y48.0932
G01 X143.4372 Y48.0932
G00 Z2.0000
G00 X143.4372 Y45.5532
G01 F60.00
G01 Z-1.8000
G01 F120.00
G01 X143.4372 Y45.5531
G01 X143.4371 Y45.5532
G01 X143.4372 Y45.5532
G01 X143.4372 Y45.5532
G00 Z2.0000
G00 X143.4372 Y43.0132
G01 F60.00
G01 Z-1.8000
G01 F120.00
G01 X143.4372 Y43.0131
G01 X143.4371 Y43.0132
G01 X143.4372 Y43.0132
G01 X143.4372 Y43.0132
G00 Z2.0000
G00 X143.1832 Y67.1432
G01 F60.00
G01 Z-1.8000
G01 F120.00
G01 X143.1832 Y67.1431
G01 X143.1831 Y67.1432
G01 X143.1832 Y67.1432
G01 X143.1832 Y67.1432
G00 Z2.0000
G00 X140.6432 Y67.1432
G01 F60.00
G01 Z-1.8000
G01 F120.00
G01 X140.6432 Y67.1431
G01 X140.6431 Y67.1432
G01 X140.6432 Y67.1432
G01 X140.6432 Y67.1432
G00 Z2.0000
G00 X138.1032 Y67.1432
G01 F60.00
G01 Z-1.8000
G01 F120.00
G01 X138.1032 Y67.1431
G01 X138.1031 Y67.1432
G01 X138.1032 Y67.1432
G01 X138.1032 Y67.1432
G00 Z2.0000
G00 X135.5632 Y67.1432
G01 F60.00
G01 Z-1.8000
G01 F120.00
G01 X135.5632 Y67.1431
G01 X135.5631 Y67.1432
G01 X135.5632 Y67.1432
G01 X135.5632 Y67.1432
G00 Z2.0000
G00 X133.0232 Y67.1432
G01 F60.00
G01 Z-1.8000
G01 F120.00
G01 X133.0232 Y67.1431
G01 X133.0231 Y67.1432
G01 X133.0232 Y67.1432
G01 X133.0232 Y67.1432
G00 Z2.0000
G00 X130.4832 Y67.1432
G01 F60.00
G01 Z-1.8000
G01 F120.00
G01 X130.4832 Y67.1431
G01 X130.4831 Y67.1432
G01 X130.4832 Y67.1432
G01 X130.4832 Y67.1432
G00 Z2.0000
G00 X127.9432 Y67.1432
G01 F60.00
G01 Z-1.8000
G01 F120.00
G01 X127.9432 Y67.1431
G01 X127.9431 Y67.1432
G01 X127.9432 Y67.1432
G01 X127.9432 Y67.1432
G00 Z2.0000
G00 X122.6092 Y67.1432
G01 F60.00
G01 Z-1.8000
G01 F120.00
G01 X122.6092 Y67.1431
G01 X122.6091 Y67.1432
G01 X122.6092 Y67.1432
G01 X122.6092 Y67.1432
G00 Z2.0000
G00 X120.0692 Y67.1432
G01 F60.00
G01 Z-1.8000
G01 F120.00
G01 X120.0692 Y67.1431
G01 X120.0691 Y67.1432
G01 X120.0692 Y67.1432
G01 X120.0692 Y67.1432
G00 Z2.0000
G00 X117.5292 Y67.1432
G01 F60.00
G01 Z-1.8000
G01 F120.00
G01 X117.5292 Y67.1431
G01 X117.5291 Y67.1432
G01 X117.5292 Y67.1432
G01 X117.5292 Y67.1432
G00 Z2.0000
G00 X114.9892 Y67.1432
G01 F60.00
G01 Z-1.8000
G01 F120.00
G01 X114.9892 Y67.1431
G01 X114.9891 Y67.1432
G01 X114.9892 Y67.1432
G01 X114.9892 Y67.1432
G00 Z2.0000
G00 X112.4492 Y67.1432
G01 F60.00
G01 Z-1.8000
G01 F120.00
G01 X112.4492 Y67.1431
G01 X112.4491 Y67.1432
G01 X112.4492 Y67.1432
G01 X112.4492 Y67.1432
G00 Z2.0000
G00 X109.9092 Y67.1432
G01 F60.00
G01 Z-1.8000
G01 F120.00
G01 X109.9092 Y67.1431
G01 X109.9091 Y67.1432
G01 X109.9092 Y67.1432
G01 X109.9092 Y67.1432
G00 Z2.0000
G00 X107.3692 Y67.1432
G01 F60.00
G01 Z-1.8000
G01 F120.00
G01 X107.3692 Y67.1431
G01 X107.3691 Y67.1432
G01 X107.3692 Y67.1432
G01 X107.3692 Y67.1432
G00 Z2.0000
G00 X104.8292 Y67.1432
G01 F60.00
G01 Z-1.8000
G01 F120.00
G01 X104.8292 Y67.1431
G01 X104.8291 Y67.1432
G01 X104.8292 Y67.1432
G01 X104.8292 Y67.1432
G00 Z2.0000
G00 X108.3852 Y61.5552
G01 F60.00
G01 Z-1.8000
G01 F120.00
G01 X108.3852 Y61.5551
G01 X108.3851 Y61.5552
G01 X108.3852 Y61.5552
G01 X108.3852 Y61.5552
G00 Z2.0000
G00 X108.3852 Y59.0152
G01 F60.00
G01 Z-1.8000
G01 F120.00
G01 X108.3852 Y59.0151
G01 X108.3851 Y59.0152
G01 X108.3852 Y59.0152
G01 X108.3852 Y59.0152
G00 Z2.0000
G00 X108.3852 Y56.4752
G01 F60.00
G01 Z-1.8000
G01 F120.00
G01 X108.3852 Y56.4751
G01 X108.3851 Y56.4752
G01 X108.3852 Y56.4752
G01 X108.3852 Y56.4752
G00 Z2.0000
G00 X108.3852 Y53.9352
G01 F60.00
G01 Z-1.8000
G01 F120.00
G01 X108.3852 Y53.9351
G01 X108.3851 Y53.9352
G01 X108.3852 Y53.9352
G01 X108.3852 Y53.9352
G00 Z2.0000
G00 X108.3852 Y51.3952
G01 F60.00
G01 Z-1.8000
G01 F120.00
G01 X108.3852 Y51.3951
G01 X108.3851 Y51.3952
G01 X108.3852 Y51.3952
G01 X108.3852 Y51.3952
G00 Z2.0000
G00 X108.3852 Y48.8552
G01 F60.00
G01 Z-1.8000
G01 F120.00
G01 X108.3852 Y48.8551
G01 X108.3851 Y48.8552
G01 X108.3852 Y48.8552
G01 X108.3852 Y48.8552
G00 Z2.0000
G00 X108.3852 Y46.3152
G01 F60.00
G01 Z-1.8000
G01 F120.00
G01 X108.3852 Y46.3151
G01 X108.3851 Y46.3152
G01 X108.3852 Y46.3152
G01 X108.3852 Y46.3152
G00 Z2.0000
G00 X108.3852 Y43.7752
G01 F60.00
G01 Z-1.8000
G01 F120.00
G01 X108.3852 Y43.7751
G01 X108.3851 Y43.7752
G01 X108.3852 Y43.7752
G01 X108.3852 Y43.7752
G00 Z2.0000
G00 X108.3852 Y41.2352
G01 F60.00
G01 Z-1.8000
G01 F120.00
G01 X108.3852 Y41.2351
G01 X108.3851 Y41.2352
G01 X108.3852 Y41.2352
G01 X108.3852 Y41.2352
G00 Z2.0000
G00 X108.3852 Y38.6952
G01 F60.00
G01 Z-1.8000
G01 F120.00
G01 X108.3852 Y38.6951
G01 X108.3851 Y38.6952
G01 X108.3852 Y38.6952
G01 X108.3852 Y38.6952
G00 Z2.0000
G00 X116.7672 Y43.7752
G01 F60.00
G01 Z-1.8000
G01 F120.00
G01 X116.7672 Y43.7751
G01 X116.7671 Y43.7752
G01 X116.7672 Y43.7752
G01 X116.7672 Y43.7752
G00 Z2.0000
G00 X105.3372 Y48.6012
G01 F60.00
G01 Z-1.8000
G01 F120.00
G01 X105.3372 Y48.6011
G01 X105.3371 Y48.6012
G01 X105.3372 Y48.6012
G01 X105.3372 Y48.6012
G00 Z2.0000
G00 X103.0512 Y52.2893
G01 F60.00
G01 Z-1.8000
G01 F120.00
G01 X103.0512 Y52.2892
G01 X103.0511 Y52.2893
G01 X103.0512 Y52.2893
G01 X103.0512 Y52.2893
G00 Z2.0000
G00 X100.5112 Y56.0993
G01 F60.00
G01 Z-1.8000
G01 F120.00
G01 X100.5112 Y56.0992
G01 X100.5111 Y56.0993
G01 X100.5112 Y56.0993
G01 X100.5112 Y56.0993
G00 Z2.0000
G00 X97.7172 Y59.2692
G01 F60.00
G01 Z-1.8000
G01 F120.00
G01 X97.7172 Y59.2691
G01 X97.7171 Y59.2692
G01 X97.7172 Y59.2692
G01 X97.7172 Y59.2692
G00 Z2.0000
G00 X97.7172 Y61.8092
G01 F60.00
G01 Z-1.8000
G01 F120.00
G01 X97.7172 Y61.8091
G01 X97.7171 Y61.8092
G01 X97.7172 Y61.8092
G01 X97.7172 Y61.8092
G00 Z2.0000
G00 X97.7172 Y64.3492
G01 F60.00
G01 Z-1.8000
G01 F120.00
G01 X97.7172 Y64.3491
G01 X97.7171 Y64.3492
G01 X97.7172 Y64.3492
G01 X97.7172 Y64.3492
G00 Z2.0000
G00 X97.7172 Y66.8892
G01 F60.00
G01 Z-1.8000
G01 F120.00
G01 X97.7172 Y66.8891
G01 X97.7171 Y66.8892
G01 X97.7172 Y66.8892
G01 X97.7172 Y66.8892
G00 Z2.0000
G00 X95.1772 Y66.8892
G01 F60.00
G01 Z-1.8000
G01 F120.00
G01 X95.1772 Y66.8891
G01 X95.1771 Y66.8892
G01 X95.1772 Y66.8892
G01 X95.1772 Y66.8892
G00 Z2.0000
G00 X95.1772 Y64.3492
G01 F60.00
G01 Z-1.8000
G01 F120.00
G01 X95.1772 Y64.3491
G01 X95.1771 Y64.3492
G01 X95.1772 Y64.3492
G01 X95.1772 Y64.3492
G00 Z2.0000
G00 X95.1772 Y61.8092
G01 F60.00
G01 Z-1.8000
G01 F120.00
G01 X95.1772 Y61.8091
G01 X95.1771 Y61.8092
G01 X95.1772 Y61.8092
G01 X95.1772 Y61.8092
G00 Z2.0000
G00 X95.1772 Y59.2692
G01 F60.00
G01 Z-1.8000
G01 F120.00
G01 X95.1772 Y59.2691
G01 X95.1771 Y59.2692
G01 X95.1772 Y59.2692
G01 X95.1772 Y59.2692
G00 Z2.0000
G00 X95.1772 Y69.4292
G01 F60.00
G01 Z-1.8000
G01 F120.00
G01 X95.1772 Y69.4291
G01 X95.1771 Y69.4292
G01 X95.1772 Y69.4292
G01 X95.1772 Y69.4292
G00 Z2.0000
G00 X97.7172 Y69.4292
G01 F60.00
G01 Z-1.8000
G01 F120.00
G01 X97.7172 Y69.4291
G01 X97.7171 Y69.4292
G01 X97.7172 Y69.4292
G01 X97.7172 Y69.4292
G00 Z2.0000
G00 X100.2572 Y74.5092
G01 F60.00
G01 Z-1.8000
G01 F120.00
G01 X100.2572 Y74.5091
G01 X100.2571 Y74.5092
G01 X100.2572 Y74.5092
G01 X100.2572 Y74.5092
G00 Z2.0000
G00 X102.7972 Y74.5092
G01 F60.00
G01 Z-1.8000
G01 F120.00
G01 X102.7972 Y74.5091
G01 X102.7971 Y74.5092
G01 X102.7972 Y74.5092
G01 X102.7972 Y74.5092
G00 Z2.0000
G00 X105.3372 Y74.5092
G01 F60.00
G01 Z-1.8000
G01 F120.00
G01 X105.3372 Y74.5091
G01 X105.3371 Y74.5092
G01 X105.3372 Y74.5092
G01 X105.3372 Y74.5092
G00 Z2.0000
G00 X107.8772 Y74.5092
G01 F60.00
G01 Z-1.8000
G01 F120.00
G01 X107.8772 Y74.5091
G01 X107.8771 Y74.5092
G01 X107.8772 Y74.5092
G01 X107.8772 Y74.5092
G00 Z2.0000
G00 X110.4172 Y74.5092
G01 F60.00
G01 Z-1.8000
G01 F120.00
G01 X110.4172 Y74.5091
G01 X110.4171 Y74.5092
G01 X110.4172 Y74.5092
G01 X110.4172 Y74.5092
G00 Z2.0000
G00 X112.9572 Y74.5092
G01 F60.00
G01 Z-1.8000
G01 F120.00
G01 X112.9572 Y74.5091
G01 X112.9571 Y74.5092
G01 X112.9572 Y74.5092
G01 X112.9572 Y74.5092
G00 Z2.0000
G00 X115.4972 Y74.5092
G01 F60.00
G01 Z-1.8000
G01 F120.00
G01 X115.4972 Y74.5091
G01 X115.4971 Y74.5092
G01 X115.4972 Y74.5092
G01 X115.4972 Y74.5092
G00 Z2.0000
G00 X118.0372 Y74.5092
G01 F60.00
G01 Z-1.8000
G01 F120.00
G01 X118.0372 Y74.5091
G01 X118.0371 Y74.5092
G01 X118.0372 Y74.5092
G01 X118.0372 Y74.5092
G00 Z2.0000
G00 X118.0372 Y78.0652
G01 F60.00
G01 Z-1.8000
G01 F120.00
G01 X118.0372 Y78.0651
G01 X118.0371 Y78.0652
G01 X118.0372 Y78.0652
G01 X118.0372 Y78.0652
G00 Z2.0000
G00 X115.4972 Y78.0652
G01 F60.00
G01 Z-1.8000
G01 F120.00
G01 X115.4972 Y78.0651
G01 X115.4971 Y78.0652
G01 X115.4972 Y78.0652
G01 X115.4972 Y78.0652
G00 Z2.0000
G00 X112.9572 Y78.0652
G01 F60.00
G01 Z-1.8000
G01 F120.00
G01 X112.9572 Y78.0651
G01 X112.9571 Y78.0652
G01 X112.9572 Y78.0652
G01 X112.9572 Y78.0652
G00 Z2.0000
G00 X110.4172 Y78.0652
G01 F60.00
G01 Z-1.8000
G01 F120.00
G01 X110.4172 Y78.0651
G01 X110.4171 Y78.0652
G01 X110.4172 Y78.0652
G01 X110.4172 Y78.0652
G00 Z2.0000
G00 X107.8772 Y78.0652
G01 F60.00
G01 Z-1.8000
G01 F120.00
G01 X107.8772 Y78.0651
G01 X107.8771 Y78.0652
G01 X107.8772 Y78.0652
G01 X107.8772 Y78.0652
G00 Z2.0000
G00 X105.3372 Y78.0652
G01 F60.00
G01 Z-1.8000
G01 F120.00
G01 X105.3372 Y78.0651
G01 X105.3371 Y78.0652
G01 X105.3372 Y78.0652
G01 X105.3372 Y78.0652
G00 Z2.0000
G00 X102.7972 Y78.0652
G01 F60.00
G01 Z-1.8000
G01 F120.00
G01 X102.7972 Y78.0651
G01 X102.7971 Y78.0652
G01 X102.7972 Y78.0652
G01 X102.7972 Y78.0652
G00 Z2.0000
G00 X100.2572 Y78.0652
G01 F60.00
G01 Z-1.8000
G01 F120.00
G01 X100.2572 Y78.0651
G01 X100.2571 Y78.0652
G01 X100.2572 Y78.0652
G01 X100.2572 Y78.0652
G00 Z2.0000
G00 X87.5776 Y82.8429
G01 F60.00
G01 Z-1.8000
G01 F120.00
G01 X87.5775 Y82.8429
G01 X87.5775 Y82.8429
G01 X87.5775 Y82.8430
G01 X87.5776 Y82.8429
G00 Z2.0000
G00 X82.4976 Y82.8429
G01 F60.00
G01 Z-1.8000
G01 F120.00
G01 X82.4975 Y82.8429
G01 X82.4975 Y82.8429
G01 X82.4975 Y82.8430
G01 X82.4976 Y82.8429
G00 Z2.0000
G00 X81.4612 Y75.2712
G01 F60.00
G01 Z-1.8000
G01 F120.00
G01 X81.4612 Y75.2711
G01 X81.4611 Y75.2712
G01 X81.4612 Y75.2712
G01 X81.4612 Y75.2712
G00 Z2.0000
G00 X78.9212 Y75.2712
G01 F60.00
G01 Z-1.8000
G01 F120.00
G01 X78.9212 Y75.2711
G01 X78.9211 Y75.2712
G01 X78.9212 Y75.2712
G01 X78.9212 Y75.2712
G00 Z2.0000
G00 X76.3812 Y75.2712
G01 F60.00
G01 Z-1.8000
G01 F120.00
G01 X76.3812 Y75.2711
G01 X76.3811 Y75.2712
G01 X76.3812 Y75.2712
G01 X76.3812 Y75.2712
G00 Z2.0000
G00 X73.8412 Y75.2712
G01 F60.00
G01 Z-1.8000
G01 F120.00
G01 X73.8412 Y75.2711
G01 X73.8411 Y75.2712
G01 X73.8412 Y75.2712
G01 X73.8412 Y75.2712
G00 Z2.0000
G00 X71.3012 Y75.2712
G01 F60.00
G01 Z-1.8000
G01 F120.00
G01 X71.3012 Y75.2711
G01 X71.3011 Y75.2712
G01 X71.3012 Y75.2712
G01 X71.3012 Y75.2712
G00 Z2.0000
G00 X68.7612 Y75.2712
G01 F60.00
G01 Z-1.8000
G01 F120.00
G01 X68.7612 Y75.2711
G01 X68.7611 Y75.2712
G01 X68.7612 Y75.2712
G01 X68.7612 Y75.2712
G00 Z2.0000
G00 X66.2212 Y75.2712
G01 F60.00
G01 Z-1.8000
G01 F120.00
G01 X66.2212 Y75.2711
G01 X66.2211 Y75.2712
G01 X66.2212 Y75.2712
G01 X66.2212 Y75.2712
G00 Z2.0000
G00 X61.1412 Y75.2712
G01 F60.00
G01 Z-1.8000
G01 F120.00
G01 X61.1412 Y75.2711
G01 X61.1411 Y75.2712
G01 X61.1412 Y75.2712
G01 X61.1412 Y75.2712
G00 Z2.0000
G00 X58.6012 Y75.2712
G01 F60.00
G01 Z-1.8000
G01 F120.00
G01 X58.6012 Y75.2711
G01 X58.6011 Y75.2712
G01 X58.6012 Y75.2712
G01 X58.6012 Y75.2712
G00 Z2.0000
G00 X56.0612 Y75.2712
G01 F60.00
G01 Z-1.8000
G01 F120.00
G01 X56.0612 Y75.2711
G01 X56.0611 Y75.2712
G01 X56.0612 Y75.2712
G01 X56.0612 Y75.2712
G00 Z2.0000
G00 X53.5212 Y75.2712
G01 F60.00
G01 Z-1.8000
G01 F120.00
G01 X53.5212 Y75.2711
G01 X53.5211 Y75.2712
G01 X53.5212 Y75.2712
G01 X53.5212 Y75.2712
G00 Z2.0000
G00 X50.9812 Y75.2712
G01 F60.00
G01 Z-1.8000
G01 F120.00
G01 X50.9812 Y75.2711
G01 X50.9811 Y75.2712
G01 X50.9812 Y75.2712
G01 X50.9812 Y75.2712
G00 Z2.0000
G00 X48.4412 Y75.2712
G01 F60.00
G01 Z-1.8000
G01 F120.00
G01 X48.4412 Y75.2711
G01 X48.4411 Y75.2712
G01 X48.4412 Y75.2712
G01 X48.4412 Y75.2712
G00 Z2.0000
G00 X45.9012 Y75.2712
G01 F60.00
G01 Z-1.8000
G01 F120.00
G01 X45.9012 Y75.2711
G01 X45.9011 Y75.2712
G01 X45.9012 Y75.2712
G01 X45.9012 Y75.2712
G00 Z2.0000
G00 X43.3612 Y75.2712
G01 F60.00
G01 Z-1.8000
G01 F120.00
G01 X43.3612 Y75.2711
G01 X43.3611 Y75.2712
G01 X43.3612 Y75.2712
G01 X43.3612 Y75.2712
G00 Z2.0000
G00 X40.8212 Y75.2712
G01 F60.00
G01 Z-1.8000
G01 F120.00
G01 X40.8212 Y75.2711
G01 X40.8211 Y75.2712
G01 X40.8212 Y75.2712
G01 X40.8212 Y75.2712
G00 Z2.0000
G00 X35.7412 Y75.3982
G01 F60.00
G01 Z-1.8000
G01 F120.00
G01 X35.7412 Y75.3981
G01 X35.7411 Y75.3982
G01 X35.7412 Y75.3982
G01 X35.7412 Y75.3982
G00 Z2.0000
G00 X33.2012 Y75.3982
G01 F60.00
G01 Z-1.8000
G01 F120.00
G01 X33.2012 Y75.3981
G01 X33.2011 Y75.3982
G01 X33.2012 Y75.3982
G01 X33.2012 Y75.3982
G00 Z2.0000
G00 X30.6612 Y75.3982
G01 F60.00
G01 Z-1.8000
G01 F120.00
G01 X30.6612 Y75.3981
G01 X30.6611 Y75.3982
G01 X30.6612 Y75.3982
G01 X30.6612 Y75.3982
G00 Z2.0000
G00 X28.1212 Y75.3982
G01 F60.00
G01 Z-1.8000
G01 F120.00
G01 X28.1212 Y75.3981
G01 X28.1211 Y75.3982
G01 X28.1212 Y75.3982
G01 X28.1212 Y75.3982
G00 Z2.0000
G00 X25.5812 Y75.3982
G01 F60.00
G01 Z-1.8000
G01 F120.00
G01 X25.5812 Y75.3981
G01 X25.5811 Y75.3982
G01 X25.5812 Y75.3982
G01 X25.5812 Y75.3982
G00 Z2.0000
G00 X23.0412 Y75.3982
G01 F60.00
G01 Z-1.8000
G01 F120.00
G01 X23.0412 Y75.3981
G01 X23.0411 Y75.3982
G01 X23.0412 Y75.3982
G01 X23.0412 Y75.3982
G00 Z2.0000
G00 X20.5012 Y75.3982
G01 F60.00
G01 Z-1.8000
G01 F120.00
G01 X20.5012 Y75.3981
G01 X20.5011 Y75.3982
G01 X20.5012 Y75.3982
G01 X20.5012 Y75.3982
G00 Z2.0000
G00 X17.9612 Y75.3982
G01 F60.00
G01 Z-1.8000
G01 F120.00
G01 X17.9612 Y75.3981
G01 X17.9611 Y75.3982
G01 X17.9612 Y75.3982
G01 X17.9612 Y75.3982
G00 Z2.0000
G00 X15.4212 Y75.3982
G01 F60.00
G01 Z-1.8000
G01 F120.00
G01 X15.4212 Y75.3981
G01 X15.4211 Y75.3982
G01 X15.4212 Y75.3982
G01 X15.4212 Y75.3982
G00 Z2.0000
G00 X17.7072 Y85.6852
G01 F60.00
G01 Z-1.8000
G01 F120.00
G01 X17.7072 Y85.6851
G01 X17.7071 Y85.6852
G01 X17.7072 Y85.6852
G01 X17.7072 Y85.6852
G00 Z2.0000
G00 X22.7872 Y85.6852
G01 F60.00
G01 Z-1.8000
G01 F120.00
G01 X22.7872 Y85.6851
G01 X22.7871 Y85.6852
G01 X22.7872 Y85.6852
G01 X22.7872 Y85.6852
G00 Z2.0000
G00 X22.7872 Y91.2732
G01 F60.00
G01 Z-1.8000
G01 F120.00
G01 X22.7872 Y91.2731
G01 X22.7871 Y91.2732
G01 X22.7872 Y91.2732
G01 X22.7872 Y91.2732
G00 Z2.0000
G00 X20.2472 Y91.2732
G01 F60.00
G01 Z-1.8000
G01 F120.00
G01 X20.2472 Y91.2731
G01 X20.2471 Y91.2732
G01 X20.2472 Y91.2732
G01 X20.2472 Y91.2732
G00 Z2.0000
G00 X17.7072 Y91.2732
G01 F60.00
G01 Z-1.8000
G01 F120.00
G01 X17.7072 Y91.2731
G01 X17.7071 Y91.2732
G01 X17.7072 Y91.2732
G01 X17.7072 Y91.2732
G00 Z2.0000
G00 X26.7268 Y80.0972
G01 F60.00
G01 Z-1.8000
G01 F120.00
G01 X26.7267 Y80.0971
G01 X26.7267 Y80.0972
G01 X26.7267 Y80.0972
G01 X26.7268 Y80.0972
G00 Z2.0000
G00 X32.9472 Y85.1772
G01 F60.00
G01 Z-1.8000
G01 F120.00
G01 X32.9472 Y85.1771
G01 X32.9471 Y85.1772
G01 X32.9472 Y85.1772
G01 X32.9472 Y85.1772
G00 Z2.0000
G00 X38.0272 Y85.1772
G01 F60.00
G01 Z-1.8000
G01 F120.00
G01 X38.0272 Y85.1771
G01 X38.0271 Y85.1772
G01 X38.0272 Y85.1772
G01 X38.0272 Y85.1772
G00 Z2.0000
G00 X38.7892 Y80.0972
G01 F60.00
G01 Z-1.8000
G01 F120.00
G01 X38.7892 Y80.0971
G01 X38.7891 Y80.0972
G01 X38.7892 Y80.0972
G01 X38.7892 Y80.0972
G00 Z2.0000
G00 X38.0272 Y91.2732
G01 F60.00
G01 Z-1.8000
G01 F120.00
G01 X38.0272 Y91.2731
G01 X38.0271 Y91.2732
G01 X38.0272 Y91.2732
G01 X38.0272 Y91.2732
G00 Z2.0000
G00 X35.4872 Y91.2732
G01 F60.00
G01 Z-1.8000
G01 F120.00
G01 X35.4872 Y91.2731
G01 X35.4871 Y91.2732
G01 X35.4872 Y91.2732
G01 X35.4872 Y91.2732
G00 Z2.0000
G00 X32.9472 Y91.2732
G01 F60.00
G01 Z-1.8000
G01 F120.00
G01 X32.9472 Y91.2731
G01 X32.9471 Y91.2732
G01 X32.9472 Y91.2732
G01 X32.9472 Y91.2732
G00 Z2.0000
G00 X27.8672 Y66.8892
G01 F60.00
G01 Z-1.8000
G01 F120.00
G01 X27.8672 Y66.8891
G01 X27.8671 Y66.8892
G01 X27.8672 Y66.8892
G01 X27.8672 Y66.8892
G00 Z2.0000
G00 X22.7872 Y66.8892
G01 F60.00
G01 Z-1.8000
G01 F120.00
G01 X22.7872 Y66.8891
G01 X22.7871 Y66.8892
G01 X22.7872 Y66.8892
G01 X22.7872 Y66.8892
G00 Z2.0000
G00 X22.7872 Y60.2852
G01 F60.00
G01 Z-1.8000
G01 F120.00
G01 X22.7872 Y60.2851
G01 X22.7871 Y60.2852
G01 X22.7872 Y60.2852
G01 X22.7872 Y60.2852
G00 Z2.0000
G00 X27.8672 Y60.2852
G01 F60.00
G01 Z-1.8000
G01 F120.00
G01 X27.8672 Y60.2851
G01 X27.8671 Y60.2852
G01 X27.8672 Y60.2852
G01 X27.8672 Y60.2852
G00 Z2.0000
G00 X27.8672 Y53.9352
G01 F60.00
G01 Z-1.8000
G01 F120.00
G01 X27.8672 Y53.9351
G01 X27.8671 Y53.9352
G01 X27.8672 Y53.9352
G01 X27.8672 Y53.9352
G00 Z2.0000
G00 X22.7872 Y53.9352
G01 F60.00
G01 Z-1.8000
G01 F120.00
G01 X22.7872 Y53.9351
G01 X22.7871 Y53.9352
G01 X22.7872 Y53.9352
G01 X22.7872 Y53.9352
G00 Z2.0000
G00 X48.4412 Y53.9352
G01 F60.00
G01 Z-1.8000
G01 F120.00
G01 X48.4412 Y53.9351
G01 X48.4411 Y53.9352
G01 X48.4412 Y53.9352
G01 X48.4412 Y53.9352
G00 Z2.0000
G00 X53.5212 Y53.9352
G01 F60.00
G01 Z-1.8000
G01 F120.00
G01 X53.5212 Y53.9351
G01 X53.5211 Y53.9352
G01 X53.5212 Y53.9352
G01 X53.5212 Y53.9352
G00 Z2.0000
G00 X53.5212 Y60.2852
G01 F60.00
G01 Z-1.8000
G01 F120.00
G01 X53.5212 Y60.2851
G01 X53.5211 Y60.2852
G01 X53.5212 Y60.2852
G01 X53.5212 Y60.2852
G00 Z2.0000
G00 X48.4412 Y60.2852
G01 F60.00
G01 Z-1.8000
G01 F120.00
G01 X48.4412 Y60.2851
G01 X48.4411 Y60.2852
G01 X48.4412 Y60.2852
G01 X48.4412 Y60.2852
G00 Z2.0000
G00 X48.4412 Y66.8892
G01 F60.00
G01 Z-1.8000
G01 F120.00
G01 X48.4412 Y66.8891
G01 X48.4411 Y66.8892
G01 X48.4412 Y66.8892
G01 X48.4412 Y66.8892
G00 Z2.0000
G00 X53.5212 Y66.8892
G01 F60.00
G01 Z-1.8000
G01 F120.00
G01 X53.5212 Y66.8891
G01 X53.5211 Y66.8892
G01 X53.5212 Y66.8892
G01 X53.5212 Y66.8892
G00 Z2.0000
G00 X61.4765 Y84.5244
G01 F60.00
G01 Z-1.8000
G01 F120.00
G01 X61.4765 Y84.5244
G01 X61.4764 Y84.5244
G01 X61.4765 Y84.5245
G01 X61.4765 Y84.5244
G00 Z2.0000
G00 X61.4765 Y87.0644
G01 F60.00
G01 Z-1.8000
G01 F120.00
G01 X61.4765 Y87.0644
G01 X61.4764 Y87.0644
G01 X61.4765 Y87.0645
G01 X61.4765 Y87.0644
G00 Z2.0000
G00 X61.4765 Y89.6044
G01 F60.00
G01 Z-1.8000
G01 F120.00
G01 X61.4765 Y89.6044
G01 X61.4764 Y89.6044
G01 X61.4765 Y89.6045
G01 X61.4765 Y89.6044
G00 Z2.0000
G00 X61.4765 Y92.1444
G01 F60.00
G01 Z-1.8000
G01 F120.00
G01 X61.4765 Y92.1444
G01 X61.4764 Y92.1444
G01 X61.4765 Y92.1445
G01 X61.4765 Y92.1444
G00 Z2.0000
G00 X58.6774 Y90.7931
G01 F60.00
G01 Z-1.8000
G01 F120.00
G01 X58.6774 Y90.7931
G01 X58.6773 Y90.7931
G01 X58.6774 Y90.7932
G01 X58.6774 Y90.7931
G00 Z2.0000
G00 X58.6774 Y85.7944
G01 F60.00
G01 Z-1.8000
G01 F120.00
G01 X58.6774 Y85.7944
G01 X58.6773 Y85.7944
G01 X58.6774 Y85.7945
G01 X58.6774 Y85.7944
G00 Z2.0000
G00 X67.9992 Y83.3992
G01 F60.00
G01 Z-1.8000
G01 F120.00
G01 X67.9992 Y83.3991
G01 X67.9991 Y83.3992
G01 X67.9992 Y83.3992
G01 X67.9992 Y83.3992
G00 Z2.0000
G00 X74.0952 Y66.6352
G01 F60.00
G01 Z-1.8000
G01 F120.00
G01 X74.0952 Y66.6351
G01 X74.0951 Y66.6352
G01 X74.0952 Y66.6352
G01 X74.0952 Y66.6352
G00 Z2.0000
G00 X79.1752 Y66.6352
G01 F60.00
G01 Z-1.8000
G01 F120.00
G01 X79.1752 Y66.6351
G01 X79.1751 Y66.6352
G01 X79.1752 Y66.6352
G01 X79.1752 Y66.6352
G00 Z2.0000
G00 X79.1752 Y60.2852
G01 F60.00
G01 Z-1.8000
G01 F120.00
G01 X79.1752 Y60.2851
G01 X79.1751 Y60.2852
G01 X79.1752 Y60.2852
G01 X79.1752 Y60.2852
G00 Z2.0000
G00 X74.0952 Y60.2852
G01 F60.00
G01 Z-1.8000
G01 F120.00
G01 X74.0952 Y60.2851
G01 X74.0951 Y60.2852
G01 X74.0952 Y60.2852
G01 X74.0952 Y60.2852
G00 Z2.0000
G00 X74.0952 Y53.9352
G01 F60.00
G01 Z-1.8000
G01 F120.00
G01 X74.0952 Y53.9351
G01 X74.0951 Y53.9352
G01 X74.0952 Y53.9352
G01 X74.0952 Y53.9352
G00 Z2.0000
G00 X79.1752 Y53.9352
G01 F60.00
G01 Z-1.8000
G01 F120.00
G01 X79.1752 Y53.9351
G01 X79.1751 Y53.9352
G01 X79.1752 Y53.9352
G01 X79.1752 Y53.9352
G00 Z2.0000
G00 X84.0012 Y75.2712
G01 F60.00
G01 Z-1.8000
G01 F120.00
G01 X84.0012 Y75.2711
G01 X84.0011 Y75.2712
G01 X84.0012 Y75.2712
G01 X84.0012 Y75.2712
G00 Z2.0000
G00 X86.5412 Y75.2712
G01 F60.00
G01 Z-1.8000
G01 F120.00
G01 X86.5412 Y75.2711
G01 X86.5411 Y75.2712
G01 X86.5412 Y75.2712
G01 X86.5412 Y75.2712
G00 Z2.0000
G00 X87.5572 Y93.8437
G01 F60.00
G01 Z-1.8000
G01 F120.00
G01 X87.5572 Y93.8436
G01 X87.5571 Y93.8437
G01 X87.5572 Y93.8437
G01 X87.5572 Y93.8437
G00 Z2.0000
G00 X82.4772 Y93.8437
G01 F60.00
G01 Z-1.8000
G01 F120.00
G01 X82.4772 Y93.8436
G01 X82.4771 Y93.8437
G01 X82.4772 Y93.8437
G01 X82.4772 Y93.8437
G00 Z2.0000
G00 X123.1172 Y78.3192
G01 F60.00
G01 Z-1.8000
G01 F120.00
G01 X123.1172 Y78.3191
G01 X123.1171 Y78.3192
G01 X123.1172 Y78.3192
G01 X123.1172 Y78.3192
G00 Z2.0000
G00 X125.6572 Y78.3192
G01 F60.00
G01 Z-1.8000
G01 F120.00
G01 X125.6572 Y78.3191
G01 X125.6571 Y78.3192
G01 X125.6572 Y78.3192
G01 X125.6572 Y78.3192
G00 Z2.0000
G00 X128.1972 Y78.3192
G01 F60.00
G01 Z-1.8000
G01 F120.00
G01 X128.1972 Y78.3191
G01 X128.1971 Y78.3192
G01 X128.1972 Y78.3192
G01 X128.1972 Y78.3192
G00 Z2.0000
G00 X130.7372 Y78.3192
G01 F60.00
G01 Z-1.8000
G01 F120.00
G01 X130.7372 Y78.3191
G01 X130.7371 Y78.3192
G01 X130.7372 Y78.3192
G01 X130.7372 Y78.3192
G00 Z2.0000
G00 X133.2772 Y78.3192
G01 F60.00
G01 Z-1.8000
G01 F120.00
G01 X133.2772 Y78.3191
G01 X133.2771 Y78.3192
G01 X133.2772 Y78.3192
G01 X133.2772 Y78.3192
G00 Z2.0000
G00 X135.8172 Y78.3192
G01 F60.00
G01 Z-1.8000
G01 F120.00
G01 X135.8172 Y78.3191
G01 X135.8171 Y78.3192
G01 X135.8172 Y78.3192
G01 X135.8172 Y78.3192
G00 Z2.0000
G00 X138.3572 Y78.3192
G01 F60.00
G01 Z-1.8000
G01 F120.00
G01 X138.3572 Y78.3191
G01 X138.3571 Y78.3192
G01 X138.3572 Y78.3192
G01 X138.3572 Y78.3192
G00 Z2.0000
G00 X140.8972 Y78.3192
G01 F60.00
G01 Z-1.8000
G01 F120.00
G01 X140.8972 Y78.3191
G01 X140.8971 Y78.3192
G01 X140.8972 Y78.3192
G01 X140.8972 Y78.3192
G00 Z2.0000
G00 X140.8972 Y74.5092
G01 F60.00
G01 Z-1.8000
G01 F120.00
G01 X140.8972 Y74.5091
G01 X140.8971 Y74.5092
G01 X140.8972 Y74.5092
G01 X140.8972 Y74.5092
G00 Z2.0000
G00 X138.3572 Y74.5092
G01 F60.00
G01 Z-1.8000
G01 F120.00
G01 X138.3572 Y74.5091
G01 X138.3571 Y74.5092
G01 X138.3572 Y74.5092
G01 X138.3572 Y74.5092
G00 Z2.0000
G00 X135.8172 Y74.5092
G01 F60.00
G01 Z-1.8000
G01 F120.00
G01 X135.8172 Y74.5091
G01 X135.8171 Y74.5092
G01 X135.8172 Y74.5092
G01 X135.8172 Y74.5092
G00 Z2.0000
G00 X133.2772 Y74.5092
G01 F60.00
G01 Z-1.8000
G01 F120.00
G01 X133.2772 Y74.5091
G01 X133.2771 Y74.5092
G01 X133.2772 Y74.5092
G01 X133.2772 Y74.5092
G00 Z2.0000
G00 X130.7372 Y74.5092
G01 F60.00
G01 Z-1.8000
G01 F120.00
G01 X130.7372 Y74.5091
G01 X130.7371 Y74.5092
G01 X130.7372 Y74.5092
G01 X130.7372 Y74.5092
G00 Z2.0000
G00 X128.1972 Y74.5092
G01 F60.00
G01 Z-1.8000
G01 F120.00
G01 X128.1972 Y74.5091
G01 X128.1971 Y74.5092
G01 X128.1972 Y74.5092
G01 X128.1972 Y74.5092
G00 Z2.0000
G00 X125.6572 Y74.5092
G01 F60.00
G01 Z-1.8000
G01 F120.00
G01 X125.6572 Y74.5091
G01 X125.6571 Y74.5092
G01 X125.6572 Y74.5092
G01 X125.6572 Y74.5092
G00 Z2.0000
G00 X123.1172 Y74.5092
G01 F60.00
G01 Z-1.8000
G01 F120.00
G01 X123.1172 Y74.5091
G01 X123.1171 Y74.5092
G01 X123.1172 Y74.5092
G01 X123.1172 Y74.5092
G00 Z2.0000
G00 X145.9772 Y74.5092
G01 F60.00
G01 Z-1.8000
G01 F120.00
G01 X145.9772 Y74.5091
G01 X145.9771 Y74.5092
G01 X145.9772 Y74.5092
G01 X145.9772 Y74.5092
G00 Z2.0000
G00 X148.5172 Y74.5092
G01 F60.00
G01 Z-1.8000
G01 F120.00
G01 X148.5172 Y74.5091
G01 X148.5171 Y74.5092
G01 X148.5172 Y74.5092
G01 X148.5172 Y74.5092
G00 Z2.0000
G00 X151.0572 Y74.5092
G01 F60.00
G01 Z-1.8000
G01 F120.00
G01 X151.0572 Y74.5091
G01 X151.0571 Y74.5092
G01 X151.0572 Y74.5092
G01 X151.0572 Y74.5092
G00 Z2.0000
G00 X153.5972 Y74.5092
G01 F60.00
G01 Z-1.8000
G01 F120.00
G01 X153.5972 Y74.5091
G01 X153.5971 Y74.5092
G01 X153.5972 Y74.5092
G01 X153.5972 Y74.5092
G00 Z2.0000
G00 X156.1372 Y74.5092
G01 F60.00
G01 Z-1.8000
G01 F120.00
G01 X156.1372 Y74.5091
G01 X156.1371 Y74.5092
G01 X156.1372 Y74.5092
G01 X156.1372 Y74.5092
G00 Z2.0000
G00 X158.6772 Y74.5092
G01 F60.00
G01 Z-1.8000
G01 F120.00
G01 X158.6772 Y74.5091
G01 X158.6771 Y74.5092
G01 X158.6772 Y74.5092
G01 X158.6772 Y74.5092
G00 Z2.0000
G00 X161.2172 Y74.5092
G01 F60.00
G01 Z-1.8000
G01 F120.00
G01 X161.2172 Y74.5091
G01 X161.2171 Y74.5092
G01 X161.2172 Y74.5092
G01 X161.2172 Y74.5092
G00 Z2.0000
G00 X161.2172 Y78.3192
G01 F60.00
G01 Z-1.8000
G01 F120.00
G01 X161.2172 Y78.3191
G01 X161.2171 Y78.3192
G01 X161.2172 Y78.3192
G01 X161.2172 Y78.3192
G00 Z2.0000
G00 X158.6772 Y78.3192
G01 F60.00
G01 Z-1.8000
G01 F120.00
G01 X158.6772 Y78.3191
G01 X158.6771 Y78.3192
G01 X158.6772 Y78.3192
G01 X158.6772 Y78.3192
G00 Z2.0000
G00 X156.1372 Y78.3192
G01 F60.00
G01 Z-1.8000
G01 F120.00
G01 X156.1372 Y78.3191
G01 X156.1371 Y78.3192
G01 X156.1372 Y78.3192
G01 X156.1372 Y78.3192
G00 Z2.0000
G00 X153.5972 Y78.3192
G01 F60.00
G01 Z-1.8000
G01 F120.00
G01 X153.5972 Y78.3191
G01 X153.5971 Y78.3192
G01 X153.5972 Y78.3192
G01 X153.5972 Y78.3192
G00 Z2.0000
G00 X151.0572 Y78.3192
G01 F60.00
G01 Z-1.8000
G01 F120.00
G01 X151.0572 Y78.3191
G01 X151.0571 Y78.3192
G01 X151.0572 Y78.3192
G01 X151.0572 Y78.3192
G00 Z2.0000
G00 X148.5172 Y78.3192
G01 F60.00
G01 Z-1.8000
G01 F120.00
G01 X148.5172 Y78.3191
G01 X148.5171 Y78.3192
G01 X148.5172 Y78.3192
G01 X148.5172 Y78.3192
G00 Z2.0000
G00 X145.9772 Y78.3192
G01 F60.00
G01 Z-1.8000
G01 F120.00
G01 X145.9772 Y78.3191
G01 X145.9771 Y78.3192
G01 X145.9772 Y78.3192
G01 X145.9772 Y78.3192
G00 Z2.0000
G00 X145.7232 Y67.1432
G01 F60.00
G01 Z-1.8000
G01 F120.00
G01 X145.7232 Y67.1431
G01 X145.7231 Y67.1432
G01 X145.7232 Y67.1432
G01 X145.7232 Y67.1432
G00 Z2.0000
G00 X150.5492 Y67.1432
G01 F60.00
G01 Z-1.8000
G01 F120.00
G01 X150.5492 Y67.1431
G01 X150.5491 Y67.1432
G01 X150.5492 Y67.1432
G01 X150.5492 Y67.1432
G00 Z2.0000
G00 X153.0892 Y67.1432
G01 F60.00
G01 Z-1.8000
G01 F120.00
G01 X153.0892 Y67.1431
G01 X153.0891 Y67.1432
G01 X153.0892 Y67.1432
G01 X153.0892 Y67.1432
G00 Z2.0000
G00 X155.6292 Y67.1432
G01 F60.00
G01 Z-1.8000
G01 F120.00
G01 X155.6292 Y67.1431
G01 X155.6291 Y67.1432
G01 X155.6292 Y67.1432
G01 X155.6292 Y67.1432
G00 Z2.0000
G00 X158.1692 Y67.1432
G01 F60.00
G01 Z-1.8000
G01 F120.00
G01 X158.1692 Y67.1431
G01 X158.1691 Y67.1432
G01 X158.1692 Y67.1432
G01 X158.1692 Y67.1432
G00 Z2.0000
G00 X160.7092 Y67.1432
G01 F60.00
G01 Z-1.8000
G01 F120.00
G01 X160.7092 Y67.1431
G01 X160.7091 Y67.1432
G01 X160.7092 Y67.1432
G01 X160.7092 Y67.1432
G00 Z2.0000
G00 X163.2492 Y67.1432
G01 F60.00
G01 Z-1.8000
G01 F120.00
G01 X163.2492 Y67.1431
G01 X163.2491 Y67.1432
G01 X163.2492 Y67.1432
G01 X163.2492 Y67.1432
G00 Z2.0000
G00 X165.7892 Y67.1432
G01 F60.00
G01 Z-1.8000
G01 F120.00
G01 X165.7892 Y67.1431
G01 X165.7891 Y67.1432
G01 X165.7892 Y67.1432
G01 X165.7892 Y67.1432
G00 Z2.0000
G00 X168.3292 Y67.1432
G01 F60.00
G01 Z-1.8000
G01 F120.00
G01 X168.3292 Y67.1431
G01 X168.3291 Y67.1432
G01 X168.3292 Y67.1432
G01 X168.3292 Y67.1432
G00 Z2.0000
G00 X163.7572 Y78.3192
G01 F60.00
G01 Z-1.8000
G01 F120.00
G01 X163.7572 Y78.3191
G01 X163.7571 Y78.3192
G01 X163.7572 Y78.3192
G01 X163.7572 Y78.3192
G00 Z2.0000
G00 X185.3472 Y58.7612
G01 F60.00
G01 Z-1.8000
G01 F120.00
G01 X185.3472 Y58.7611
G01 X185.3471 Y58.7612
G01 X185.3472 Y58.7612
G01 X185.3472 Y58.7612
G00 Z2.0000
G00 X185.3472 Y53.6812
G01 F60.00
G01 Z-1.8000
G01 F120.00
G01 X185.3472 Y53.6811
G01 X185.3471 Y53.6812
G01 X185.3472 Y53.6812
G01 X185.3472 Y53.6812
G00 Z2.0000
G00 X180.2672 Y45.5125
G01 F60.00
G01 Z-1.8000
G01 F120.00
G01 X180.2672 Y45.5125
G01 X180.2671 Y45.5125
G01 X180.2672 Y45.5126
G01 X180.2672 Y45.5125
G00 Z2.0000
G00 X180.2672 Y40.5113
G01 F60.00
G01 Z-1.8000
G01 F120.00
G01 X180.2672 Y40.5112
G01 X180.2671 Y40.5113
G01 X180.2672 Y40.5113
G01 X180.2672 Y40.5113
G00 Z2.0000
G00 X64.6769 Y17.6614
G01 F60.00
G01 Z-1.8000
G01 F120.00
G01 X64.6769 Y17.6614
G01 X64.6768 Y17.6614
G01 X64.6769 Y17.6615
G01 X64.6769 Y17.6614
G00 Z2.0000
G00 X59.5969 Y17.6614
G01 F60.00
G01 Z-1.8000
G01 F120.00
G01 X59.5969 Y17.6614
G01 X59.5968 Y17.6614
G01 X59.5969 Y17.6615
G01 X59.5969 Y17.6614
G00 Z2.0000
G00 X59.6172 Y6.6607
G01 F60.00
G01 Z-1.8000
G01 F120.00
G01 X59.6172 Y6.6607
G01 X59.6171 Y6.6607
G01 X59.6172 Y6.6608
G01 X59.6172 Y6.6607
G00 Z2.0000
G00 X64.6972 Y6.6607
G01 F60.00
G01 Z-1.8000
G01 F120.00
G01 X64.6972 Y6.6607
G01 X64.6971 Y6.6607
G01 X64.6972 Y6.6608
G01 X64.6972 Y6.6607
G00 Z2.0000
G00 X38.0272 Y9.2312
G01 F60.00
G01 Z-1.8000
G01 F120.00
G01 X38.0272 Y9.2311
G01 X38.0271 Y9.2312
G01 X38.0272 Y9.2312
G01 X38.0272 Y9.2312
G00 Z2.0000
G00 X35.4872 Y9.2312
G01 F60.00
G01 Z-1.8000
G01 F120.00
G01 X35.4872 Y9.2311
G01 X35.4871 Y9.2312
G01 X35.4872 Y9.2312
G01 X35.4872 Y9.2312
G00 Z2.0000
G00 X32.9472 Y9.2312
G01 F60.00
G01 Z-1.8000
G01 F120.00
G01 X32.9472 Y9.2311
G01 X32.9471 Y9.2312
G01 X32.9472 Y9.2312
G01 X32.9472 Y9.2312
G00 Z2.0000
G00 X32.9472 Y14.5652
G01 F60.00
G01 Z-1.8000
G01 F120.00
G01 X32.9472 Y14.5651
G01 X32.9471 Y14.5652
G01 X32.9472 Y14.5652
G01 X32.9472 Y14.5652
G00 Z2.0000
G00 X33.2927 Y18.7206
G01 F60.00
G01 Z-1.8000
G01 F120.00
G01 X33.2926 Y18.7206
G01 X33.2926 Y18.7206
G01 X33.2926 Y18.7207
G01 X33.2927 Y18.7206
G00 Z2.0000
G00 X38.0272 Y18.6292
G01 F60.00
G01 Z-1.8000
G01 F120.00
G01 X38.0272 Y18.6291
G01 X38.0271 Y18.6292
G01 X38.0272 Y18.6292
G01 X38.0272 Y18.6292
G00 Z2.0000
G00 X38.0272 Y14.5652
G01 F60.00
G01 Z-1.8000
G01 F120.00
G01 X38.0272 Y14.5651
G01 X38.0271 Y14.5652
G01 X38.0272 Y14.5652
G01 X38.0272 Y14.5652
G00 Z2.0000
G00 X15.4212 Y24.9792
G01 F60.00
G01 Z-1.8000
G01 F120.00
G01 X15.4212 Y24.9791
G01 X15.4211 Y24.9792
G01 X15.4212 Y24.9792
G01 X15.4212 Y24.9792
G00 Z2.0000
M05
G00 Z2.0000
G00 Z15.00

