(G-CODE GENERATED BY FLATCAM v8.993 - www.flatcam.org - Version Date: 2020/06/05)

(Name: TopLayer_0.1)
(Type: G-code from Geometry)
(Units: MM)

(Created on Thursday, 15 April 2021 at 19:10)

(This preprocessor is the default preprocessor used by FlatCAM.)
(It is made to work with MACH3 compatible motion controllers.)

(TOOL DIAMETER: 0.1 mm)
(Feedrate_XY: 120.0 mm/min)
(Feedrate_Z: 60.0 mm/min)
(Feedrate rapids 1500.0 mm/min)

(Z_Cut: -0.05 mm)
(Z_Move: 2.0 mm)
(Z Start: None mm)
(Z End: 15.0 mm)
(Steps per circle: 64)
(Preprocessor Geometry: default)

(X range:   13.0877 ...  188.9506  mm)
(Y range:    3.0879 ...   97.4168  mm)

(Spindle Speed: None RPM)
G21
G90
G94



G01 F120.00
G00 Z2.0000

M03
G00 X18.4525 Y3.0879
G01 F60.00
G01 Z-0.0500
G01 F120.00
G01 X90.2059 Y3.0909
G01 X90.2156 Y3.0918
G01 X90.2554 Y3.0997
G01 X90.2646 Y3.1027
G01 X90.2711 Y3.1062
G01 X90.3051 Y3.1287
G01 X90.3092 Y3.1316
G01 X90.3129 Y3.1350
G01 X106.9618 Y19.7845
G01 X106.9989 Y19.8149
G01 X107.0402 Y19.8386
G01 X107.0860 Y19.8514
G01 X107.1214 Y19.8544
G01 X183.5672 Y19.8519
G01 X183.8865 Y19.8612
G01 X184.1968 Y19.8888
G01 X184.5080 Y19.9347
G01 X184.8132 Y19.9980
G01 X185.1151 Y20.0790
G01 X185.4126 Y20.1775
G01 X185.7033 Y20.2933
G01 X185.9882 Y20.4263
G01 X186.2622 Y20.5743
G01 X186.5276 Y20.7381
G01 X186.7852 Y20.9184
G01 X187.0304 Y21.1128
G01 X187.2642 Y21.3209
G01 X187.4867 Y21.5436
G01 X187.6934 Y21.7768
G01 X187.8863 Y22.0212
G01 X188.0658 Y22.2775
G01 X188.2312 Y22.5454
G01 X188.3794 Y22.8208
G01 X188.5117 Y23.1048
G01 X188.6276 Y23.3970
G01 X188.7250 Y23.6930
G01 X188.8057 Y23.9935
G01 X188.8688 Y24.3002
G01 X188.9142 Y24.6114
G01 X188.9414 Y24.9236
G01 X188.9506 Y25.2381
G01 X188.6966 Y75.2640
G01 X188.6873 Y75.5861
G01 X188.6597 Y75.8969
G01 X188.6138 Y76.2075
G01 X188.5505 Y76.5127
G01 X188.4695 Y76.8152
G01 X188.3710 Y77.1122
G01 X188.2551 Y77.4029
G01 X188.1228 Y77.6869
G01 X187.9734 Y77.9636
G01 X187.8096 Y78.2284
G01 X187.6310 Y78.4836
G01 X187.4357 Y78.7305
G01 X187.2276 Y78.9637
G01 X187.0049 Y79.1863
G01 X186.7717 Y79.3929
G01 X186.5273 Y79.5864
G01 X186.2710 Y79.7659
G01 X186.0031 Y79.9308
G01 X185.7264 Y80.0796
G01 X185.4437 Y80.2113
G01 X185.1543 Y80.3262
G01 X184.8569 Y80.4247
G01 X184.5535 Y80.5056
G01 X184.2469 Y80.5692
G01 X183.9372 Y80.6143
G01 X183.6234 Y80.6416
G01 X183.3101 Y80.6502
G01 X107.1213 Y80.6527
G01 X107.0907 Y80.6552
G01 X107.0308 Y80.6726
G01 X106.9916 Y80.6943
G01 X106.9654 Y80.7171
G01 X90.3098 Y97.3722
G01 X90.3039 Y97.3773
G01 X90.2703 Y97.4003
G01 X90.2619 Y97.4050
G01 X90.2527 Y97.4080
G01 X90.2089 Y97.4164
G01 X90.2029 Y97.4168
G01 X18.4743 Y97.4168
G01 X18.1518 Y97.4074
G01 X17.8415 Y97.3799
G01 X17.5304 Y97.3339
G01 X17.2252 Y97.2706
G01 X16.9232 Y97.1896
G01 X16.6258 Y97.0912
G01 X16.3351 Y96.9753
G01 X16.0502 Y96.8423
G01 X15.7762 Y96.6943
G01 X15.5107 Y96.5305
G01 X15.2531 Y96.3502
G01 X15.0080 Y96.1559
G01 X14.7742 Y95.9477
G01 X14.5517 Y95.7251
G01 X14.3450 Y95.4918
G01 X14.1521 Y95.2474
G01 X13.9726 Y94.9911
G01 X13.8071 Y94.7232
G01 X13.6590 Y94.4479
G01 X13.5267 Y94.1638
G01 X13.4108 Y93.8716
G01 X13.3133 Y93.5756
G01 X13.2327 Y93.2751
G01 X13.1695 Y92.9684
G01 X13.1241 Y92.6573
G01 X13.0969 Y92.3436
G01 X13.0877 Y92.0302
G01 X13.0878 Y8.4724
G01 X13.0971 Y8.1515
G01 X13.1247 Y7.8412
G01 X13.1703 Y7.5315
G01 X13.2339 Y7.2248
G01 X13.3145 Y6.9237
G01 X13.4139 Y6.6240
G01 X13.5292 Y6.3347
G01 X13.6609 Y6.0524
G01 X13.8110 Y5.7740
G01 X13.9748 Y5.5091
G01 X14.1543 Y5.2527
G01 X14.3486 Y5.0076
G01 X14.5578 Y4.7728
G01 X14.7794 Y4.5513
G01 X15.0127 Y4.3446
G01 X15.2595 Y4.1494
G01 X15.5146 Y3.9713
G01 X15.7813 Y3.8068
G01 X16.0566 Y3.6586
G01 X16.3407 Y3.5263
G01 X16.6314 Y3.4109
G01 X16.9274 Y3.3129
G01 X17.2323 Y3.2316
G01 X17.5375 Y3.1689
G01 X17.8472 Y3.1238
G01 X18.1594 Y3.0966
G01 X18.4525 Y3.0879
G00 Z2.0000
G00 X18.3206 Y8.3171
G01 F60.00
G01 Z-0.0500
G01 F120.00
G01 X18.4099 Y8.3819
G01 X18.5109 Y8.4766
G01 X18.5988 Y8.5836
G01 X18.6208 Y8.6179
G01 X18.5574 Y8.6179
G01 X18.5185 Y8.5655
G01 X18.4493 Y8.4892
G01 X18.3730 Y8.4200
G01 X18.3206 Y8.3811
G01 X18.3206 Y8.3171
G00 Z2.0000
G00 X17.0938 Y8.3171
G01 F60.00
G01 Z-0.0500
G01 F120.00
G01 X17.0938 Y8.3811
G01 X17.0414 Y8.4200
G01 X16.9651 Y8.4892
G01 X16.8959 Y8.5655
G01 X16.8570 Y8.6179
G01 X16.7936 Y8.6179
G01 X16.8155 Y8.5836
G01 X16.9035 Y8.4767
G01 X17.0045 Y8.3819
G01 X17.0938 Y8.3171
G00 Z2.0000
G00 X16.8570 Y9.8447
G01 F60.00
G01 Z-0.0500
G01 F120.00
G01 X16.8959 Y9.8971
G01 X16.9651 Y9.9734
G01 X17.0414 Y10.0426
G01 X17.0938 Y10.0815
G01 X17.0938 Y10.1455
G01 X17.0045 Y10.0807
G01 X16.9035 Y9.9860
G01 X16.8155 Y9.8790
G01 X16.7936 Y9.8447
G01 X16.8570 Y9.8447
G00 Z2.0000
G00 X18.3206 Y10.1455
G01 F60.00
G01 Z-0.0500
G01 F120.00
G01 X18.3206 Y10.0815
G01 X18.3730 Y10.0426
G01 X18.4493 Y9.9734
G01 X18.5185 Y9.8971
G01 X18.5574 Y9.8447
G01 X18.6208 Y9.8447
G01 X18.5988 Y9.8790
G01 X18.5109 Y9.9860
G01 X18.4099 Y10.0807
G01 X18.3206 Y10.1455
G00 Z2.0000
G00 X19.1978 Y9.2338
G01 F60.00
G01 Z-0.0500
G01 F120.00
G01 X19.2028 Y9.1284
G01 X19.2179 Y9.0266
G01 X19.2429 Y8.9267
G01 X19.2776 Y8.8297
G01 X19.3216 Y8.7366
G01 X19.3746 Y8.6482
G01 X19.4359 Y8.5655
G01 X19.5051 Y8.4892
G01 X19.5814 Y8.4200
G01 X19.6641 Y8.3587
G01 X19.7525 Y8.3057
G01 X19.8456 Y8.2617
G01 X19.9425 Y8.2270
G01 X20.0424 Y8.2020
G01 X20.1443 Y8.1869
G01 X20.2472 Y8.1818
G01 X20.3501 Y8.1869
G01 X20.4519 Y8.2020
G01 X20.5518 Y8.2270
G01 X20.6488 Y8.2617
G01 X20.7419 Y8.3057
G01 X20.8303 Y8.3587
G01 X20.9130 Y8.4200
G01 X20.9893 Y8.4892
G01 X21.0585 Y8.5655
G01 X21.1198 Y8.6482
G01 X21.1728 Y8.7366
G01 X21.2168 Y8.8297
G01 X21.2515 Y8.9267
G01 X21.2765 Y9.0266
G01 X21.2916 Y9.1284
G01 X21.2967 Y9.2313
G01 X21.2916 Y9.3342
G01 X21.2765 Y9.4361
G01 X21.2515 Y9.5360
G01 X21.2168 Y9.6329
G01 X21.1728 Y9.7260
G01 X21.1198 Y9.8144
G01 X21.0585 Y9.8971
G01 X20.9893 Y9.9734
G01 X20.9130 Y10.0426
G01 X20.8303 Y10.1039
G01 X20.7419 Y10.1569
G01 X20.6488 Y10.2009
G01 X20.5518 Y10.2356
G01 X20.4519 Y10.2606
G01 X20.3501 Y10.2757
G01 X20.2472 Y10.2808
G01 X20.1443 Y10.2757
G01 X20.0424 Y10.2606
G01 X19.9425 Y10.2356
G01 X19.8456 Y10.2009
G01 X19.7525 Y10.1569
G01 X19.6641 Y10.1039
G01 X19.5814 Y10.0426
G01 X19.5051 Y9.9734
G01 X19.4359 Y9.8971
G01 X19.3746 Y9.8144
G01 X19.3216 Y9.7260
G01 X19.2776 Y9.6329
G01 X19.2429 Y9.5360
G01 X19.2179 Y9.4361
G01 X19.2028 Y9.3342
G01 X19.1978 Y9.2338
G00 Z2.0000
G00 X20.2133 Y8.1795
G01 F60.00
G01 Z-0.0500
G01 F120.00
G01 X20.3481 Y8.1839
G01 X20.4814 Y8.2052
G01 X20.6104 Y8.2435
G01 X20.7341 Y8.2983
G01 X20.8494 Y8.3681
G01 X20.9546 Y8.4525
G01 X21.0483 Y8.5491
G01 X21.1293 Y8.6572
G01 X21.1952 Y8.7745
G01 X21.2461 Y8.8996
G01 X21.2801 Y9.0301
G01 X21.2975 Y9.1639
G01 X21.2975 Y9.2987
G01 X21.2801 Y9.4326
G01 X21.2461 Y9.5630
G01 X21.1952 Y9.6881
G01 X21.1293 Y9.8054
G01 X21.0483 Y9.9135
G01 X20.9546 Y10.0101
G01 X20.8494 Y10.0945
G01 X20.7341 Y10.1643
G01 X20.6104 Y10.2191
G01 X20.4814 Y10.2574
G01 X20.3481 Y10.2787
G01 X20.2133 Y10.2831
G01 X20.0795 Y10.2700
G01 X19.9480 Y10.2400
G01 X19.8214 Y10.1933
G01 X19.7016 Y10.1313
G01 X19.5911 Y10.0542
G01 X19.4912 Y9.9636
G01 X19.4040 Y9.8607
G01 X19.3302 Y9.7478
G01 X19.2720 Y9.6261
G01 X19.2294 Y9.4980
G01 X19.2037 Y9.3661
G01 X19.1949 Y9.2313
G01 X19.2037 Y9.0965
G01 X19.2294 Y8.9647
G01 X19.2720 Y8.8366
G01 X19.3302 Y8.7148
G01 X19.4040 Y8.6019
G01 X19.4912 Y8.4991
G01 X19.5911 Y8.4084
G01 X19.7016 Y8.3313
G01 X19.8214 Y8.2693
G01 X19.9480 Y8.2227
G01 X20.0795 Y8.1926
G01 X20.2133 Y8.1795
G00 Z2.0000
G00 X21.7820 Y10.2810
G01 F60.00
G01 Z-0.0500
G01 F120.00
G01 X21.7872 Y10.2813
G01 X23.7872 Y10.2813
G01 X23.7924 Y10.2810
G01 X23.7754 Y10.2837
G01 X21.7990 Y10.2837
G01 X21.7820 Y10.2810
G00 Z2.0000
G00 X23.7973 Y10.2803
G01 F60.00
G01 Z-0.0500
G01 F120.00
G01 X23.8040 Y10.2784
G01 X23.8108 Y10.2754
G01 X23.8170 Y10.2715
G01 X23.8225 Y10.2667
G01 X23.8273 Y10.2611
G01 X23.8313 Y10.2549
G01 X23.8343 Y10.2482
G01 X23.8361 Y10.2415
G01 X23.8352 Y10.2472
G01 X23.8281 Y10.2614
G01 X23.8173 Y10.2723
G01 X23.8030 Y10.2794
G01 X23.7973 Y10.2803
G00 Z2.0000
G00 X23.8372 Y10.2313
G01 F60.00
G01 Z-0.0500
G01 F120.00
G01 X23.8372 Y8.2313
G01 X23.8369 Y8.2260
G01 X23.8396 Y8.2431
G01 X23.8396 Y10.2196
G01 X23.8369 Y10.2365
G01 X23.8372 Y10.2313
G00 Z2.0000
G00 X23.8362 Y8.2213
G01 F60.00
G01 Z-0.0500
G01 F120.00
G01 X23.8338 Y8.2133
G01 X23.8301 Y8.2056
G01 X23.8250 Y8.1987
G01 X23.8189 Y8.1927
G01 X23.8118 Y8.1878
G01 X23.8040 Y8.1843
G01 X23.7957 Y8.1821
G01 X23.7872 Y8.1813
G01 X21.7872 Y8.1813
G01 X21.7775 Y8.1823
G01 X21.7681 Y8.1851
G01 X21.7594 Y8.1898
G01 X21.7519 Y8.1960
G01 X21.7456 Y8.2036
G01 X21.7410 Y8.2122
G01 X21.7382 Y8.2216
G01 X21.7372 Y8.2313
G01 X21.7372 Y10.2313
G01 X21.7380 Y10.2399
G01 X21.7401 Y10.2482
G01 X21.7437 Y10.2560
G01 X21.7486 Y10.2630
G01 X21.7546 Y10.2692
G01 X21.7615 Y10.2742
G01 X21.7692 Y10.2780
G01 X21.7771 Y10.2803
G01 X21.7714 Y10.2794
G01 X21.7571 Y10.2722
G01 X21.7462 Y10.2614
G01 X21.7390 Y10.2469
G01 X21.7343 Y10.2192
G01 X21.7343 Y8.2434
G01 X21.7390 Y8.2158
G01 X21.7462 Y8.2012
G01 X21.7571 Y8.1904
G01 X21.7716 Y8.1831
G01 X21.7993 Y8.1784
G01 X23.7751 Y8.1784
G01 X23.8027 Y8.1831
G01 X23.8173 Y8.1904
G01 X23.8281 Y8.2012
G01 X23.8353 Y8.2155
G01 X23.8362 Y8.2213
G00 Z2.0000
G00 X22.8211 Y13.7675
G01 F60.00
G01 Z-0.0500
G01 F120.00
G01 X22.9549 Y13.7806
G01 X23.0864 Y13.8107
G01 X23.2130 Y13.8573
G01 X23.3328 Y13.9193
G01 X23.4433 Y13.9964
G01 X23.5432 Y14.0871
G01 X23.6304 Y14.1899
G01 X23.7041 Y14.3028
G01 X23.7624 Y14.4246
G01 X23.8050 Y14.5526
G01 X23.8307 Y14.6845
G01 X23.8394 Y14.8193
G01 X23.8307 Y14.9541
G01 X23.8050 Y15.0860
G01 X23.7624 Y15.2141
G01 X23.7041 Y15.3358
G01 X23.6304 Y15.4487
G01 X23.5432 Y15.5516
G01 X23.4433 Y15.6422
G01 X23.3328 Y15.7193
G01 X23.2130 Y15.7813
G01 X23.0864 Y15.8279
G01 X22.9549 Y15.8580
G01 X22.8211 Y15.8711
G01 X22.6863 Y15.8667
G01 X22.5529 Y15.8454
G01 X22.4240 Y15.8071
G01 X22.3003 Y15.7523
G01 X22.1850 Y15.6825
G01 X22.0797 Y15.5981
G01 X21.9861 Y15.5015
G01 X21.9051 Y15.3934
G01 X21.8392 Y15.2761
G01 X21.7883 Y15.1510
G01 X21.7543 Y15.0206
G01 X21.7369 Y14.8867
G01 X21.7369 Y14.7519
G01 X21.7543 Y14.6181
G01 X21.7883 Y14.4876
G01 X21.8392 Y14.3625
G01 X21.9051 Y14.2452
G01 X21.9861 Y14.1371
G01 X22.0797 Y14.0405
G01 X22.1850 Y13.9561
G01 X22.3003 Y13.8863
G01 X22.4240 Y13.8315
G01 X22.5529 Y13.7932
G01 X22.6863 Y13.7719
G01 X22.8211 Y13.7675
G00 Z2.0000
G00 X21.7378 Y14.8218
G01 F60.00
G01 Z-0.0500
G01 F120.00
G01 X21.7428 Y14.7164
G01 X21.7579 Y14.6146
G01 X21.7829 Y14.5147
G01 X21.8176 Y14.4177
G01 X21.8616 Y14.3246
G01 X21.9146 Y14.2362
G01 X21.9759 Y14.1535
G01 X22.0451 Y14.0772
G01 X22.1214 Y14.0080
G01 X22.2041 Y13.9467
G01 X22.2925 Y13.8937
G01 X22.3856 Y13.8497
G01 X22.4825 Y13.8150
G01 X22.5824 Y13.7900
G01 X22.6843 Y13.7749
G01 X22.7872 Y13.7698
G01 X22.8901 Y13.7749
G01 X22.9919 Y13.7900
G01 X23.0918 Y13.8150
G01 X23.1888 Y13.8497
G01 X23.2819 Y13.8937
G01 X23.3703 Y13.9467
G01 X23.4530 Y14.0080
G01 X23.5293 Y14.0772
G01 X23.5985 Y14.1535
G01 X23.6598 Y14.2362
G01 X23.7128 Y14.3246
G01 X23.7568 Y14.4177
G01 X23.7915 Y14.5147
G01 X23.8165 Y14.6146
G01 X23.8316 Y14.7164
G01 X23.8367 Y14.8193
G01 X23.8316 Y14.9222
G01 X23.8165 Y15.0241
G01 X23.7915 Y15.1240
G01 X23.7568 Y15.2209
G01 X23.7128 Y15.3140
G01 X23.6598 Y15.4024
G01 X23.5985 Y15.4851
G01 X23.5293 Y15.5614
G01 X23.4530 Y15.6306
G01 X23.3703 Y15.6919
G01 X23.2819 Y15.7449
G01 X23.1888 Y15.7889
G01 X23.0918 Y15.8236
G01 X22.9919 Y15.8486
G01 X22.8901 Y15.8637
G01 X22.7872 Y15.8688
G01 X22.6843 Y15.8637
G01 X22.5824 Y15.8486
G01 X22.4825 Y15.8236
G01 X22.3856 Y15.7889
G01 X22.2925 Y15.7449
G01 X22.2041 Y15.6919
G01 X22.1214 Y15.6306
G01 X22.0451 Y15.5614
G01 X21.9759 Y15.4851
G01 X21.9146 Y15.4024
G01 X21.8616 Y15.3140
G01 X21.8176 Y15.2209
G01 X21.7829 Y15.1240
G01 X21.7579 Y15.0241
G01 X21.7428 Y14.9222
G01 X21.7378 Y14.8218
G00 Z2.0000
G00 X18.3206 Y15.7335
G01 F60.00
G01 Z-0.0500
G01 F120.00
G01 X18.3206 Y15.6695
G01 X18.3730 Y15.6306
G01 X18.4493 Y15.5614
G01 X18.5185 Y15.4851
G01 X18.5574 Y15.4327
G01 X18.6208 Y15.4327
G01 X18.5988 Y15.4670
G01 X18.5109 Y15.5740
G01 X18.4099 Y15.6687
G01 X18.3206 Y15.7335
G00 Z2.0000
G00 X16.8570 Y15.4327
G01 F60.00
G01 Z-0.0500
G01 F120.00
G01 X16.8959 Y15.4851
G01 X16.9651 Y15.5614
G01 X17.0414 Y15.6306
G01 X17.0938 Y15.6695
G01 X17.0938 Y15.7335
G01 X17.0045 Y15.6687
G01 X16.9035 Y15.5740
G01 X16.8155 Y15.4670
G01 X16.7936 Y15.4327
G01 X16.8570 Y15.4327
G00 Z2.0000
G00 X17.0938 Y13.9051
G01 F60.00
G01 Z-0.0500
G01 F120.00
G01 X17.0938 Y13.9691
G01 X17.0414 Y14.0080
G01 X16.9651 Y14.0772
G01 X16.8959 Y14.1535
G01 X16.8570 Y14.2059
G01 X16.7936 Y14.2059
G01 X16.8155 Y14.1716
G01 X16.9035 Y14.0647
G01 X17.0045 Y13.9699
G01 X17.0938 Y13.9051
G00 Z2.0000
G00 X18.3206 Y13.9051
G01 F60.00
G01 Z-0.0500
G01 F120.00
G01 X18.4099 Y13.9699
G01 X18.5109 Y14.0646
G01 X18.5988 Y14.1716
G01 X18.6208 Y14.2059
G01 X18.5574 Y14.2059
G01 X18.5185 Y14.1535
G01 X18.4493 Y14.0772
G01 X18.3730 Y14.0080
G01 X18.3206 Y13.9691
G01 X18.3206 Y13.9051
G00 Z2.0000
G00 X17.9273 Y24.0545
G01 F60.00
G01 Z-0.0500
G01 F120.00
G01 X18.0621 Y24.0589
G01 X18.1954 Y24.0802
G01 X18.3244 Y24.1185
G01 X18.4481 Y24.1733
G01 X18.5634 Y24.2431
G01 X18.6686 Y24.3275
G01 X18.7623 Y24.4241
G01 X18.8433 Y24.5322
G01 X18.9092 Y24.6496
G01 X18.9601 Y24.7746
G01 X18.9941 Y24.9051
G01 X19.0115 Y25.0389
G01 X19.0115 Y25.1737
G01 X18.9941 Y25.3076
G01 X18.9601 Y25.4380
G01 X18.9092 Y25.5631
G01 X18.8433 Y25.6804
G01 X18.7623 Y25.7885
G01 X18.6686 Y25.8851
G01 X18.5634 Y25.9695
G01 X18.4481 Y26.0393
G01 X18.3244 Y26.0941
G01 X18.1954 Y26.1324
G01 X18.0621 Y26.1537
G01 X17.9273 Y26.1581
G01 X17.7935 Y26.1450
G01 X17.6620 Y26.1149
G01 X17.5354 Y26.0683
G01 X17.4156 Y26.0063
G01 X17.3051 Y25.9292
G01 X17.2052 Y25.8386
G01 X17.1180 Y25.7357
G01 X17.0442 Y25.6228
G01 X16.9860 Y25.5011
G01 X16.9434 Y25.3730
G01 X16.9177 Y25.2411
G01 X16.9089 Y25.1063
G01 X16.9177 Y24.9715
G01 X16.9434 Y24.8397
G01 X16.9860 Y24.7116
G01 X17.0442 Y24.5898
G01 X17.1180 Y24.4769
G01 X17.2052 Y24.3741
G01 X17.3051 Y24.2834
G01 X17.4156 Y24.2063
G01 X17.5354 Y24.1443
G01 X17.6620 Y24.0977
G01 X17.7935 Y24.0676
G01 X17.9273 Y24.0545
G00 Z2.0000
G00 X16.9116 Y25.1088
G01 F60.00
G01 Z-0.0500
G01 F120.00
G01 X16.9166 Y25.0034
G01 X16.9317 Y24.9016
G01 X16.9568 Y24.8017
G01 X16.9915 Y24.7047
G01 X17.0355 Y24.6116
G01 X17.0884 Y24.5232
G01 X17.1498 Y24.4405
G01 X17.2190 Y24.3642
G01 X17.2953 Y24.2950
G01 X17.3780 Y24.2337
G01 X17.4663 Y24.1807
G01 X17.5594 Y24.1367
G01 X17.6564 Y24.1020
G01 X17.7563 Y24.0770
G01 X17.8582 Y24.0619
G01 X17.9611 Y24.0568
G01 X18.0639 Y24.0619
G01 X18.1658 Y24.0770
G01 X18.2657 Y24.1020
G01 X18.3627 Y24.1367
G01 X18.4558 Y24.1807
G01 X18.5441 Y24.2337
G01 X18.6268 Y24.2950
G01 X18.7032 Y24.3642
G01 X18.7723 Y24.4405
G01 X18.8337 Y24.5232
G01 X18.8866 Y24.6116
G01 X18.9307 Y24.7047
G01 X18.9654 Y24.8017
G01 X18.9904 Y24.9016
G01 X19.0055 Y25.0034
G01 X19.0105 Y25.1063
G01 X19.0055 Y25.2092
G01 X18.9904 Y25.3111
G01 X18.9654 Y25.4110
G01 X18.9307 Y25.5079
G01 X18.8866 Y25.6010
G01 X18.8337 Y25.6894
G01 X18.7723 Y25.7721
G01 X18.7032 Y25.8484
G01 X18.6268 Y25.9176
G01 X18.5441 Y25.9789
G01 X18.4558 Y26.0319
G01 X18.3627 Y26.0759
G01 X18.2657 Y26.1106
G01 X18.1658 Y26.1356
G01 X18.0639 Y26.1507
G01 X17.9611 Y26.1558
G01 X17.8582 Y26.1507
G01 X17.7563 Y26.1356
G01 X17.6564 Y26.1106
G01 X17.5594 Y26.0759
G01 X17.4663 Y26.0319
G01 X17.3780 Y25.9789
G01 X17.2953 Y25.9176
G01 X17.2190 Y25.8484
G01 X17.1498 Y25.7721
G01 X17.0884 Y25.6894
G01 X17.0355 Y25.6010
G01 X16.9915 Y25.5079
G01 X16.9568 Y25.4110
G01 X16.9317 Y25.3111
G01 X16.9166 Y25.2092
G01 X16.9116 Y25.1088
G00 Z2.0000
G00 X16.0346 Y26.0205
G01 F60.00
G01 Z-0.0500
G01 F120.00
G01 X16.0346 Y25.9564
G01 X16.0868 Y25.9176
G01 X16.1632 Y25.8484
G01 X16.2323 Y25.7721
G01 X16.2713 Y25.7197
G01 X16.3348 Y25.7197
G01 X16.3128 Y25.7540
G01 X16.2249 Y25.8610
G01 X16.1239 Y25.9557
G01 X16.0346 Y26.0205
G00 Z2.0000
G00 X14.5708 Y25.7197
G01 F60.00
G01 Z-0.0500
G01 F120.00
G01 X14.6098 Y25.7721
G01 X14.6790 Y25.8484
G01 X14.7553 Y25.9176
G01 X14.8078 Y25.9566
G01 X14.8078 Y26.0205
G01 X14.7185 Y25.9557
G01 X14.6175 Y25.8610
G01 X14.5295 Y25.7540
G01 X14.5076 Y25.7197
G01 X14.5708 Y25.7197
G00 Z2.0000
G00 X14.8078 Y24.1921
G01 F60.00
G01 Z-0.0500
G01 F120.00
G01 X14.8078 Y24.2560
G01 X14.7553 Y24.2950
G01 X14.6790 Y24.3642
G01 X14.6098 Y24.4405
G01 X14.5708 Y24.4929
G01 X14.5076 Y24.4929
G01 X14.5295 Y24.4586
G01 X14.6175 Y24.3517
G01 X14.7185 Y24.2569
G01 X14.8078 Y24.1921
G00 Z2.0000
G00 X16.0346 Y24.1921
G01 F60.00
G01 Z-0.0500
G01 F120.00
G01 X16.1239 Y24.2569
G01 X16.2249 Y24.3516
G01 X16.3128 Y24.4586
G01 X16.3348 Y24.4929
G01 X16.2713 Y24.4929
G01 X16.2323 Y24.4405
G01 X16.1632 Y24.3642
G01 X16.0868 Y24.2950
G01 X16.0346 Y24.2562
G01 X16.0346 Y24.1921
G00 Z2.0000
G00 X19.4516 Y25.1088
G01 F60.00
G01 Z-0.0500
G01 F120.00
G01 X19.4566 Y25.0034
G01 X19.4717 Y24.9016
G01 X19.4968 Y24.8017
G01 X19.5315 Y24.7047
G01 X19.5755 Y24.6116
G01 X19.6284 Y24.5232
G01 X19.6898 Y24.4405
G01 X19.7590 Y24.3642
G01 X19.8353 Y24.2950
G01 X19.9180 Y24.2337
G01 X20.0063 Y24.1807
G01 X20.0994 Y24.1367
G01 X20.1964 Y24.1020
G01 X20.2963 Y24.0770
G01 X20.3982 Y24.0619
G01 X20.5011 Y24.0568
G01 X20.6039 Y24.0619
G01 X20.7058 Y24.0770
G01 X20.8057 Y24.1020
G01 X20.9027 Y24.1367
G01 X20.9958 Y24.1807
G01 X21.0841 Y24.2337
G01 X21.1668 Y24.2950
G01 X21.2432 Y24.3642
G01 X21.3123 Y24.4405
G01 X21.3737 Y24.5232
G01 X21.4266 Y24.6116
G01 X21.4707 Y24.7047
G01 X21.5054 Y24.8017
G01 X21.5304 Y24.9016
G01 X21.5455 Y25.0034
G01 X21.5505 Y25.1063
G01 X21.5455 Y25.2092
G01 X21.5304 Y25.3111
G01 X21.5054 Y25.4110
G01 X21.4707 Y25.5079
G01 X21.4266 Y25.6010
G01 X21.3737 Y25.6894
G01 X21.3123 Y25.7721
G01 X21.2432 Y25.8484
G01 X21.1668 Y25.9176
G01 X21.0841 Y25.9789
G01 X20.9958 Y26.0319
G01 X20.9027 Y26.0759
G01 X20.8057 Y26.1106
G01 X20.7058 Y26.1356
G01 X20.6039 Y26.1507
G01 X20.5011 Y26.1558
G01 X20.3982 Y26.1507
G01 X20.2963 Y26.1356
G01 X20.1964 Y26.1106
G01 X20.0994 Y26.0759
G01 X20.0063 Y26.0319
G01 X19.9180 Y25.9789
G01 X19.8353 Y25.9176
G01 X19.7590 Y25.8484
G01 X19.6898 Y25.7721
G01 X19.6284 Y25.6894
G01 X19.5755 Y25.6010
G01 X19.5315 Y25.5079
G01 X19.4968 Y25.4110
G01 X19.4717 Y25.3111
G01 X19.4566 Y25.2092
G01 X19.4516 Y25.1088
G00 Z2.0000
G00 X20.4673 Y24.0545
G01 F60.00
G01 Z-0.0500
G01 F120.00
G01 X20.6021 Y24.0589
G01 X20.7354 Y24.0802
G01 X20.8644 Y24.1185
G01 X20.9881 Y24.1733
G01 X21.1034 Y24.2431
G01 X21.2086 Y24.3275
G01 X21.3023 Y24.4241
G01 X21.3833 Y24.5322
G01 X21.4492 Y24.6496
G01 X21.5001 Y24.7746
G01 X21.5341 Y24.9051
G01 X21.5515 Y25.0389
G01 X21.5515 Y25.1737
G01 X21.5341 Y25.3076
G01 X21.5001 Y25.4380
G01 X21.4492 Y25.5631
G01 X21.3833 Y25.6804
G01 X21.3023 Y25.7885
G01 X21.2086 Y25.8851
G01 X21.1034 Y25.9695
G01 X20.9881 Y26.0393
G01 X20.8644 Y26.0941
G01 X20.7354 Y26.1324
G01 X20.6021 Y26.1537
G01 X20.4673 Y26.1581
G01 X20.3335 Y26.1450
G01 X20.2020 Y26.1149
G01 X20.0754 Y26.0683
G01 X19.9556 Y26.0063
G01 X19.8451 Y25.9292
G01 X19.7452 Y25.8386
G01 X19.6580 Y25.7357
G01 X19.5842 Y25.6228
G01 X19.5260 Y25.5011
G01 X19.4834 Y25.3730
G01 X19.4577 Y25.2411
G01 X19.4489 Y25.1063
G01 X19.4577 Y24.9715
G01 X19.4834 Y24.8397
G01 X19.5260 Y24.7116
G01 X19.5842 Y24.5898
G01 X19.6580 Y24.4769
G01 X19.7452 Y24.3741
G01 X19.8451 Y24.2834
G01 X19.9556 Y24.2063
G01 X20.0754 Y24.1443
G01 X20.2020 Y24.0977
G01 X20.3335 Y24.0676
G01 X20.4673 Y24.0545
G00 Z2.0000
G00 X21.9916 Y25.1088
G01 F60.00
G01 Z-0.0500
G01 F120.00
G01 X21.9966 Y25.0034
G01 X22.0117 Y24.9016
G01 X22.0368 Y24.8017
G01 X22.0715 Y24.7047
G01 X22.1155 Y24.6116
G01 X22.1684 Y24.5232
G01 X22.2298 Y24.4405
G01 X22.2990 Y24.3642
G01 X22.3753 Y24.2950
G01 X22.4580 Y24.2337
G01 X22.5463 Y24.1807
G01 X22.6394 Y24.1367
G01 X22.7364 Y24.1020
G01 X22.8363 Y24.0770
G01 X22.9382 Y24.0619
G01 X23.0411 Y24.0568
G01 X23.1439 Y24.0619
G01 X23.2458 Y24.0770
G01 X23.3457 Y24.1020
G01 X23.4427 Y24.1367
G01 X23.5358 Y24.1807
G01 X23.6241 Y24.2337
G01 X23.7068 Y24.2950
G01 X23.7832 Y24.3642
G01 X23.8523 Y24.4405
G01 X23.9137 Y24.5232
G01 X23.9666 Y24.6116
G01 X24.0107 Y24.7047
G01 X24.0454 Y24.8017
G01 X24.0704 Y24.9016
G01 X24.0855 Y25.0034
G01 X24.0905 Y25.1063
G01 X24.0855 Y25.2092
G01 X24.0704 Y25.3111
G01 X24.0454 Y25.4110
G01 X24.0107 Y25.5079
G01 X23.9666 Y25.6010
G01 X23.9137 Y25.6894
G01 X23.8523 Y25.7721
G01 X23.7832 Y25.8484
G01 X23.7068 Y25.9176
G01 X23.6241 Y25.9789
G01 X23.5358 Y26.0319
G01 X23.4427 Y26.0759
G01 X23.3457 Y26.1106
G01 X23.2458 Y26.1356
G01 X23.1439 Y26.1507
G01 X23.0411 Y26.1558
G01 X22.9382 Y26.1507
G01 X22.8363 Y26.1356
G01 X22.7364 Y26.1106
G01 X22.6394 Y26.0759
G01 X22.5463 Y26.0319
G01 X22.4580 Y25.9789
G01 X22.3753 Y25.9176
G01 X22.2990 Y25.8484
G01 X22.2298 Y25.7721
G01 X22.1684 Y25.6894
G01 X22.1155 Y25.6010
G01 X22.0715 Y25.5079
G01 X22.0368 Y25.4110
G01 X22.0117 Y25.3111
G01 X21.9966 Y25.2092
G01 X21.9916 Y25.1088
G00 Z2.0000
G00 X23.0073 Y24.0545
G01 F60.00
G01 Z-0.0500
G01 F120.00
G01 X23.1421 Y24.0589
G01 X23.2754 Y24.0802
G01 X23.4044 Y24.1185
G01 X23.5281 Y24.1733
G01 X23.6434 Y24.2431
G01 X23.7486 Y24.3275
G01 X23.8423 Y24.4241
G01 X23.9233 Y24.5322
G01 X23.9892 Y24.6496
G01 X24.0401 Y24.7746
G01 X24.0741 Y24.9051
G01 X24.0915 Y25.0389
G01 X24.0915 Y25.1737
G01 X24.0741 Y25.3076
G01 X24.0401 Y25.4380
G01 X23.9892 Y25.5631
G01 X23.9233 Y25.6804
G01 X23.8423 Y25.7885
G01 X23.7486 Y25.8851
G01 X23.6434 Y25.9695
G01 X23.5281 Y26.0393
G01 X23.4044 Y26.0941
G01 X23.2754 Y26.1324
G01 X23.1421 Y26.1537
G01 X23.0073 Y26.1581
G01 X22.8735 Y26.1450
G01 X22.7420 Y26.1149
G01 X22.6154 Y26.0683
G01 X22.4956 Y26.0063
G01 X22.3851 Y25.9292
G01 X22.2852 Y25.8386
G01 X22.1980 Y25.7357
G01 X22.1242 Y25.6228
G01 X22.0660 Y25.5011
G01 X22.0234 Y25.3730
G01 X21.9977 Y25.2411
G01 X21.9889 Y25.1063
G01 X21.9977 Y24.9715
G01 X22.0234 Y24.8397
G01 X22.0660 Y24.7116
G01 X22.1242 Y24.5898
G01 X22.1980 Y24.4769
G01 X22.2852 Y24.3741
G01 X22.3851 Y24.2834
G01 X22.4956 Y24.2063
G01 X22.6154 Y24.1443
G01 X22.7420 Y24.0977
G01 X22.8735 Y24.0676
G01 X23.0073 Y24.0545
G00 Z2.0000
G00 X24.5316 Y25.1088
G01 F60.00
G01 Z-0.0500
G01 F120.00
G01 X24.5366 Y25.0034
G01 X24.5517 Y24.9016
G01 X24.5768 Y24.8017
G01 X24.6115 Y24.7047
G01 X24.6555 Y24.6116
G01 X24.7084 Y24.5232
G01 X24.7698 Y24.4405
G01 X24.8390 Y24.3642
G01 X24.9153 Y24.2950
G01 X24.9980 Y24.2337
G01 X25.0863 Y24.1807
G01 X25.1794 Y24.1367
G01 X25.2764 Y24.1020
G01 X25.3763 Y24.0770
G01 X25.4782 Y24.0619
G01 X25.5811 Y24.0568
G01 X25.6839 Y24.0619
G01 X25.7858 Y24.0770
G01 X25.8857 Y24.1020
G01 X25.9827 Y24.1367
G01 X26.0758 Y24.1807
G01 X26.1641 Y24.2337
G01 X26.2468 Y24.2950
G01 X26.3232 Y24.3642
G01 X26.3923 Y24.4405
G01 X26.4537 Y24.5232
G01 X26.5066 Y24.6116
G01 X26.5507 Y24.7047
G01 X26.5854 Y24.8017
G01 X26.6104 Y24.9016
G01 X26.6255 Y25.0034
G01 X26.6305 Y25.1063
G01 X26.6255 Y25.2092
G01 X26.6104 Y25.3111
G01 X26.5854 Y25.4110
G01 X26.5507 Y25.5079
G01 X26.5066 Y25.6010
G01 X26.4537 Y25.6894
G01 X26.3923 Y25.7721
G01 X26.3232 Y25.8484
G01 X26.2468 Y25.9176
G01 X26.1641 Y25.9789
G01 X26.0758 Y26.0319
G01 X25.9827 Y26.0759
G01 X25.8857 Y26.1106
G01 X25.7858 Y26.1356
G01 X25.6839 Y26.1507
G01 X25.5811 Y26.1558
G01 X25.4782 Y26.1507
G01 X25.3763 Y26.1356
G01 X25.2764 Y26.1106
G01 X25.1794 Y26.0759
G01 X25.0863 Y26.0319
G01 X24.9980 Y25.9789
G01 X24.9153 Y25.9176
G01 X24.8390 Y25.8484
G01 X24.7698 Y25.7721
G01 X24.7084 Y25.6894
G01 X24.6555 Y25.6010
G01 X24.6115 Y25.5079
G01 X24.5768 Y25.4110
G01 X24.5517 Y25.3111
G01 X24.5366 Y25.2092
G01 X24.5316 Y25.1088
G00 Z2.0000
G00 X25.5473 Y24.0545
G01 F60.00
G01 Z-0.0500
G01 F120.00
G01 X25.6821 Y24.0589
G01 X25.8154 Y24.0802
G01 X25.9444 Y24.1185
G01 X26.0681 Y24.1733
G01 X26.1834 Y24.2431
G01 X26.2886 Y24.3275
G01 X26.3823 Y24.4241
G01 X26.4633 Y24.5322
G01 X26.5292 Y24.6496
G01 X26.5801 Y24.7746
G01 X26.6141 Y24.9051
G01 X26.6315 Y25.0389
G01 X26.6315 Y25.1737
G01 X26.6141 Y25.3076
G01 X26.5801 Y25.4380
G01 X26.5292 Y25.5631
G01 X26.4633 Y25.6804
G01 X26.3823 Y25.7885
G01 X26.2886 Y25.8851
G01 X26.1834 Y25.9695
G01 X26.0681 Y26.0393
G01 X25.9444 Y26.0941
G01 X25.8154 Y26.1324
G01 X25.6821 Y26.1537
G01 X25.5473 Y26.1581
G01 X25.4135 Y26.1450
G01 X25.2820 Y26.1149
G01 X25.1554 Y26.0683
G01 X25.0356 Y26.0063
G01 X24.9251 Y25.9292
G01 X24.8252 Y25.8386
G01 X24.7380 Y25.7357
G01 X24.6642 Y25.6228
G01 X24.6060 Y25.5011
G01 X24.5634 Y25.3730
G01 X24.5377 Y25.2411
G01 X24.5289 Y25.1063
G01 X24.5377 Y24.9715
G01 X24.5634 Y24.8397
G01 X24.6060 Y24.7116
G01 X24.6642 Y24.5898
G01 X24.7380 Y24.4769
G01 X24.8252 Y24.3741
G01 X24.9251 Y24.2834
G01 X25.0356 Y24.2063
G01 X25.1554 Y24.1443
G01 X25.2820 Y24.0977
G01 X25.4135 Y24.0676
G01 X25.5473 Y24.0545
G00 Z2.0000
G00 X27.0716 Y25.1088
G01 F60.00
G01 Z-0.0500
G01 F120.00
G01 X27.0766 Y25.0034
G01 X27.0917 Y24.9016
G01 X27.1168 Y24.8017
G01 X27.1515 Y24.7047
G01 X27.1955 Y24.6116
G01 X27.2484 Y24.5232
G01 X27.3098 Y24.4405
G01 X27.3790 Y24.3642
G01 X27.4553 Y24.2950
G01 X27.5380 Y24.2337
G01 X27.6263 Y24.1807
G01 X27.7194 Y24.1367
G01 X27.8164 Y24.1020
G01 X27.9163 Y24.0770
G01 X28.0182 Y24.0619
G01 X28.1211 Y24.0568
G01 X28.2239 Y24.0619
G01 X28.3258 Y24.0770
G01 X28.4257 Y24.1020
G01 X28.5227 Y24.1367
G01 X28.6158 Y24.1807
G01 X28.7041 Y24.2337
G01 X28.7868 Y24.2950
G01 X28.8632 Y24.3642
G01 X28.9323 Y24.4405
G01 X28.9937 Y24.5232
G01 X29.0466 Y24.6116
G01 X29.0907 Y24.7047
G01 X29.1254 Y24.8017
G01 X29.1504 Y24.9016
G01 X29.1655 Y25.0034
G01 X29.1705 Y25.1063
G01 X29.1655 Y25.2092
G01 X29.1504 Y25.3111
G01 X29.1254 Y25.4110
G01 X29.0907 Y25.5079
G01 X29.0466 Y25.6010
G01 X28.9937 Y25.6894
G01 X28.9323 Y25.7721
G01 X28.8632 Y25.8484
G01 X28.7868 Y25.9176
G01 X28.7041 Y25.9789
G01 X28.6158 Y26.0319
G01 X28.5227 Y26.0759
G01 X28.4257 Y26.1106
G01 X28.3258 Y26.1356
G01 X28.2239 Y26.1507
G01 X28.1211 Y26.1558
G01 X28.0182 Y26.1507
G01 X27.9163 Y26.1356
G01 X27.8164 Y26.1106
G01 X27.7194 Y26.0759
G01 X27.6263 Y26.0319
G01 X27.5380 Y25.9789
G01 X27.4553 Y25.9176
G01 X27.3790 Y25.8484
G01 X27.3098 Y25.7721
G01 X27.2484 Y25.6894
G01 X27.1955 Y25.6010
G01 X27.1515 Y25.5079
G01 X27.1168 Y25.4110
G01 X27.0917 Y25.3111
G01 X27.0766 Y25.2092
G01 X27.0716 Y25.1088
G00 Z2.0000
G00 X28.0873 Y24.0545
G01 F60.00
G01 Z-0.0500
G01 F120.00
G01 X28.2221 Y24.0589
G01 X28.3554 Y24.0802
G01 X28.4844 Y24.1185
G01 X28.6081 Y24.1733
G01 X28.7234 Y24.2431
G01 X28.8286 Y24.3275
G01 X28.9223 Y24.4241
G01 X29.0033 Y24.5322
G01 X29.0692 Y24.6496
G01 X29.1201 Y24.7746
G01 X29.1541 Y24.9051
G01 X29.1715 Y25.0389
G01 X29.1715 Y25.1737
G01 X29.1541 Y25.3076
G01 X29.1201 Y25.4380
G01 X29.0692 Y25.5631
G01 X29.0033 Y25.6804
G01 X28.9223 Y25.7885
G01 X28.8286 Y25.8851
G01 X28.7234 Y25.9695
G01 X28.6081 Y26.0393
G01 X28.4844 Y26.0941
G01 X28.3554 Y26.1324
G01 X28.2221 Y26.1537
G01 X28.0873 Y26.1581
G01 X27.9535 Y26.1450
G01 X27.8220 Y26.1149
G01 X27.6954 Y26.0683
G01 X27.5756 Y26.0063
G01 X27.4651 Y25.9292
G01 X27.3652 Y25.8386
G01 X27.2780 Y25.7357
G01 X27.2042 Y25.6228
G01 X27.1460 Y25.5011
G01 X27.1034 Y25.3730
G01 X27.0777 Y25.2411
G01 X27.0689 Y25.1063
G01 X27.0777 Y24.9715
G01 X27.1034 Y24.8397
G01 X27.1460 Y24.7116
G01 X27.2042 Y24.5898
G01 X27.2780 Y24.4769
G01 X27.3652 Y24.3741
G01 X27.4651 Y24.2834
G01 X27.5756 Y24.2063
G01 X27.6954 Y24.1443
G01 X27.8220 Y24.0977
G01 X27.9535 Y24.0676
G01 X28.0873 Y24.0545
G00 Z2.0000
G00 X29.6116 Y25.1088
G01 F60.00
G01 Z-0.0500
G01 F120.00
G01 X29.6166 Y25.0034
G01 X29.6317 Y24.9016
G01 X29.6568 Y24.8017
G01 X29.6915 Y24.7047
G01 X29.7355 Y24.6116
G01 X29.7884 Y24.5232
G01 X29.8498 Y24.4405
G01 X29.9190 Y24.3642
G01 X29.9953 Y24.2950
G01 X30.0780 Y24.2337
G01 X30.1663 Y24.1807
G01 X30.2594 Y24.1367
G01 X30.3564 Y24.1020
G01 X30.4563 Y24.0770
G01 X30.5582 Y24.0619
G01 X30.6611 Y24.0568
G01 X30.7639 Y24.0619
G01 X30.8658 Y24.0770
G01 X30.9657 Y24.1020
G01 X31.0627 Y24.1367
G01 X31.1558 Y24.1807
G01 X31.2441 Y24.2337
G01 X31.3268 Y24.2950
G01 X31.4032 Y24.3642
G01 X31.4723 Y24.4405
G01 X31.5337 Y24.5232
G01 X31.5866 Y24.6116
G01 X31.6307 Y24.7047
G01 X31.6654 Y24.8017
G01 X31.6904 Y24.9016
G01 X31.7055 Y25.0034
G01 X31.7105 Y25.1063
G01 X31.7055 Y25.2092
G01 X31.6904 Y25.3111
G01 X31.6654 Y25.4110
G01 X31.6307 Y25.5079
G01 X31.5866 Y25.6010
G01 X31.5337 Y25.6894
G01 X31.4723 Y25.7721
G01 X31.4032 Y25.8484
G01 X31.3268 Y25.9176
G01 X31.2441 Y25.9789
G01 X31.1558 Y26.0319
G01 X31.0627 Y26.0759
G01 X30.9657 Y26.1106
G01 X30.8658 Y26.1356
G01 X30.7639 Y26.1507
G01 X30.6611 Y26.1558
G01 X30.5582 Y26.1507
G01 X30.4563 Y26.1356
G01 X30.3564 Y26.1106
G01 X30.2594 Y26.0759
G01 X30.1663 Y26.0319
G01 X30.0780 Y25.9789
G01 X29.9953 Y25.9176
G01 X29.9190 Y25.8484
G01 X29.8498 Y25.7721
G01 X29.7884 Y25.6894
G01 X29.7355 Y25.6010
G01 X29.6915 Y25.5079
G01 X29.6568 Y25.4110
G01 X29.6317 Y25.3111
G01 X29.6166 Y25.2092
G01 X29.6116 Y25.1088
G00 Z2.0000
G00 X30.6273 Y24.0545
G01 F60.00
G01 Z-0.0500
G01 F120.00
G01 X30.7621 Y24.0589
G01 X30.8954 Y24.0802
G01 X31.0244 Y24.1185
G01 X31.1481 Y24.1733
G01 X31.2634 Y24.2431
G01 X31.3686 Y24.3275
G01 X31.4623 Y24.4241
G01 X31.5433 Y24.5322
G01 X31.6092 Y24.6496
G01 X31.6601 Y24.7746
G01 X31.6941 Y24.9051
G01 X31.7115 Y25.0389
G01 X31.7115 Y25.1737
G01 X31.6941 Y25.3076
G01 X31.6601 Y25.4380
G01 X31.6092 Y25.5631
G01 X31.5433 Y25.6804
G01 X31.4623 Y25.7885
G01 X31.3686 Y25.8851
G01 X31.2634 Y25.9695
G01 X31.1481 Y26.0393
G01 X31.0244 Y26.0941
G01 X30.8954 Y26.1324
G01 X30.7621 Y26.1537
G01 X30.6273 Y26.1581
G01 X30.4935 Y26.1450
G01 X30.3620 Y26.1149
G01 X30.2354 Y26.0683
G01 X30.1156 Y26.0063
G01 X30.0051 Y25.9292
G01 X29.9052 Y25.8386
G01 X29.8180 Y25.7357
G01 X29.7442 Y25.6228
G01 X29.6860 Y25.5011
G01 X29.6434 Y25.3730
G01 X29.6177 Y25.2411
G01 X29.6089 Y25.1063
G01 X29.6177 Y24.9715
G01 X29.6434 Y24.8397
G01 X29.6860 Y24.7116
G01 X29.7442 Y24.5898
G01 X29.8180 Y24.4769
G01 X29.9052 Y24.3741
G01 X30.0051 Y24.2834
G01 X30.1156 Y24.2063
G01 X30.2354 Y24.1443
G01 X30.3620 Y24.0977
G01 X30.4935 Y24.0676
G01 X30.6273 Y24.0545
G00 Z2.0000
G00 X32.1516 Y25.1088
G01 F60.00
G01 Z-0.0500
G01 F120.00
G01 X32.1566 Y25.0034
G01 X32.1717 Y24.9016
G01 X32.1968 Y24.8017
G01 X32.2315 Y24.7047
G01 X32.2755 Y24.6116
G01 X32.3284 Y24.5232
G01 X32.3898 Y24.4405
G01 X32.4590 Y24.3642
G01 X32.5353 Y24.2950
G01 X32.6180 Y24.2337
G01 X32.7063 Y24.1807
G01 X32.7994 Y24.1367
G01 X32.8964 Y24.1020
G01 X32.9963 Y24.0770
G01 X33.0982 Y24.0619
G01 X33.2011 Y24.0568
G01 X33.3039 Y24.0619
G01 X33.4058 Y24.0770
G01 X33.5057 Y24.1020
G01 X33.6027 Y24.1367
G01 X33.6958 Y24.1807
G01 X33.7841 Y24.2337
G01 X33.8668 Y24.2950
G01 X33.9432 Y24.3642
G01 X34.0123 Y24.4405
G01 X34.0737 Y24.5232
G01 X34.1266 Y24.6116
G01 X34.1707 Y24.7047
G01 X34.2054 Y24.8017
G01 X34.2304 Y24.9016
G01 X34.2455 Y25.0034
G01 X34.2505 Y25.1063
G01 X34.2455 Y25.2092
G01 X34.2304 Y25.3111
G01 X34.2054 Y25.4110
G01 X34.1707 Y25.5079
G01 X34.1266 Y25.6010
G01 X34.0737 Y25.6894
G01 X34.0123 Y25.7721
G01 X33.9432 Y25.8484
G01 X33.8668 Y25.9176
G01 X33.7841 Y25.9789
G01 X33.6958 Y26.0319
G01 X33.6027 Y26.0759
G01 X33.5057 Y26.1106
G01 X33.4058 Y26.1356
G01 X33.3039 Y26.1507
G01 X33.2011 Y26.1558
G01 X33.0982 Y26.1507
G01 X32.9963 Y26.1356
G01 X32.8964 Y26.1106
G01 X32.7994 Y26.0759
G01 X32.7063 Y26.0319
G01 X32.6180 Y25.9789
G01 X32.5353 Y25.9176
G01 X32.4590 Y25.8484
G01 X32.3898 Y25.7721
G01 X32.3284 Y25.6894
G01 X32.2755 Y25.6010
G01 X32.2315 Y25.5079
G01 X32.1968 Y25.4110
G01 X32.1717 Y25.3111
G01 X32.1566 Y25.2092
G01 X32.1516 Y25.1088
G00 Z2.0000
G00 X33.1673 Y24.0545
G01 F60.00
G01 Z-0.0500
G01 F120.00
G01 X33.3021 Y24.0589
G01 X33.4354 Y24.0802
G01 X33.5644 Y24.1185
G01 X33.6881 Y24.1733
G01 X33.8034 Y24.2431
G01 X33.9086 Y24.3275
G01 X34.0023 Y24.4241
G01 X34.0833 Y24.5322
G01 X34.1492 Y24.6496
G01 X34.2001 Y24.7746
G01 X34.2341 Y24.9051
G01 X34.2515 Y25.0389
G01 X34.2515 Y25.1737
G01 X34.2341 Y25.3076
G01 X34.2001 Y25.4380
G01 X34.1492 Y25.5631
G01 X34.0833 Y25.6804
G01 X34.0023 Y25.7885
G01 X33.9086 Y25.8851
G01 X33.8034 Y25.9695
G01 X33.6881 Y26.0393
G01 X33.5644 Y26.0941
G01 X33.4354 Y26.1324
G01 X33.3021 Y26.1537
G01 X33.1673 Y26.1581
G01 X33.0335 Y26.1450
G01 X32.9020 Y26.1149
G01 X32.7754 Y26.0683
G01 X32.6556 Y26.0063
G01 X32.5451 Y25.9292
G01 X32.4452 Y25.8386
G01 X32.3580 Y25.7357
G01 X32.2842 Y25.6228
G01 X32.2260 Y25.5011
G01 X32.1834 Y25.3730
G01 X32.1577 Y25.2411
G01 X32.1489 Y25.1063
G01 X32.1577 Y24.9715
G01 X32.1834 Y24.8397
G01 X32.2260 Y24.7116
G01 X32.2842 Y24.5898
G01 X32.3580 Y24.4769
G01 X32.4452 Y24.3741
G01 X32.5451 Y24.2834
G01 X32.6556 Y24.2063
G01 X32.7754 Y24.1443
G01 X32.9020 Y24.0977
G01 X33.0335 Y24.0676
G01 X33.1673 Y24.0545
G00 Z2.0000
G00 X34.6920 Y26.1160
G01 F60.00
G01 Z-0.0500
G01 F120.00
G01 X34.6932 Y26.1209
G01 X34.6951 Y26.1261
G01 X34.6930 Y26.1219
G01 X34.6920 Y26.1160
G00 Z2.0000
G00 X34.6977 Y26.1314
G01 F60.00
G01 Z-0.0500
G01 F120.00
G01 X34.7016 Y26.1372
G01 X34.7057 Y26.1418
G01 X34.7103 Y26.1459
G01 X34.7160 Y26.1497
G01 X34.7111 Y26.1473
G01 X34.7002 Y26.1364
G01 X34.6977 Y26.1314
G00 Z2.0000
G00 X34.7215 Y26.1524
G01 F60.00
G01 Z-0.0500
G01 F120.00
G01 X34.7254 Y26.1539
G01 X34.7288 Y26.1549
G01 X34.7254 Y26.1544
G01 X34.7215 Y26.1524
G00 Z2.0000
G00 X34.7379 Y26.1563
G01 F60.00
G01 Z-0.0500
G01 F120.00
G01 X36.7411 Y26.1564
G01 X36.7446 Y26.1563
G01 X36.7294 Y26.1587
G01 X34.7530 Y26.1587
G01 X34.7379 Y26.1563
G00 Z2.0000
G00 X36.7911 Y26.1064
G01 F60.00
G01 Z-0.0500
G01 F120.00
G01 X36.7911 Y24.1065
G01 X36.7901 Y24.0967
G01 X36.7873 Y24.0873
G01 X36.7826 Y24.0787
G01 X36.7764 Y24.0711
G01 X36.7688 Y24.0649
G01 X36.7602 Y24.0603
G01 X36.7508 Y24.0574
G01 X36.7411 Y24.0565
G01 X34.7411 Y24.0565
G01 X34.7313 Y24.0574
G01 X34.7219 Y24.0603
G01 X34.7133 Y24.0649
G01 X34.7057 Y24.0711
G01 X34.6995 Y24.0787
G01 X34.6949 Y24.0873
G01 X34.6920 Y24.0967
G01 X34.6911 Y24.1052
G01 X34.6911 Y26.1064
G01 X34.6916 Y26.1136
G01 X34.6883 Y26.0942
G01 X34.6883 Y24.1184
G01 X34.6930 Y24.0908
G01 X34.7002 Y24.0762
G01 X34.7111 Y24.0654
G01 X34.7256 Y24.0581
G01 X34.7533 Y24.0534
G01 X36.7291 Y24.0534
G01 X36.7567 Y24.0581
G01 X36.7713 Y24.0654
G01 X36.7821 Y24.0762
G01 X36.7893 Y24.0905
G01 X36.7936 Y24.1181
G01 X36.7936 Y26.0946
G01 X36.7893 Y26.1222
G01 X36.7821 Y26.1364
G01 X36.7713 Y26.1473
G01 X36.7570 Y26.1544
G01 X36.7528 Y26.1550
G01 X36.7602 Y26.1526
G01 X36.7678 Y26.1487
G01 X36.7746 Y26.1435
G01 X36.7805 Y26.1372
G01 X36.7852 Y26.1300
G01 X36.7881 Y26.1233
G01 X36.7903 Y26.1150
G01 X36.7911 Y26.1064
G00 Z2.0000
G00 X41.8101 Y24.1804
G01 F60.00
G01 Z-0.0500
G01 F120.00
G01 X41.8378 Y24.1851
G01 X41.8523 Y24.1924
G01 X41.8632 Y24.2033
G01 X41.8703 Y24.2175
G01 X41.8746 Y24.2451
G01 X41.8746 Y26.2216
G01 X41.8703 Y26.2491
G01 X41.8632 Y26.2634
G01 X41.8523 Y26.2743
G01 X41.8380 Y26.2814
G01 X41.8105 Y26.2857
G01 X39.8340 Y26.2857
G01 X39.8064 Y26.2814
G01 X39.7921 Y26.2743
G01 X39.7813 Y26.2634
G01 X39.7740 Y26.2489
G01 X39.7693 Y26.2212
G01 X39.7693 Y24.2454
G01 X39.7740 Y24.2178
G01 X39.7813 Y24.2032
G01 X39.7921 Y24.1924
G01 X39.8066 Y24.1851
G01 X39.8343 Y24.1804
G01 X41.8101 Y24.1804
G00 Z2.0000
G00 X41.8217 Y24.1838
G01 F60.00
G01 Z-0.0500
G01 F120.00
G01 X41.8314 Y24.1848
G01 X41.8408 Y24.1876
G01 X41.8495 Y24.1923
G01 X41.8570 Y24.1985
G01 X41.8633 Y24.2060
G01 X41.8674 Y24.2136
G01 X41.8705 Y24.2229
G01 X41.8717 Y24.2326
G01 X41.8717 Y26.2328
G01 X41.8710 Y26.2413
G01 X41.8683 Y26.2508
G01 X41.8639 Y26.2596
G01 X41.8579 Y26.2673
G01 X41.8505 Y26.2737
G01 X41.8420 Y26.2785
G01 X41.8362 Y26.2806
G01 X41.8314 Y26.2818
G01 X41.8217 Y26.2828
G01 X39.8227 Y26.2828
G01 X39.8130 Y26.2818
G01 X39.8036 Y26.2790
G01 X39.7949 Y26.2744
G01 X39.7882 Y26.2690
G01 X39.7818 Y26.2616
G01 X39.7786 Y26.2564
G01 X39.7765 Y26.2519
G01 X39.7737 Y26.2426
G01 X39.7727 Y26.2328
G01 X39.7727 Y24.2338
G01 X39.7737 Y24.2241
G01 X39.7765 Y24.2147
G01 X39.7805 Y24.2071
G01 X39.7865 Y24.1993
G01 X39.7939 Y24.1929
G01 X39.8025 Y24.1881
G01 X39.8118 Y24.1850
G01 X39.8166 Y24.1842
G01 X39.8227 Y24.1838
G01 X41.8217 Y24.1838
G00 Z2.0000
G00 X42.3128 Y25.2355
G01 F60.00
G01 Z-0.0500
G01 F120.00
G01 X42.3178 Y25.1302
G01 X42.3329 Y25.0283
G01 X42.3579 Y24.9284
G01 X42.3926 Y24.8314
G01 X42.4366 Y24.7383
G01 X42.4896 Y24.6500
G01 X42.5509 Y24.5673
G01 X42.6201 Y24.4910
G01 X42.6964 Y24.4218
G01 X42.7791 Y24.3604
G01 X42.8675 Y24.3075
G01 X42.9606 Y24.2635
G01 X43.0576 Y24.2288
G01 X43.1575 Y24.2037
G01 X43.2593 Y24.1886
G01 X43.3622 Y24.1836
G01 X43.4651 Y24.1886
G01 X43.5669 Y24.2037
G01 X43.6669 Y24.2288
G01 X43.7638 Y24.2635
G01 X43.8569 Y24.3075
G01 X43.9453 Y24.3604
G01 X44.0280 Y24.4218
G01 X44.1043 Y24.4910
G01 X44.1735 Y24.5673
G01 X44.2348 Y24.6500
G01 X44.2878 Y24.7383
G01 X44.3318 Y24.8314
G01 X44.3665 Y24.9284
G01 X44.3915 Y25.0283
G01 X44.4066 Y25.1302
G01 X44.4117 Y25.2331
G01 X44.4066 Y25.3359
G01 X44.3915 Y25.4378
G01 X44.3665 Y25.5377
G01 X44.3318 Y25.6347
G01 X44.2878 Y25.7278
G01 X44.2348 Y25.8161
G01 X44.1735 Y25.8988
G01 X44.1043 Y25.9752
G01 X44.0280 Y26.0443
G01 X43.9453 Y26.1057
G01 X43.8569 Y26.1586
G01 X43.7638 Y26.2027
G01 X43.6669 Y26.2374
G01 X43.5669 Y26.2624
G01 X43.4651 Y26.2775
G01 X43.3622 Y26.2825
G01 X43.2593 Y26.2775
G01 X43.1575 Y26.2624
G01 X43.0576 Y26.2374
G01 X42.9606 Y26.2027
G01 X42.8675 Y26.1586
G01 X42.7791 Y26.1057
G01 X42.6964 Y26.0443
G01 X42.6201 Y25.9752
G01 X42.5509 Y25.8988
G01 X42.4896 Y25.8161
G01 X42.4366 Y25.7278
G01 X42.3926 Y25.6347
G01 X42.3579 Y25.5377
G01 X42.3329 Y25.4378
G01 X42.3178 Y25.3359
G01 X42.3128 Y25.2355
G00 Z2.0000
G00 X43.3957 Y24.1815
G01 F60.00
G01 Z-0.0500
G01 F120.00
G01 X43.5299 Y24.1946
G01 X43.6614 Y24.2247
G01 X43.7880 Y24.2713
G01 X43.9078 Y24.3333
G01 X44.0183 Y24.4104
G01 X44.1182 Y24.5011
G01 X44.2055 Y24.6039
G01 X44.2791 Y24.7168
G01 X44.3373 Y24.8386
G01 X44.3800 Y24.9667
G01 X44.4057 Y25.0985
G01 X44.4145 Y25.2333
G01 X44.4057 Y25.3681
G01 X44.3800 Y25.5000
G01 X44.3373 Y25.6281
G01 X44.2792 Y25.7498
G01 X44.2055 Y25.8627
G01 X44.1182 Y25.9656
G01 X44.0183 Y26.0562
G01 X43.9078 Y26.1333
G01 X43.7880 Y26.1953
G01 X43.6614 Y26.2419
G01 X43.5299 Y26.2720
G01 X43.3957 Y26.2851
G01 X43.2608 Y26.2807
G01 X43.1279 Y26.2594
G01 X42.9985 Y26.2211
G01 X42.8754 Y26.1663
G01 X42.7600 Y26.0965
G01 X42.6547 Y26.0121
G01 X42.5606 Y25.9155
G01 X42.4802 Y25.8075
G01 X42.4142 Y25.6901
G01 X42.3633 Y25.5650
G01 X42.3293 Y25.4346
G01 X42.3119 Y25.3007
G01 X42.3119 Y25.1659
G01 X42.3293 Y25.0321
G01 X42.3633 Y24.9016
G01 X42.4142 Y24.7766
G01 X42.4802 Y24.6591
G01 X42.5606 Y24.5511
G01 X42.6547 Y24.4546
G01 X42.7600 Y24.3701
G01 X42.8754 Y24.3003
G01 X42.9985 Y24.2455
G01 X43.1279 Y24.2072
G01 X43.2608 Y24.1859
G01 X43.3957 Y24.1815
G00 Z2.0000
G00 X44.8528 Y25.2355
G01 F60.00
G01 Z-0.0500
G01 F120.00
G01 X44.8578 Y25.1302
G01 X44.8729 Y25.0283
G01 X44.8979 Y24.9284
G01 X44.9326 Y24.8314
G01 X44.9766 Y24.7383
G01 X45.0296 Y24.6500
G01 X45.0909 Y24.5673
G01 X45.1601 Y24.4910
G01 X45.2364 Y24.4218
G01 X45.3191 Y24.3604
G01 X45.4075 Y24.3075
G01 X45.5006 Y24.2635
G01 X45.5976 Y24.2288
G01 X45.6975 Y24.2037
G01 X45.7993 Y24.1886
G01 X45.9022 Y24.1836
G01 X46.0051 Y24.1886
G01 X46.1069 Y24.2037
G01 X46.2069 Y24.2288
G01 X46.3038 Y24.2635
G01 X46.3969 Y24.3075
G01 X46.4853 Y24.3604
G01 X46.5680 Y24.4218
G01 X46.6443 Y24.4910
G01 X46.7135 Y24.5673
G01 X46.7748 Y24.6500
G01 X46.8278 Y24.7383
G01 X46.8718 Y24.8314
G01 X46.9065 Y24.9284
G01 X46.9315 Y25.0283
G01 X46.9466 Y25.1302
G01 X46.9517 Y25.2331
G01 X46.9466 Y25.3359
G01 X46.9315 Y25.4378
G01 X46.9065 Y25.5377
G01 X46.8718 Y25.6347
G01 X46.8278 Y25.7278
G01 X46.7748 Y25.8161
G01 X46.7135 Y25.8988
G01 X46.6443 Y25.9752
G01 X46.5680 Y26.0443
G01 X46.4853 Y26.1057
G01 X46.3969 Y26.1586
G01 X46.3038 Y26.2027
G01 X46.2069 Y26.2374
G01 X46.1069 Y26.2624
G01 X46.0051 Y26.2775
G01 X45.9022 Y26.2825
G01 X45.7993 Y26.2775
G01 X45.6975 Y26.2624
G01 X45.5976 Y26.2374
G01 X45.5006 Y26.2027
G01 X45.4075 Y26.1586
G01 X45.3191 Y26.1057
G01 X45.2364 Y26.0443
G01 X45.1601 Y25.9752
G01 X45.0909 Y25.8988
G01 X45.0296 Y25.8161
G01 X44.9766 Y25.7278
G01 X44.9326 Y25.6347
G01 X44.8979 Y25.5377
G01 X44.8729 Y25.4378
G01 X44.8578 Y25.3359
G01 X44.8528 Y25.2355
G00 Z2.0000
G00 X45.9357 Y24.1815
G01 F60.00
G01 Z-0.0500
G01 F120.00
G01 X46.0699 Y24.1946
G01 X46.2014 Y24.2247
G01 X46.3280 Y24.2713
G01 X46.4478 Y24.3333
G01 X46.5583 Y24.4104
G01 X46.6582 Y24.5011
G01 X46.7455 Y24.6039
G01 X46.8191 Y24.7168
G01 X46.8773 Y24.8386
G01 X46.9200 Y24.9667
G01 X46.9457 Y25.0985
G01 X46.9545 Y25.2333
G01 X46.9457 Y25.3681
G01 X46.9200 Y25.5000
G01 X46.8773 Y25.6281
G01 X46.8192 Y25.7498
G01 X46.7455 Y25.8627
G01 X46.6582 Y25.9656
G01 X46.5583 Y26.0562
G01 X46.4478 Y26.1333
G01 X46.3280 Y26.1953
G01 X46.2014 Y26.2419
G01 X46.0699 Y26.2720
G01 X45.9357 Y26.2851
G01 X45.8008 Y26.2807
G01 X45.6679 Y26.2594
G01 X45.5385 Y26.2211
G01 X45.4154 Y26.1663
G01 X45.3000 Y26.0965
G01 X45.1947 Y26.0121
G01 X45.1006 Y25.9155
G01 X45.0202 Y25.8075
G01 X44.9542 Y25.6901
G01 X44.9033 Y25.5650
G01 X44.8693 Y25.4346
G01 X44.8519 Y25.3007
G01 X44.8519 Y25.1659
G01 X44.8693 Y25.0321
G01 X44.9033 Y24.9016
G01 X44.9542 Y24.7766
G01 X45.0202 Y24.6591
G01 X45.1006 Y24.5511
G01 X45.1947 Y24.4546
G01 X45.3000 Y24.3701
G01 X45.4154 Y24.3003
G01 X45.5385 Y24.2455
G01 X45.6679 Y24.2072
G01 X45.8008 Y24.1859
G01 X45.9357 Y24.1815
G00 Z2.0000
G00 X47.3928 Y25.2355
G01 F60.00
G01 Z-0.0500
G01 F120.00
G01 X47.3978 Y25.1302
G01 X47.4129 Y25.0283
G01 X47.4379 Y24.9284
G01 X47.4726 Y24.8314
G01 X47.5166 Y24.7383
G01 X47.5696 Y24.6500
G01 X47.6309 Y24.5673
G01 X47.7001 Y24.4910
G01 X47.7764 Y24.4218
G01 X47.8591 Y24.3604
G01 X47.9475 Y24.3075
G01 X48.0406 Y24.2635
G01 X48.1376 Y24.2288
G01 X48.2375 Y24.2037
G01 X48.3393 Y24.1886
G01 X48.4422 Y24.1836
G01 X48.5451 Y24.1886
G01 X48.6469 Y24.2037
G01 X48.7469 Y24.2288
G01 X48.8438 Y24.2635
G01 X48.9369 Y24.3075
G01 X49.0253 Y24.3604
G01 X49.1080 Y24.4218
G01 X49.1843 Y24.4910
G01 X49.2535 Y24.5673
G01 X49.3148 Y24.6500
G01 X49.3678 Y24.7383
G01 X49.4118 Y24.8314
G01 X49.4465 Y24.9284
G01 X49.4715 Y25.0283
G01 X49.4866 Y25.1302
G01 X49.4917 Y25.2331
G01 X49.4866 Y25.3359
G01 X49.4715 Y25.4378
G01 X49.4465 Y25.5377
G01 X49.4118 Y25.6347
G01 X49.3678 Y25.7278
G01 X49.3148 Y25.8161
G01 X49.2535 Y25.8988
G01 X49.1843 Y25.9752
G01 X49.1080 Y26.0443
G01 X49.0253 Y26.1057
G01 X48.9369 Y26.1586
G01 X48.8438 Y26.2027
G01 X48.7469 Y26.2374
G01 X48.6469 Y26.2624
G01 X48.5451 Y26.2775
G01 X48.4422 Y26.2825
G01 X48.3393 Y26.2775
G01 X48.2375 Y26.2624
G01 X48.1376 Y26.2374
G01 X48.0406 Y26.2027
G01 X47.9475 Y26.1586
G01 X47.8591 Y26.1057
G01 X47.7764 Y26.0443
G01 X47.7001 Y25.9752
G01 X47.6309 Y25.8988
G01 X47.5696 Y25.8161
G01 X47.5166 Y25.7278
G01 X47.4726 Y25.6347
G01 X47.4379 Y25.5377
G01 X47.4129 Y25.4378
G01 X47.3978 Y25.3359
G01 X47.3928 Y25.2355
G00 Z2.0000
G00 X48.4757 Y24.1815
G01 F60.00
G01 Z-0.0500
G01 F120.00
G01 X48.6099 Y24.1946
G01 X48.7414 Y24.2247
G01 X48.8680 Y24.2713
G01 X48.9878 Y24.3333
G01 X49.0983 Y24.4104
G01 X49.1982 Y24.5011
G01 X49.2855 Y24.6039
G01 X49.3591 Y24.7168
G01 X49.4173 Y24.8386
G01 X49.4600 Y24.9667
G01 X49.4857 Y25.0985
G01 X49.4945 Y25.2333
G01 X49.4857 Y25.3681
G01 X49.4600 Y25.5000
G01 X49.4173 Y25.6281
G01 X49.3592 Y25.7498
G01 X49.2855 Y25.8627
G01 X49.1982 Y25.9656
G01 X49.0983 Y26.0562
G01 X48.9878 Y26.1333
G01 X48.8680 Y26.1953
G01 X48.7414 Y26.2419
G01 X48.6099 Y26.2720
G01 X48.4757 Y26.2851
G01 X48.3408 Y26.2807
G01 X48.2079 Y26.2594
G01 X48.0785 Y26.2211
G01 X47.9554 Y26.1663
G01 X47.8400 Y26.0965
G01 X47.7347 Y26.0121
G01 X47.6406 Y25.9155
G01 X47.5602 Y25.8075
G01 X47.4942 Y25.6901
G01 X47.4433 Y25.5650
G01 X47.4093 Y25.4346
G01 X47.3919 Y25.3007
G01 X47.3919 Y25.1659
G01 X47.4093 Y25.0321
G01 X47.4433 Y24.9016
G01 X47.4942 Y24.7766
G01 X47.5602 Y24.6591
G01 X47.6406 Y24.5511
G01 X47.7347 Y24.4546
G01 X47.8400 Y24.3701
G01 X47.9554 Y24.3003
G01 X48.0785 Y24.2455
G01 X48.2079 Y24.2072
G01 X48.3408 Y24.1859
G01 X48.4757 Y24.1815
G00 Z2.0000
G00 X49.9328 Y25.2355
G01 F60.00
G01 Z-0.0500
G01 F120.00
G01 X49.9378 Y25.1302
G01 X49.9529 Y25.0283
G01 X49.9779 Y24.9284
G01 X50.0126 Y24.8314
G01 X50.0566 Y24.7383
G01 X50.1096 Y24.6500
G01 X50.1709 Y24.5673
G01 X50.2401 Y24.4910
G01 X50.3164 Y24.4218
G01 X50.3991 Y24.3604
G01 X50.4875 Y24.3075
G01 X50.5806 Y24.2635
G01 X50.6776 Y24.2288
G01 X50.7775 Y24.2037
G01 X50.8793 Y24.1886
G01 X50.9822 Y24.1836
G01 X51.0851 Y24.1886
G01 X51.1869 Y24.2037
G01 X51.2869 Y24.2288
G01 X51.3838 Y24.2635
G01 X51.4769 Y24.3075
G01 X51.5653 Y24.3604
G01 X51.6480 Y24.4218
G01 X51.7243 Y24.4910
G01 X51.7935 Y24.5673
G01 X51.8548 Y24.6500
G01 X51.9078 Y24.7383
G01 X51.9518 Y24.8314
G01 X51.9865 Y24.9284
G01 X52.0115 Y25.0283
G01 X52.0266 Y25.1302
G01 X52.0317 Y25.2331
G01 X52.0266 Y25.3359
G01 X52.0115 Y25.4378
G01 X51.9865 Y25.5377
G01 X51.9518 Y25.6347
G01 X51.9078 Y25.7278
G01 X51.8548 Y25.8161
G01 X51.7935 Y25.8988
G01 X51.7243 Y25.9752
G01 X51.6480 Y26.0443
G01 X51.5653 Y26.1057
G01 X51.4769 Y26.1586
G01 X51.3838 Y26.2027
G01 X51.2869 Y26.2374
G01 X51.1869 Y26.2624
G01 X51.0851 Y26.2775
G01 X50.9822 Y26.2825
G01 X50.8793 Y26.2775
G01 X50.7775 Y26.2624
G01 X50.6776 Y26.2374
G01 X50.5806 Y26.2027
G01 X50.4875 Y26.1586
G01 X50.3991 Y26.1057
G01 X50.3164 Y26.0443
G01 X50.2401 Y25.9752
G01 X50.1709 Y25.8988
G01 X50.1096 Y25.8161
G01 X50.0566 Y25.7278
G01 X50.0126 Y25.6347
G01 X49.9779 Y25.5377
G01 X49.9529 Y25.4378
G01 X49.9378 Y25.3359
G01 X49.9328 Y25.2355
G00 Z2.0000
G00 X51.0157 Y24.1815
G01 F60.00
G01 Z-0.0500
G01 F120.00
G01 X51.1499 Y24.1946
G01 X51.2814 Y24.2247
G01 X51.4080 Y24.2713
G01 X51.5278 Y24.3333
G01 X51.6383 Y24.4104
G01 X51.7382 Y24.5011
G01 X51.8255 Y24.6039
G01 X51.8991 Y24.7168
G01 X51.9573 Y24.8386
G01 X52.0000 Y24.9667
G01 X52.0257 Y25.0985
G01 X52.0345 Y25.2333
G01 X52.0257 Y25.3681
G01 X52.0000 Y25.5000
G01 X51.9573 Y25.6281
G01 X51.8992 Y25.7498
G01 X51.8255 Y25.8627
G01 X51.7382 Y25.9656
G01 X51.6383 Y26.0562
G01 X51.5278 Y26.1333
G01 X51.4080 Y26.1953
G01 X51.2814 Y26.2419
G01 X51.1499 Y26.2720
G01 X51.0157 Y26.2851
G01 X50.8808 Y26.2807
G01 X50.7479 Y26.2594
G01 X50.6185 Y26.2211
G01 X50.4954 Y26.1663
G01 X50.3800 Y26.0965
G01 X50.2747 Y26.0121
G01 X50.1806 Y25.9155
G01 X50.1002 Y25.8075
G01 X50.0342 Y25.6901
G01 X49.9833 Y25.5650
G01 X49.9493 Y25.4346
G01 X49.9319 Y25.3007
G01 X49.9319 Y25.1659
G01 X49.9493 Y25.0321
G01 X49.9833 Y24.9016
G01 X50.0342 Y24.7766
G01 X50.1002 Y24.6591
G01 X50.1806 Y24.5511
G01 X50.2747 Y24.4546
G01 X50.3800 Y24.3701
G01 X50.4954 Y24.3003
G01 X50.6185 Y24.2455
G01 X50.7479 Y24.2072
G01 X50.8808 Y24.1859
G01 X51.0157 Y24.1815
G00 Z2.0000
G00 X52.4728 Y25.2355
G01 F60.00
G01 Z-0.0500
G01 F120.00
G01 X52.4778 Y25.1302
G01 X52.4929 Y25.0283
G01 X52.5179 Y24.9284
G01 X52.5526 Y24.8314
G01 X52.5966 Y24.7383
G01 X52.6496 Y24.6500
G01 X52.7109 Y24.5673
G01 X52.7801 Y24.4910
G01 X52.8564 Y24.4218
G01 X52.9391 Y24.3604
G01 X53.0275 Y24.3075
G01 X53.1206 Y24.2635
G01 X53.2176 Y24.2288
G01 X53.3175 Y24.2037
G01 X53.4193 Y24.1886
G01 X53.5222 Y24.1836
G01 X53.6251 Y24.1886
G01 X53.7269 Y24.2037
G01 X53.8269 Y24.2288
G01 X53.9238 Y24.2635
G01 X54.0169 Y24.3075
G01 X54.1053 Y24.3604
G01 X54.1880 Y24.4218
G01 X54.2643 Y24.4910
G01 X54.3335 Y24.5673
G01 X54.3948 Y24.6500
G01 X54.4478 Y24.7383
G01 X54.4918 Y24.8314
G01 X54.5265 Y24.9284
G01 X54.5515 Y25.0283
G01 X54.5666 Y25.1302
G01 X54.5717 Y25.2331
G01 X54.5666 Y25.3359
G01 X54.5515 Y25.4378
G01 X54.5265 Y25.5377
G01 X54.4918 Y25.6347
G01 X54.4478 Y25.7278
G01 X54.3948 Y25.8161
G01 X54.3335 Y25.8988
G01 X54.2643 Y25.9752
G01 X54.1880 Y26.0443
G01 X54.1053 Y26.1057
G01 X54.0169 Y26.1586
G01 X53.9238 Y26.2027
G01 X53.8269 Y26.2374
G01 X53.7269 Y26.2624
G01 X53.6251 Y26.2775
G01 X53.5222 Y26.2825
G01 X53.4193 Y26.2775
G01 X53.3175 Y26.2624
G01 X53.2176 Y26.2374
G01 X53.1206 Y26.2027
G01 X53.0275 Y26.1586
G01 X52.9391 Y26.1057
G01 X52.8564 Y26.0443
G01 X52.7801 Y25.9752
G01 X52.7109 Y25.8988
G01 X52.6496 Y25.8161
G01 X52.5966 Y25.7278
G01 X52.5526 Y25.6347
G01 X52.5179 Y25.5377
G01 X52.4929 Y25.4378
G01 X52.4778 Y25.3359
G01 X52.4728 Y25.2355
G00 Z2.0000
G00 X53.5557 Y24.1815
G01 F60.00
G01 Z-0.0500
G01 F120.00
G01 X53.6899 Y24.1946
G01 X53.8214 Y24.2247
G01 X53.9480 Y24.2713
G01 X54.0678 Y24.3333
G01 X54.1783 Y24.4104
G01 X54.2782 Y24.5011
G01 X54.3655 Y24.6039
G01 X54.4391 Y24.7168
G01 X54.4973 Y24.8386
G01 X54.5400 Y24.9667
G01 X54.5657 Y25.0985
G01 X54.5745 Y25.2333
G01 X54.5657 Y25.3681
G01 X54.5400 Y25.5000
G01 X54.4973 Y25.6281
G01 X54.4392 Y25.7498
G01 X54.3655 Y25.8627
G01 X54.2782 Y25.9656
G01 X54.1783 Y26.0562
G01 X54.0678 Y26.1333
G01 X53.9480 Y26.1953
G01 X53.8214 Y26.2419
G01 X53.6899 Y26.2720
G01 X53.5557 Y26.2851
G01 X53.4208 Y26.2807
G01 X53.2879 Y26.2594
G01 X53.1585 Y26.2211
G01 X53.0354 Y26.1663
G01 X52.9200 Y26.0965
G01 X52.8147 Y26.0121
G01 X52.7206 Y25.9155
G01 X52.6402 Y25.8075
G01 X52.5742 Y25.6901
G01 X52.5233 Y25.5650
G01 X52.4893 Y25.4346
G01 X52.4719 Y25.3007
G01 X52.4719 Y25.1659
G01 X52.4893 Y25.0321
G01 X52.5233 Y24.9016
G01 X52.5742 Y24.7766
G01 X52.6402 Y24.6591
G01 X52.7206 Y24.5511
G01 X52.8147 Y24.4546
G01 X52.9200 Y24.3701
G01 X53.0354 Y24.3003
G01 X53.1585 Y24.2455
G01 X53.2879 Y24.2072
G01 X53.4208 Y24.1859
G01 X53.5557 Y24.1815
G00 Z2.0000
G00 X55.0128 Y25.2355
G01 F60.00
G01 Z-0.0500
G01 F120.00
G01 X55.0178 Y25.1302
G01 X55.0329 Y25.0283
G01 X55.0579 Y24.9284
G01 X55.0926 Y24.8314
G01 X55.1366 Y24.7383
G01 X55.1896 Y24.6500
G01 X55.2509 Y24.5673
G01 X55.3201 Y24.4910
G01 X55.3964 Y24.4218
G01 X55.4791 Y24.3604
G01 X55.5675 Y24.3075
G01 X55.6606 Y24.2635
G01 X55.7576 Y24.2288
G01 X55.8575 Y24.2037
G01 X55.9593 Y24.1886
G01 X56.0622 Y24.1836
G01 X56.1651 Y24.1886
G01 X56.2669 Y24.2037
G01 X56.3669 Y24.2288
G01 X56.4638 Y24.2635
G01 X56.5569 Y24.3075
G01 X56.6453 Y24.3604
G01 X56.7280 Y24.4218
G01 X56.8043 Y24.4910
G01 X56.8735 Y24.5673
G01 X56.9348 Y24.6500
G01 X56.9878 Y24.7383
G01 X57.0318 Y24.8314
G01 X57.0665 Y24.9284
G01 X57.0915 Y25.0283
G01 X57.1066 Y25.1302
G01 X57.1117 Y25.2331
G01 X57.1066 Y25.3359
G01 X57.0915 Y25.4378
G01 X57.0665 Y25.5377
G01 X57.0318 Y25.6347
G01 X56.9878 Y25.7278
G01 X56.9348 Y25.8161
G01 X56.8735 Y25.8988
G01 X56.8043 Y25.9752
G01 X56.7280 Y26.0443
G01 X56.6453 Y26.1057
G01 X56.5569 Y26.1586
G01 X56.4638 Y26.2027
G01 X56.3669 Y26.2374
G01 X56.2669 Y26.2624
G01 X56.1651 Y26.2775
G01 X56.0622 Y26.2825
G01 X55.9593 Y26.2775
G01 X55.8575 Y26.2624
G01 X55.7576 Y26.2374
G01 X55.6606 Y26.2027
G01 X55.5675 Y26.1586
G01 X55.4791 Y26.1057
G01 X55.3964 Y26.0443
G01 X55.3201 Y25.9752
G01 X55.2509 Y25.8988
G01 X55.1896 Y25.8161
G01 X55.1366 Y25.7278
G01 X55.0926 Y25.6347
G01 X55.0579 Y25.5377
G01 X55.0329 Y25.4378
G01 X55.0178 Y25.3359
G01 X55.0128 Y25.2355
G00 Z2.0000
G00 X56.0957 Y24.1815
G01 F60.00
G01 Z-0.0500
G01 F120.00
G01 X56.2299 Y24.1946
G01 X56.3614 Y24.2247
G01 X56.4880 Y24.2713
G01 X56.6078 Y24.3333
G01 X56.7183 Y24.4104
G01 X56.8182 Y24.5011
G01 X56.9055 Y24.6039
G01 X56.9791 Y24.7168
G01 X57.0373 Y24.8386
G01 X57.0800 Y24.9667
G01 X57.1057 Y25.0985
G01 X57.1145 Y25.2333
G01 X57.1057 Y25.3681
G01 X57.0800 Y25.5000
G01 X57.0373 Y25.6281
G01 X56.9792 Y25.7498
G01 X56.9055 Y25.8627
G01 X56.8182 Y25.9656
G01 X56.7183 Y26.0562
G01 X56.6078 Y26.1333
G01 X56.4880 Y26.1953
G01 X56.3614 Y26.2419
G01 X56.2299 Y26.2720
G01 X56.0957 Y26.2851
G01 X55.9608 Y26.2807
G01 X55.8279 Y26.2594
G01 X55.6985 Y26.2211
G01 X55.5754 Y26.1663
G01 X55.4600 Y26.0965
G01 X55.3547 Y26.0121
G01 X55.2606 Y25.9155
G01 X55.1802 Y25.8075
G01 X55.1142 Y25.6901
G01 X55.0633 Y25.5650
G01 X55.0293 Y25.4346
G01 X55.0119 Y25.3007
G01 X55.0119 Y25.1659
G01 X55.0293 Y25.0321
G01 X55.0633 Y24.9016
G01 X55.1142 Y24.7766
G01 X55.1802 Y24.6591
G01 X55.2606 Y24.5511
G01 X55.3547 Y24.4546
G01 X55.4600 Y24.3701
G01 X55.5754 Y24.3003
G01 X55.6985 Y24.2455
G01 X55.8279 Y24.2072
G01 X55.9608 Y24.1859
G01 X56.0957 Y24.1815
G00 Z2.0000
G00 X57.5528 Y25.2355
G01 F60.00
G01 Z-0.0500
G01 F120.00
G01 X57.5578 Y25.1302
G01 X57.5729 Y25.0283
G01 X57.5979 Y24.9284
G01 X57.6326 Y24.8314
G01 X57.6766 Y24.7383
G01 X57.7296 Y24.6500
G01 X57.7909 Y24.5673
G01 X57.8601 Y24.4910
G01 X57.9364 Y24.4218
G01 X58.0191 Y24.3604
G01 X58.1075 Y24.3075
G01 X58.2006 Y24.2635
G01 X58.2976 Y24.2288
G01 X58.3975 Y24.2037
G01 X58.4993 Y24.1886
G01 X58.6022 Y24.1836
G01 X58.7051 Y24.1886
G01 X58.8069 Y24.2037
G01 X58.9069 Y24.2288
G01 X59.0038 Y24.2635
G01 X59.0969 Y24.3075
G01 X59.1853 Y24.3604
G01 X59.2680 Y24.4218
G01 X59.3443 Y24.4910
G01 X59.4135 Y24.5673
G01 X59.4748 Y24.6500
G01 X59.5278 Y24.7383
G01 X59.5718 Y24.8314
G01 X59.6065 Y24.9284
G01 X59.6315 Y25.0283
G01 X59.6466 Y25.1302
G01 X59.6517 Y25.2331
G01 X59.6466 Y25.3359
G01 X59.6315 Y25.4378
G01 X59.6065 Y25.5377
G01 X59.5718 Y25.6347
G01 X59.5278 Y25.7278
G01 X59.4748 Y25.8161
G01 X59.4135 Y25.8988
G01 X59.3443 Y25.9752
G01 X59.2680 Y26.0443
G01 X59.1853 Y26.1057
G01 X59.0969 Y26.1586
G01 X59.0038 Y26.2027
G01 X58.9069 Y26.2374
G01 X58.8069 Y26.2624
G01 X58.7051 Y26.2775
G01 X58.6022 Y26.2825
G01 X58.4993 Y26.2775
G01 X58.3975 Y26.2624
G01 X58.2976 Y26.2374
G01 X58.2006 Y26.2027
G01 X58.1075 Y26.1586
G01 X58.0191 Y26.1057
G01 X57.9364 Y26.0443
G01 X57.8601 Y25.9752
G01 X57.7909 Y25.8988
G01 X57.7296 Y25.8161
G01 X57.6766 Y25.7278
G01 X57.6326 Y25.6347
G01 X57.5979 Y25.5377
G01 X57.5729 Y25.4378
G01 X57.5578 Y25.3359
G01 X57.5528 Y25.2355
G00 Z2.0000
G00 X58.6356 Y24.1815
G01 F60.00
G01 Z-0.0500
G01 F120.00
G01 X58.7699 Y24.1946
G01 X58.9014 Y24.2247
G01 X59.0280 Y24.2713
G01 X59.1478 Y24.3333
G01 X59.2583 Y24.4104
G01 X59.3582 Y24.5011
G01 X59.4455 Y24.6039
G01 X59.5191 Y24.7168
G01 X59.5773 Y24.8386
G01 X59.6200 Y24.9667
G01 X59.6457 Y25.0985
G01 X59.6545 Y25.2333
G01 X59.6457 Y25.3681
G01 X59.6200 Y25.5000
G01 X59.5773 Y25.6281
G01 X59.5192 Y25.7498
G01 X59.4455 Y25.8627
G01 X59.3582 Y25.9656
G01 X59.2583 Y26.0562
G01 X59.1478 Y26.1333
G01 X59.0280 Y26.1953
G01 X58.9014 Y26.2419
G01 X58.7699 Y26.2720
G01 X58.6356 Y26.2851
G01 X58.5008 Y26.2807
G01 X58.3679 Y26.2594
G01 X58.2385 Y26.2211
G01 X58.1154 Y26.1663
G01 X58.0000 Y26.0965
G01 X57.8947 Y26.0121
G01 X57.8006 Y25.9155
G01 X57.7202 Y25.8075
G01 X57.6542 Y25.6901
G01 X57.6033 Y25.5650
G01 X57.5693 Y25.4346
G01 X57.5519 Y25.3007
G01 X57.5519 Y25.1659
G01 X57.5693 Y25.0321
G01 X57.6033 Y24.9016
G01 X57.6542 Y24.7766
G01 X57.7202 Y24.6591
G01 X57.8006 Y24.5511
G01 X57.8947 Y24.4546
G01 X58.0000 Y24.3701
G01 X58.1154 Y24.3003
G01 X58.2385 Y24.2455
G01 X58.3679 Y24.2072
G01 X58.5008 Y24.1859
G01 X58.6356 Y24.1815
G00 Z2.0000
G00 X60.5283 Y24.3195
G01 F60.00
G01 Z-0.0500
G01 F120.00
G01 X60.5283 Y24.3832
G01 X60.4764 Y24.4218
G01 X60.4001 Y24.4910
G01 X60.3309 Y24.5673
G01 X60.2918 Y24.6199
G01 X60.2283 Y24.6199
G01 X60.2501 Y24.5856
G01 X60.3385 Y24.4787
G01 X60.4395 Y24.3839
G01 X60.5283 Y24.3195
G00 Z2.0000
G00 X61.7556 Y24.3194
G01 F60.00
G01 Z-0.0500
G01 F120.00
G01 X61.8449 Y24.3839
G01 X61.9454 Y24.4787
G01 X62.0339 Y24.5856
G01 X62.0558 Y24.6199
G01 X61.9926 Y24.6199
G01 X61.9535 Y24.5673
G01 X61.8843 Y24.4910
G01 X61.8080 Y24.4218
G01 X61.7556 Y24.3828
G01 X61.7556 Y24.3194
G00 Z2.0000
G00 X61.7556 Y26.1472
G01 F60.00
G01 Z-0.0500
G01 F120.00
G01 X61.7556 Y26.0833
G01 X61.8080 Y26.0443
G01 X61.8843 Y25.9752
G01 X61.9535 Y25.8988
G01 X61.9922 Y25.8467
G01 X62.0556 Y25.8467
G01 X62.0338 Y25.8810
G01 X61.9454 Y25.9880
G01 X61.8448 Y26.0827
G01 X61.7556 Y26.1472
G00 Z2.0000
G00 X60.2922 Y25.8467
G01 F60.00
G01 Z-0.0500
G01 F120.00
G01 X60.3309 Y25.8988
G01 X60.4001 Y25.9752
G01 X60.4764 Y26.0443
G01 X60.5283 Y26.0829
G01 X60.5283 Y26.1472
G01 X60.4395 Y26.0827
G01 X60.3385 Y25.9879
G01 X60.2501 Y25.8810
G01 X60.2283 Y25.8467
G01 X60.2922 Y25.8467
G00 Z2.0000
G00 X67.2091 Y24.1804
G01 F60.00
G01 Z-0.0500
G01 F120.00
G01 X67.2367 Y24.1851
G01 X67.2513 Y24.1924
G01 X67.2621 Y24.2032
G01 X67.2693 Y24.2175
G01 X67.2736 Y24.2451
G01 X67.2736 Y26.2216
G01 X67.2693 Y26.2492
G01 X67.2621 Y26.2634
G01 X67.2513 Y26.2743
G01 X67.2370 Y26.2814
G01 X67.2094 Y26.2857
G01 X65.2329 Y26.2857
G01 X65.2053 Y26.2814
G01 X65.1911 Y26.2743
G01 X65.1802 Y26.2634
G01 X65.1730 Y26.2489
G01 X65.1683 Y26.2212
G01 X65.1683 Y24.2454
G01 X65.1730 Y24.2178
G01 X65.1802 Y24.2032
G01 X65.1911 Y24.1924
G01 X65.2056 Y24.1851
G01 X65.2333 Y24.1804
G01 X67.2091 Y24.1804
G00 Z2.0000
G00 X67.2207 Y24.1838
G01 F60.00
G01 Z-0.0500
G01 F120.00
G01 X67.2304 Y24.1848
G01 X67.2398 Y24.1876
G01 X67.2485 Y24.1923
G01 X67.2560 Y24.1985
G01 X67.2622 Y24.2060
G01 X67.2669 Y24.2147
G01 X67.2695 Y24.2229
G01 X67.2707 Y24.2326
G01 X67.2707 Y26.2328
G01 X67.2697 Y26.2426
G01 X67.2669 Y26.2519
G01 X67.2622 Y26.2606
G01 X67.2569 Y26.2673
G01 X67.2495 Y26.2737
G01 X67.2453 Y26.2763
G01 X67.2398 Y26.2790
G01 X67.2304 Y26.2818
G01 X67.2207 Y26.2828
G01 X65.2217 Y26.2828
G01 X65.2119 Y26.2818
G01 X65.2026 Y26.2790
G01 X65.1939 Y26.2744
G01 X65.1872 Y26.2690
G01 X65.1808 Y26.2616
G01 X65.1776 Y26.2564
G01 X65.1755 Y26.2519
G01 X65.1727 Y26.2426
G01 X65.1717 Y26.2328
G01 X65.1717 Y24.2338
G01 X65.1727 Y24.2241
G01 X65.1755 Y24.2147
G01 X65.1795 Y24.2071
G01 X65.1855 Y24.1993
G01 X65.1929 Y24.1929
G01 X65.2014 Y24.1881
G01 X65.2107 Y24.1850
G01 X65.2156 Y24.1842
G01 X65.2217 Y24.1838
G01 X67.2207 Y24.1838
G00 Z2.0000
G00 X67.7118 Y25.2355
G01 F60.00
G01 Z-0.0500
G01 F120.00
G01 X67.7168 Y25.1302
G01 X67.7319 Y25.0283
G01 X67.7569 Y24.9284
G01 X67.7916 Y24.8314
G01 X67.8356 Y24.7383
G01 X67.8886 Y24.6500
G01 X67.9499 Y24.5673
G01 X68.0191 Y24.4910
G01 X68.0954 Y24.4218
G01 X68.1781 Y24.3604
G01 X68.2665 Y24.3075
G01 X68.3596 Y24.2635
G01 X68.4565 Y24.2288
G01 X68.5564 Y24.2037
G01 X68.6583 Y24.1886
G01 X68.7612 Y24.1836
G01 X68.8641 Y24.1886
G01 X68.9659 Y24.2037
G01 X69.0658 Y24.2288
G01 X69.1628 Y24.2635
G01 X69.2559 Y24.3075
G01 X69.3443 Y24.3604
G01 X69.4270 Y24.4218
G01 X69.5033 Y24.4910
G01 X69.5725 Y24.5673
G01 X69.6338 Y24.6500
G01 X69.6868 Y24.7383
G01 X69.7308 Y24.8314
G01 X69.7655 Y24.9284
G01 X69.7905 Y25.0283
G01 X69.8056 Y25.1302
G01 X69.8107 Y25.2331
G01 X69.8056 Y25.3359
G01 X69.7905 Y25.4378
G01 X69.7655 Y25.5377
G01 X69.7308 Y25.6347
G01 X69.6868 Y25.7278
G01 X69.6338 Y25.8161
G01 X69.5725 Y25.8988
G01 X69.5033 Y25.9752
G01 X69.4270 Y26.0443
G01 X69.3443 Y26.1057
G01 X69.2559 Y26.1586
G01 X69.1628 Y26.2027
G01 X69.0658 Y26.2374
G01 X68.9659 Y26.2624
G01 X68.8641 Y26.2775
G01 X68.7612 Y26.2825
G01 X68.6583 Y26.2775
G01 X68.5564 Y26.2624
G01 X68.4565 Y26.2374
G01 X68.3596 Y26.2027
G01 X68.2665 Y26.1586
G01 X68.1781 Y26.1057
G01 X68.0954 Y26.0443
G01 X68.0191 Y25.9752
G01 X67.9499 Y25.8988
G01 X67.8886 Y25.8161
G01 X67.8356 Y25.7278
G01 X67.7916 Y25.6347
G01 X67.7569 Y25.5377
G01 X67.7319 Y25.4378
G01 X67.7168 Y25.3359
G01 X67.7118 Y25.2355
G00 Z2.0000
G00 X68.7951 Y24.1815
G01 F60.00
G01 Z-0.0500
G01 F120.00
G01 X68.9289 Y24.1946
G01 X69.0604 Y24.2247
G01 X69.1870 Y24.2713
G01 X69.3068 Y24.3333
G01 X69.4173 Y24.4104
G01 X69.5171 Y24.5011
G01 X69.6044 Y24.6039
G01 X69.6781 Y24.7168
G01 X69.7363 Y24.8386
G01 X69.7790 Y24.9667
G01 X69.8047 Y25.0985
G01 X69.8134 Y25.2333
G01 X69.8047 Y25.3681
G01 X69.7790 Y25.5000
G01 X69.7363 Y25.6281
G01 X69.6781 Y25.7498
G01 X69.6044 Y25.8627
G01 X69.5171 Y25.9656
G01 X69.4173 Y26.0562
G01 X69.3068 Y26.1333
G01 X69.1870 Y26.1953
G01 X69.0604 Y26.2419
G01 X68.9289 Y26.2720
G01 X68.7951 Y26.2851
G01 X68.6603 Y26.2807
G01 X68.5269 Y26.2594
G01 X68.3980 Y26.2211
G01 X68.2743 Y26.1663
G01 X68.1590 Y26.0965
G01 X68.0537 Y26.0121
G01 X67.9601 Y25.9155
G01 X67.8791 Y25.8074
G01 X67.8132 Y25.6901
G01 X67.7623 Y25.5650
G01 X67.7283 Y25.4346
G01 X67.7109 Y25.3007
G01 X67.7109 Y25.1659
G01 X67.7283 Y25.0321
G01 X67.7623 Y24.9016
G01 X67.8132 Y24.7766
G01 X67.8791 Y24.6592
G01 X67.9601 Y24.5511
G01 X68.0537 Y24.4545
G01 X68.1590 Y24.3701
G01 X68.2743 Y24.3003
G01 X68.3980 Y24.2455
G01 X68.5269 Y24.2072
G01 X68.6603 Y24.1859
G01 X68.7951 Y24.1815
G00 Z2.0000
G00 X70.2518 Y25.2355
G01 F60.00
G01 Z-0.0500
G01 F120.00
G01 X70.2568 Y25.1302
G01 X70.2719 Y25.0283
G01 X70.2969 Y24.9284
G01 X70.3316 Y24.8314
G01 X70.3756 Y24.7383
G01 X70.4286 Y24.6500
G01 X70.4899 Y24.5673
G01 X70.5591 Y24.4910
G01 X70.6354 Y24.4218
G01 X70.7181 Y24.3604
G01 X70.8065 Y24.3075
G01 X70.8996 Y24.2635
G01 X70.9965 Y24.2288
G01 X71.0964 Y24.2037
G01 X71.1983 Y24.1886
G01 X71.3012 Y24.1836
G01 X71.4041 Y24.1886
G01 X71.5059 Y24.2037
G01 X71.6058 Y24.2288
G01 X71.7028 Y24.2635
G01 X71.7959 Y24.3075
G01 X71.8843 Y24.3604
G01 X71.9670 Y24.4218
G01 X72.0433 Y24.4910
G01 X72.1125 Y24.5673
G01 X72.1738 Y24.6500
G01 X72.2268 Y24.7383
G01 X72.2708 Y24.8314
G01 X72.3055 Y24.9284
G01 X72.3305 Y25.0283
G01 X72.3456 Y25.1302
G01 X72.3507 Y25.2331
G01 X72.3456 Y25.3359
G01 X72.3305 Y25.4378
G01 X72.3055 Y25.5377
G01 X72.2708 Y25.6347
G01 X72.2268 Y25.7278
G01 X72.1738 Y25.8161
G01 X72.1125 Y25.8988
G01 X72.0433 Y25.9752
G01 X71.9670 Y26.0443
G01 X71.8843 Y26.1057
G01 X71.7959 Y26.1586
G01 X71.7028 Y26.2027
G01 X71.6058 Y26.2374
G01 X71.5059 Y26.2624
G01 X71.4041 Y26.2775
G01 X71.3012 Y26.2825
G01 X71.1983 Y26.2775
G01 X71.0964 Y26.2624
G01 X70.9965 Y26.2374
G01 X70.8996 Y26.2027
G01 X70.8065 Y26.1586
G01 X70.7181 Y26.1057
G01 X70.6354 Y26.0443
G01 X70.5591 Y25.9752
G01 X70.4899 Y25.8988
G01 X70.4286 Y25.8161
G01 X70.3756 Y25.7278
G01 X70.3316 Y25.6347
G01 X70.2969 Y25.5377
G01 X70.2719 Y25.4378
G01 X70.2568 Y25.3359
G01 X70.2518 Y25.2355
G00 Z2.0000
G00 X71.3351 Y24.1815
G01 F60.00
G01 Z-0.0500
G01 F120.00
G01 X71.4689 Y24.1946
G01 X71.6004 Y24.2247
G01 X71.7270 Y24.2713
G01 X71.8468 Y24.3333
G01 X71.9573 Y24.4104
G01 X72.0571 Y24.5011
G01 X72.1444 Y24.6039
G01 X72.2181 Y24.7168
G01 X72.2763 Y24.8386
G01 X72.3190 Y24.9667
G01 X72.3447 Y25.0985
G01 X72.3534 Y25.2333
G01 X72.3447 Y25.3681
G01 X72.3190 Y25.5000
G01 X72.2763 Y25.6281
G01 X72.2181 Y25.7498
G01 X72.1444 Y25.8627
G01 X72.0571 Y25.9656
G01 X71.9573 Y26.0562
G01 X71.8468 Y26.1333
G01 X71.7270 Y26.1953
G01 X71.6004 Y26.2419
G01 X71.4689 Y26.2720
G01 X71.3351 Y26.2851
G01 X71.2003 Y26.2807
G01 X71.0669 Y26.2594
G01 X70.9380 Y26.2211
G01 X70.8143 Y26.1663
G01 X70.6990 Y26.0965
G01 X70.5937 Y26.0121
G01 X70.5001 Y25.9155
G01 X70.4191 Y25.8074
G01 X70.3532 Y25.6901
G01 X70.3023 Y25.5650
G01 X70.2683 Y25.4346
G01 X70.2509 Y25.3007
G01 X70.2509 Y25.1659
G01 X70.2683 Y25.0321
G01 X70.3023 Y24.9016
G01 X70.3532 Y24.7766
G01 X70.4191 Y24.6592
G01 X70.5001 Y24.5511
G01 X70.5937 Y24.4545
G01 X70.6990 Y24.3701
G01 X70.8143 Y24.3003
G01 X70.9380 Y24.2455
G01 X71.0669 Y24.2072
G01 X71.2003 Y24.1859
G01 X71.3351 Y24.1815
G00 Z2.0000
G00 X72.7918 Y25.2355
G01 F60.00
G01 Z-0.0500
G01 F120.00
G01 X72.7968 Y25.1302
G01 X72.8119 Y25.0283
G01 X72.8369 Y24.9284
G01 X72.8716 Y24.8314
G01 X72.9156 Y24.7383
G01 X72.9686 Y24.6500
G01 X73.0299 Y24.5673
G01 X73.0991 Y24.4910
G01 X73.1754 Y24.4218
G01 X73.2581 Y24.3604
G01 X73.3465 Y24.3075
G01 X73.4396 Y24.2635
G01 X73.5365 Y24.2288
G01 X73.6364 Y24.2037
G01 X73.7383 Y24.1886
G01 X73.8412 Y24.1836
G01 X73.9441 Y24.1886
G01 X74.0459 Y24.2037
G01 X74.1458 Y24.2288
G01 X74.2428 Y24.2635
G01 X74.3359 Y24.3075
G01 X74.4243 Y24.3604
G01 X74.5070 Y24.4218
G01 X74.5833 Y24.4910
G01 X74.6525 Y24.5673
G01 X74.7138 Y24.6500
G01 X74.7668 Y24.7383
G01 X74.8108 Y24.8314
G01 X74.8455 Y24.9284
G01 X74.8705 Y25.0283
G01 X74.8856 Y25.1302
G01 X74.8907 Y25.2331
G01 X74.8856 Y25.3359
G01 X74.8705 Y25.4378
G01 X74.8455 Y25.5377
G01 X74.8108 Y25.6347
G01 X74.7668 Y25.7278
G01 X74.7138 Y25.8161
G01 X74.6525 Y25.8988
G01 X74.5833 Y25.9752
G01 X74.5070 Y26.0443
G01 X74.4243 Y26.1057
G01 X74.3359 Y26.1586
G01 X74.2428 Y26.2027
G01 X74.1458 Y26.2374
G01 X74.0459 Y26.2624
G01 X73.9441 Y26.2775
G01 X73.8412 Y26.2825
G01 X73.7383 Y26.2775
G01 X73.6364 Y26.2624
G01 X73.5365 Y26.2374
G01 X73.4396 Y26.2027
G01 X73.3465 Y26.1586
G01 X73.2581 Y26.1057
G01 X73.1754 Y26.0443
G01 X73.0991 Y25.9752
G01 X73.0299 Y25.8988
G01 X72.9686 Y25.8161
G01 X72.9156 Y25.7278
G01 X72.8716 Y25.6347
G01 X72.8369 Y25.5377
G01 X72.8119 Y25.4378
G01 X72.7968 Y25.3359
G01 X72.7918 Y25.2355
G00 Z2.0000
G00 X73.8751 Y24.1815
G01 F60.00
G01 Z-0.0500
G01 F120.00
G01 X74.0089 Y24.1946
G01 X74.1404 Y24.2247
G01 X74.2670 Y24.2713
G01 X74.3868 Y24.3333
G01 X74.4973 Y24.4104
G01 X74.5971 Y24.5011
G01 X74.6844 Y24.6039
G01 X74.7581 Y24.7168
G01 X74.8163 Y24.8386
G01 X74.8590 Y24.9667
G01 X74.8847 Y25.0985
G01 X74.8934 Y25.2333
G01 X74.8847 Y25.3681
G01 X74.8590 Y25.5000
G01 X74.8163 Y25.6281
G01 X74.7581 Y25.7498
G01 X74.6844 Y25.8627
G01 X74.5971 Y25.9656
G01 X74.4973 Y26.0562
G01 X74.3868 Y26.1333
G01 X74.2670 Y26.1953
G01 X74.1404 Y26.2419
G01 X74.0089 Y26.2720
G01 X73.8751 Y26.2851
G01 X73.7403 Y26.2807
G01 X73.6069 Y26.2594
G01 X73.4780 Y26.2211
G01 X73.3543 Y26.1663
G01 X73.2390 Y26.0965
G01 X73.1337 Y26.0121
G01 X73.0401 Y25.9155
G01 X72.9591 Y25.8074
G01 X72.8932 Y25.6901
G01 X72.8423 Y25.5650
G01 X72.8083 Y25.4346
G01 X72.7909 Y25.3007
G01 X72.7909 Y25.1659
G01 X72.8083 Y25.0321
G01 X72.8423 Y24.9016
G01 X72.8932 Y24.7766
G01 X72.9591 Y24.6592
G01 X73.0401 Y24.5511
G01 X73.1337 Y24.4545
G01 X73.2390 Y24.3701
G01 X73.3543 Y24.3003
G01 X73.4780 Y24.2455
G01 X73.6069 Y24.2072
G01 X73.7403 Y24.1859
G01 X73.8751 Y24.1815
G00 Z2.0000
G00 X75.3318 Y25.2355
G01 F60.00
G01 Z-0.0500
G01 F120.00
G01 X75.3368 Y25.1302
G01 X75.3519 Y25.0283
G01 X75.3769 Y24.9284
G01 X75.4116 Y24.8314
G01 X75.4556 Y24.7383
G01 X75.5086 Y24.6500
G01 X75.5699 Y24.5673
G01 X75.6391 Y24.4910
G01 X75.7154 Y24.4218
G01 X75.7981 Y24.3604
G01 X75.8865 Y24.3075
G01 X75.9796 Y24.2635
G01 X76.0765 Y24.2288
G01 X76.1764 Y24.2037
G01 X76.2783 Y24.1886
G01 X76.3812 Y24.1836
G01 X76.4841 Y24.1886
G01 X76.5859 Y24.2037
G01 X76.6858 Y24.2288
G01 X76.7828 Y24.2635
G01 X76.8759 Y24.3075
G01 X76.9643 Y24.3604
G01 X77.0470 Y24.4218
G01 X77.1233 Y24.4910
G01 X77.1925 Y24.5673
G01 X77.2538 Y24.6500
G01 X77.3068 Y24.7383
G01 X77.3508 Y24.8314
G01 X77.3855 Y24.9284
G01 X77.4105 Y25.0283
G01 X77.4256 Y25.1302
G01 X77.4307 Y25.2331
G01 X77.4256 Y25.3359
G01 X77.4105 Y25.4378
G01 X77.3855 Y25.5377
G01 X77.3508 Y25.6347
G01 X77.3068 Y25.7278
G01 X77.2538 Y25.8161
G01 X77.1925 Y25.8988
G01 X77.1233 Y25.9752
G01 X77.0470 Y26.0443
G01 X76.9643 Y26.1057
G01 X76.8759 Y26.1586
G01 X76.7828 Y26.2027
G01 X76.6858 Y26.2374
G01 X76.5859 Y26.2624
G01 X76.4841 Y26.2775
G01 X76.3812 Y26.2825
G01 X76.2783 Y26.2775
G01 X76.1764 Y26.2624
G01 X76.0765 Y26.2374
G01 X75.9796 Y26.2027
G01 X75.8865 Y26.1586
G01 X75.7981 Y26.1057
G01 X75.7154 Y26.0443
G01 X75.6391 Y25.9752
G01 X75.5699 Y25.8988
G01 X75.5086 Y25.8161
G01 X75.4556 Y25.7278
G01 X75.4116 Y25.6347
G01 X75.3769 Y25.5377
G01 X75.3519 Y25.4378
G01 X75.3368 Y25.3359
G01 X75.3318 Y25.2355
G00 Z2.0000
G00 X76.4151 Y24.1815
G01 F60.00
G01 Z-0.0500
G01 F120.00
G01 X76.5489 Y24.1946
G01 X76.6804 Y24.2247
G01 X76.8070 Y24.2713
G01 X76.9268 Y24.3333
G01 X77.0373 Y24.4104
G01 X77.1371 Y24.5011
G01 X77.2244 Y24.6039
G01 X77.2981 Y24.7168
G01 X77.3563 Y24.8386
G01 X77.3990 Y24.9667
G01 X77.4247 Y25.0985
G01 X77.4334 Y25.2333
G01 X77.4247 Y25.3681
G01 X77.3990 Y25.5000
G01 X77.3563 Y25.6281
G01 X77.2981 Y25.7498
G01 X77.2244 Y25.8627
G01 X77.1371 Y25.9656
G01 X77.0373 Y26.0562
G01 X76.9268 Y26.1333
G01 X76.8070 Y26.1953
G01 X76.6804 Y26.2419
G01 X76.5489 Y26.2720
G01 X76.4151 Y26.2851
G01 X76.2803 Y26.2807
G01 X76.1469 Y26.2594
G01 X76.0180 Y26.2211
G01 X75.8943 Y26.1663
G01 X75.7790 Y26.0965
G01 X75.6737 Y26.0121
G01 X75.5801 Y25.9155
G01 X75.4991 Y25.8074
G01 X75.4332 Y25.6901
G01 X75.3823 Y25.5650
G01 X75.3483 Y25.4346
G01 X75.3309 Y25.3007
G01 X75.3309 Y25.1659
G01 X75.3483 Y25.0321
G01 X75.3823 Y24.9016
G01 X75.4332 Y24.7766
G01 X75.4991 Y24.6592
G01 X75.5801 Y24.5511
G01 X75.6737 Y24.4545
G01 X75.7790 Y24.3701
G01 X75.8943 Y24.3003
G01 X76.0180 Y24.2455
G01 X76.1469 Y24.2072
G01 X76.2803 Y24.1859
G01 X76.4151 Y24.1815
G00 Z2.0000
G00 X77.8718 Y25.2355
G01 F60.00
G01 Z-0.0500
G01 F120.00
G01 X77.8768 Y25.1302
G01 X77.8919 Y25.0283
G01 X77.9169 Y24.9284
G01 X77.9516 Y24.8314
G01 X77.9956 Y24.7383
G01 X78.0486 Y24.6500
G01 X78.1099 Y24.5673
G01 X78.1791 Y24.4910
G01 X78.2554 Y24.4218
G01 X78.3381 Y24.3604
G01 X78.4265 Y24.3075
G01 X78.5196 Y24.2635
G01 X78.6165 Y24.2288
G01 X78.7164 Y24.2037
G01 X78.8183 Y24.1886
G01 X78.9212 Y24.1836
G01 X79.0241 Y24.1886
G01 X79.1259 Y24.2037
G01 X79.2258 Y24.2288
G01 X79.3228 Y24.2635
G01 X79.4159 Y24.3075
G01 X79.5043 Y24.3604
G01 X79.5870 Y24.4218
G01 X79.6633 Y24.4910
G01 X79.7325 Y24.5673
G01 X79.7938 Y24.6500
G01 X79.8468 Y24.7383
G01 X79.8908 Y24.8314
G01 X79.9255 Y24.9284
G01 X79.9505 Y25.0283
G01 X79.9656 Y25.1302
G01 X79.9707 Y25.2331
G01 X79.9656 Y25.3359
G01 X79.9505 Y25.4378
G01 X79.9255 Y25.5377
G01 X79.8908 Y25.6347
G01 X79.8468 Y25.7278
G01 X79.7938 Y25.8161
G01 X79.7325 Y25.8988
G01 X79.6633 Y25.9752
G01 X79.5870 Y26.0443
G01 X79.5043 Y26.1057
G01 X79.4159 Y26.1586
G01 X79.3228 Y26.2027
G01 X79.2258 Y26.2374
G01 X79.1259 Y26.2624
G01 X79.0241 Y26.2775
G01 X78.9212 Y26.2825
G01 X78.8183 Y26.2775
G01 X78.7164 Y26.2624
G01 X78.6165 Y26.2374
G01 X78.5196 Y26.2027
G01 X78.4265 Y26.1586
G01 X78.3381 Y26.1057
G01 X78.2554 Y26.0443
G01 X78.1791 Y25.9752
G01 X78.1099 Y25.8988
G01 X78.0486 Y25.8161
G01 X77.9956 Y25.7278
G01 X77.9516 Y25.6347
G01 X77.9169 Y25.5377
G01 X77.8919 Y25.4378
G01 X77.8768 Y25.3359
G01 X77.8718 Y25.2355
G00 Z2.0000
G00 X78.9551 Y24.1815
G01 F60.00
G01 Z-0.0500
G01 F120.00
G01 X79.0889 Y24.1946
G01 X79.2204 Y24.2247
G01 X79.3470 Y24.2713
G01 X79.4668 Y24.3333
G01 X79.5773 Y24.4104
G01 X79.6771 Y24.5011
G01 X79.7644 Y24.6039
G01 X79.8381 Y24.7168
G01 X79.8963 Y24.8386
G01 X79.9390 Y24.9667
G01 X79.9647 Y25.0985
G01 X79.9734 Y25.2333
G01 X79.9647 Y25.3681
G01 X79.9390 Y25.5000
G01 X79.8963 Y25.6281
G01 X79.8381 Y25.7498
G01 X79.7644 Y25.8627
G01 X79.6771 Y25.9656
G01 X79.5773 Y26.0562
G01 X79.4668 Y26.1333
G01 X79.3470 Y26.1953
G01 X79.2204 Y26.2419
G01 X79.0889 Y26.2720
G01 X78.9551 Y26.2851
G01 X78.8203 Y26.2807
G01 X78.6869 Y26.2594
G01 X78.5580 Y26.2211
G01 X78.4343 Y26.1663
G01 X78.3190 Y26.0965
G01 X78.2137 Y26.0121
G01 X78.1201 Y25.9155
G01 X78.0391 Y25.8074
G01 X77.9732 Y25.6901
G01 X77.9223 Y25.5650
G01 X77.8883 Y25.4346
G01 X77.8709 Y25.3007
G01 X77.8709 Y25.1659
G01 X77.8883 Y25.0321
G01 X77.9223 Y24.9016
G01 X77.9732 Y24.7766
G01 X78.0391 Y24.6592
G01 X78.1201 Y24.5511
G01 X78.2137 Y24.4545
G01 X78.3190 Y24.3701
G01 X78.4343 Y24.3003
G01 X78.5580 Y24.2455
G01 X78.6869 Y24.2072
G01 X78.8203 Y24.1859
G01 X78.9551 Y24.1815
G00 Z2.0000
G00 X80.4118 Y25.2355
G01 F60.00
G01 Z-0.0500
G01 F120.00
G01 X80.4168 Y25.1302
G01 X80.4319 Y25.0283
G01 X80.4569 Y24.9284
G01 X80.4916 Y24.8314
G01 X80.5356 Y24.7383
G01 X80.5886 Y24.6500
G01 X80.6499 Y24.5673
G01 X80.7191 Y24.4910
G01 X80.7954 Y24.4218
G01 X80.8781 Y24.3604
G01 X80.9665 Y24.3075
G01 X81.0596 Y24.2635
G01 X81.1565 Y24.2288
G01 X81.2564 Y24.2037
G01 X81.3583 Y24.1886
G01 X81.4612 Y24.1836
G01 X81.5641 Y24.1886
G01 X81.6659 Y24.2037
G01 X81.7658 Y24.2288
G01 X81.8628 Y24.2635
G01 X81.9559 Y24.3075
G01 X82.0443 Y24.3604
G01 X82.1270 Y24.4218
G01 X82.2033 Y24.4910
G01 X82.2725 Y24.5673
G01 X82.3338 Y24.6500
G01 X82.3868 Y24.7383
G01 X82.4308 Y24.8314
G01 X82.4655 Y24.9284
G01 X82.4905 Y25.0283
G01 X82.5056 Y25.1302
G01 X82.5107 Y25.2331
G01 X82.5056 Y25.3359
G01 X82.4905 Y25.4378
G01 X82.4655 Y25.5377
G01 X82.4308 Y25.6347
G01 X82.3868 Y25.7278
G01 X82.3338 Y25.8161
G01 X82.2725 Y25.8988
G01 X82.2033 Y25.9752
G01 X82.1270 Y26.0443
G01 X82.0443 Y26.1057
G01 X81.9559 Y26.1586
G01 X81.8628 Y26.2027
G01 X81.7658 Y26.2374
G01 X81.6659 Y26.2624
G01 X81.5641 Y26.2775
G01 X81.4612 Y26.2825
G01 X81.3583 Y26.2775
G01 X81.2564 Y26.2624
G01 X81.1565 Y26.2374
G01 X81.0596 Y26.2027
G01 X80.9665 Y26.1586
G01 X80.8781 Y26.1057
G01 X80.7954 Y26.0443
G01 X80.7191 Y25.9752
G01 X80.6499 Y25.8988
G01 X80.5886 Y25.8161
G01 X80.5356 Y25.7278
G01 X80.4916 Y25.6347
G01 X80.4569 Y25.5377
G01 X80.4319 Y25.4378
G01 X80.4168 Y25.3359
G01 X80.4118 Y25.2355
G00 Z2.0000
G00 X81.4951 Y24.1815
G01 F60.00
G01 Z-0.0500
G01 F120.00
G01 X81.6289 Y24.1946
G01 X81.7604 Y24.2247
G01 X81.8870 Y24.2713
G01 X82.0068 Y24.3333
G01 X82.1173 Y24.4104
G01 X82.2171 Y24.5011
G01 X82.3044 Y24.6039
G01 X82.3781 Y24.7168
G01 X82.4363 Y24.8386
G01 X82.4790 Y24.9667
G01 X82.5047 Y25.0985
G01 X82.5134 Y25.2333
G01 X82.5047 Y25.3681
G01 X82.4790 Y25.5000
G01 X82.4363 Y25.6281
G01 X82.3781 Y25.7498
G01 X82.3044 Y25.8627
G01 X82.2171 Y25.9656
G01 X82.1173 Y26.0562
G01 X82.0068 Y26.1333
G01 X81.8870 Y26.1953
G01 X81.7604 Y26.2419
G01 X81.6289 Y26.2720
G01 X81.4951 Y26.2851
G01 X81.3603 Y26.2807
G01 X81.2269 Y26.2594
G01 X81.0980 Y26.2211
G01 X80.9743 Y26.1663
G01 X80.8590 Y26.0965
G01 X80.7537 Y26.0121
G01 X80.6601 Y25.9155
G01 X80.5791 Y25.8074
G01 X80.5132 Y25.6901
G01 X80.4623 Y25.5650
G01 X80.4283 Y25.4346
G01 X80.4109 Y25.3007
G01 X80.4109 Y25.1659
G01 X80.4283 Y25.0321
G01 X80.4623 Y24.9016
G01 X80.5132 Y24.7766
G01 X80.5791 Y24.6592
G01 X80.6601 Y24.5511
G01 X80.7537 Y24.4545
G01 X80.8590 Y24.3701
G01 X80.9743 Y24.3003
G01 X81.0980 Y24.2455
G01 X81.2269 Y24.2072
G01 X81.3603 Y24.1859
G01 X81.4951 Y24.1815
G00 Z2.0000
G00 X82.9518 Y25.2355
G01 F60.00
G01 Z-0.0500
G01 F120.00
G01 X82.9568 Y25.1302
G01 X82.9719 Y25.0283
G01 X82.9969 Y24.9284
G01 X83.0316 Y24.8314
G01 X83.0756 Y24.7383
G01 X83.1286 Y24.6500
G01 X83.1899 Y24.5673
G01 X83.2591 Y24.4910
G01 X83.3354 Y24.4218
G01 X83.4181 Y24.3604
G01 X83.5065 Y24.3075
G01 X83.5996 Y24.2635
G01 X83.6965 Y24.2288
G01 X83.7964 Y24.2037
G01 X83.8983 Y24.1886
G01 X84.0012 Y24.1836
G01 X84.1041 Y24.1886
G01 X84.2059 Y24.2037
G01 X84.3058 Y24.2288
G01 X84.4028 Y24.2635
G01 X84.4959 Y24.3075
G01 X84.5843 Y24.3604
G01 X84.6670 Y24.4218
G01 X84.7433 Y24.4910
G01 X84.8125 Y24.5673
G01 X84.8738 Y24.6500
G01 X84.9268 Y24.7383
G01 X84.9708 Y24.8314
G01 X85.0055 Y24.9284
G01 X85.0305 Y25.0283
G01 X85.0456 Y25.1302
G01 X85.0507 Y25.2331
G01 X85.0456 Y25.3359
G01 X85.0305 Y25.4378
G01 X85.0055 Y25.5377
G01 X84.9708 Y25.6347
G01 X84.9268 Y25.7278
G01 X84.8738 Y25.8161
G01 X84.8125 Y25.8988
G01 X84.7433 Y25.9752
G01 X84.6670 Y26.0443
G01 X84.5843 Y26.1057
G01 X84.4959 Y26.1586
G01 X84.4028 Y26.2027
G01 X84.3058 Y26.2374
G01 X84.2059 Y26.2624
G01 X84.1041 Y26.2775
G01 X84.0012 Y26.2825
G01 X83.8983 Y26.2775
G01 X83.7964 Y26.2624
G01 X83.6965 Y26.2374
G01 X83.5996 Y26.2027
G01 X83.5065 Y26.1586
G01 X83.4181 Y26.1057
G01 X83.3354 Y26.0443
G01 X83.2591 Y25.9752
G01 X83.1899 Y25.8988
G01 X83.1286 Y25.8161
G01 X83.0756 Y25.7278
G01 X83.0316 Y25.6347
G01 X82.9969 Y25.5377
G01 X82.9719 Y25.4378
G01 X82.9568 Y25.3359
G01 X82.9518 Y25.2355
G00 Z2.0000
G00 X84.0351 Y24.1815
G01 F60.00
G01 Z-0.0500
G01 F120.00
G01 X84.1689 Y24.1946
G01 X84.3004 Y24.2247
G01 X84.4270 Y24.2713
G01 X84.5468 Y24.3333
G01 X84.6573 Y24.4104
G01 X84.7571 Y24.5011
G01 X84.8444 Y24.6039
G01 X84.9181 Y24.7168
G01 X84.9763 Y24.8386
G01 X85.0190 Y24.9667
G01 X85.0447 Y25.0985
G01 X85.0534 Y25.2333
G01 X85.0447 Y25.3681
G01 X85.0190 Y25.5000
G01 X84.9763 Y25.6281
G01 X84.9181 Y25.7498
G01 X84.8444 Y25.8627
G01 X84.7571 Y25.9656
G01 X84.6573 Y26.0562
G01 X84.5468 Y26.1333
G01 X84.4270 Y26.1953
G01 X84.3004 Y26.2419
G01 X84.1689 Y26.2720
G01 X84.0351 Y26.2851
G01 X83.9003 Y26.2807
G01 X83.7669 Y26.2594
G01 X83.6380 Y26.2211
G01 X83.5143 Y26.1663
G01 X83.3990 Y26.0965
G01 X83.2937 Y26.0121
G01 X83.2001 Y25.9155
G01 X83.1191 Y25.8074
G01 X83.0532 Y25.6901
G01 X83.0023 Y25.5650
G01 X82.9683 Y25.4346
G01 X82.9509 Y25.3007
G01 X82.9509 Y25.1659
G01 X82.9683 Y25.0321
G01 X83.0023 Y24.9016
G01 X83.0532 Y24.7766
G01 X83.1191 Y24.6592
G01 X83.2001 Y24.5511
G01 X83.2937 Y24.4545
G01 X83.3990 Y24.3701
G01 X83.5143 Y24.3003
G01 X83.6380 Y24.2455
G01 X83.7669 Y24.2072
G01 X83.9003 Y24.1859
G01 X84.0351 Y24.1815
G00 Z2.0000
G00 X85.9278 Y24.3191
G01 F60.00
G01 Z-0.0500
G01 F120.00
G01 X85.9278 Y24.3828
G01 X85.8754 Y24.4218
G01 X85.7991 Y24.4910
G01 X85.7299 Y24.5673
G01 X85.6908 Y24.6199
G01 X85.6276 Y24.6199
G01 X85.6495 Y24.5856
G01 X85.7375 Y24.4787
G01 X85.8385 Y24.3839
G01 X85.9278 Y24.3191
G00 Z2.0000
G00 X87.1546 Y24.3191
G01 F60.00
G01 Z-0.0500
G01 F120.00
G01 X87.2438 Y24.3839
G01 X87.3449 Y24.4787
G01 X87.4328 Y24.5856
G01 X87.4548 Y24.6199
G01 X87.3916 Y24.6199
G01 X87.3525 Y24.5673
G01 X87.2833 Y24.4910
G01 X87.2070 Y24.4218
G01 X87.1546 Y24.3828
G01 X87.1546 Y24.3191
G00 Z2.0000
G00 X87.1546 Y26.1475
G01 F60.00
G01 Z-0.0500
G01 F120.00
G01 X87.1546 Y26.0833
G01 X87.2070 Y26.0443
G01 X87.2833 Y25.9752
G01 X87.3525 Y25.8988
G01 X87.3912 Y25.8467
G01 X87.4548 Y25.8467
G01 X87.4328 Y25.8810
G01 X87.3449 Y25.9880
G01 X87.2438 Y26.0827
G01 X87.1546 Y26.1475
G00 Z2.0000
G00 X85.6912 Y25.8467
G01 F60.00
G01 Z-0.0500
G01 F120.00
G01 X85.7299 Y25.8988
G01 X85.7991 Y25.9752
G01 X85.8754 Y26.0443
G01 X85.9278 Y26.0833
G01 X85.9278 Y26.1475
G01 X85.8385 Y26.0827
G01 X85.7375 Y25.9880
G01 X85.6495 Y25.8810
G01 X85.6276 Y25.8467
G01 X85.6912 Y25.8467
G00 Z2.0000
G00 X83.3608 Y18.9482
G01 F60.00
G01 Z-0.0500
G01 F120.00
G01 X83.4805 Y18.8594
G01 X83.5932 Y18.7572
G01 X83.6953 Y18.6445
G01 X83.7841 Y18.5249
G01 X83.8446 Y18.5249
G01 X83.7837 Y18.6167
G01 X83.6748 Y18.7483
G01 X83.5527 Y18.8674
G01 X83.4182 Y18.9724
G01 X83.3608 Y19.0084
G01 X83.3608 Y18.9482
G00 Z2.0000
G00 X81.2104 Y18.5249
G01 F60.00
G01 Z-0.0500
G01 F120.00
G01 X81.2992 Y18.6445
G01 X81.4013 Y18.7572
G01 X81.5140 Y18.8594
G01 X81.6337 Y18.9482
G01 X81.6337 Y19.0101
G01 X81.5078 Y18.9217
G01 X81.3792 Y18.8093
G01 X81.2635 Y18.6842
G01 X81.1621 Y18.5473
G01 X81.1489 Y18.5249
G01 X81.2104 Y18.5249
G00 Z2.0000
G00 X81.2104 Y16.7978
G01 F60.00
G01 Z-0.0500
G01 F120.00
G01 X81.1489 Y16.7978
G01 X81.1621 Y16.7753
G01 X81.2635 Y16.6384
G01 X81.3792 Y16.5133
G01 X81.5078 Y16.4010
G01 X81.6337 Y16.3125
G01 X81.6337 Y16.3744
G01 X81.5140 Y16.4633
G01 X81.4013 Y16.5654
G01 X81.2992 Y16.6781
G01 X81.2104 Y16.7978
G00 Z2.0000
G00 X83.3608 Y16.3143
G01 F60.00
G01 Z-0.0500
G01 F120.00
G01 X83.4182 Y16.3503
G01 X83.5527 Y16.4552
G01 X83.6748 Y16.5743
G01 X83.7837 Y16.7059
G01 X83.8446 Y16.7978
G01 X83.7841 Y16.7978
G01 X83.6953 Y16.6781
G01 X83.5932 Y16.5654
G01 X83.4805 Y16.4633
G01 X83.3608 Y16.3744
G01 X83.3608 Y16.3143
G00 Z2.0000
G00 X86.0274 Y17.6638
G01 F60.00
G01 Z-0.0500
G01 F120.00
G01 X86.0348 Y17.5094
G01 X86.0572 Y17.3590
G01 X86.0941 Y17.2114
G01 X86.1454 Y17.0682
G01 X86.2104 Y16.9307
G01 X86.2886 Y16.8003
G01 X86.3792 Y16.6781
G01 X86.4813 Y16.5654
G01 X86.5940 Y16.4633
G01 X86.7162 Y16.3727
G01 X86.8467 Y16.2945
G01 X86.9841 Y16.2294
G01 X87.1274 Y16.1782
G01 X87.2749 Y16.1412
G01 X87.4253 Y16.1189
G01 X87.5773 Y16.1115
G01 X87.7292 Y16.1189
G01 X87.8796 Y16.1412
G01 X88.0272 Y16.1782
G01 X88.1704 Y16.2294
G01 X88.3079 Y16.2945
G01 X88.4383 Y16.3727
G01 X88.5605 Y16.4633
G01 X88.6732 Y16.5654
G01 X88.7753 Y16.6781
G01 X88.8659 Y16.8003
G01 X88.9441 Y16.9307
G01 X89.0091 Y17.0682
G01 X89.0604 Y17.2114
G01 X89.0973 Y17.3590
G01 X89.1197 Y17.5094
G01 X89.1271 Y17.6613
G01 X89.1197 Y17.8132
G01 X89.0973 Y17.9637
G01 X89.0604 Y18.1112
G01 X89.0091 Y18.2544
G01 X88.9441 Y18.3919
G01 X88.8659 Y18.5224
G01 X88.7753 Y18.6445
G01 X88.6732 Y18.7572
G01 X88.5605 Y18.8594
G01 X88.4383 Y18.9500
G01 X88.3079 Y19.0282
G01 X88.1704 Y19.0932
G01 X88.0272 Y19.1444
G01 X87.8796 Y19.1814
G01 X87.7292 Y19.2037
G01 X87.5773 Y19.2112
G01 X87.4253 Y19.2037
G01 X87.2749 Y19.1814
G01 X87.1274 Y19.1444
G01 X86.9841 Y19.0932
G01 X86.8467 Y19.0282
G01 X86.7162 Y18.9500
G01 X86.5940 Y18.8594
G01 X86.4813 Y18.7572
G01 X86.3792 Y18.6445
G01 X86.2886 Y18.5224
G01 X86.2104 Y18.3919
G01 X86.1454 Y18.2544
G01 X86.0941 Y18.1112
G01 X86.0572 Y17.9637
G01 X86.0348 Y17.8132
G01 X86.0274 Y17.6638
G00 Z2.0000
G00 X87.6612 Y16.1114
G01 F60.00
G01 Z-0.0500
G01 F120.00
G01 X87.8285 Y16.1296
G01 X87.9924 Y16.1655
G01 X88.1518 Y16.2192
G01 X88.3044 Y16.2895
G01 X88.4486 Y16.3766
G01 X88.5825 Y16.4780
G01 X88.7045 Y16.5936
G01 X88.8132 Y16.7221
G01 X88.9072 Y16.8609
G01 X88.9860 Y17.0095
G01 X89.0485 Y17.1655
G01 X89.0932 Y17.3274
G01 X89.1203 Y17.4933
G01 X89.1297 Y17.6611
G01 X89.1203 Y17.8294
G01 X89.0932 Y17.9953
G01 X89.0485 Y18.1571
G01 X88.9860 Y18.3131
G01 X88.9072 Y18.4618
G01 X88.8132 Y18.6006
G01 X88.7045 Y18.7290
G01 X88.5825 Y18.8446
G01 X88.4486 Y18.9460
G01 X88.3044 Y19.0326
G01 X88.1518 Y19.1035
G01 X87.9924 Y19.1571
G01 X87.8285 Y19.1931
G01 X87.6612 Y19.2113
G01 X87.4934 Y19.2113
G01 X87.3260 Y19.1931
G01 X87.1616 Y19.1571
G01 X87.0028 Y19.1035
G01 X86.8502 Y19.0326
G01 X86.7059 Y18.9460
G01 X86.5721 Y18.8446
G01 X86.4501 Y18.7290
G01 X86.3413 Y18.6005
G01 X86.2468 Y18.4617
G01 X86.1681 Y18.3132
G01 X86.1061 Y18.1572
G01 X86.0612 Y17.9952
G01 X86.0337 Y17.8294
G01 X86.0248 Y17.6611
G01 X86.0337 Y17.4933
G01 X86.0612 Y17.3274
G01 X86.1061 Y17.1655
G01 X86.1681 Y17.0095
G01 X86.2468 Y16.8609
G01 X86.3413 Y16.7221
G01 X86.4501 Y16.5936
G01 X86.5721 Y16.4780
G01 X86.7059 Y16.3766
G01 X86.8502 Y16.2895
G01 X87.0027 Y16.2191
G01 X87.1616 Y16.1655
G01 X87.3260 Y16.1296
G01 X87.4934 Y16.1114
G01 X87.6612 Y16.1114
G00 Z2.0000
G00 X94.2958 Y15.4210
G01 F60.00
G01 Z-0.0500
G01 F120.00
G01 X94.3282 Y15.4747
G01 X94.4757 Y15.6737
G01 X94.6445 Y15.8600
G01 X94.8309 Y16.0288
G01 X95.0298 Y16.1763
G01 X95.0835 Y16.2087
G01 X95.0835 Y16.2738
G01 X94.8996 Y16.1496
G01 X94.7276 Y16.0111
G01 X94.5682 Y15.8581
G01 X94.4222 Y15.6921
G01 X94.2911 Y15.5147
G01 X94.2334 Y15.4210
G01 X94.2958 Y15.4210
G00 Z2.0000
G00 X95.0835 Y11.8408
G01 F60.00
G01 Z-0.0500
G01 F120.00
G01 X95.0835 Y11.9060
G01 X95.0298 Y11.9383
G01 X94.8309 Y12.0859
G01 X94.6463 Y12.2530
G01 X94.4757 Y12.4410
G01 X94.3282 Y12.6400
G01 X94.2958 Y12.6936
G01 X94.2334 Y12.6936
G01 X94.2911 Y12.5999
G01 X94.4222 Y12.4225
G01 X94.5682 Y12.2565
G01 X94.7276 Y12.1035
G01 X94.8996 Y11.9650
G01 X95.0835 Y11.8408
G00 Z2.0000
G00 X97.8109 Y11.8408
G01 F60.00
G01 Z-0.0500
G01 F120.00
G01 X97.9948 Y11.9650
G01 X98.1667 Y12.1035
G01 X98.3262 Y12.2565
G01 X98.4722 Y12.4225
G01 X98.6033 Y12.5999
G01 X98.6610 Y12.6936
G01 X98.5985 Y12.6936
G01 X98.5662 Y12.6400
G01 X98.4186 Y12.4410
G01 X98.2481 Y12.2530
G01 X98.0635 Y12.0859
G01 X97.8645 Y11.9383
G01 X97.8109 Y11.9060
G01 X97.8109 Y11.8408
G00 Z2.0000
G00 X98.6610 Y15.4210
G01 F60.00
G01 Z-0.0500
G01 F120.00
G01 X98.6033 Y15.5147
G01 X98.4722 Y15.6921
G01 X98.3262 Y15.8581
G01 X98.1667 Y16.0111
G01 X97.9948 Y16.1496
G01 X97.8109 Y16.2738
G01 X97.8109 Y16.2086
G01 X97.8645 Y16.1763
G01 X98.0635 Y16.0288
G01 X98.2481 Y15.8617
G01 X98.4186 Y15.6737
G01 X98.5662 Y15.4747
G01 X98.5985 Y15.4210
G01 X98.6610 Y15.4210
G00 Z2.0000
G00 X101.2451 Y21.3864
G01 F60.00
G01 Z-0.0500
G01 F120.00
G01 X101.2728 Y21.3911
G01 X101.2873 Y21.3984
G01 X101.2981 Y21.4092
G01 X101.3053 Y21.4235
G01 X101.3096 Y21.4511
G01 X101.3096 Y23.4276
G01 X101.3053 Y23.4552
G01 X101.2981 Y23.4694
G01 X101.2873 Y23.4803
G01 X101.2730 Y23.4874
G01 X101.2454 Y23.4917
G01 X99.2689 Y23.4917
G01 X99.2413 Y23.4874
G01 X99.2271 Y23.4803
G01 X99.2163 Y23.4694
G01 X99.2090 Y23.4549
G01 X99.2043 Y23.4272
G01 X99.2043 Y21.4514
G01 X99.2090 Y21.4238
G01 X99.2163 Y21.4092
G01 X99.2271 Y21.3984
G01 X99.2416 Y21.3911
G01 X99.2693 Y21.3864
G01 X101.2451 Y21.3864
G00 Z2.0000
G00 X101.2567 Y21.3898
G01 F60.00
G01 Z-0.0500
G01 F120.00
G01 X101.2664 Y21.3908
G01 X101.2758 Y21.3936
G01 X101.2845 Y21.3983
G01 X101.2920 Y21.4045
G01 X101.2982 Y21.4120
G01 X101.3029 Y21.4207
G01 X101.3055 Y21.4289
G01 X101.3067 Y21.4386
G01 X101.3067 Y23.4388
G01 X101.3057 Y23.4486
G01 X101.3029 Y23.4579
G01 X101.2982 Y23.4666
G01 X101.2929 Y23.4733
G01 X101.2855 Y23.4797
G01 X101.2813 Y23.4823
G01 X101.2758 Y23.4850
G01 X101.2664 Y23.4878
G01 X101.2567 Y23.4888
G01 X99.2577 Y23.4888
G01 X99.2479 Y23.4878
G01 X99.2386 Y23.4850
G01 X99.2310 Y23.4810
G01 X99.2232 Y23.4750
G01 X99.2168 Y23.4676
G01 X99.2136 Y23.4624
G01 X99.2115 Y23.4579
G01 X99.2087 Y23.4486
G01 X99.2077 Y23.4388
G01 X99.2077 Y21.4398
G01 X99.2087 Y21.4301
G01 X99.2115 Y21.4207
G01 X99.2161 Y21.4120
G01 X99.2215 Y21.4053
G01 X99.2289 Y21.3989
G01 X99.2341 Y21.3957
G01 X99.2386 Y21.3936
G01 X99.2479 Y21.3908
G01 X99.2577 Y21.3898
G01 X101.2567 Y21.3898
G00 Z2.0000
G00 X101.7478 Y22.4418
G01 F60.00
G01 Z-0.0500
G01 F120.00
G01 X101.7528 Y22.3364
G01 X101.7679 Y22.2346
G01 X101.7929 Y22.1347
G01 X101.8276 Y22.0377
G01 X101.8716 Y21.9446
G01 X101.9246 Y21.8562
G01 X101.9859 Y21.7735
G01 X102.0551 Y21.6972
G01 X102.1314 Y21.6280
G01 X102.2141 Y21.5667
G01 X102.3025 Y21.5137
G01 X102.3956 Y21.4697
G01 X102.4925 Y21.4350
G01 X102.5924 Y21.4100
G01 X102.6943 Y21.3949
G01 X102.7972 Y21.3898
G01 X102.9001 Y21.3949
G01 X103.0019 Y21.4100
G01 X103.1018 Y21.4350
G01 X103.1988 Y21.4697
G01 X103.2919 Y21.5137
G01 X103.3803 Y21.5667
G01 X103.4630 Y21.6280
G01 X103.5393 Y21.6972
G01 X103.6085 Y21.7735
G01 X103.6698 Y21.8562
G01 X103.7228 Y21.9446
G01 X103.7668 Y22.0377
G01 X103.8015 Y22.1347
G01 X103.8265 Y22.2346
G01 X103.8416 Y22.3364
G01 X103.8467 Y22.4393
G01 X103.8416 Y22.5422
G01 X103.8265 Y22.6441
G01 X103.8015 Y22.7440
G01 X103.7668 Y22.8409
G01 X103.7228 Y22.9340
G01 X103.6698 Y23.0224
G01 X103.6085 Y23.1051
G01 X103.5393 Y23.1814
G01 X103.4630 Y23.2506
G01 X103.3803 Y23.3119
G01 X103.2919 Y23.3649
G01 X103.1988 Y23.4089
G01 X103.1018 Y23.4436
G01 X103.0019 Y23.4686
G01 X102.9001 Y23.4837
G01 X102.7972 Y23.4888
G01 X102.6943 Y23.4837
G01 X102.5924 Y23.4686
G01 X102.4925 Y23.4436
G01 X102.3956 Y23.4089
G01 X102.3025 Y23.3649
G01 X102.2141 Y23.3119
G01 X102.1314 Y23.2506
G01 X102.0551 Y23.1814
G01 X101.9859 Y23.1051
G01 X101.9246 Y23.0224
G01 X101.8716 Y22.9340
G01 X101.8276 Y22.8409
G01 X101.7929 Y22.7440
G01 X101.7679 Y22.6441
G01 X101.7528 Y22.5422
G01 X101.7478 Y22.4418
G00 Z2.0000
G00 X102.8311 Y21.3875
G01 F60.00
G01 Z-0.0500
G01 F120.00
G01 X102.9649 Y21.4006
G01 X103.0964 Y21.4307
G01 X103.2230 Y21.4773
G01 X103.3428 Y21.5393
G01 X103.4533 Y21.6164
G01 X103.5531 Y21.7071
G01 X103.6404 Y21.8099
G01 X103.7141 Y21.9228
G01 X103.7723 Y22.0446
G01 X103.8150 Y22.1727
G01 X103.8407 Y22.3045
G01 X103.8494 Y22.4393
G01 X103.8407 Y22.5741
G01 X103.8150 Y22.7060
G01 X103.7723 Y22.8341
G01 X103.7141 Y22.9558
G01 X103.6404 Y23.0687
G01 X103.5531 Y23.1716
G01 X103.4533 Y23.2622
G01 X103.3428 Y23.3393
G01 X103.2230 Y23.4013
G01 X103.0964 Y23.4479
G01 X102.9649 Y23.4780
G01 X102.8311 Y23.4911
G01 X102.6963 Y23.4867
G01 X102.5629 Y23.4654
G01 X102.4340 Y23.4271
G01 X102.3103 Y23.3723
G01 X102.1950 Y23.3025
G01 X102.0897 Y23.2181
G01 X101.9961 Y23.1215
G01 X101.9151 Y23.0134
G01 X101.8492 Y22.8961
G01 X101.7983 Y22.7710
G01 X101.7643 Y22.6406
G01 X101.7469 Y22.5067
G01 X101.7469 Y22.3719
G01 X101.7643 Y22.2381
G01 X101.7983 Y22.1076
G01 X101.8492 Y21.9825
G01 X101.9151 Y21.8652
G01 X101.9961 Y21.7571
G01 X102.0897 Y21.6605
G01 X102.1950 Y21.5761
G01 X102.3103 Y21.5063
G01 X102.4340 Y21.4515
G01 X102.5629 Y21.4132
G01 X102.6963 Y21.3919
G01 X102.8311 Y21.3875
G00 Z2.0000
G00 X104.2878 Y22.4418
G01 F60.00
G01 Z-0.0500
G01 F120.00
G01 X104.2928 Y22.3364
G01 X104.3079 Y22.2346
G01 X104.3329 Y22.1347
G01 X104.3676 Y22.0377
G01 X104.4116 Y21.9446
G01 X104.4646 Y21.8562
G01 X104.5259 Y21.7735
G01 X104.5951 Y21.6972
G01 X104.6714 Y21.6280
G01 X104.7541 Y21.5667
G01 X104.8425 Y21.5137
G01 X104.9356 Y21.4697
G01 X105.0325 Y21.4350
G01 X105.1324 Y21.4100
G01 X105.2343 Y21.3949
G01 X105.3372 Y21.3898
G01 X105.4401 Y21.3949
G01 X105.5419 Y21.4100
G01 X105.6418 Y21.4350
G01 X105.7388 Y21.4697
G01 X105.8319 Y21.5137
G01 X105.9203 Y21.5667
G01 X106.0030 Y21.6280
G01 X106.0793 Y21.6972
G01 X106.1485 Y21.7735
G01 X106.2098 Y21.8562
G01 X106.2628 Y21.9446
G01 X106.3068 Y22.0377
G01 X106.3415 Y22.1347
G01 X106.3665 Y22.2346
G01 X106.3816 Y22.3364
G01 X106.3867 Y22.4393
G01 X106.3816 Y22.5422
G01 X106.3665 Y22.6441
G01 X106.3415 Y22.7440
G01 X106.3068 Y22.8409
G01 X106.2628 Y22.9340
G01 X106.2098 Y23.0224
G01 X106.1485 Y23.1051
G01 X106.0793 Y23.1814
G01 X106.0030 Y23.2506
G01 X105.9203 Y23.3119
G01 X105.8319 Y23.3649
G01 X105.7388 Y23.4089
G01 X105.6418 Y23.4436
G01 X105.5419 Y23.4686
G01 X105.4401 Y23.4837
G01 X105.3372 Y23.4888
G01 X105.2343 Y23.4837
G01 X105.1324 Y23.4686
G01 X105.0325 Y23.4436
G01 X104.9356 Y23.4089
G01 X104.8425 Y23.3649
G01 X104.7541 Y23.3119
G01 X104.6714 Y23.2506
G01 X104.5951 Y23.1814
G01 X104.5259 Y23.1051
G01 X104.4646 Y23.0224
G01 X104.4116 Y22.9340
G01 X104.3676 Y22.8409
G01 X104.3329 Y22.7440
G01 X104.3079 Y22.6441
G01 X104.2928 Y22.5422
G01 X104.2878 Y22.4418
G00 Z2.0000
G00 X105.3711 Y21.3875
G01 F60.00
G01 Z-0.0500
G01 F120.00
G01 X105.5049 Y21.4006
G01 X105.6364 Y21.4307
G01 X105.7630 Y21.4773
G01 X105.8828 Y21.5393
G01 X105.9933 Y21.6164
G01 X106.0931 Y21.7071
G01 X106.1804 Y21.8099
G01 X106.2541 Y21.9228
G01 X106.3123 Y22.0446
G01 X106.3550 Y22.1727
G01 X106.3807 Y22.3045
G01 X106.3894 Y22.4393
G01 X106.3807 Y22.5741
G01 X106.3550 Y22.7060
G01 X106.3123 Y22.8341
G01 X106.2541 Y22.9558
G01 X106.1804 Y23.0687
G01 X106.0931 Y23.1716
G01 X105.9933 Y23.2622
G01 X105.8828 Y23.3393
G01 X105.7630 Y23.4013
G01 X105.6364 Y23.4479
G01 X105.5049 Y23.4780
G01 X105.3711 Y23.4911
G01 X105.2363 Y23.4867
G01 X105.1029 Y23.4654
G01 X104.9740 Y23.4271
G01 X104.8503 Y23.3723
G01 X104.7350 Y23.3025
G01 X104.6297 Y23.2181
G01 X104.5361 Y23.1215
G01 X104.4551 Y23.0134
G01 X104.3892 Y22.8961
G01 X104.3383 Y22.7710
G01 X104.3043 Y22.6406
G01 X104.2869 Y22.5067
G01 X104.2869 Y22.3719
G01 X104.3043 Y22.2381
G01 X104.3383 Y22.1076
G01 X104.3892 Y21.9825
G01 X104.4551 Y21.8652
G01 X104.5361 Y21.7571
G01 X104.6297 Y21.6605
G01 X104.7350 Y21.5761
G01 X104.8503 Y21.5063
G01 X104.9740 Y21.4515
G01 X105.1029 Y21.4132
G01 X105.2363 Y21.3919
G01 X105.3711 Y21.3875
G00 Z2.0000
G00 X106.8278 Y22.4418
G01 F60.00
G01 Z-0.0500
G01 F120.00
G01 X106.8328 Y22.3364
G01 X106.8479 Y22.2346
G01 X106.8729 Y22.1347
G01 X106.9076 Y22.0377
G01 X106.9516 Y21.9446
G01 X107.0046 Y21.8562
G01 X107.0659 Y21.7735
G01 X107.1351 Y21.6972
G01 X107.2114 Y21.6280
G01 X107.2941 Y21.5667
G01 X107.3825 Y21.5137
G01 X107.4756 Y21.4697
G01 X107.5725 Y21.4350
G01 X107.6724 Y21.4100
G01 X107.7743 Y21.3949
G01 X107.8772 Y21.3898
G01 X107.9801 Y21.3949
G01 X108.0819 Y21.4100
G01 X108.1818 Y21.4350
G01 X108.2788 Y21.4697
G01 X108.3719 Y21.5137
G01 X108.4603 Y21.5667
G01 X108.5430 Y21.6280
G01 X108.6193 Y21.6972
G01 X108.6885 Y21.7735
G01 X108.7498 Y21.8562
G01 X108.8028 Y21.9446
G01 X108.8468 Y22.0377
G01 X108.8815 Y22.1347
G01 X108.9065 Y22.2346
G01 X108.9216 Y22.3364
G01 X108.9267 Y22.4393
G01 X108.9216 Y22.5422
G01 X108.9065 Y22.6441
G01 X108.8815 Y22.7440
G01 X108.8468 Y22.8409
G01 X108.8028 Y22.9340
G01 X108.7498 Y23.0224
G01 X108.6885 Y23.1051
G01 X108.6193 Y23.1814
G01 X108.5430 Y23.2506
G01 X108.4603 Y23.3119
G01 X108.3719 Y23.3649
G01 X108.2788 Y23.4089
G01 X108.1818 Y23.4436
G01 X108.0819 Y23.4686
G01 X107.9801 Y23.4837
G01 X107.8772 Y23.4888
G01 X107.7743 Y23.4837
G01 X107.6724 Y23.4686
G01 X107.5725 Y23.4436
G01 X107.4756 Y23.4089
G01 X107.3825 Y23.3649
G01 X107.2941 Y23.3119
G01 X107.2114 Y23.2506
G01 X107.1351 Y23.1814
G01 X107.0659 Y23.1051
G01 X107.0046 Y23.0224
G01 X106.9516 Y22.9340
G01 X106.9076 Y22.8409
G01 X106.8729 Y22.7440
G01 X106.8479 Y22.6441
G01 X106.8328 Y22.5422
G01 X106.8278 Y22.4418
G00 Z2.0000
G00 X107.9111 Y21.3875
G01 F60.00
G01 Z-0.0500
G01 F120.00
G01 X108.0449 Y21.4006
G01 X108.1764 Y21.4307
G01 X108.3030 Y21.4773
G01 X108.4228 Y21.5393
G01 X108.5333 Y21.6164
G01 X108.6331 Y21.7071
G01 X108.7204 Y21.8099
G01 X108.7941 Y21.9228
G01 X108.8523 Y22.0446
G01 X108.8950 Y22.1727
G01 X108.9207 Y22.3045
G01 X108.9294 Y22.4393
G01 X108.9207 Y22.5741
G01 X108.8950 Y22.7060
G01 X108.8523 Y22.8341
G01 X108.7941 Y22.9558
G01 X108.7204 Y23.0687
G01 X108.6331 Y23.1716
G01 X108.5333 Y23.2622
G01 X108.4228 Y23.3393
G01 X108.3030 Y23.4013
G01 X108.1764 Y23.4479
G01 X108.0449 Y23.4780
G01 X107.9111 Y23.4911
G01 X107.7763 Y23.4867
G01 X107.6429 Y23.4654
G01 X107.5140 Y23.4271
G01 X107.3903 Y23.3723
G01 X107.2750 Y23.3025
G01 X107.1697 Y23.2181
G01 X107.0761 Y23.1215
G01 X106.9951 Y23.0134
G01 X106.9292 Y22.8961
G01 X106.8783 Y22.7710
G01 X106.8443 Y22.6406
G01 X106.8269 Y22.5067
G01 X106.8269 Y22.3719
G01 X106.8443 Y22.2381
G01 X106.8783 Y22.1076
G01 X106.9292 Y21.9825
G01 X106.9951 Y21.8652
G01 X107.0761 Y21.7571
G01 X107.1697 Y21.6605
G01 X107.2750 Y21.5761
G01 X107.3903 Y21.5063
G01 X107.5140 Y21.4515
G01 X107.6429 Y21.4132
G01 X107.7763 Y21.3919
G01 X107.9111 Y21.3875
G00 Z2.0000
G00 X109.3678 Y22.4418
G01 F60.00
G01 Z-0.0500
G01 F120.00
G01 X109.3728 Y22.3364
G01 X109.3879 Y22.2346
G01 X109.4129 Y22.1347
G01 X109.4476 Y22.0377
G01 X109.4916 Y21.9446
G01 X109.5446 Y21.8562
G01 X109.6059 Y21.7735
G01 X109.6751 Y21.6972
G01 X109.7514 Y21.6280
G01 X109.8341 Y21.5667
G01 X109.9225 Y21.5137
G01 X110.0156 Y21.4697
G01 X110.1125 Y21.4350
G01 X110.2124 Y21.4100
G01 X110.3143 Y21.3949
G01 X110.4172 Y21.3898
G01 X110.5201 Y21.3949
G01 X110.6219 Y21.4100
G01 X110.7218 Y21.4350
G01 X110.8188 Y21.4697
G01 X110.9119 Y21.5137
G01 X111.0003 Y21.5667
G01 X111.0830 Y21.6280
G01 X111.1593 Y21.6972
G01 X111.2285 Y21.7735
G01 X111.2898 Y21.8562
G01 X111.3428 Y21.9446
G01 X111.3868 Y22.0377
G01 X111.4215 Y22.1347
G01 X111.4465 Y22.2346
G01 X111.4616 Y22.3364
G01 X111.4667 Y22.4393
G01 X111.4616 Y22.5422
G01 X111.4465 Y22.6441
G01 X111.4215 Y22.7440
G01 X111.3868 Y22.8409
G01 X111.3428 Y22.9340
G01 X111.2898 Y23.0224
G01 X111.2285 Y23.1051
G01 X111.1593 Y23.1814
G01 X111.0830 Y23.2506
G01 X111.0003 Y23.3119
G01 X110.9119 Y23.3649
G01 X110.8188 Y23.4089
G01 X110.7218 Y23.4436
G01 X110.6219 Y23.4686
G01 X110.5201 Y23.4837
G01 X110.4172 Y23.4888
G01 X110.3143 Y23.4837
G01 X110.2124 Y23.4686
G01 X110.1125 Y23.4436
G01 X110.0156 Y23.4089
G01 X109.9225 Y23.3649
G01 X109.8341 Y23.3119
G01 X109.7514 Y23.2506
G01 X109.6751 Y23.1814
G01 X109.6059 Y23.1051
G01 X109.5446 Y23.0224
G01 X109.4916 Y22.9340
G01 X109.4476 Y22.8409
G01 X109.4129 Y22.7440
G01 X109.3879 Y22.6441
G01 X109.3728 Y22.5422
G01 X109.3678 Y22.4418
G00 Z2.0000
G00 X110.4511 Y21.3875
G01 F60.00
G01 Z-0.0500
G01 F120.00
G01 X110.5849 Y21.4006
G01 X110.7164 Y21.4307
G01 X110.8430 Y21.4773
G01 X110.9628 Y21.5393
G01 X111.0733 Y21.6164
G01 X111.1731 Y21.7071
G01 X111.2604 Y21.8099
G01 X111.3341 Y21.9228
G01 X111.3923 Y22.0446
G01 X111.4350 Y22.1727
G01 X111.4607 Y22.3045
G01 X111.4694 Y22.4393
G01 X111.4607 Y22.5741
G01 X111.4350 Y22.7060
G01 X111.3923 Y22.8341
G01 X111.3341 Y22.9558
G01 X111.2604 Y23.0687
G01 X111.1731 Y23.1716
G01 X111.0733 Y23.2622
G01 X110.9628 Y23.3393
G01 X110.8430 Y23.4013
G01 X110.7164 Y23.4479
G01 X110.5849 Y23.4780
G01 X110.4511 Y23.4911
G01 X110.3163 Y23.4867
G01 X110.1829 Y23.4654
G01 X110.0540 Y23.4271
G01 X109.9303 Y23.3723
G01 X109.8150 Y23.3025
G01 X109.7097 Y23.2181
G01 X109.6161 Y23.1215
G01 X109.5351 Y23.0134
G01 X109.4692 Y22.8961
G01 X109.4183 Y22.7710
G01 X109.3843 Y22.6406
G01 X109.3669 Y22.5067
G01 X109.3669 Y22.3719
G01 X109.3843 Y22.2381
G01 X109.4183 Y22.1076
G01 X109.4692 Y21.9825
G01 X109.5351 Y21.8652
G01 X109.6161 Y21.7571
G01 X109.7097 Y21.6605
G01 X109.8150 Y21.5761
G01 X109.9303 Y21.5063
G01 X110.0540 Y21.4515
G01 X110.1829 Y21.4132
G01 X110.3163 Y21.3919
G01 X110.4511 Y21.3875
G00 Z2.0000
G00 X111.9078 Y22.4418
G01 F60.00
G01 Z-0.0500
G01 F120.00
G01 X111.9128 Y22.3364
G01 X111.9279 Y22.2346
G01 X111.9529 Y22.1347
G01 X111.9876 Y22.0377
G01 X112.0316 Y21.9446
G01 X112.0846 Y21.8562
G01 X112.1459 Y21.7735
G01 X112.2151 Y21.6972
G01 X112.2914 Y21.6280
G01 X112.3741 Y21.5667
G01 X112.4625 Y21.5137
G01 X112.5556 Y21.4697
G01 X112.6525 Y21.4350
G01 X112.7524 Y21.4100
G01 X112.8543 Y21.3949
G01 X112.9572 Y21.3898
G01 X113.0601 Y21.3949
G01 X113.1619 Y21.4100
G01 X113.2618 Y21.4350
G01 X113.3588 Y21.4697
G01 X113.4519 Y21.5137
G01 X113.5403 Y21.5667
G01 X113.6230 Y21.6280
G01 X113.6993 Y21.6972
G01 X113.7685 Y21.7735
G01 X113.8298 Y21.8562
G01 X113.8828 Y21.9446
G01 X113.9268 Y22.0377
G01 X113.9615 Y22.1347
G01 X113.9865 Y22.2346
G01 X114.0016 Y22.3364
G01 X114.0067 Y22.4393
G01 X114.0016 Y22.5422
G01 X113.9865 Y22.6441
G01 X113.9615 Y22.7440
G01 X113.9268 Y22.8409
G01 X113.8828 Y22.9340
G01 X113.8298 Y23.0224
G01 X113.7685 Y23.1051
G01 X113.6993 Y23.1814
G01 X113.6230 Y23.2506
G01 X113.5403 Y23.3119
G01 X113.4519 Y23.3649
G01 X113.3588 Y23.4089
G01 X113.2618 Y23.4436
G01 X113.1619 Y23.4686
G01 X113.0601 Y23.4837
G01 X112.9572 Y23.4888
G01 X112.8543 Y23.4837
G01 X112.7524 Y23.4686
G01 X112.6525 Y23.4436
G01 X112.5556 Y23.4089
G01 X112.4625 Y23.3649
G01 X112.3741 Y23.3119
G01 X112.2914 Y23.2506
G01 X112.2151 Y23.1814
G01 X112.1459 Y23.1051
G01 X112.0846 Y23.0224
G01 X112.0316 Y22.9340
G01 X111.9876 Y22.8409
G01 X111.9529 Y22.7440
G01 X111.9279 Y22.6441
G01 X111.9128 Y22.5422
G01 X111.9078 Y22.4418
G00 Z2.0000
G00 X112.9911 Y21.3875
G01 F60.00
G01 Z-0.0500
G01 F120.00
G01 X113.1249 Y21.4006
G01 X113.2564 Y21.4307
G01 X113.3830 Y21.4773
G01 X113.5028 Y21.5393
G01 X113.6133 Y21.6164
G01 X113.7131 Y21.7071
G01 X113.8004 Y21.8099
G01 X113.8741 Y21.9228
G01 X113.9323 Y22.0446
G01 X113.9750 Y22.1727
G01 X114.0007 Y22.3045
G01 X114.0094 Y22.4393
G01 X114.0007 Y22.5741
G01 X113.9750 Y22.7060
G01 X113.9323 Y22.8341
G01 X113.8741 Y22.9558
G01 X113.8004 Y23.0687
G01 X113.7131 Y23.1716
G01 X113.6133 Y23.2622
G01 X113.5028 Y23.3393
G01 X113.3830 Y23.4013
G01 X113.2564 Y23.4479
G01 X113.1249 Y23.4780
G01 X112.9911 Y23.4911
G01 X112.8563 Y23.4867
G01 X112.7229 Y23.4654
G01 X112.5940 Y23.4271
G01 X112.4703 Y23.3723
G01 X112.3550 Y23.3025
G01 X112.2497 Y23.2181
G01 X112.1561 Y23.1215
G01 X112.0751 Y23.0134
G01 X112.0092 Y22.8961
G01 X111.9583 Y22.7710
G01 X111.9243 Y22.6406
G01 X111.9069 Y22.5067
G01 X111.9069 Y22.3719
G01 X111.9243 Y22.2381
G01 X111.9583 Y22.1076
G01 X112.0092 Y21.9825
G01 X112.0751 Y21.8652
G01 X112.1561 Y21.7571
G01 X112.2497 Y21.6605
G01 X112.3550 Y21.5761
G01 X112.4703 Y21.5063
G01 X112.5940 Y21.4515
G01 X112.7229 Y21.4132
G01 X112.8563 Y21.3919
G01 X112.9911 Y21.3875
G00 Z2.0000
G00 X114.4478 Y22.4418
G01 F60.00
G01 Z-0.0500
G01 F120.00
G01 X114.4528 Y22.3364
G01 X114.4679 Y22.2346
G01 X114.4929 Y22.1347
G01 X114.5276 Y22.0377
G01 X114.5716 Y21.9446
G01 X114.6246 Y21.8562
G01 X114.6859 Y21.7735
G01 X114.7551 Y21.6972
G01 X114.8314 Y21.6280
G01 X114.9141 Y21.5667
G01 X115.0025 Y21.5137
G01 X115.0956 Y21.4697
G01 X115.1925 Y21.4350
G01 X115.2924 Y21.4100
G01 X115.3943 Y21.3949
G01 X115.4972 Y21.3898
G01 X115.6001 Y21.3949
G01 X115.7019 Y21.4100
G01 X115.8018 Y21.4350
G01 X115.8988 Y21.4697
G01 X115.9919 Y21.5137
G01 X116.0803 Y21.5667
G01 X116.1630 Y21.6280
G01 X116.2393 Y21.6972
G01 X116.3085 Y21.7735
G01 X116.3698 Y21.8562
G01 X116.4228 Y21.9446
G01 X116.4668 Y22.0377
G01 X116.5015 Y22.1347
G01 X116.5265 Y22.2346
G01 X116.5416 Y22.3364
G01 X116.5467 Y22.4393
G01 X116.5416 Y22.5422
G01 X116.5265 Y22.6441
G01 X116.5015 Y22.7440
G01 X116.4668 Y22.8409
G01 X116.4228 Y22.9340
G01 X116.3698 Y23.0224
G01 X116.3085 Y23.1051
G01 X116.2393 Y23.1814
G01 X116.1630 Y23.2506
G01 X116.0803 Y23.3119
G01 X115.9919 Y23.3649
G01 X115.8988 Y23.4089
G01 X115.8018 Y23.4436
G01 X115.7019 Y23.4686
G01 X115.6001 Y23.4837
G01 X115.4972 Y23.4888
G01 X115.3943 Y23.4837
G01 X115.2924 Y23.4686
G01 X115.1925 Y23.4436
G01 X115.0956 Y23.4089
G01 X115.0025 Y23.3649
G01 X114.9141 Y23.3119
G01 X114.8314 Y23.2506
G01 X114.7551 Y23.1814
G01 X114.6859 Y23.1051
G01 X114.6246 Y23.0224
G01 X114.5716 Y22.9340
G01 X114.5276 Y22.8409
G01 X114.4929 Y22.7440
G01 X114.4679 Y22.6441
G01 X114.4528 Y22.5422
G01 X114.4478 Y22.4418
G00 Z2.0000
G00 X115.5311 Y21.3875
G01 F60.00
G01 Z-0.0500
G01 F120.00
G01 X115.6649 Y21.4006
G01 X115.7964 Y21.4307
G01 X115.9230 Y21.4773
G01 X116.0428 Y21.5393
G01 X116.1533 Y21.6164
G01 X116.2531 Y21.7071
G01 X116.3404 Y21.8099
G01 X116.4141 Y21.9228
G01 X116.4723 Y22.0446
G01 X116.5150 Y22.1727
G01 X116.5407 Y22.3045
G01 X116.5494 Y22.4393
G01 X116.5407 Y22.5741
G01 X116.5150 Y22.7060
G01 X116.4723 Y22.8341
G01 X116.4141 Y22.9558
G01 X116.3404 Y23.0687
G01 X116.2531 Y23.1716
G01 X116.1533 Y23.2622
G01 X116.0428 Y23.3393
G01 X115.9230 Y23.4013
G01 X115.7964 Y23.4479
G01 X115.6649 Y23.4780
G01 X115.5311 Y23.4911
G01 X115.3963 Y23.4867
G01 X115.2629 Y23.4654
G01 X115.1340 Y23.4271
G01 X115.0103 Y23.3723
G01 X114.8950 Y23.3025
G01 X114.7897 Y23.2181
G01 X114.6961 Y23.1215
G01 X114.6151 Y23.0134
G01 X114.5492 Y22.8961
G01 X114.4983 Y22.7710
G01 X114.4643 Y22.6406
G01 X114.4469 Y22.5067
G01 X114.4469 Y22.3719
G01 X114.4643 Y22.2381
G01 X114.4983 Y22.1076
G01 X114.5492 Y21.9825
G01 X114.6151 Y21.8652
G01 X114.6961 Y21.7571
G01 X114.7897 Y21.6605
G01 X114.8950 Y21.5761
